peachynonah/Fire_monitor_/csv_datas/trial9/cdsl_data_debug.csv
joint1_pos_desired, joint1_pos, joint2_pos_desired, joint2_pos, joint1_vel_desired, joint1_vel_filtered, joint2_vel_desired, joint2_vel_filtered, target_torque_joint1, target_torque_joint2, propo_term_torque_joint1, deriv_term_torque_joint1, propo_term_torque_joint2, deriv_term_torque_joint2, current_time
0,-0.000239425,0.3325,-0.000107102,0,0,-9.43808e-11,0,0,0,-0,-0,-1829.34,1.41571e-07,0.004
0,-0.000239425,0.3325,-0.000108139,0,0,-7.54789e-10,-8.63728e-05,0,0,-0,-0,-1829.34,-0.129558,0.008
0,-0.000239425,0.3325,-0.000108139,0,0,-2.54654e-09,-5.75818e-05,0,0,-0,-0,-1829.34,-0.086369,0.012
0,-0.000239425,0.3325,-0.000107793,0,0,-6.03419e-09,-9.59697e-06,0,0,-0,-0,-1829.34,-0.0143864,0.016
0,-0.000239425,0.3325,-0.000107793,0,0,-1.17815e-08,-6.39798e-06,0,0,-0,-0,-1829.34,-0.0095793,0.02
0,-0.000239425,0.3325,-0.000107793,0,0,-2.03515e-08,-4.26532e-06,0,0,-0,-0,-1829.34,-0.00636746,0.024
0,-0.000239425,0.3325,-0.000107793,0,0,-3.23064e-08,-2.84355e-06,0,0,-0,-0,-1829.34,-0.00421686,0.028
0,-0.000239425,0.3325,-0.000107793,0,0,-4.82076e-08,-1.8957e-06,0,0,-0,-0,-1829.34,-0.00277124,0.032
0,-0.000239425,0.3325,-0.000107448,0,0,-6.86159e-08,2.75271e-05,0,0,-0,-0,-1829.34,0.0413936,0.036
0,-0.000239425,0.3325,-0.000107793,0,0,-9.40911e-08,-1.04395e-05,0,0,-0,-0,-1829.34,-0.0155181,0.04
0,-0.000239425,0.3325,-0.000107448,0,0,-1.25192e-07,2.18313e-05,0,0,-0,-0,-1829.34,0.0329347,0.044
0,-0.000239425,0.3325,-0.000108139,0,0,-1.62478e-07,-4.30277e-05,0,0,-0,-0,-1829.34,-0.0642978,0.048
0,-0.000239425,0.3325,-0.000107102,0,0,-2.06506e-07,5.76877e-05,0,0,-0,-0,-1829.34,0.0868412,0.052
0,-0.000239771,0.3325,-0.000107793,0,-2.87909e-05,-2.57833e-07,-1.91234e-05,0,0,-0,-0,-1829.34,-0.0282984,0.056
0,-0.000239425,0.3325,-0.000108139,0,9.59697e-06,-3.17014e-07,-4.15399e-05,0,0,-0,0,-1829.34,-0.0618343,0.06
0,-0.000239425,0.3325,-0.000107448,0,6.39798e-06,-3.84606e-07,2.98886e-05,0,0,-0,0,-1829.34,0.0454098,0.064
0,-0.000239425,0.3325,-0.000107102,0,4.26532e-06,-4.61163e-07,4.87167e-05,0,0,-0,0,-1829.34,0.0737667,0.068
0,-0.000239771,0.3325,-0.000108139,0,-2.59474e-05,-5.47238e-07,-5.3895e-05,0,0,-0,-0,-1829.34,-0.0800216,0.072
0,-0.000239425,0.3325,-0.000108139,0,1.14927e-05,-6.43384e-07,-3.593e-05,0,0,-0,0,-1829.34,-0.0529299,0.076
0,-0.000239425,0.3325,-0.000107102,0,7.66178e-06,-7.50154e-07,6.24194e-05,0,0,-0,0,-1829.34,0.0947544,0.08
0,-0.000239771,0.3325,-0.000107793,0,-2.36831e-05,-8.68099e-07,-1.59689e-05,0,0,-0,-0,-1829.34,-0.0226512,0.084
0,-0.000239425,0.3325,-0.000107448,0,1.30022e-05,-9.9777e-07,1.8145e-05,0,0,-0,0,-1829.34,0.0287142,0.088
0,-0.000239425,0.3325,-0.000108139,0,8.66814e-06,-1.13972e-06,-4.54852e-05,0,0,-0,0,-1829.34,-0.0665182,0.092
0,-0.000239425,0.3325,-0.000107102,0,5.77876e-06,-1.29449e-06,5.60493e-05,0,0,-0,0,-1829.34,0.0860157,0.096
0,-0.000239425,0.3325,-0.000107102,0,3.85251e-06,-1.46263e-06,3.73662e-05,0,0,-0,0,-1829.34,0.0582433,0.1
0,-0.000239425,0.3325,-0.000107448,0,2.56834e-06,-1.64469e-06,-3.88012e-06,0,0,-0,0,-1829.34,-0.00335313,0.104
0,-0.000239771,0.3325,-0.000107102,0,-2.70787e-05,-1.84123e-06,2.62042e-05,0,0,-0,-0,-1829.34,0.0420681,0.108
0,-0.000239425,0.3325,-0.000107793,0,1.07385e-05,-2.05277e-06,-4.01124e-05,0,0,-0,0,-1829.34,-0.0570894,0.112
0,-0.000239425,0.3325,-0.000107448,0,7.15897e-06,-2.27987e-06,2.04933e-06,0,0,-0,0,-1829.34,0.0064938,0.116
0,-0.000239425,0.3325,-0.000107448,0,4.77265e-06,-2.52308e-06,1.36622e-06,0,0,-0,0,-1829.34,0.00583395,0.12
0,-0.000239425,0.3325,-0.000107793,0,3.18177e-06,-2.78293e-06,-2.78801e-05,0,0,-0,0,-1829.34,-0.0376458,0.124
0,-0.000239425,0.3325,-0.000107102,0,2.12118e-06,-3.05998e-06,3.89951e-05,0,0,-0,0,-1829.34,0.0630826,0.128
0,-0.000239425,0.3325,-0.000107448,0,1.41412e-06,-3.35475e-06,-2.79419e-06,0,0,-0,0,-1829.34,0.000840845,0.132
0,-0.000239425,0.3325,-0.000107793,0,9.42745e-07,-3.6678e-06,-3.06537e-05,0,0,-0,0,-1829.34,-0.0404789,0.136
0,-0.000239771,0.3325,-0.000108139,0,-2.81624e-05,-3.99966e-06,-4.92267e-05,0,0,-0,-0,-1829.34,-0.0678406,0.14
0,-0.000239425,0.3325,-0.000108139,0,1.0016e-05,-4.35087e-06,-3.28178e-05,0,0,-0,0,-1829.34,-0.0427004,0.144
0,-0.000239425,0.3325,-0.000107793,0,6.67732e-06,-4.72198e-06,6.91238e-06,0,0,-0,0,-1829.34,0.0174515,0.148
0,-0.000239771,0.3325,-0.000108139,0,-2.43394e-05,-5.11352e-06,-2.41827e-05,0,0,-0,-0,-1829.34,-0.0286037,0.152
0,-0.000239771,0.3325,-0.000107793,0,-1.62263e-05,-5.52602e-06,1.26691e-05,0,0,-0,-0,-1829.34,0.0272927,0.156
0,-0.000239425,0.3325,-0.000108139,0,1.79734e-05,-5.96004e-06,-2.03448e-05,0,0,-0,0,-1829.34,-0.0215772,0.16
0,-0.000239425,0.3325,-0.000107793,0,1.19823e-05,-6.41609e-06,1.52277e-05,0,0,-0,0,-1829.34,0.0324657,0.164
0,-0.000239425,0.3325,-0.000107793,0,7.98819e-06,-6.89472e-06,1.01518e-05,0,0,-0,0,-1829.34,0.0255698,0.168
0,-0.000239425,0.3325,-0.000108139,0,5.32546e-06,-7.39646e-06,-2.20231e-05,0,0,-0,0,-1829.34,-0.0219399,0.172
0,-0.000239771,0.3325,-0.000107102,0,-2.52406e-05,-7.92184e-06,7.16907e-05,0,0,-0,-0,-1829.34,0.119419,0.176
0,-0.000239425,0.3325,-0.000107448,0,1.19638e-05,-8.4714e-06,1.90029e-05,0,0,-0,0,-1829.34,0.0412115,0.18
0,-0.000239425,0.3325,-0.000107793,0,7.9759e-06,-9.04567e-06,-1.61223e-05,0,0,-0,0,-1829.34,-0.010615,0.184
0,-0.000239425,0.3325,-0.000108139,0,5.31726e-06,-9.64518e-06,-3.95391e-05,0,0,-0,0,-1829.34,-0.0448409,0.188
0,-0.000239425,0.3325,-0.000107793,0,3.54484e-06,-1.02705e-05,2.4315e-06,0,0,-0,0,-1829.34,0.0190529,0.192
0,-0.000239425,0.332499,-0.000107793,0,2.36323e-06,-1.0922e-05,1.621e-06,0,0,-0,0,-1829.34,0.0188146,0.196
0,-0.000239425,0.332499,-0.000107793,0,1.57549e-06,-1.16005e-05,1.08067e-06,0,0,-0,0,-1829.34,0.0190217,0.2
0,-0.000239425,0.332499,-0.000107102,0,1.05032e-06,-1.23062e-05,5.83023e-05,0,0,-0,0,-1829.34,0.105913,0.204
0,-0.000239425,0.332499,-0.000107793,0,7.00216e-07,-1.30399e-05,-1.87137e-05,0,0,-0,0,-1829.34,-0.00851065,0.208
0,-0.000239425,0.332499,-0.000108139,0,4.66811e-07,-1.3802e-05,-4.12667e-05,0,0,-0,0,-1829.34,-0.0411971,0.212
0,-0.000239425,0.332499,-0.000107448,0,3.11207e-07,-1.4593e-05,3.00707e-05,0,0,-0,0,-1829.34,0.0669955,0.216
0,-0.000239425,0.332499,-0.000107102,0,2.07471e-07,-1.54134e-05,4.88381e-05,0,0,-0,0,-1829.33,0.0963773,0.22
0,-0.000239425,0.332499,-0.000107102,0,1.38314e-07,-1.62639e-05,3.25587e-05,0,0,-0,0,-1829.33,0.0732339,0.224
0,-0.000239425,0.332499,-0.000108139,0,9.22095e-08,-1.71449e-05,-6.4667e-05,0,0,-0,0,-1829.34,-0.0712831,0.228
0,-0.000239425,0.332499,-0.000107448,0,6.1473e-08,-1.80569e-05,1.44705e-05,0,0,-0,0,-1829.34,0.0487911,0.232
0,-0.000239425,0.332499,-0.000107793,0,4.0982e-08,-1.90004e-05,-1.91439e-05,0,0,-0,0,-1829.34,-0.000215194,0.236
0,-0.000239425,0.332499,-0.000108139,0,2.73213e-08,-1.99761e-05,-4.15535e-05,0,0,-0,0,-1829.34,-0.0323662,0.24
0,-0.000239771,0.332499,-0.000108139,0,-2.87727e-05,-2.09843e-05,-2.77023e-05,0,0,-0,-0,-1829.34,-0.0100771,0.244
0,-0.000239771,0.332499,-0.000107793,0,-1.91818e-05,-2.20257e-05,1.03227e-05,0,0,-0,-0,-1829.34,0.0485225,0.248
0,-0.000239425,0.332499,-0.000107448,0,1.60031e-05,-2.31007e-05,3.56727e-05,0,0,-0,0,-1829.33,0.0881601,0.252
0,-0.000239425,0.332498,-0.000108139,0,1.06687e-05,-2.42098e-05,-3.38e-05,0,0,-0,0,-1829.34,-0.0143853,0.256
0,-0.000239425,0.332498,-0.000107448,0,7.11247e-06,-2.53536e-05,3.50485e-05,0,0,-0,0,-1829.33,0.0906032,0.26
0,-0.000239425,0.332498,-0.000107448,0,4.74165e-06,-2.65326e-05,2.33657e-05,0,0,-0,0,-1829.33,0.0748474,0.264
0,-0.000239771,0.332498,-0.000107793,0,-2.56298e-05,-2.77473e-05,-1.32138e-05,0,0,-0,-0,-1829.33,0.0218003,0.268
0,-0.000239425,0.332498,-0.000107793,0,1.17044e-05,-2.89983e-05,-8.80921e-06,0,0,-0,0,-1829.33,0.0302836,0.272
0,-0.000239425,0.332498,-0.000108139,0,7.80292e-06,-3.0286e-05,-3.46637e-05,0,0,-0,0,-1829.33,-0.00656667,0.276
0,-0.000239425,0.332498,-0.000107793,0,5.20194e-06,-3.16109e-05,5.68177e-06,0,0,-0,0,-1829.33,0.055939,0.28
0,-0.000239425,0.332498,-0.000107793,0,3.46796e-06,-3.29735e-05,3.78785e-06,0,0,-0,0,-1829.33,0.0551421,0.284
0,-0.000239425,0.332498,-0.000107793,0,2.31197e-06,-3.43745e-05,2.52523e-06,0,0,-0,0,-1829.33,0.0553496,0.288
0,-0.000239425,0.332497,-0.000108139,0,1.54132e-06,-3.58142e-05,-2.71074e-05,0,0,-0,0,-1829.33,0.0130602,0.292
0,-0.000239425,0.332497,-0.000107102,0,1.02754e-06,-3.72933e-05,6.83011e-05,0,0,-0,0,-1829.32,0.158392,0.296
0,-0.000239425,0.332497,-0.000107793,0,6.8503e-07,-3.88121e-05,-1.20477e-05,0,0,-0,0,-1829.33,0.0401465,0.3
0,-0.000239425,0.332497,-0.000107793,0,4.56686e-07,-4.03712e-05,-8.03183e-06,0,0,-0,0,-1829.33,0.0485091,0.304
0,-0.000239425,0.332497,-0.000107102,0,3.04458e-07,-4.19712e-05,5.22273e-05,0,0,-0,0,-1829.32,0.141298,0.308
0,-0.000239425,0.332497,-0.000107448,0,2.02972e-07,-4.36125e-05,6.02727e-06,0,0,-0,0,-1829.32,0.0744597,0.312
0,-0.000239425,0.332496,-0.000108139,0,1.35314e-07,-4.52956e-05,-5.35637e-05,0,0,-0,0,-1829.32,-0.0124021,0.316
0,-0.000239425,0.332496,-0.000108139,0,9.02097e-08,-4.70211e-05,-3.57091e-05,0,0,-0,0,-1829.32,0.016968,0.32
0,-0.000239425,0.332496,-0.000107793,0,6.01398e-08,-4.87894e-05,4.98485e-06,0,0,-0,0,-1829.32,0.0806614,0.324
0,-0.000239425,0.332496,-0.000107793,0,4.00932e-08,-5.06011e-05,3.32323e-06,0,0,-0,0,-1829.32,0.0808865,0.328
0,-0.000239425,0.332496,-0.000108139,0,2.67288e-08,-5.24566e-05,-2.65754e-05,0,0,-0,0,-1829.32,0.0388218,0.332
0,-0.000239425,0.332495,-0.000107793,0,1.78192e-08,-5.43565e-05,1.1074e-05,0,0,-0,0,-1829.32,0.0981457,0.336
0,-0.000239425,0.332495,-0.000107793,0,1.18795e-08,-5.63012e-05,7.38264e-06,0,0,-0,0,-1829.32,0.0955258,0.34
0,-0.000239425,0.332495,-0.000107102,0,7.91964e-09,-5.82913e-05,6.25036e-05,0,0,-0,0,-1829.31,0.181192,0.344
0,-0.000239425,0.332495,-0.000107793,0,5.27976e-09,-6.03273e-05,-1.59128e-05,0,0,-0,0,-1829.31,0.0666218,0.348
0,-0.000239425,0.332494,-0.000107793,0,3.51984e-09,-6.24096e-05,-1.06085e-05,0,0,-0,0,-1829.31,0.0777017,0.352
0,-0.000239425,0.332494,-0.000108139,0,2.34656e-09,-6.45388e-05,-3.58633e-05,0,0,-0,0,-1829.31,0.0430133,0.356
0,-0.000239425,0.332494,-0.000107793,0,1.56437e-09,-6.67153e-05,4.88208e-06,0,0,-0,0,-1829.31,0.107396,0.36
0,-0.000239425,0.332494,-0.000107102,0,1.04292e-09,-6.89397e-05,6.08366e-05,0,0,-0,0,-1829.3,0.194664,0.364
0,-0.000239425,0.332493,-0.000107793,0,6.95277e-10,-7.12125e-05,-1.70241e-05,0,0,-0,0,-1829.31,0.0812825,0.368
0,-0.000239425,0.332493,-0.000107793,0,4.63518e-10,-7.35341e-05,-1.13494e-05,0,0,-0,0,-1829.31,0.093277,0.372
0,-0.000239425,0.332493,-0.000108139,0,3.09012e-10,-7.5905e-05,-3.63572e-05,0,0,-0,0,-1829.31,0.0593217,0.376
0,-0.00023908,0.332493,-0.000107102,0,2.87911e-05,-7.83258e-05,6.21346e-05,0,0,-0,0,-1829.3,0.210691,0.38
0,-0.000239425,0.332492,-0.000107793,0,-9.59684e-06,-8.07969e-05,-1.61588e-05,0,0,-0,-0,-1829.3,0.0969571,0.384
0,-0.000239425,0.332492,-0.000107793,0,-6.39789e-06,-8.33188e-05,-1.07725e-05,0,0,-0,-0,-1829.3,0.108819,0.388
0,-0.000239425,0.332492,-0.000107793,0,-4.26526e-06,-8.5892e-05,-7.18167e-06,0,0,-0,-0,-1829.3,0.118066,0.392
0,-0.000239425,0.332491,-0.000107448,0,-2.84351e-06,-8.8517e-05,2.40031e-05,0,0,-0,-0,-1829.29,0.16878,0.396
0,-0.000239425,0.332491,-0.000107793,0,-1.89567e-06,-9.11944e-05,-1.27888e-05,0,0,-0,-0,-1829.29,0.117608,0.4
0,-0.000239425,0.33249,-0.000108139,0,-1.26378e-06,-9.39245e-05,-3.73168e-05,0,0,-0,-0,-1829.29,0.0849115,0.404
0,-0.00023908,0.33249,-0.000107448,0,2.79484e-05,-9.67079e-05,3.2704e-05,0,0,-0,0,-1829.29,0.194118,0.408
0,-0.00023908,0.33249,-0.000107448,0,1.86323e-05,-9.9545e-05,2.18027e-05,0,0,-0,0,-1829.28,0.182022,0.412
0,-0.000240116,0.332489,-0.000107448,0,-7.39513e-05,-0.000102436,1.45351e-05,0,0,-0,-0,-1829.28,0.175457,0.416
0,-0.00023908,0.332489,-0.000107448,0,3.70719e-05,-0.000105383,9.69007e-06,0,0,-0,0,-1829.28,0.172609,0.42
0,-0.000239425,0.332488,-0.000107102,0,-4.0763e-06,-0.000108384,3.5251e-05,0,0,-0,-0,-1829.28,0.215452,0.424
0,-0.000239425,0.332488,-0.000107793,0,-2.71754e-06,-0.000111441,-3.40812e-05,0,0,-0,-0,-1829.28,0.11604,0.428
0,-0.000239425,0.332488,-0.000107102,0,-1.81169e-06,-0.000114554,3.4861e-05,0,0,-0,-0,-1829.27,0.224123,0.432
0,-0.000239425,0.332487,-0.000107793,0,-1.20779e-06,-0.000117724,-3.43412e-05,0,0,-0,-0,-1829.27,0.125075,0.436
0,-0.000239425,0.332487,-0.000108139,0,-8.05196e-07,-0.000120951,-5.1685e-05,0,0,-0,-0,-1829.27,0.103899,0.44
0,-0.000239425,0.332486,-0.000108139,0,-5.36797e-07,-0.000124236,-3.44567e-05,0,0,-0,-0,-1829.27,0.134669,0.444
0,-0.000239425,0.332486,-0.000107102,0,-3.57865e-07,-0.000127579,6.34017e-05,0,0,-0,-0,-1829.26,0.286471,0.448
0,-0.00023908,0.332485,-0.000107102,0,2.85523e-05,-0.00013098,4.22678e-05,0,0,-0,0,-1829.26,0.259872,0.452
0,-0.000239425,0.332485,-0.000107102,0,-9.75603e-06,-0.000134441,2.81785e-05,0,0,-0,-0,-1829.25,0.243929,0.456
0,-0.000239425,0.332484,-0.000107793,0,-6.50402e-06,-0.000137961,-3.87962e-05,0,0,-0,-0,-1829.25,0.148747,0.46
0,-0.000239425,0.332483,-0.000107793,0,-4.33601e-06,-0.000141541,-2.58641e-05,0,0,-0,-0,-1829.25,0.173515,0.464
0,-0.000239425,0.332483,-0.000107102,0,-2.89067e-06,-0.000145182,4.03391e-05,0,0,-0,-0,-1829.24,0.278281,0.468
0,-0.000239425,0.332482,-0.000107793,0,-1.92712e-06,-0.000148883,-3.06891e-05,0,0,-0,-0,-1829.25,0.177291,0.472
0,-0.000239425,0.332482,-0.000108139,0,-1.28474e-06,-0.000152646,-4.92503e-05,0,0,-0,-0,-1829.24,0.155094,0.476
0,-0.00023908,0.332481,-0.000107102,0,2.79344e-05,-0.000156472,5.35392e-05,0,0,-0,0,-1829.23,0.315016,0.48
0,-0.000239425,0.33248,-0.000107793,0,-1.0168e-05,-0.000160359,-2.1889e-05,0,0,-0,-0,-1829.24,0.207705,0.484
0,-0.00023908,0.33248,-0.000108139,0,2.20123e-05,-0.000164309,-4.33836e-05,0,0,-0,0,-1829.23,0.181389,0.488
0,-0.000240116,0.332479,-0.000107448,0,-7.16979e-05,-0.000168323,2.86594e-05,0,0,-0,-0,-1829.23,0.295474,0.492
0,-0.000239425,0.332478,-0.000108139,0,9.78323e-06,-0.000172401,-3.84756e-05,0,0,-0,0,-1829.23,0.200888,0.496
0,-0.000239425,0.332478,-0.000107448,0,6.52216e-06,-0.000176542,3.19315e-05,0,0,-0,0,-1829.22,0.312711,0.5
0,-0.000239425,0.332477,-0.000107793,0,4.3481e-06,-0.000180749,-7.50327e-06,0,0,-0,0,-1829.22,0.259869,0.504
0,-0.00023908,0.332476,-0.000107102,0,3.16897e-05,-0.000185021,5.25797e-05,0,0,-0,0,-1829.21,0.356401,0.508
0,-0.000239425,0.332476,-0.000107793,0,-7.66448e-06,-0.000189358,-2.25287e-05,0,0,-0,-0,-1829.21,0.250245,0.512
0,-0.000239425,0.332475,-0.000107448,0,-5.10966e-06,-0.000193762,1.37718e-05,0,0,-0,-0,-1829.2,0.311301,0.516
0,-0.000239425,0.332474,-0.000107793,0,-3.40644e-06,-0.000198233,-1.96097e-05,0,0,-0,-0,-1829.2,0.267934,0.52
0,-0.000239425,0.332473,-0.000107793,0,-2.27096e-06,-0.00020277,-1.30732e-05,0,0,-0,-0,-1829.2,0.284546,0.524
0,-0.000239425,0.332472,-0.000107793,0,-1.51397e-06,-0.000207375,-8.71544e-06,0,0,-0,-0,-1829.19,0.29799,0.528
0,-0.000239425,0.332472,-0.000107448,0,-1.00931e-06,-0.000212048,2.29806e-05,0,0,-0,-0,-1829.18,0.352544,0.532
0,-0.000239425,0.332471,-0.000107102,0,-6.72877e-07,-0.00021679,4.41113e-05,0,0,-0,-0,-1829.18,0.391352,0.536
0,-0.000239425,0.33247,-0.000108139,0,-4.48584e-07,-0.000221601,-5.69652e-05,0,0,-0,-0,-1829.18,0.246953,0.54
0,-0.000239425,0.332469,-0.000107448,0,-2.99056e-07,-0.000226481,1.9605e-05,0,0,-0,-0,-1829.17,0.369129,0.544
0,-0.000239425,0.332468,-0.000108139,0,-1.99371e-07,-0.000231431,-4.45118e-05,0,0,-0,-0,-1829.17,0.280378,0.548
0,-0.000239425,0.332467,-0.000108139,0,-1.32914e-07,-0.000236451,-2.96745e-05,0,0,-0,-0,-1829.16,0.310165,0.552
0,-0.000239425,0.332466,-0.000107102,0,-8.86093e-08,-0.000241542,6.65897e-05,0,0,-0,-0,-1829.15,0.462198,0.556
0,-0.000239425,0.332465,-0.000108139,0,-5.90728e-08,-0.000246705,-4.19796e-05,0,0,-0,-0,-1829.15,0.307087,0.56
0,-0.000239425,0.332464,-0.000107793,0,-3.93819e-08,-0.000251939,8.04516e-07,0,0,-0,-0,-1829.15,0.379115,0.564
0,-0.000239425,0.332463,-0.000107102,0,-2.62546e-08,-0.000257245,5.81182e-05,0,0,-0,-0,-1829.14,0.473045,0.568
0,-0.000239425,0.332462,-0.000108139,0,-1.75031e-08,-0.000262624,-4.76273e-05,0,0,-0,-0,-1829.14,0.322495,0.572
0,-0.000239425,0.332461,-0.000108139,0,-1.16687e-08,-0.000268076,-3.17515e-05,0,0,-0,-0,-1829.13,0.354487,0.576
0,-0.000239425,0.33246,-0.000107102,0,-7.77914e-09,-0.000273602,6.52051e-05,0,0,-0,-0,-1829.12,0.50821,0.58
0,-0.000239425,0.332459,-0.000107448,0,-5.18609e-09,-0.000279202,1.46791e-05,0,0,-0,-0,-1829.11,0.440821,0.584
0,-0.000239425,0.332458,-0.000107793,0,-3.4574e-09,-0.000284876,-1.90048e-05,0,0,-0,-0,-1829.11,0.398806,0.588
0,-0.00023908,0.332457,-0.000107102,0,2.87886e-05,-0.000290625,4.4912e-05,0,0,-0,0,-1829.1,0.503305,0.592
0,-0.000239425,0.332455,-0.000107448,0,-9.59851e-06,-0.000296449,1.15038e-06,0,0,-0,-0,-1829.1,0.4464,0.596
0,-0.000239425,0.332454,-0.000107448,0,-6.39901e-06,-0.00030235,7.6692e-07,0,0,-0,-0,-1829.09,0.454675,0.6
0,-0.000239425,0.332453,-0.000107448,0,-4.26601e-06,-0.000308326,5.1128e-07,0,0,-0,-0,-1829.08,0.463256,0.604
0,-0.000239425,0.332452,-0.000107448,0,-2.844e-06,-0.000314379,3.40853e-07,0,0,-0,-0,-1829.08,0.472081,0.608
0,-0.000239425,0.33245,-0.000107793,0,-1.896e-06,-0.00032051,-2.85637e-05,0,0,-0,-0,-1829.07,0.437919,0.612
0,-0.000239425,0.332449,-0.000108139,0,-1.264e-06,-0.000326718,-4.78334e-05,0,0,-0,-0,-1829.06,0.418327,0.616
0,-0.000239425,0.332448,-0.000107793,0,-8.42668e-07,-0.000333004,-3.098e-06,0,0,-0,-0,-1829.06,0.494859,0.62
0,-0.000239425,0.332446,-0.000107448,0,-5.61778e-07,-0.000339369,2.67256e-05,0,0,-0,-0,-1829.05,0.549142,0.624
0,-0.000239425,0.332445,-0.000107793,0,-3.74519e-07,-0.000345813,-1.09739e-05,0,0,-0,-0,-1829.04,0.502258,0.628
0,-0.000239425,0.332444,-0.000107448,0,-2.49679e-07,-0.000352336,2.1475e-05,0,0,-0,-0,-1829.03,0.560716,0.632
0,-0.000239425,0.332442,-0.000107102,0,-1.66453e-07,-0.000358939,4.31076e-05,0,0,-0,-0,-1829.02,0.60307,0.636
0,-0.000239425,0.332441,-0.000107448,0,-1.10969e-07,-0.000365622,-5.25233e-08,0,0,-0,-0,-1829.02,0.548354,0.64
0,-0.000239425,0.332439,-0.000107793,0,-7.39791e-08,-0.000372386,-2.88259e-05,0,0,-0,-0,-1829.01,0.51534,0.644
0,-0.000239425,0.332438,-0.000107448,0,-4.93194e-08,-0.000379231,9.57363e-06,0,0,-0,-0,-1829,0.583207,0.648
0,-0.000239425,0.332436,-0.000107102,0,-3.28796e-08,-0.000386158,3.51733e-05,0,0,-0,-0,-1828.99,0.631997,0.652
0,-0.000239425,0.332435,-0.000108139,0,-2.19197e-08,-0.000393167,-6.29239e-05,0,0,-0,-0,-1828.99,0.495365,0.656
0,-0.000239425,0.332433,-0.000107448,0,-1.46131e-08,-0.000400259,1.56326e-05,0,0,-0,-0,-1828.97,0.623837,0.66
0,-0.000239425,0.332432,-0.000107448,0,-9.7421e-09,-0.000407433,1.04217e-05,0,0,-0,-0,-1828.96,0.626782,0.664
0,-0.000239425,0.33243,-0.000107448,0,-6.49473e-09,-0.000414691,6.94782e-06,0,0,-0,-0,-1828.96,0.632458,0.668
0,-0.000239425,0.332428,-0.000107102,0,-4.32982e-09,-0.000422032,3.34228e-05,0,0,-0,-0,-1828.94,0.683183,0.672
0,-0.000239425,0.332427,-0.000107448,0,-2.88655e-09,-0.000429458,-6.50905e-06,0,0,-0,-0,-1828.94,0.634424,0.676
0,-0.000239425,0.332425,-0.000107448,0,-1.92437e-09,-0.000436969,-4.33937e-06,0,0,-0,-0,-1828.93,0.648944,0.68
0,-0.000239425,0.332423,-0.000107448,0,-1.28291e-09,-0.000444565,-2.89291e-06,0,0,-0,-0,-1828.92,0.662507,0.684
0,-0.000239425,0.332421,-0.000107102,0,-8.55273e-10,-0.000452246,2.68623e-05,0,0,-0,-0,-1828.91,0.718662,0.688
0,-0.000239425,0.332419,-0.000107448,0,-5.70182e-10,-0.000460013,-1.08827e-05,0,0,-0,-0,-1828.9,0.673696,0.692
0,-0.000239425,0.332418,-0.000107793,0,-3.80121e-10,-0.000467867,-3.60461e-05,0,0,-0,-0,-1828.89,0.647731,0.696
0,-0.000239425,0.332416,-0.000107793,0,-2.53414e-10,-0.000475808,-2.40307e-05,0,0,-0,-0,-1828.88,0.677665,0.7
0,-0.000239425,0.332414,-0.000107448,0,-1.68943e-10,-0.000483835,1.27705e-05,0,0,-0,-0,-1828.87,0.744909,0.704
0,-0.000240116,0.332412,-0.000107448,0,-5.7582e-05,-0.000491951,8.51363e-06,0,0,-0,-0,-1828.86,0.750697,0.708
0,-0.000239425,0.33241,-0.000107793,0,1.91939e-05,-0.000500155,-2.31152e-05,0,0,-0,0,-1828.85,0.71556,0.712
0,-0.000239425,0.332408,-0.000107793,0,1.27959e-05,-0.000508447,-1.54101e-05,0,0,-0,0,-1828.84,0.739556,0.716
0,-0.000239425,0.332406,-0.000107793,0,8.53061e-06,-0.000516829,-1.02734e-05,0,0,-0,0,-1828.82,0.759833,0.72
0,-0.00023908,0.332404,-0.000107448,0,3.4478e-05,-0.0005253,2.1942e-05,0,0,-0,0,-1828.81,0.820863,0.724
0,-0.000239425,0.332402,-0.000107793,0,-5.80559e-06,-0.00053386,-1.41629e-05,0,0,-0,-0,-1828.8,0.779546,0.728
0,-0.00023908,0.332399,-0.000107793,0,2.49205e-05,-0.000542512,-9.44196e-06,0,0,-0,0,-1828.79,0.799604,0.732
0,-0.000239425,0.332397,-0.000107793,0,-1.21772e-05,-0.000551253,-6.29464e-06,0,0,-0,-0,-1828.78,0.817438,0.736
0,-0.000239425,0.332395,-0.000107448,0,-8.11816e-06,-0.000560086,2.45945e-05,0,0,-0,-0,-1828.76,0.877021,0.74
0,-0.000239425,0.332393,-0.000107793,0,-5.41211e-06,-0.000569011,-1.23946e-05,0,0,-0,-0,-1828.75,0.834924,0.744
0,-0.000239425,0.33239,-0.000107448,0,-3.60807e-06,-0.000578027,2.05279e-05,0,0,-0,-0,-1828.74,0.897833,0.748
0,-0.000239425,0.332388,-0.000107448,0,-2.40538e-06,-0.000587136,1.36852e-05,0,0,-0,-0,-1828.73,0.901232,0.752
0,-0.000239771,0.332386,-0.000107793,0,-3.03945e-05,-0.000596338,-1.96674e-05,0,0,-0,-0,-1828.71,0.865006,0.756
0,-0.000239425,0.332383,-0.000107448,0,8.52792e-06,-0.000605633,1.56793e-05,0,0,-0,0,-1828.7,0.931969,0.76
0,-0.000239425,0.332381,-0.000107448,0,5.68528e-06,-0.000615022,1.04529e-05,0,0,-0,0,-1828.69,0.938212,0.764
0,-0.000239425,0.332378,-0.000107793,0,3.79019e-06,-0.000624505,-2.18223e-05,0,0,-0,0,-1828.67,0.904024,0.768
0,-0.000239425,0.332376,-0.000107793,0,2.52679e-06,-0.000634082,-1.45482e-05,0,0,-0,0,-1828.66,0.929301,0.772
0,-0.000239425,0.332373,-0.000107448,0,1.68453e-06,-0.000643755,1.90921e-05,0,0,-0,0,-1828.64,0.99427,0.776
0,-0.000239425,0.332371,-0.000107448,0,1.12302e-06,-0.000653522,1.27281e-05,0,0,-0,0,-1828.63,0.999376,0.78
0,-0.000239425,0.332368,-0.000107793,0,7.48679e-07,-0.000663386,-2.03055e-05,0,0,-0,0,-1828.62,0.964621,0.784
0,-0.000239425,0.332365,-0.000107793,0,4.99119e-07,-0.000673346,-1.3537e-05,0,0,-0,0,-1828.6,0.989713,0.788
0,-0.000239425,0.332363,-0.000107448,0,3.32746e-07,-0.000683402,1.97662e-05,0,0,-0,0,-1828.59,1.05475,0.792
0,-0.000239425,0.33236,-0.000107448,0,2.21831e-07,-0.000693555,1.31775e-05,0,0,-0,0,-1828.57,1.0601,0.796
0,-0.000240116,0.332357,-0.000107793,0,-5.7434e-05,-0.000703806,-2.00059e-05,0,0,-0,-0,-1828.56,1.0257,0.8
0,-0.000239425,0.332354,-0.000107793,0,1.92925e-05,-0.000714155,-1.33373e-05,0,0,-0,0,-1828.54,1.05123,0.804
0,-0.000240116,0.332351,-0.000107793,0,-4.47202e-05,-0.000724601,-8.89152e-06,0,0,-0,-0,-1828.53,1.07356,0.808
0,-0.000240116,0.332349,-0.000107448,0,-2.98134e-05,-0.000735147,2.28632e-05,0,0,-0,-0,-1828.51,1.13702,0.812
0,-0.000239425,0.332346,-0.000107793,0,3.77062e-05,-0.000745792,-1.35488e-05,0,0,-0,0,-1828.49,1.09836,0.816
0,-0.00023908,0.332343,-0.000107793,0,5.39284e-05,-0.000756536,-9.03251e-06,0,0,-0,0,-1828.48,1.12125,0.82
0,-0.000239425,0.33234,-0.000107448,0,7.16135e-06,-0.00076738,2.27693e-05,0,0,-0,0,-1828.46,1.18522,0.824
0,-0.000239425,0.332336,-0.000107448,0,4.77423e-06,-0.000778324,1.51795e-05,0,0,-0,0,-1828.44,1.19026,0.828
0,-0.000239425,0.332333,-0.000107793,0,3.18282e-06,-0.000789369,-1.86713e-05,0,0,-0,0,-1828.43,1.15605,0.832
0,-0.000240116,0.33233,-0.000107448,0,-5.546e-05,-0.000800515,1.63434e-05,0,0,-0,-0,-1828.41,1.22529,0.836
0,-0.000240116,0.332327,-0.000107793,0,-3.69733e-05,-0.000811763,-1.78953e-05,0,0,-0,-0,-1828.39,1.1908,0.84
0,-0.000239425,0.332324,-0.000107793,0,3.2933e-05,-0.000823112,-1.19302e-05,0,0,-0,0,-1828.37,1.21677,0.844
0,-0.000239425,0.33232,-0.000107793,0,2.19553e-05,-0.000834564,-7.95347e-06,0,0,-0,0,-1828.35,1.23992,0.848
0,-0.000240116,0.332317,-0.000107793,0,-4.2945e-05,-0.000846119,-5.30231e-06,0,0,-0,-0,-1828.34,1.26122,0.852
0,-0.000239425,0.332314,-0.000107448,0,2.89519e-05,-0.000857777,2.5256e-05,0,0,-0,0,-1828.32,1.32455,0.856
0,-0.000239425,0.33231,-0.000107793,0,1.93012e-05,-0.000869538,-1.19536e-05,0,0,-0,0,-1828.3,1.28638,0.86
0,-0.000239425,0.332307,-0.000107448,0,1.28675e-05,-0.000881403,2.08219e-05,0,0,-0,0,-1828.28,1.35334,0.864
0,-0.000239425,0.332303,-0.000107448,0,8.57833e-06,-0.000893373,1.38813e-05,0,0,-0,0,-1828.26,1.36088,0.868
0,-0.000239425,0.332299,-0.000107448,0,5.71889e-06,-0.000905447,9.25417e-06,0,0,-0,0,-1828.24,1.37205,0.872
0,-0.000239425,0.332296,-0.000107793,0,3.81259e-06,-0.000917626,-2.26215e-05,0,0,-0,0,-1828.22,1.34251,0.876
0,-0.000239425,0.332292,-0.000107448,0,2.54173e-06,-0.000929911,1.37099e-05,0,0,-0,0,-1828.2,1.41543,0.88
0,-0.000239425,0.332288,-0.000107793,0,1.69449e-06,-0.000942302,-1.9651e-05,0,0,-0,0,-1828.18,1.38398,0.884
0,-0.00023908,0.332285,-0.000107793,0,2.99206e-05,-0.0009548,-1.31006e-05,0,0,-0,0,-1828.16,1.41255,0.888
0,-0.000239425,0.332281,-0.000107793,0,-8.84387e-06,-0.000967404,-8.73376e-06,0,0,-0,-0,-1828.14,1.438,0.892
0,-0.000239425,0.332277,-0.000107448,0,-5.89591e-06,-0.000980115,2.29684e-05,0,0,-0,-0,-1828.11,1.50462,0.896
0,-0.000239425,0.332273,-0.000107448,0,-3.93061e-06,-0.000992933,1.53123e-05,0,0,-0,-0,-1828.09,1.51237,0.9
0,-0.000239425,0.332269,-0.000107793,0,-2.62041e-06,-0.00100586,-1.85827e-05,0,0,-0,-0,-1828.07,1.48092,0.904
0,-0.000239425,0.332265,-0.000107793,0,-1.74694e-06,-0.00101889,-1.23885e-05,0,0,-0,-0,-1828.05,1.50976,0.908
0,-0.000239425,0.332261,-0.000107448,0,-1.16462e-06,-0.00103204,2.05319e-05,0,0,-0,-0,-1828.02,1.57885,0.912
0,-0.000239425,0.332257,-0.000107448,0,-7.76417e-07,-0.00104529,1.3688e-05,0,0,-0,-0,-1828,1.58847,0.916
0,-0.000239425,0.332252,-0.000107793,0,-5.17611e-07,-0.00105865,-1.96656e-05,0,0,-0,-0,-1827.98,1.55848,0.92
0,-0.000239425,0.332248,-0.000107448,0,-3.45074e-07,-0.00107212,1.56805e-05,0,0,-0,-0,-1827.96,1.63171,0.924
0,-0.000239425,0.332244,-0.000107448,0,-2.30049e-07,-0.00108571,1.04537e-05,0,0,-0,-0,-1827.93,1.64424,0.928
0,-0.000239425,0.332239,-0.000107793,0,-1.53366e-07,-0.0010994,-2.18218e-05,0,0,-0,-0,-1827.91,1.61637,0.932
0,-0.000239425,0.332235,-0.000107448,0,-1.02244e-07,-0.0011132,1.42431e-05,0,0,-0,-0,-1827.88,1.69117,0.936
0,-0.000239425,0.332231,-0.000107448,0,-6.81628e-08,-0.00112712,9.49537e-06,0,0,-0,-0,-1827.86,1.70492,0.94
0,-0.000239425,0.332226,-0.000107448,0,-4.54418e-08,-0.00114115,6.33025e-06,0,0,-0,-0,-1827.83,1.72121,0.944
0,-0.000239425,0.332221,-0.000107448,0,-3.02946e-08,-0.00115528,4.22016e-06,0,0,-0,-0,-1827.81,1.73926,0.948
0,-0.000239425,0.332217,-0.000107793,0,-2.01964e-08,-0.00116954,-2.59775e-05,0,0,-0,-0,-1827.78,1.71534,0.952
0,-0.000239425,0.332212,-0.000107793,0,-1.34643e-08,-0.0011839,-1.73183e-05,0,0,-0,-0,-1827.76,1.74987,0.956
0,-0.000239425,0.332207,-0.000107793,0,-8.97617e-09,-0.00119838,-1.15455e-05,0,0,-0,-0,-1827.73,1.78025,0.96
0,-0.000239425,0.332202,-0.000107448,0,-5.98411e-09,-0.00121297,2.10939e-05,0,0,-0,-0,-1827.7,1.8511,0.964
0,-0.000240116,0.332198,-0.000107793,0,-5.75858e-05,-0.00122768,-1.47283e-05,0,0,-0,-0,-1827.68,1.81942,0.968
0,-0.000239425,0.332193,-0.000107793,0,1.91913e-05,-0.0012425,-9.81889e-06,0,0,-0,0,-1827.65,1.84902,0.972
0,-0.000239425,0.332188,-0.000107793,0,1.27942e-05,-0.00125743,-6.54592e-06,0,0,-0,0,-1827.62,1.87633,0.976
0,-0.000239771,0.332183,-0.000107793,0,-2.02615e-05,-0.00127248,-4.36395e-06,0,0,-0,-0,-1827.6,1.90218,0.98
0,-0.000239425,0.332177,-0.000107793,0,1.52833e-05,-0.00128765,-2.9093e-06,0,0,-0,0,-1827.57,1.92711,0.984
0,-0.000239425,0.332172,-0.000107793,0,1.01889e-05,-0.00130293,-1.93953e-06,0,0,-0,0,-1827.54,1.95149,0.988
0,-0.000239425,0.332167,-0.000107793,0,6.79257e-06,-0.00131833,-1.29302e-06,0,0,-0,0,-1827.51,1.97555,0.992
0,-0.000239425,0.332162,-0.000107448,0,4.52838e-06,-0.00133384,2.79289e-05,0,0,-0,0,-1827.48,2.04266,0.996
0,-0.000239425,0.332156,-0.000107793,0,3.01892e-06,-0.00134948,-1.01717e-05,0,0,-0,0,-1827.45,2.00896,1
0,-0.000239425,0.332151,-0.000107793,0,2.01261e-06,-0.00136523,-6.7811e-06,0,0,-0,0,-1827.42,2.03767,1.004
0,-0.000239425,0.332145,-0.000107793,0,1.34174e-06,-0.00138109,-4.52073e-06,0,0,-0,0,-1827.39,2.06486,1.008
0,-0.000239425,0.33214,-0.000107793,0,8.94495e-07,-0.00139708,-3.01382e-06,0,0,-0,0,-1827.36,2.0911,1.012
0,-0.000239425,0.332134,-0.000107448,0,5.9633e-07,-0.00141318,2.67817e-05,0,0,-0,0,-1827.33,2.15995,1.016
0,-0.000239425,0.332129,-0.000107448,0,3.97553e-07,-0.00142941,1.78545e-05,0,0,-0,0,-1827.3,2.17089,1.02
0,-0.000239425,0.332123,-0.000107793,0,2.65036e-07,-0.00144575,-1.68879e-05,0,0,-0,0,-1827.27,2.14329,1.024
0,-0.000239425,0.332117,-0.000107793,0,1.7669e-07,-0.00146221,-1.12586e-05,0,0,-0,0,-1827.24,2.17643,1.028
0,-0.000239425,0.332111,-0.000107448,0,1.17794e-07,-0.00147879,2.12852e-05,0,0,-0,0,-1827.2,2.25012,1.032
0,-0.000239425,0.332105,-0.000107448,0,7.8529e-08,-0.0014955,1.41901e-05,0,0,-0,0,-1827.17,2.26453,1.036
0,-0.000239425,0.332099,-0.000107448,0,5.23527e-08,-0.00151232,9.46008e-06,0,0,-0,0,-1827.14,2.28267,1.04
0,-0.000239425,0.332093,-0.000107793,0,3.49018e-08,-0.00152926,-2.24842e-05,0,0,-0,0,-1827.1,2.26017,1.044
0,-0.000239425,0.332087,-0.000107448,0,2.32679e-08,-0.00154633,1.38015e-05,0,0,-0,0,-1827.07,2.3402,1.048
0,-0.000239425,0.332081,-0.000107448,0,1.55119e-08,-0.00156352,9.20097e-06,0,0,-0,0,-1827.03,2.35908,1.052
0,-0.000239425,0.332074,-0.000107793,0,1.03413e-08,-0.00158083,-2.26569e-05,0,0,-0,0,-1827,2.33726,1.056
0,-0.000239425,0.332068,-0.000107793,0,6.89418e-09,-0.00159826,-1.51046e-05,0,0,-0,0,-1826.97,2.37474,1.06
0,-0.000239425,0.332062,-0.000107448,0,4.59612e-09,-0.00161582,1.87212e-05,0,0,-0,0,-1826.93,2.45181,1.064
0,-0.000239425,0.332055,-0.000107448,0,3.06408e-09,-0.0016335,1.24808e-05,0,0,-0,0,-1826.89,2.46897,1.068
0,-0.000239425,0.332049,-0.000107448,0,2.04272e-09,-0.0016513,8.32052e-06,0,0,-0,0,-1826.86,2.48943,1.072
0,-0.00023908,0.332042,-0.000107448,0,2.87923e-05,-0.00166923,5.54701e-06,0,0,-0,0,-1826.82,2.51216,1.076
0,-0.000239425,0.332035,-0.000107793,0,-9.59607e-06,-0.00168728,-2.50929e-05,0,0,-0,-0,-1826.79,2.49328,1.08
0,-0.000239425,0.332028,-0.000107793,0,-6.39738e-06,-0.00170546,-1.67286e-05,0,0,-0,-0,-1826.75,2.53309,1.084
0,-0.000239425,0.332022,-0.000107448,0,-4.26492e-06,-0.00172376,1.76385e-05,0,0,-0,-0,-1826.71,2.6121,1.088
0,-0.000239425,0.332015,-0.000107793,0,-2.84328e-06,-0.00174219,-1.70319e-05,0,0,-0,-0,-1826.67,2.58773,1.092
0,-0.000239425,0.332008,-0.000107793,0,-1.89552e-06,-0.00176074,-1.13546e-05,0,0,-0,-0,-1826.63,2.62408,1.096
0,-0.000239425,0.332001,-0.000107448,0,-1.26368e-06,-0.00177942,2.12212e-05,0,0,-0,-0,-1826.59,2.70096,1.1
0,-0.000239425,0.331993,-0.000107793,0,-8.42453e-07,-0.00179822,-1.46435e-05,0,0,-0,-0,-1826.56,2.67537,1.104
0,-0.000239425,0.331986,-0.000107793,0,-5.61635e-07,-0.00181716,-9.76231e-06,0,0,-0,-0,-1826.52,2.71109,1.108
0,-0.000239425,0.331979,-0.000107793,0,-3.74424e-07,-0.00183622,-6.50821e-06,0,0,-0,-0,-1826.48,2.74456,1.112
0,-0.000239425,0.331971,-0.000107448,0,-2.49616e-07,-0.0018554,2.44521e-05,0,0,-0,-0,-1826.43,2.81978,1.116
0,-0.000239425,0.331964,-0.000107448,0,-1.6641e-07,-0.00187472,1.63014e-05,0,0,-0,-0,-1826.39,2.83653,1.12
0,-0.000239425,0.331956,-0.000107793,0,-1.1094e-07,-0.00189416,-1.79233e-05,0,0,-0,-0,-1826.35,2.81436,1.124
0,-0.000239425,0.331949,-0.000107448,0,-7.39602e-08,-0.00191374,1.6842e-05,0,0,-0,-0,-1826.31,2.89587,1.128
0,-0.000239771,0.331941,-0.000107448,0,-2.88402e-05,-0.00193344,1.1228e-05,0,0,-0,-0,-1826.27,2.917,1.132
0,-0.000239425,0.331933,-0.000107793,0,9.5641e-06,-0.00195327,-2.13056e-05,0,0,-0,0,-1826.23,2.89794,1.136
0,-0.000240116,0.331926,-0.000107448,0,-5.12058e-05,-0.00197323,1.45872e-05,0,0,-0,-0,-1826.18,2.98173,1.14
0,-0.000239425,0.331918,-0.000107448,0,2.34447e-05,-0.00199332,9.72481e-06,0,0,-0,0,-1826.14,3.00457,1.144
0,-0.000239425,0.33191,-0.000107793,0,1.56298e-05,-0.00201354,-2.23077e-05,0,0,-0,0,-1826.1,2.98685,1.148
0,-0.000239425,0.331901,-0.000107448,0,1.04199e-05,-0.00203389,1.39191e-05,0,0,-0,0,-1826.05,3.07172,1.152
0,-0.000240116,0.331893,-0.000107793,0,-5.06353e-05,-0.00205438,-1.95115e-05,0,0,-0,-0,-1826.01,3.0523,1.156
0,-0.000239425,0.331885,-0.000107102,0,2.3825e-05,-0.00207499,4.45742e-05,0,0,-0,0,-1825.96,3.17935,1.16
0,-0.000239425,0.331877,-0.000107102,0,1.58833e-05,-0.00209574,2.97161e-05,0,0,-0,0,-1825.91,3.18818,1.164
0,-0.000239425,0.331868,-0.000107793,0,1.05889e-05,-0.00211662,-3.77711e-05,0,0,-0,0,-1825.87,3.11827,1.168
0,-0.000239425,0.33186,-0.000107793,0,7.05926e-06,-0.00213763,-2.51807e-05,0,0,-0,0,-1825.82,3.16867,1.172
0,-0.000239771,0.331851,-0.000107793,0,-2.40848e-05,-0.00215877,-1.67872e-05,0,0,-0,-0,-1825.77,3.21298,1.176
0,-0.000239425,0.331843,-0.000107793,0,1.27344e-05,-0.00218005,-1.11914e-05,0,0,-0,0,-1825.73,3.25329,1.18
0,-0.000239425,0.331834,-0.000107448,0,8.48962e-06,-0.00220146,2.133e-05,0,0,-0,0,-1825.68,3.33418,1.184
0,-0.000239425,0.331825,-0.000107448,0,5.65974e-06,-0.002223,1.422e-05,0,0,-0,0,-1825.63,3.35583,1.188
0,-0.000239425,0.331816,-0.000107793,0,3.77316e-06,-0.00224468,-1.93109e-05,0,0,-0,0,-1825.58,3.33806,1.192
0,-0.000239425,0.331807,-0.000107448,0,2.51544e-06,-0.00226649,1.5917e-05,0,0,-0,0,-1825.53,3.42362,1.196
0,-0.000239425,0.331798,-0.000107793,0,1.67696e-06,-0.00228844,-1.81796e-05,0,0,-0,0,-1825.48,3.40539,1.2
0,-0.000239771,0.331789,-0.000107448,0,-2.7673e-05,-0.00231053,1.66712e-05,0,0,-0,-0,-1825.43,3.49079,1.204
0,-0.000239425,0.331779,-0.000107448,0,1.03423e-05,-0.00233274,1.11141e-05,0,0,-0,0,-1825.38,3.51579,1.208
0,-0.000239425,0.33177,-0.000107448,0,6.89486e-06,-0.0023551,7.40941e-06,0,0,-0,0,-1825.33,3.54376,1.212
0,-0.000239425,0.33176,-0.000107448,0,4.59657e-06,-0.00237759,4.93961e-06,0,0,-0,0,-1825.27,3.57379,1.216
0,-0.000239425,0.331751,-0.000107448,0,3.06438e-06,-0.00240022,3.29307e-06,0,0,-0,0,-1825.22,3.60526,1.22
0,-0.000239771,0.331741,-0.000107793,0,-2.6748e-05,-0.00242298,-2.65955e-05,0,0,-0,-0,-1825.17,3.59458,1.224
0,-0.000239771,0.331732,-0.000107793,0,-1.7832e-05,-0.00244588,-1.77304e-05,0,0,-0,-0,-1825.12,3.64223,1.228
0,-0.000239425,0.331722,-0.000107448,0,1.69029e-05,-0.00246892,1.69707e-05,0,0,-0,0,-1825.06,3.72884,1.232
0,-0.000239771,0.331712,-0.000107448,0,-1.75223e-05,-0.0024921,1.13138e-05,0,0,-0,-0,-1825.01,3.75512,1.236
0,-0.000239425,0.331702,-0.000107793,0,1.71094e-05,-0.00251541,-2.12484e-05,0,0,-0,0,-1824.95,3.74124,1.24
0,-0.000239425,0.331692,-0.000107448,0,1.14063e-05,-0.00253886,1.46253e-05,0,0,-0,0,-1824.9,3.83023,1.244
0,-0.000239425,0.331681,-0.000107793,0,7.60417e-06,-0.00256246,-1.90407e-05,0,0,-0,0,-1824.84,3.81512,1.248
0,-0.000239425,0.331671,-0.000107793,0,5.06945e-06,-0.00258619,-1.26938e-05,0,0,-0,0,-1824.78,3.86024,1.252
0,-0.000239425,0.331661,-0.000107448,0,3.37963e-06,-0.00261006,2.03284e-05,0,0,-0,0,-1824.73,3.94558,1.256
0,-0.000239425,0.33165,-0.000107448,0,2.25309e-06,-0.00263407,1.35523e-05,0,0,-0,0,-1824.67,3.97143,1.26
0,-0.000239425,0.33164,-0.000107793,0,1.50206e-06,-0.00265822,-1.97561e-05,0,0,-0,0,-1824.61,3.95769,1.264
0,-0.000239425,0.331629,-0.000107448,0,1.00137e-06,-0.00268251,1.56202e-05,0,0,-0,0,-1824.55,4.04719,1.268
0,-0.000239425,0.331618,-0.000107793,0,6.67582e-07,-0.00270694,-1.83775e-05,0,0,-0,0,-1824.49,4.03285,1.272
0,-0.000239425,0.331607,-0.000107793,0,4.45054e-07,-0.00273151,-1.22516e-05,0,0,-0,0,-1824.43,4.07889,1.276
0,-0.000239425,0.331596,-0.000107448,0,2.96703e-07,-0.00275623,2.06232e-05,0,0,-0,0,-1824.37,4.16528,1.28
0,-0.000239425,0.331585,-0.000107793,0,1.97802e-07,-0.00278108,-1.50421e-05,0,0,-0,0,-1824.31,4.14906,1.284
0,-0.000239771,0.331574,-0.000107793,0,-2.86591e-05,-0.00280608,-1.00281e-05,0,0,-0,-0,-1824.25,4.19408,1.288
0,-0.000239771,0.331563,-0.000107793,0,-1.9106e-05,-0.00283122,-6.6854e-06,0,0,-0,-0,-1824.19,4.2368,1.292
0,-0.000239425,0.331552,-0.000108139,0,1.60536e-05,-0.0028565,-3.32479e-05,0,0,-0,0,-1824.13,4.23489,1.296
0,-0.000239425,0.33154,-0.000107793,0,1.07024e-05,-0.00288193,6.62569e-06,0,0,-0,0,-1824.06,4.33283,1.3
0,-0.000239425,0.331528,-0.000107793,0,7.13492e-06,-0.0029075,4.41712e-06,0,0,-0,0,-1824,4.36788,1.304
0,-0.000239425,0.331517,-0.000107448,0,4.75661e-06,-0.00293321,3.17357e-05,0,0,-0,0,-1823.93,4.44742,1.308
0,-0.000239425,0.331505,-0.000107793,0,3.17107e-06,-0.00295907,-7.63381e-06,0,0,-0,0,-1823.87,4.42715,1.312
0,-0.000239425,0.331493,-0.000107448,0,2.11405e-06,-0.00298507,2.37017e-05,0,0,-0,0,-1823.8,4.51316,1.316
0,-0.000239425,0.331481,-0.000107448,0,1.40937e-06,-0.00301122,1.58011e-05,0,0,-0,0,-1823.74,4.54053,1.32
0,-0.000239425,0.331469,-0.000107793,0,9.39578e-07,-0.00303751,-1.82568e-05,0,0,-0,0,-1823.67,4.52888,1.324
0,-0.000239425,0.331457,-0.000108139,0,6.26385e-07,-0.00306394,-4.09621e-05,0,0,-0,0,-1823.61,4.53447,1.328
0,-0.000239425,0.331444,-0.000108139,0,4.1759e-07,-0.00309052,-2.73081e-05,0,0,-0,0,-1823.54,4.59482,1.332
0,-0.000239425,0.331432,-0.000107448,0,2.78393e-07,-0.00311725,3.93765e-05,0,0,-0,0,-1823.47,4.73494,1.336
0,-0.000239425,0.33142,-0.000107448,0,1.85596e-07,-0.00314412,2.6251e-05,0,0,-0,0,-1823.4,4.75556,1.34
0,-0.000239425,0.331407,-0.000107793,0,1.2373e-07,-0.00317114,-1.12903e-05,0,0,-0,0,-1823.33,4.73978,1.344
0,-0.000239425,0.331394,-0.000107793,0,8.24869e-08,-0.00319831,-7.52685e-06,0,0,-0,0,-1823.26,4.78617,1.348
0,-0.000239425,0.331381,-0.000107793,0,5.49913e-08,-0.00322562,-5.0179e-06,0,0,-0,0,-1823.19,4.83091,1.352
0,-0.000239425,0.331368,-0.000107793,0,3.66609e-08,-0.00325308,-3.34527e-06,0,0,-0,0,-1823.12,4.87461,1.356
0,-0.000239425,0.331355,-0.000107448,0,2.44406e-08,-0.00328069,2.65607e-05,0,0,-0,0,-1823.05,4.96088,1.36
0,-0.000239425,0.331342,-0.000107793,0,1.62937e-08,-0.00330845,-1.10838e-05,0,0,-0,0,-1822.97,4.94605,1.364
0,-0.000239425,0.331329,-0.000107793,0,1.08625e-08,-0.00333635,-7.38917e-06,0,0,-0,0,-1822.9,4.99345,1.368
0,-0.000239425,0.331315,-0.000107793,0,7.24165e-09,-0.00336441,-4.92612e-06,0,0,-0,0,-1822.83,5.03922,1.372
0,-0.000239425,0.331302,-0.000107793,0,4.82777e-09,-0.00339261,-3.28408e-06,0,0,-0,0,-1822.75,5.08399,1.376
0,-0.000239425,0.331288,-0.000107793,0,3.21851e-09,-0.00342096,-2.18938e-06,0,0,-0,0,-1822.68,5.12815,1.38
0,-0.000239425,0.331275,-0.000107793,0,2.14567e-09,-0.00344946,-1.45959e-06,0,0,-0,0,-1822.6,5.172,1.384
0,-0.000239425,0.331261,-0.000107448,0,1.43045e-09,-0.00347811,2.78179e-05,0,0,-0,0,-1822.52,5.25889,1.388
0,-0.000239425,0.331247,-0.000107793,0,9.53633e-10,-0.00350691,-1.02457e-05,0,0,-0,0,-1822.45,5.245,1.392
0,-0.000239425,0.331233,-0.000107793,0,6.35755e-10,-0.00353586,-6.83045e-06,0,0,-0,0,-1822.37,5.29355,1.396
0,-0.000239425,0.331218,-0.000107793,0,4.23837e-10,-0.00356496,-4.55364e-06,0,0,-0,0,-1822.29,5.34061,1.4
0,-0.000239425,0.331204,-0.000107793,0,2.82558e-10,-0.00359421,-3.03576e-06,0,0,-0,0,-1822.22,5.38677,1.404
0,-0.000239425,0.33119,-0.000107448,0,1.88372e-10,-0.00362362,2.67671e-05,0,0,-0,0,-1822.13,5.47558,1.408
0,-0.000239425,0.331175,-0.000107448,0,1.25581e-10,-0.00365317,1.78447e-05,0,0,-0,0,-1822.05,5.50653,1.412
0,-0.000239425,0.33116,-0.000107793,0,8.37209e-11,-0.00368288,-1.68944e-05,0,0,-0,0,-1821.98,5.49898,1.416
0,-0.000239425,0.331146,-0.000107448,0,5.58139e-11,-0.00371274,1.7528e-05,0,0,-0,0,-1821.89,5.5954,1.42
0,-0.000239425,0.331131,-0.000107793,0,3.72093e-11,-0.00374275,-1.71056e-05,0,0,-0,0,-1821.81,5.58847,1.424
0,-0.000239425,0.331116,-0.000107448,0,2.48062e-11,-0.00377292,1.73872e-05,0,0,-0,0,-1821.73,5.68545,1.428
0,-0.000239425,0.331101,-0.000107448,0,1.65375e-11,-0.00380323,1.15915e-05,0,0,-0,0,-1821.64,5.72224,1.432
0,-0.000239425,0.331085,-0.000107448,0,1.1025e-11,-0.0038337,7.72764e-06,0,0,-0,0,-1821.56,5.76215,1.436
0,-0.000239425,0.33107,-0.000107793,0,7.34998e-12,-0.00386433,-2.36392e-05,0,0,-0,0,-1821.48,5.76103,1.44
0,-0.000239425,0.331054,-0.000107793,0,4.89999e-12,-0.00389511,-1.57594e-05,0,0,-0,0,-1821.39,5.81902,1.444
0,-0.000239425,0.331039,-0.000107102,0,3.26666e-12,-0.00392604,4.70756e-05,0,0,-0,0,-1821.3,5.95967,1.448
0,-0.000239771,0.331023,-0.000107448,0,-2.87909e-05,-0.00395712,2.59278e-06,0,0,-0,-0,-1821.22,5.93958,1.452
0,-0.000239425,0.331007,-0.000107793,0,9.59698e-06,-0.00398837,-2.70624e-05,0,0,-0,0,-1821.13,5.94196,1.456
0,-0.000239425,0.330991,-0.000107793,0,6.39798e-06,-0.00401976,-1.80416e-05,0,0,-0,0,-1821.04,6.00258,1.46
0,-0.000239425,0.330975,-0.000107793,0,4.26532e-06,-0.00405131,-1.20277e-05,0,0,-0,0,-1820.96,6.05893,1.464
0,-0.000239425,0.330959,-0.000107448,0,2.84355e-06,-0.00408302,2.07724e-05,0,0,-0,0,-1820.86,6.15569,1.468
0,-0.000239425,0.330942,-0.000107793,0,1.8957e-06,-0.00411488,-1.49426e-05,0,0,-0,0,-1820.78,6.14991,1.472
0,-0.000239425,0.330926,-0.000107793,0,1.2638e-06,-0.0041469,-9.96176e-06,0,0,-0,0,-1820.68,6.20541,1.476
0,-0.000239425,0.330909,-0.000107448,0,8.42533e-07,-0.00417908,2.21498e-05,0,0,-0,0,-1820.59,6.30184,1.48
0,-0.000239425,0.330892,-0.000107448,0,5.61689e-07,-0.00421141,1.47665e-05,0,0,-0,0,-1820.5,6.33927,1.484
0,-0.000239425,0.330875,-0.000107448,0,3.74459e-07,-0.0042439,9.84433e-06,0,0,-0,0,-1820.41,6.38062,1.488
0,-0.000239425,0.330858,-0.000107448,0,2.49639e-07,-0.00427655,6.56289e-06,0,0,-0,0,-1820.31,6.42467,1.492
0,-0.000239425,0.330841,-0.000107448,0,1.66426e-07,-0.00430935,4.37526e-06,0,0,-0,0,-1820.22,6.47059,1.496
0,-0.000239425,0.330824,-0.000107793,0,1.10951e-07,-0.00434231,-2.58741e-05,0,0,-0,0,-1820.12,6.47466,1.5
0,-0.000239425,0.330806,-0.000107448,0,7.39672e-08,-0.00437544,1.15415e-05,0,0,-0,0,-1820.03,6.58047,1.504
0,-0.000239425,0.330789,-0.000107793,0,4.93115e-08,-0.00440871,-2.10966e-05,0,0,-0,0,-1819.93,6.58143,1.508
0,-0.000239425,0.330771,-0.000107793,0,3.28743e-08,-0.00444215,-1.40644e-05,0,0,-0,0,-1819.83,6.64213,1.512
0,-0.000239425,0.330753,-0.000107448,0,2.19162e-08,-0.00447575,1.94147e-05,0,0,-0,0,-1819.73,6.74274,1.516
0,-0.000239425,0.330735,-0.000107793,0,1.46108e-08,-0.0045095,-1.58478e-05,0,0,-0,0,-1819.64,6.74048,1.52
0,-0.000239425,0.330717,-0.000107793,0,9.74054e-09,-0.00454342,-1.05652e-05,0,0,-0,0,-1819.54,6.79928,1.524
0,-0.000239425,0.330699,-0.000107448,0,6.49369e-09,-0.00457749,2.17475e-05,0,0,-0,0,-1819.44,6.89886,1.528
0,-0.000239425,0.330681,-0.000107793,0,4.32913e-09,-0.00461173,-1.42926e-05,0,0,-0,0,-1819.34,6.89615,1.532
0,-0.000239425,0.330662,-0.000107448,0,2.88609e-09,-0.00464612,1.92625e-05,0,0,-0,0,-1819.23,6.99808,1.536
0,-0.000239425,0.330643,-0.000107793,0,1.92406e-09,-0.00468068,-1.59493e-05,0,0,-0,0,-1819.13,6.99709,1.54
0,-0.000239425,0.330625,-0.000107448,0,1.2827e-09,-0.0047154,1.81581e-05,0,0,-0,0,-1819.03,7.10033,1.544
0,-0.000239425,0.330606,-0.000107793,0,8.55137e-10,-0.00475027,-1.66855e-05,0,0,-0,0,-1818.92,7.10038,1.548
0,-0.000239425,0.330587,-0.000107448,0,5.70091e-10,-0.00478531,1.76672e-05,0,0,-0,0,-1818.82,7.20447,1.552
0,-0.000239425,0.330567,-0.000107793,0,3.80061e-10,-0.00482051,-1.70128e-05,0,0,-0,0,-1818.71,7.20525,1.556
0,-0.000239425,0.330548,-0.000107448,0,2.53374e-10,-0.00485587,1.74491e-05,0,0,-0,0,-1818.61,7.30999,1.56
0,-0.000239425,0.330529,-0.000107448,0,1.68916e-10,-0.0048914,1.16327e-05,0,0,-0,0,-1818.5,7.35455,1.564
0,-0.000239425,0.330509,-0.000107448,0,1.12611e-10,-0.00492709,7.75515e-06,0,0,-0,0,-1818.39,7.40226,1.568
0,-0.000239425,0.330489,-0.000107448,0,7.50737e-11,-0.00496294,5.1701e-06,0,0,-0,0,-1818.28,7.45216,1.572
0,-0.000239425,0.330469,-0.000107448,0,5.00491e-11,-0.00499895,3.44673e-06,0,0,-0,0,-1818.17,7.50359,1.576
0,-0.000239425,0.330449,-0.000107448,0,3.33661e-11,-0.00503513,2.29782e-06,0,0,-0,0,-1818.06,7.55614,1.58
0,-0.000239425,0.330429,-0.000107448,0,2.22441e-11,-0.00507147,1.53188e-06,0,0,-0,0,-1817.95,7.6095,1.584
0,-0.000239425,0.330409,-0.000107448,0,1.48294e-11,-0.00510797,1.02125e-06,0,0,-0,0,-1817.84,7.66349,1.588
0,-0.000239425,0.330388,-0.000108139,0,9.88625e-12,-0.00514464,-5.6901e-05,0,0,-0,0,-1817.73,7.6316,1.592
0,-0.000239425,0.330367,-0.000107448,0,6.59083e-12,-0.00518147,1.96478e-05,0,0,-0,0,-1817.61,7.80167,1.596
0,-0.000239425,0.330347,-0.000107793,0,4.39389e-12,-0.00521846,-1.56924e-05,0,0,-0,0,-1817.5,7.80416,1.6
0,-0.000239425,0.330326,-0.000107448,0,2.92926e-12,-0.00525563,1.83293e-05,0,0,-0,0,-1817.38,7.91093,1.604
0,-0.000239425,0.330305,-0.000107448,0,1.95284e-12,-0.00529295,1.22196e-05,0,0,-0,0,-1817.27,7.95776,1.608
0,-0.000239425,0.330283,-0.000108139,0,1.30189e-12,-0.00533044,-4.94355e-05,0,0,-0,0,-1817.15,7.92151,1.612
0,-0.000239771,0.330262,-0.000107448,0,-2.87909e-05,-0.0053681,2.46249e-05,0,0,-0,-0,-1817.03,8.08909,1.616
0,-0.000239425,0.33024,-0.000107102,0,9.59698e-06,-0.00540592,4.52075e-05,0,0,-0,0,-1816.91,8.17669,1.62
0,-0.000239425,0.330219,-0.000107448,0,6.39798e-06,-0.00544391,1.34741e-06,0,0,-0,0,-1816.79,8.16789,1.624
0,-0.000239425,0.330197,-0.000107448,0,4.26532e-06,-0.00548207,8.98274e-07,0,0,-0,0,-1816.67,8.22445,1.628
0,-0.000239425,0.330175,-0.000107793,0,2.84355e-06,-0.00552039,-2.81921e-05,0,0,-0,0,-1816.55,8.23829,1.632
0,-0.000239425,0.330153,-0.000107448,0,1.8957e-06,-0.00555888,9.99621e-06,0,0,-0,0,-1816.43,8.35331,1.636
0,-0.000239425,0.33013,-0.000107448,0,1.2638e-06,-0.00559753,6.66414e-06,0,0,-0,0,-1816.31,8.40629,1.64
0,-0.000239425,0.330108,-0.000107448,0,8.42533e-07,-0.00563635,4.44276e-06,0,0,-0,0,-1816.18,8.4612,1.644
0,-0.000239425,0.330085,-0.000107793,0,5.61689e-07,-0.00567535,-2.58291e-05,0,0,-0,0,-1816.06,8.47427,1.648
0,-0.000239425,0.330063,-0.000107448,0,3.74459e-07,-0.0057145,1.15715e-05,0,0,-0,0,-1815.94,8.58911,1.652
0,-0.000239425,0.33004,-0.000107793,0,2.49639e-07,-0.00575383,-2.10766e-05,0,0,-0,0,-1815.81,8.59913,1.656
0,-0.000239425,0.330017,-0.000108139,0,1.66426e-07,-0.00579333,-4.2842e-05,0,0,-0,0,-1815.69,8.62572,1.66
0,-0.000239425,0.329993,-0.000107102,0,1.10951e-07,-0.00583299,5.78115e-05,0,0,-0,0,-1815.55,8.8362,1.664
0,-0.000239425,0.32997,-0.000107102,0,7.39672e-08,-0.00587282,3.8541e-05,0,0,-0,0,-1815.42,8.86704,1.668
0,-0.000239425,0.329946,-0.000107448,0,4.93115e-08,-0.00591282,-3.09694e-06,0,0,-0,0,-1815.3,8.86459,1.672
0,-0.000239425,0.329923,-0.000107448,0,3.28743e-08,-0.00595299,-2.06463e-06,0,0,-0,0,-1815.17,8.92639,1.676
0,-0.000239425,0.329899,-0.000108139,0,2.19162e-08,-0.00599333,-5.89583e-05,0,0,-0,0,-1815.04,8.90156,1.68
0,-0.000239425,0.329875,-0.000107102,0,1.46108e-08,-0.00603384,4.70673e-05,0,0,-0,0,-1814.9,9.12136,1.684
0,-0.000239425,0.32985,-0.000107448,0,9.74054e-09,-0.00607452,2.58725e-06,0,0,-0,0,-1814.77,9.11566,1.688
0,-0.000239425,0.329826,-0.000107448,0,6.49369e-09,-0.00611537,1.72483e-06,0,0,-0,0,-1814.63,9.17565,1.692
0,-0.000239425,0.329801,-0.000107793,0,4.32913e-09,-0.00615639,-2.7641e-05,0,0,-0,0,-1814.5,9.19313,1.696
0,-0.000239425,0.329777,-0.000108139,0,2.88609e-09,-0.00619758,-4.72183e-05,0,0,-0,0,-1814.37,9.22555,1.7
0,-0.000239425,0.329752,-0.000107448,0,1.92406e-09,-0.00623895,2.6103e-05,0,0,-0,0,-1814.23,9.39757,1.704
0,-0.000239425,0.329727,-0.000108139,0,1.2827e-09,-0.00628048,-4.01799e-05,0,0,-0,0,-1814.09,9.36045,1.708
0,-0.000239425,0.329702,-0.000108139,0,8.55136e-10,-0.00632219,-2.67866e-05,0,0,-0,0,-1813.95,9.4431,1.712
0,-0.000239425,0.329676,-0.000107448,0,5.70091e-10,-0.00636406,3.97241e-05,0,0,-0,0,-1813.81,9.60568,1.716
0,-0.000239425,0.329651,-0.000107448,0,3.80061e-10,-0.00640611,2.64828e-05,0,0,-0,0,-1813.67,9.64889,1.72
0,-0.000239425,0.329625,-0.000107448,0,2.53374e-10,-0.00644833,1.76552e-05,0,0,-0,0,-1813.53,9.69898,1.724
0,-0.000239425,0.329599,-0.000108139,0,1.68916e-10,-0.00649072,-4.58117e-05,0,0,-0,0,-1813.39,9.66737,1.728
0,-0.000239425,0.329573,-0.000107448,0,1.12611e-10,-0.00653329,2.70407e-05,0,0,-0,0,-1813.24,9.8405,1.732
0,-0.000239425,0.329547,-0.000107448,0,7.50737e-11,-0.00657603,1.80271e-05,0,0,-0,0,-1813.1,9.89109,1.736
0,-0.000239425,0.32952,-0.000107793,0,5.00491e-11,-0.00661894,-1.67728e-05,0,0,-0,0,-1812.96,9.90325,1.74
0,-0.000239425,0.329494,-0.000108139,0,3.33661e-11,-0.00666203,-3.99728e-05,0,0,-0,0,-1812.81,9.93308,1.744
0,-0.000239425,0.329467,-0.000107448,0,2.22441e-11,-0.00670529,3.09333e-05,0,0,-0,0,-1812.66,10.1043,1.748
0,-0.000239425,0.32944,-0.000108139,0,1.48294e-11,-0.00674872,-3.69596e-05,0,0,-0,0,-1812.52,10.0676,1.752
0,-0.000239425,0.329413,-0.000107102,0,9.88625e-12,-0.00679232,6.1733e-05,0,0,-0,0,-1812.36,10.2811,1.756
0,-0.000239425,0.329386,-0.000108139,0,6.59083e-12,-0.00683611,-4.52174e-05,0,0,-0,0,-1812.22,10.1863,1.76
0,-0.000239425,0.329359,-0.000107793,0,4.39389e-12,-0.00688006,-1.35403e-06,0,0,-0,0,-1812.06,10.3181,1.764
0,-0.000239425,0.329331,-0.000107102,0,2.92926e-12,-0.00692419,5.66792e-05,0,0,-0,0,-1811.91,10.4713,1.768
0,-0.000239425,0.329303,-0.000107793,0,1.95284e-12,-0.0069685,-1.97957e-05,0,0,-0,0,-1811.76,10.4231,1.772
0,-0.000239425,0.329275,-0.000108139,0,1.30189e-12,-0.00701298,-4.19881e-05,0,0,-0,0,-1811.61,10.4565,1.776
0,-0.000239425,0.329247,-0.000107102,0,8.67929e-13,-0.00705763,5.83807e-05,0,0,-0,0,-1811.45,10.674,1.78
0,-0.000239425,0.329219,-0.000107448,0,5.78619e-13,-0.00710246,1.01296e-05,0,0,-0,0,-1811.29,10.6689,1.784
0,-0.000239425,0.32919,-0.000107448,0,3.85746e-13,-0.00714747,6.75304e-06,0,0,-0,0,-1811.14,10.7313,1.788
0,-0.000239425,0.329162,-0.000108139,0,2.57164e-13,-0.00719265,-5.30798e-05,0,0,-0,0,-1810.98,10.7094,1.792
0,-0.000239425,0.329133,-0.000108139,0,1.71443e-13,-0.00723801,-3.53866e-05,0,0,-0,0,-1810.82,10.8039,1.796
0,-0.000239425,0.329104,-0.000107102,0,1.14295e-13,-0.00728355,6.27817e-05,0,0,-0,0,-1810.66,11.0195,1.8
0,-0.000239425,0.329074,-0.000107102,0,7.61968e-14,-0.00732926,4.18545e-05,0,0,-0,0,-1810.5,11.0567,1.804
0,-0.000239425,0.329045,-0.000107793,0,5.07978e-14,-0.00737515,-2.96789e-05,0,0,-0,0,-1810.34,11.0182,1.808
0,-0.000239425,0.329015,-0.000107793,0,3.38652e-14,-0.00742122,-1.97859e-05,0,0,-0,0,-1810.18,11.1021,1.812
0,-0.000239425,0.328986,-0.000107102,0,2.25768e-14,-0.00746746,4.43912e-05,0,0,-0,0,-1810.01,11.2678,1.816
0,-0.000239425,0.328956,-0.000107102,0,1.50512e-14,-0.00751388,2.95942e-05,0,0,-0,0,-1809.85,11.3152,1.82
0,-0.000239425,0.328926,-0.000108139,0,1.00341e-14,-0.00756048,-6.66433e-05,0,0,-0,0,-1809.69,11.2408,1.824
0,-0.000239425,0.328895,-0.000108139,0,6.68943e-15,-0.00760726,-4.44289e-05,0,0,-0,0,-1809.52,11.3442,1.828
0,-0.000239425,0.328865,-0.000108139,0,4.45962e-15,-0.00765421,-2.96193e-05,0,0,-0,0,-1809.35,11.4369,1.832
0,-0.000239425,0.328834,-0.000107448,0,2.97308e-15,-0.00770135,3.78357e-05,0,0,-0,0,-1809.18,11.6088,1.836
0,-0.000239425,0.328803,-0.000107448,0,1.98205e-15,-0.00774866,2.52238e-05,0,0,-0,0,-1809.01,11.6608,1.84
0,-0.000239425,0.328772,-0.000107448,0,1.32137e-15,-0.00779615,1.68159e-05,0,0,-0,0,-1808.84,11.7194,1.844
0,-0.000239425,0.328741,-0.000107448,0,8.80912e-16,-0.00784382,1.12106e-05,0,0,-0,0,-1808.66,11.7825,1.848
0,-0.000239425,0.328709,-0.000108139,0,5.87275e-16,-0.00789167,-5.01081e-05,0,0,-0,0,-1808.5,11.7623,1.852
0,-0.000239425,0.328678,-0.000107793,0,3.91517e-16,-0.0079397,-4.6145e-06,0,0,-0,0,-1808.32,11.9026,1.856
0,-0.000239425,0.328646,-0.000107102,0,2.61011e-16,-0.00798791,5.45055e-05,0,0,-0,0,-1808.14,12.0636,1.86
0,-0.000239425,0.328614,-0.000107793,0,1.74007e-16,-0.0080363,-2.12448e-05,0,0,-0,0,-1807.97,12.0226,1.864
0,-0.000239425,0.328581,-0.000108139,0,1.16005e-16,-0.00808487,-4.29542e-05,0,0,-0,0,-1807.79,12.0629,1.868
0,-0.000239425,0.328549,-0.000107102,0,7.73366e-17,-0.00813361,5.77367e-05,0,0,-0,0,-1807.61,12.287,1.872
0,-0.000239425,0.328516,-0.000107793,0,5.15577e-17,-0.00818254,-1.90907e-05,0,0,-0,0,-1807.43,12.2452,1.876
0,-0.000239425,0.328483,-0.000107448,0,3.43718e-17,-0.00823165,1.60638e-05,0,0,-0,0,-1807.25,12.3716,1.88
0,-0.000239425,0.32845,-0.000107448,0,2.29145e-17,-0.00828095,1.07092e-05,0,0,-0,0,-1807.07,12.4375,1.884
0,-0.000239425,0.328417,-0.000107102,0,1.52764e-17,-0.00833042,3.59304e-05,0,0,-0,0,-1806.88,12.5495,1.888
0,-0.000239425,0.328384,-0.000108139,0,1.01842e-17,-0.00838007,-6.24192e-05,0,0,-0,0,-1806.71,12.4765,1.892
0,-0.000239425,0.32835,-0.000107448,0,6.7895e-18,-0.00842991,1.59691e-05,0,0,-0,0,-1806.52,12.6688,1.896
0,-0.000239425,0.328316,-0.000107448,0,4.52633e-18,-0.00847992,1.0646e-05,0,0,-0,0,-1806.33,12.7359,1.9
0,-0.000239425,0.328282,-0.000108139,0,3.01755e-18,-0.00853012,-5.04845e-05,0,0,-0,0,-1806.15,12.7195,1.904
0,-0.000239425,0.328248,-0.000107448,0,2.0117e-18,-0.0085805,2.39255e-05,0,0,-0,0,-1805.96,12.9066,1.908
0,-0.000239425,0.328214,-0.000107793,0,1.34113e-18,-0.00863107,-1.28406e-05,0,0,-0,0,-1805.77,12.9273,1.912
0,-0.000239425,0.328179,-0.000107102,0,8.9409e-19,-0.00868181,4.90215e-05,0,0,-0,0,-1805.57,13.0963,1.916
0,-0.000239425,0.328144,-0.000107448,0,5.9606e-19,-0.00873274,3.89005e-06,0,0,-0,0,-1805.38,13.1049,1.92
0,-0.000239425,0.328109,-0.000107448,0,3.97373e-19,-0.00878385,2.59337e-06,0,0,-0,0,-1805.19,13.1797,1.924
0,-0.000239425,0.328074,-0.000107102,0,2.64916e-19,-0.00883515,3.05198e-05,0,0,-0,0,-1805,13.2985,1.928
0,-0.000239425,0.328039,-0.000108139,0,1.7661e-19,-0.00888663,-6.60262e-05,0,0,-0,0,-1804.81,13.2309,1.932
0,-0.000239425,0.328003,-0.000107102,0,1.1774e-19,-0.00893829,4.23553e-05,0,0,-0,0,-1804.6,13.471,1.936
0,-0.000239425,0.327967,-0.000108139,0,7.84935e-20,-0.00899013,-5.81359e-05,0,0,-0,0,-1804.41,13.398,1.94
0,-0.000239425,0.327931,-0.000107102,0,5.2329e-20,-0.00904216,4.76155e-05,0,0,-0,0,-1804.21,13.6347,1.944
0,-0.000239425,0.327895,-0.000107793,0,3.4886e-20,-0.00909438,-2.58382e-05,0,0,-0,0,-1804.01,13.6028,1.948
0,-0.000239425,0.327858,-0.000107793,0,2.32573e-20,-0.00914677,-1.72255e-05,0,0,-0,0,-1803.81,13.6943,1.952
0,-0.000239425,0.327822,-0.000108139,0,1.55049e-20,-0.00919936,-4.02746e-05,0,0,-0,0,-1803.61,13.7386,1.956
0,-0.000239425,0.327785,-0.000107448,0,1.03366e-20,-0.00925212,3.07321e-05,0,0,-0,0,-1803.41,13.9243,1.96
0,-0.000239425,0.327748,-0.000107448,0,6.89106e-21,-0.00930507,2.04881e-05,0,0,-0,0,-1803.2,13.9883,1.964
0,-0.000239425,0.32771,-0.000107102,0,4.59404e-21,-0.00935821,4.24497e-05,0,0,-0,0,-1803,14.101,1.968
0,-0.000239425,0.327673,-0.000107448,0,3.06269e-21,-0.00941153,-4.91155e-07,0,0,-0,0,-1802.79,14.1166,1.972
0,-0.000239425,0.327635,-0.000107793,0,2.0418e-21,-0.00946504,-2.91184e-05,0,0,-0,0,-1802.58,14.1539,1.976
0,-0.000239425,0.327597,-0.000107448,0,1.3612e-21,-0.00951873,9.37868e-06,0,0,-0,0,-1802.37,14.2922,1.98
0,-0.000239425,0.327559,-0.000107793,0,9.07465e-22,-0.00957261,-2.25385e-05,0,0,-0,0,-1802.17,14.3251,1.984
0,-0.000239425,0.32752,-0.000107448,0,6.04977e-22,-0.00962667,1.37653e-05,0,0,-0,0,-1801.95,14.4607,1.988
0,-0.000239425,0.327482,-0.000107793,0,4.03318e-22,-0.00968092,-1.96141e-05,0,0,-0,0,-1801.74,14.492,1.992
0,-0.000239771,0.327443,-0.000107448,0,-2.87909e-05,-0.00973536,1.57149e-05,0,0,-0,-0,-1801.53,14.6266,1.996
0,-0.000239425,0.327404,-0.000107448,0,9.59697e-06,-0.00978998,1.04766e-05,0,0,-0,0,-1801.31,14.7007,2
0,-0.000239425,0.327365,-0.000107102,0,6.39798e-06,-0.00984479,3.57753e-05,0,0,-0,0,-1801.09,14.8209,2.004
0,-0.000239425,0.327325,-0.000107448,0,4.26532e-06,-0.00989979,-4.94072e-06,0,0,-0,0,-1800.88,14.8423,2.008
0,-0.000239425,0.327285,-0.000107102,0,2.84355e-06,-0.00995498,2.54971e-05,0,0,-0,0,-1800.66,14.9707,2.012
0,-0.000239425,0.327245,-0.000107793,0,1.8957e-06,-0.0100103,-4.05838e-05,0,0,-0,0,-1800.44,14.9546,2.016
0,-0.000239425,0.327205,-0.000107102,0,1.2638e-06,-0.0100659,3.0526e-05,0,0,-0,0,-1800.22,15.1446,2.02
0,-0.000239425,0.327165,-0.000108139,0,8.42533e-07,-0.0101217,-6.60221e-05,0,0,-0,0,-1800,15.0834,2.024
0,-0.000239425,0.327124,-0.000107793,0,5.61689e-07,-0.0101776,-1.52238e-05,0,0,-0,0,-1799.78,15.2435,2.028
0,-0.000239425,0.327083,-0.000107102,0,3.74459e-07,-0.0102337,4.74326e-05,0,0,-0,0,-1799.55,15.4217,2.032
0,-0.000239425,0.327042,-0.000108139,0,2.49639e-07,-0.01029,-5.4751e-05,0,0,-0,0,-1799.33,15.3529,2.036
0,-0.000239425,0.327001,-0.000107793,0,1.66426e-07,-0.0103465,-7.70975e-06,0,0,-0,0,-1799.1,15.5082,2.04
0,-0.000239425,0.32696,-0.000107448,0,1.10951e-07,-0.0104032,2.36511e-05,0,0,-0,0,-1798.87,15.6403,2.044
0,-0.000239425,0.326918,-0.000108139,0,7.39672e-08,-0.0104601,-4.18145e-05,0,0,-0,0,-1798.64,15.6274,2.048
0,-0.000239425,0.326876,-0.000108139,0,4.93115e-08,-0.0105171,-2.78763e-05,0,0,-0,0,-1798.41,15.7339,2.052
0,-0.000239425,0.326834,-0.000107793,0,3.28743e-08,-0.0105744,1.02067e-05,0,0,-0,0,-1798.18,15.8769,2.056
0,-0.000239425,0.326791,-0.000107793,0,2.19162e-08,-0.0106318,6.80448e-06,0,0,-0,0,-1797.95,15.958,2.06
0,-0.000239425,0.326749,-0.000107793,0,1.46108e-08,-0.0106895,4.53632e-06,0,0,-0,0,-1797.71,16.041,2.064
0,-0.000239425,0.326706,-0.000108139,0,9.74054e-09,-0.0107473,-2.57667e-05,0,0,-0,0,-1797.48,16.0823,2.068
0,-0.000239425,0.326663,-0.000107793,0,6.49369e-09,-0.0108053,1.16131e-05,0,0,-0,0,-1797.24,16.2254,2.072
0,-0.000239425,0.326619,-0.000108139,0,4.32913e-09,-0.0108635,-2.10488e-05,0,0,-0,0,-1797,16.2637,2.076
0,-0.000239425,0.326576,-0.000107793,0,2.88609e-09,-0.0109219,1.47584e-05,0,0,-0,0,-1796.76,16.405,2.08
0,-0.000239425,0.326532,-0.000107793,0,1.92406e-09,-0.0109805,9.83891e-06,0,0,-0,0,-1796.52,16.4855,2.084
0,-0.000239425,0.326488,-0.000107793,0,1.2827e-09,-0.0110392,6.55927e-06,0,0,-0,0,-1796.28,16.5687,2.088
0,-0.000239771,0.326444,-0.000108139,0,-2.87901e-05,-0.0110982,-2.44181e-05,0,0,-0,-0,-1796.04,16.6107,2.092
0,-0.000239425,0.326399,-0.000107793,0,9.59754e-06,-0.0111574,1.25122e-05,0,0,-0,0,-1795.79,16.7548,2.096
0,-0.000239425,0.326354,-0.000107793,0,6.39836e-06,-0.0112167,8.34147e-06,0,0,-0,0,-1795.54,16.8376,2.1
0,-0.000239425,0.32631,-0.000107793,0,4.26558e-06,-0.0112762,5.56098e-06,0,0,-0,0,-1795.3,16.9227,2.104
0,-0.000239425,0.326264,-0.000107793,0,2.84372e-06,-0.011336,3.70732e-06,0,0,-0,0,-1795.05,17.0095,2.108
0,-0.000239425,0.326219,-0.000107793,0,1.89581e-06,-0.0113959,2.47155e-06,0,0,-0,0,-1794.8,17.0975,2.112
0,-0.000239425,0.326173,-0.000108139,0,1.26387e-06,-0.011456,-2.71432e-05,0,0,-0,0,-1794.55,17.1432,2.116
0,-0.000239425,0.326127,-0.000107793,0,8.42583e-07,-0.0115163,1.06954e-05,0,0,-0,0,-1794.29,17.2905,2.12
0,-0.000239425,0.326081,-0.000107102,0,5.61722e-07,-0.0115768,6.47121e-05,0,0,-0,0,-1794.03,17.4622,2.124
0,-0.000239425,0.326035,-0.000107448,0,3.74481e-07,-0.0116374,1.43505e-05,0,0,-0,0,-1793.78,17.4777,2.128
0,-0.000239425,0.325988,-0.000108139,0,2.49654e-07,-0.0116983,-4.80148e-05,0,0,-0,0,-1793.53,17.4755,2.132
0,-0.000239425,0.325941,-0.000107793,0,1.66436e-07,-0.0117594,-3.21897e-06,0,0,-0,0,-1793.27,17.6343,2.136
0,-0.000239425,0.325894,-0.000107793,0,1.10957e-07,-0.0118206,-2.14598e-06,0,0,-0,0,-1793.01,17.7278,2.14
0,-0.00023908,0.325846,-0.000107793,0,2.88649e-05,-0.0118821,-1.43065e-06,0,0,-0,0,-1792.75,17.821,2.144
0,-0.000239425,0.325799,-0.000107793,0,-9.54766e-06,-0.0119437,-9.5377e-07,0,0,-0,-0,-1792.49,17.9142,2.148
0,-0.000239425,0.325751,-0.000108139,0,-6.36511e-06,-0.0120056,-2.94268e-05,0,0,-0,-0,-1792.22,17.9642,2.152
0,-0.000239425,0.325703,-0.000108139,0,-4.2434e-06,-0.0120676,-1.96178e-05,0,0,-0,-0,-1791.96,18.072,2.156
0,-0.000239425,0.325654,-0.000108139,0,-2.82894e-06,-0.0121298,-1.30786e-05,0,0,-0,-0,-1791.69,18.1751,2.16
0,-0.000239425,0.325606,-0.000107448,0,-1.88596e-06,-0.0121923,4.88628e-05,0,0,-0,-0,-1791.42,18.3617,2.164
0,-0.000239425,0.325557,-0.000108139,0,-1.25731e-06,-0.0122549,-2.50066e-05,0,0,-0,-0,-1791.16,18.3448,2.168
0,-0.000239425,0.325508,-0.000107102,0,-8.38203e-07,-0.0123177,6.97017e-05,0,0,-0,-0,-1790.88,18.581,2.172
0,-0.000239425,0.325458,-0.000107448,0,-5.58802e-07,-0.0123807,1.76769e-05,0,0,-0,-0,-1790.61,18.5975,2.176
0,-0.000239425,0.325409,-0.000107102,0,-3.72535e-07,-0.0124439,4.05755e-05,0,0,-0,-0,-1790.34,18.7266,2.18
0,-0.000239425,0.325359,-0.000108139,0,-2.48357e-07,-0.0125072,-5.93224e-05,0,0,-0,-0,-1790.07,18.6719,2.184
0,-0.000239425,0.325309,-0.000107102,0,-1.65571e-07,-0.0125708,4.68245e-05,0,0,-0,-0,-1789.79,18.9265,2.188
0,-0.000239425,0.325258,-0.000108139,0,-1.10381e-07,-0.0126346,-5.51565e-05,0,0,-0,-0,-1789.51,18.8691,2.192
0,-0.000239425,0.325207,-0.000108139,0,-7.35871e-08,-0.0126986,-3.6771e-05,0,0,-0,-0,-1789.24,18.9927,2.196
0,-0.000239425,0.325157,-0.000107102,0,-4.90581e-08,-0.0127627,6.18588e-05,0,0,-0,-0,-1788.95,19.2369,2.2
0,-0.000239425,0.325105,-0.000108139,0,-3.27054e-08,-0.0128271,-4.51336e-05,0,0,-0,-0,-1788.67,19.1729,2.204
0,-0.000239425,0.325054,-0.000107793,0,-2.18036e-08,-0.0128916,-1.29813e-06,0,0,-0,-0,-1788.39,19.3355,2.208
0,-0.000239425,0.325002,-0.000107793,0,-1.45357e-08,-0.0129564,-8.65418e-07,0,0,-0,-0,-1788.11,19.4333,2.212
0,-0.000239425,0.32495,-0.000107102,0,-9.69049e-09,-0.0130213,5.70049e-05,0,0,-0,-0,-1787.82,19.6175,2.216
0,-0.000239425,0.324898,-0.000107793,0,-6.46032e-09,-0.0130865,-1.95786e-05,0,0,-0,-0,-1787.53,19.6003,2.22
0,-0.000239425,0.324846,-0.000107793,0,-4.30688e-09,-0.0131518,-1.30524e-05,0,0,-0,-0,-1787.24,19.7081,2.224
0,-0.000239425,0.324793,-0.000108139,0,-2.87126e-09,-0.0132173,-3.74925e-05,0,0,-0,-0,-1786.96,19.7697,2.228
0,-0.000239425,0.32474,-0.000107793,0,-1.91417e-09,-0.013283,3.79591e-06,0,0,-0,-0,-1786.66,19.9303,2.232
0,-0.000239425,0.324687,-0.000107793,0,-1.27611e-09,-0.013349,2.53061e-06,0,0,-0,-0,-1786.37,20.0272,2.236
0,-0.000239425,0.324633,-0.000107793,0,-8.50742e-10,-0.0134151,1.68707e-06,0,0,-0,-0,-1786.07,20.1251,2.24
0,-0.000239425,0.324579,-0.000108139,0,-5.67162e-10,-0.0134814,-2.76662e-05,0,0,-0,-0,-1785.78,20.1806,2.244
0,-0.000239425,0.324525,-0.000107102,0,-3.78108e-10,-0.0135479,6.79286e-05,0,0,-0,-0,-1785.48,20.4237,2.248
0,-0.000239425,0.324471,-0.000108139,0,-2.52072e-10,-0.0136146,-4.1087e-05,0,0,-0,-0,-1785.18,20.3603,2.252
0,-0.000239425,0.324416,-0.000107448,0,-1.68048e-10,-0.0136815,3.01905e-05,0,0,-0,-0,-1784.88,20.5675,2.256
0,-0.000239425,0.324361,-0.000107793,0,-1.12032e-10,-0.0137486,-8.66392e-06,0,0,-0,-0,-1784.58,20.6099,2.26
0,-0.000239425,0.324306,-0.000107793,0,-7.46879e-11,-0.0138159,-5.77595e-06,0,0,-0,-0,-1784.28,20.7152,2.264
0,-0.000239425,0.324251,-0.000107793,0,-4.9792e-11,-0.0138834,-3.85063e-06,0,0,-0,-0,-1783.97,20.8193,2.268
0,-0.000239425,0.324195,-0.000108139,0,-3.31946e-11,-0.0139511,-3.1358e-05,0,0,-0,-0,-1783.67,20.8796,2.272
0,-0.000239425,0.324139,-0.000107793,0,-2.21298e-11,-0.014019,7.88558e-06,0,0,-0,-0,-1783.36,21.0403,2.276
0,-0.000239425,0.324083,-0.000107448,0,-1.47532e-11,-0.014087,3.4048e-05,0,0,-0,-0,-1783.05,21.1816,2.28
0,-0.000239425,0.324027,-0.000108139,0,-9.83545e-12,-0.0141553,-3.48832e-05,0,0,-0,-0,-1782.74,21.1807,2.284
0,-0.000239425,0.32397,-0.000107793,0,-6.55697e-12,-0.0142238,5.53546e-06,0,0,-0,-0,-1782.43,21.344,2.288
0,-0.000239425,0.323913,-0.000108139,0,-4.37131e-12,-0.0142925,-2.51006e-05,0,0,-0,-0,-1782.12,21.4011,2.292
0,-0.000239425,0.323855,-0.000107448,0,-2.91421e-12,-0.0143614,4.08481e-05,0,0,-0,-0,-1781.8,21.6033,2.296
0,-0.000239425,0.323798,-0.000107793,0,-1.9428e-12,-0.0144304,-1.55886e-06,0,0,-0,-0,-1781.48,21.6433,2.3
0,-0.000239425,0.32374,-0.000108139,0,-1.2952e-12,-0.0144997,-2.98302e-05,0,0,-0,-0,-1781.16,21.7048,2.304
0,-0.000239425,0.323682,-0.000107793,0,-8.63469e-13,-0.0145692,8.90415e-06,0,0,-0,-0,-1780.84,21.8671,2.308
0,-0.000239425,0.323623,-0.000107793,0,-5.75646e-13,-0.0146388,5.9361e-06,0,0,-0,-0,-1780.52,21.9671,2.312
0,-0.000239425,0.323565,-0.000107793,0,-3.83764e-13,-0.0147087,3.9574e-06,0,0,-0,-0,-1780.2,22.069,2.316
0,-0.000239425,0.323506,-0.000108139,0,-2.55843e-13,-0.0147788,-2.61527e-05,0,0,-0,-0,-1779.88,22.1289,2.32
0,-0.000239425,0.323447,-0.000107793,0,-1.70562e-13,-0.014849,1.13558e-05,0,0,-0,-0,-1779.55,22.2906,2.324
0,-0.000239425,0.323387,-0.000107793,0,-1.13708e-13,-0.0149195,7.57055e-06,0,0,-0,-0,-1779.22,22.3906,2.328
0,-0.000239425,0.323327,-0.000108139,0,-7.58052e-14,-0.0149901,-2.37439e-05,0,0,-0,-0,-1778.89,22.4496,2.332
0,-0.000239425,0.323267,-0.000107793,0,-5.05368e-14,-0.015061,1.29617e-05,0,0,-0,-0,-1778.56,22.6109,2.336
0,-0.000239425,0.323207,-0.000107448,0,-3.36912e-14,-0.015132,3.7432e-05,0,0,-0,-0,-1778.23,22.7542,2.34
0,-0.000239425,0.323146,-0.000107793,0,-2.24608e-14,-0.0152033,-3.83624e-06,0,0,-0,-0,-1777.9,22.7992,2.344
0,-0.000239425,0.323085,-0.000107448,0,-1.49739e-14,-0.0152748,2.62334e-05,0,0,-0,-0,-1777.56,22.9515,2.348
0,-0.000239425,0.323024,-0.000107793,0,-9.98258e-15,-0.0153464,-1.1302e-05,0,0,-0,-0,-1777.22,23.0027,2.352
0,-0.000239425,0.322962,-0.000107793,0,-6.65505e-15,-0.0154183,-7.53465e-06,0,0,-0,-0,-1776.89,23.1161,2.356
0,-0.000239425,0.3229,-0.000107448,0,-4.4367e-15,-0.0154903,2.37678e-05,0,0,-0,-0,-1776.54,23.2711,2.36
0,-0.000239425,0.322838,-0.000107793,0,-2.9578e-15,-0.0155626,-1.29457e-05,0,0,-0,-0,-1776.2,23.3244,2.364
0,-0.000239425,0.322776,-0.000108139,0,-1.97187e-15,-0.015635,-3.74214e-05,0,0,-0,-0,-1775.86,23.3964,2.368
0,-0.000239425,0.322713,-0.000107448,0,-1.31458e-15,-0.0157077,3.26343e-05,0,0,-0,-0,-1775.51,23.6105,2.372
0,-0.000239425,0.32265,-0.000107793,0,-8.76386e-16,-0.0157805,-7.03476e-06,0,0,-0,-0,-1775.17,23.6603,2.376
0,-0.000239425,0.322587,-0.000107448,0,-5.84257e-16,-0.0158536,2.41011e-05,0,0,-0,-0,-1774.82,23.8165,2.38
0,-0.000239425,0.322524,-0.000107102,0,-3.89505e-16,-0.0159268,4.48583e-05,0,0,-0,-0,-1774.47,23.9576,2.384
0,-0.000239425,0.32246,-0.000107448,0,-2.5967e-16,-0.0160003,1.11462e-06,0,0,-0,-0,-1774.12,24.0021,2.388
0,-0.000239425,0.322395,-0.000107793,0,-1.73113e-16,-0.016074,-2.80478e-05,0,0,-0,-0,-1773.77,24.0689,2.392
0,-0.000239425,0.322331,-0.000107448,0,-1.15409e-16,-0.0161478,1.00924e-05,0,0,-0,-0,-1773.41,24.2369,2.396
0,-0.000239425,0.322266,-0.000107448,0,-7.69392e-17,-0.0162219,6.72824e-06,0,0,-0,-0,-1773.06,24.3429,2.4
0,-0.000239425,0.322201,-0.000107448,0,-5.12928e-17,-0.0162961,4.48549e-06,0,0,-0,-0,-1772.7,24.4509,2.404
0,-0.000239425,0.322136,-0.000107448,0,-3.41952e-17,-0.0163706,2.99033e-06,0,0,-0,-0,-1772.34,24.5604,2.408
0,-0.000239425,0.32207,-0.000107448,0,-2.27968e-17,-0.0164452,1.99355e-06,0,0,-0,-0,-1771.98,24.6709,2.412
0,-0.000239425,0.322004,-0.000107448,0,-1.51979e-17,-0.0165201,1.32904e-06,0,0,-0,-0,-1771.62,24.7822,2.416
0,-0.000239425,0.321938,-0.000107793,0,-1.01319e-17,-0.0165952,-2.79049e-05,0,0,-0,-0,-1771.25,24.8509,2.42
0,-0.000239425,0.321872,-0.000107102,0,-6.75461e-18,-0.0166704,3.89786e-05,0,0,-0,-0,-1770.88,25.0641,2.424
0,-0.000239425,0.321805,-0.000107448,0,-4.50307e-18,-0.0167459,-2.8052e-06,0,0,-0,-0,-1770.52,25.1146,2.428
0,-0.000239425,0.321738,-0.000107793,0,-3.00205e-18,-0.0168216,-3.06611e-05,0,0,-0,-0,-1770.15,25.1864,2.432
0,-0.000239425,0.32167,-0.000107793,0,-2.00137e-18,-0.0168974,-2.04407e-05,0,0,-0,-0,-1769.78,25.3155,2.436
0,-0.000239425,0.321602,-0.000107793,0,-1.33424e-18,-0.0169735,-1.36271e-05,0,0,-0,-0,-1769.41,25.4398,2.44
0,-0.000239425,0.321534,-0.000107793,0,-8.89496e-19,-0.0170498,-9.08476e-06,0,0,-0,-0,-1769.03,25.561,2.444
0,-0.000239425,0.321466,-0.000107448,0,-5.92997e-19,-0.0171262,2.27344e-05,0,0,-0,-0,-1768.65,25.7235,2.448
0,-0.000239425,0.321397,-0.000107448,0,-3.95331e-19,-0.0172029,1.51563e-05,0,0,-0,-0,-1768.28,25.8271,2.452
0,-0.000239425,0.321328,-0.000107448,0,-2.63554e-19,-0.0172798,1.01042e-05,0,0,-0,-0,-1767.9,25.9349,2.456
0,-0.000239425,0.321259,-0.000107793,0,-1.75703e-19,-0.0173569,-2.20548e-05,0,0,-0,-0,-1767.52,26.0022,2.46
0,-0.000239425,0.32119,-0.000107448,0,-1.17135e-19,-0.0174342,1.40877e-05,0,0,-0,-0,-1767.13,26.1724,2.464
0,-0.000239425,0.32112,-0.000107793,0,-7.80901e-20,-0.0175116,-1.93991e-05,0,0,-0,-0,-1766.75,26.2384,2.468
0,-0.000239425,0.32105,-0.000107793,0,-5.20601e-20,-0.0175893,-1.29327e-05,0,0,-0,-0,-1766.37,26.3646,2.472
0,-0.000239425,0.320979,-0.000107793,0,-3.47067e-20,-0.0176672,-8.62183e-06,0,0,-0,-0,-1765.98,26.4879,2.476
0,-0.000239425,0.320908,-0.000107793,0,-2.31378e-20,-0.0177453,-5.74788e-06,0,0,-0,-0,-1765.59,26.6093,2.48
0,-0.000239425,0.320837,-0.000107448,0,-1.54252e-20,-0.0178236,2.4959e-05,0,0,-0,-0,-1765.19,26.7729,2.484
0,-0.000239425,0.320766,-0.000107448,0,-1.02835e-20,-0.0179021,1.66393e-05,0,0,-0,-0,-1764.8,26.8781,2.488
0,-0.000239425,0.320694,-0.000107793,0,-6.85565e-21,-0.0179808,-1.7698e-05,0,0,-0,-0,-1764.41,26.9447,2.492
0,-0.000239425,0.320622,-0.000107448,0,-4.57043e-21,-0.0180597,1.69922e-05,0,0,-0,-0,-1764.01,27.1151,2.496
0,-0.000239425,0.320549,-0.000107448,0,-3.04696e-21,-0.0181388,1.13282e-05,0,0,-0,-0,-1763.61,27.2252,2.5
0,-0.000239425,0.320477,-0.000107448,0,-2.0313e-21,-0.0182181,7.5521e-06,0,0,-0,-0,-1763.21,27.3385,2.504
0,-0.000239425,0.320404,-0.000107793,0,-1.3542e-21,-0.0182976,-2.37562e-05,0,0,-0,-0,-1762.81,27.4108,2.508
0,-0.000239425,0.32033,-0.000107793,0,-9.02802e-22,-0.0183774,-1.58375e-05,0,0,-0,-0,-1762.41,27.5423,2.512
0,-0.000239425,0.320257,-0.000107793,0,-6.01868e-22,-0.0184573,-1.05583e-05,0,0,-0,-0,-1762,27.6701,2.516
0,-0.000239425,0.320183,-0.000107448,0,-4.01245e-22,-0.0185374,2.17521e-05,0,0,-0,-0,-1761.6,27.8387,2.52
0,-0.000239425,0.320108,-0.000107448,0,-2.67497e-22,-0.0186177,1.45014e-05,0,0,-0,-0,-1761.19,27.9483,2.524
0,-0.000239425,0.320034,-0.000107793,0,-1.78331e-22,-0.0186983,-1.91233e-05,0,0,-0,-0,-1760.78,28.0187,2.528
0,-0.000239425,0.319959,-0.000107793,0,-1.18887e-22,-0.018779,-1.27489e-05,0,0,-0,-0,-1760.37,28.1494,2.532
0,-0.000239425,0.319883,-0.000107793,0,-7.92583e-23,-0.0188599,-8.49926e-06,0,0,-0,-0,-1759.95,28.2771,2.536
0,-0.000239425,0.319808,-0.000107793,0,-5.28389e-23,-0.0189411,-5.66618e-06,0,0,-0,-0,-1759.54,28.4031,2.54
0,-0.000239425,0.319732,-0.000107793,0,-3.52259e-23,-0.0190224,-3.77745e-06,0,0,-0,-0,-1759.12,28.528,2.544
0,-0.000239425,0.319656,-0.000107793,0,-2.34839e-23,-0.019104,-2.5183e-06,0,0,-0,-0,-1758.7,28.6522,2.548
0,-0.000239425,0.319579,-0.000107793,0,-1.5656e-23,-0.0191857,-1.67887e-06,0,0,-0,-0,-1758.28,28.7761,2.552
0,-0.000239425,0.319502,-0.000107793,0,-1.04373e-23,-0.0192677,-1.11924e-06,0,0,-0,-0,-1757.85,28.8998,2.556
0,-0.000239425,0.319425,-0.000107448,0,-6.95821e-24,-0.0193498,2.80448e-05,0,0,-0,-0,-1757.43,29.0668,2.56
0,-0.000239425,0.319347,-0.000107448,0,-4.6388e-24,-0.0194322,1.86965e-05,0,0,-0,-0,-1757,29.1764,2.564
0,-0.000239425,0.319269,-0.000107793,0,-3.09254e-24,-0.0195148,-1.63266e-05,0,0,-0,-0,-1756.57,29.2477,2.568
0,-0.000239425,0.319191,-0.000107793,0,-2.06169e-24,-0.0195976,-1.08844e-05,0,0,-0,-0,-1756.14,29.38,2.572
0,-0.000239425,0.319113,-0.000107793,0,-1.37446e-24,-0.0196805,-7.25626e-06,0,0,-0,-0,-1755.71,29.5099,2.576
0,-0.000239425,0.319034,-0.000107793,0,-9.16307e-25,-0.0197637,-4.83751e-06,0,0,-0,-0,-1755.28,29.6383,2.58
0,-0.000239425,0.318955,-0.000107448,0,-6.10871e-25,-0.0198471,2.55659e-05,0,0,-0,-0,-1754.84,29.809,2.584
0,-0.000239425,0.318875,-0.000107793,0,-4.07248e-25,-0.0199307,-1.1747e-05,0,0,-0,-0,-1754.41,29.8784,2.588
0,-0.000239425,0.318795,-0.000107448,0,-2.71498e-25,-0.0200145,2.09596e-05,0,0,-0,-0,-1753.96,30.0532,2.592
0,-0.000239425,0.318715,-0.000107793,0,-1.80999e-25,-0.0200985,-1.48179e-05,0,0,-0,-0,-1753.52,30.1255,2.596
0,-0.000239425,0.318634,-0.000107793,0,-1.20666e-25,-0.0201827,-9.87857e-06,0,0,-0,-0,-1753.08,30.2593,2.6
0,-0.000239425,0.318553,-0.000107793,0,-8.0444e-26,-0.0202671,-6.58571e-06,0,0,-0,-0,-1752.64,30.3908,2.604
0,-0.000239425,0.318472,-0.000107793,0,-5.36293e-26,-0.0203518,-4.39048e-06,0,0,-0,-0,-1752.19,30.5211,2.608
0,-0.000239425,0.318391,-0.000107448,0,-3.57529e-26,-0.0204366,2.58639e-05,0,0,-0,-0,-1751.74,30.6937,2.612
0,-0.000239425,0.318309,-0.000107793,0,-2.38352e-26,-0.0205216,-1.15483e-05,0,0,-0,-0,-1751.29,30.7651,2.616
0,-0.000239425,0.318226,-0.000107793,0,-1.58902e-26,-0.0206068,-7.69886e-06,0,0,-0,-0,-1750.84,30.8987,2.62
0,-0.000239425,0.318144,-0.000107793,0,-1.05934e-26,-0.0206923,-5.13258e-06,0,0,-0,-0,-1750.38,31.0307,2.624
0,-0.000239425,0.318061,-0.000107448,0,-7.0623e-27,-0.0207779,2.53692e-05,0,0,-0,-0,-1749.93,31.205,2.628
0,-0.000239425,0.317978,-0.000107448,0,-4.7082e-27,-0.0208638,1.69128e-05,0,0,-0,-0,-1749.47,31.321,2.632
0,-0.000239425,0.317894,-0.000107448,0,-3.1388e-27,-0.0209498,1.12752e-05,0,0,-0,-0,-1749.01,31.4417,2.636
0,-0.000239425,0.31781,-0.000107448,0,-2.09253e-27,-0.0210361,7.5168e-06,0,0,-0,-0,-1748.55,31.5654,2.64
0,-0.000239425,0.317726,-0.000107793,0,-1.39502e-27,-0.0211226,-2.37797e-05,0,0,-0,-0,-1748.08,31.6482,2.644
0,-0.000239425,0.317641,-0.000107448,0,-9.30014e-28,-0.0212092,1.29378e-05,0,0,-0,-0,-1747.62,31.8333,2.648
0,-0.000239425,0.317556,-0.000107448,0,-6.20009e-28,-0.0212961,8.62518e-06,0,0,-0,-0,-1747.15,31.9571,2.652
0,-0.000239425,0.317471,-0.000107448,0,-4.1334e-28,-0.0213832,5.75012e-06,0,0,-0,-0,-1746.68,32.0834,2.656
0,-0.000239425,0.317385,-0.000107793,0,-2.7556e-28,-0.0214705,-2.49575e-05,0,0,-0,-0,-1746.21,32.1683,2.66
0,-0.000239425,0.317299,-0.000107448,0,-1.83707e-28,-0.021558,1.21526e-05,0,0,-0,-0,-1745.73,32.3552,2.664
0,-0.000239425,0.317212,-0.000107793,0,-1.22471e-28,-0.0216457,-2.06892e-05,0,0,-0,-0,-1745.26,32.4375,2.668
0,-0.000239425,0.317126,-0.000107793,0,-8.16473e-29,-0.0217336,-1.37928e-05,0,0,-0,-0,-1744.78,32.5797,2.672
0,-0.000239425,0.317039,-0.000107793,0,-5.44316e-29,-0.0218217,-9.1952e-06,0,0,-0,-0,-1744.31,32.7188,2.676
0,-0.000239425,0.316951,-0.000107448,0,-3.62877e-29,-0.02191,2.26608e-05,0,0,-0,-0,-1743.82,32.8991,2.68
0,-0.000239425,0.316863,-0.000107448,0,-2.41918e-29,-0.0219986,1.51072e-05,0,0,-0,-0,-1743.34,33.0205,2.684
0,-0.000239425,0.316775,-0.000107448,0,-1.61279e-29,-0.0220873,1.00715e-05,0,0,-0,-0,-1742.85,33.1461,2.688
0,-0.000239425,0.316687,-0.000107793,0,-1.07519e-29,-0.0221762,-2.20766e-05,0,0,-0,-0,-1742.37,33.2313,2.692
0,-0.000239425,0.316598,-0.000107793,0,-7.16794e-30,-0.0222654,-1.47177e-05,0,0,-0,-0,-1741.88,33.376,2.696
0,-0.000239425,0.316509,-0.000107448,0,-4.77863e-30,-0.0223547,1.89791e-05,0,0,-0,-0,-1741.39,33.5606,2.7
0,-0.000239425,0.316419,-0.000107448,0,-3.18575e-30,-0.0224443,1.26527e-05,0,0,-0,-0,-1740.9,33.6854,2.704
0,-0.000239425,0.316329,-0.000107793,0,-2.12383e-30,-0.0225341,-2.03558e-05,0,0,-0,-0,-1740.4,33.7706,2.708
0,-0.000239425,0.316239,-0.000107793,0,-1.41589e-30,-0.022624,-1.35705e-05,0,0,-0,-0,-1739.91,33.9157,2.712
0,-0.000239425,0.316148,-0.000107448,0,-9.43927e-31,-0.0227142,1.97439e-05,0,0,-0,-0,-1739.4,34.1009,2.716
0,-0.000239425,0.316057,-0.000107448,0,-6.29284e-31,-0.0228046,1.31626e-05,0,0,-0,-0,-1738.9,34.2267,2.72
0,-0.000239425,0.315966,-0.000107793,0,-4.19523e-31,-0.0228952,-2.00159e-05,0,0,-0,-0,-1738.4,34.3128,2.724
0,-0.000239425,0.315874,-0.000107448,0,-2.79682e-31,-0.022986,1.5447e-05,0,0,-0,-0,-1737.9,34.5022,2.728
0,-0.000239425,0.315782,-0.000107448,0,-1.86455e-31,-0.023077,1.0298e-05,0,0,-0,-0,-1737.39,34.6309,2.732
0,-0.000239425,0.315689,-0.000107448,0,-1.24303e-31,-0.0231682,6.86534e-06,0,0,-0,-0,-1736.88,34.7626,2.736
0,-0.000239425,0.315596,-0.000107448,0,-8.28687e-32,-0.0232596,4.5769e-06,0,0,-0,-0,-1736.37,34.8963,2.74
0,-0.000239425,0.315503,-0.000107448,0,-5.52458e-32,-0.0233513,3.05126e-06,0,0,-0,-0,-1735.86,35.0315,2.744
0,-0.000239425,0.315409,-0.000107793,0,-3.68305e-32,-0.0234431,-2.67567e-05,0,0,-0,-0,-1735.35,35.1245,2.748
0,-0.000239425,0.315316,-0.000107793,0,-2.45537e-32,-0.0235351,-1.78378e-05,0,0,-0,-0,-1734.83,35.2759,2.752
0,-0.000239425,0.315221,-0.000107448,0,-1.63691e-32,-0.0236274,1.6899e-05,0,0,-0,-0,-1734.31,35.4664,2.756
0,-0.000239425,0.315127,-0.000107448,0,-1.09128e-32,-0.0237198,1.1266e-05,0,0,-0,-0,-1733.79,35.5966,2.76
0,-0.000239425,0.315031,-0.000107448,0,-7.27517e-33,-0.0238125,7.51068e-06,0,0,-0,-0,-1733.26,35.73,2.764
0,-0.000239425,0.314936,-0.000107448,0,-4.85011e-33,-0.0239054,5.00712e-06,0,0,-0,-0,-1732.74,35.8655,2.768
0,-0.000239425,0.31484,-0.000107793,0,-3.23341e-33,-0.0239984,-2.54528e-05,0,0,-0,-0,-1732.21,35.9595,2.772
0,-0.000239425,0.314744,-0.000107793,0,-2.15561e-33,-0.0240917,-1.69686e-05,0,0,-0,-0,-1731.69,36.1121,2.776
0,-0.000239425,0.314647,-0.000107448,0,-1.43707e-33,-0.0241852,1.74785e-05,0,0,-0,-0,-1731.15,36.304,2.78
0,-0.000239425,0.314551,-0.000107448,0,-9.58047e-34,-0.0242789,1.16524e-05,0,0,-0,-0,-1730.62,36.4358,2.784
0,-0.000239425,0.314453,-0.000107793,0,-6.38698e-34,-0.0243728,-2.10227e-05,0,0,-0,-0,-1730.09,36.5277,2.788
0,-0.000239425,0.314356,-0.000107793,0,-4.25799e-34,-0.0244669,-1.40151e-05,0,0,-0,-0,-1729.55,36.6793,2.792
0,-0.000239425,0.314258,-0.000107793,0,-2.83866e-34,-0.0245612,-9.34341e-06,0,0,-0,-0,-1729.01,36.8278,2.796
0,-0.000239425,0.314159,-0.000107448,0,-1.89244e-34,-0.0246557,2.2562e-05,0,0,-0,-0,-1728.47,37.0175,2.8
0,-0.000239425,0.31406,-0.000107793,0,-1.26163e-34,-0.0247505,-1.37496e-05,0,0,-0,-0,-1727.92,37.1051,2.804
0,-0.000239425,0.313961,-0.000107448,0,-8.41084e-35,-0.0248454,1.96245e-05,0,0,-0,-0,-1727.38,37.2976,2.808
0,-0.000239425,0.313861,-0.000107793,0,-5.60722e-35,-0.0249406,-1.57079e-05,0,0,-0,-0,-1726.83,37.3873,2.812
0,-0.000239425,0.313762,-0.000107448,0,-3.73815e-35,-0.0250359,1.8319e-05,0,0,-0,-0,-1726.28,37.5813,2.816
0,-0.000239425,0.313661,-0.000107793,0,-2.4921e-35,-0.0251315,-1.65783e-05,0,0,-0,-0,-1725.73,37.6723,2.82
0,-0.000239425,0.31356,-0.000107793,0,-1.6614e-35,-0.0252272,-1.10522e-05,0,0,-0,-0,-1725.18,37.8243,2.824
0,-0.000239425,0.313459,-0.000107448,0,-1.1076e-35,-0.0253232,2.14228e-05,0,0,-0,-0,-1724.62,38.017,2.828
0,-0.000239425,0.313358,-0.000107793,0,-7.384e-36,-0.0254194,-1.45091e-05,0,0,-0,-0,-1724.06,38.1073,2.832
0,-0.000239425,0.313256,-0.000107793,0,-4.92267e-36,-0.0255158,-9.6727e-06,0,0,-0,-0,-1723.5,38.2592,2.836
0,-0.000239425,0.313154,-0.000107793,0,-3.28178e-36,-0.0256124,-6.44847e-06,0,0,-0,-0,-1722.94,38.4089,2.84
0,-0.000239425,0.313051,-0.000107448,0,-2.18785e-36,-0.0257092,2.44919e-05,0,0,-0,-0,-1722.37,38.6005,2.844
0,-0.000239425,0.312948,-0.000107448,0,-1.45857e-36,-0.0258062,1.6328e-05,0,0,-0,-0,-1721.81,38.7338,2.848
0,-0.000239425,0.312845,-0.000107793,0,-9.72379e-37,-0.0259034,-1.79056e-05,0,0,-0,-0,-1721.24,38.8283,2.852
0,-0.000239425,0.312741,-0.000107793,0,-6.48252e-37,-0.0260009,-1.19371e-05,0,0,-0,-0,-1720.67,38.9834,2.856
0,-0.000239425,0.312637,-0.000107793,0,-4.32168e-37,-0.0260985,-7.95805e-06,0,0,-0,-0,-1720.09,39.1358,2.86
0,-0.000239425,0.312532,-0.000107793,0,-2.88112e-37,-0.0261963,-5.30537e-06,0,0,-0,-0,-1719.52,39.2865,2.864
0,-0.000239425,0.312427,-0.000107793,0,-1.92075e-37,-0.0262944,-3.53691e-06,0,0,-0,-0,-1718.94,39.4363,2.868
0,-0.000239425,0.312322,-0.000107793,0,-1.2805e-37,-0.0263926,-2.35794e-06,0,0,-0,-0,-1718.36,39.5854,2.872
0,-0.000239425,0.312216,-0.000107448,0,-8.53666e-38,-0.0264911,2.7219e-05,0,0,-0,-0,-1717.78,39.7775,2.876
0,-0.000239425,0.31211,-0.000107793,0,-5.6911e-38,-0.0265898,-1.06449e-05,0,0,-0,-0,-1717.2,39.8687,2.88
0,-0.000239425,0.312003,-0.000107448,0,-3.79407e-38,-0.0266887,2.16943e-05,0,0,-0,-0,-1716.61,40.0655,2.884
0,-0.000239425,0.311896,-0.000107448,0,-2.52938e-38,-0.0267877,1.44629e-05,0,0,-0,-0,-1716.02,40.2033,2.888
0,-0.000239425,0.311789,-0.000107793,0,-1.68625e-38,-0.026887,-1.9149e-05,0,0,-0,-0,-1715.43,40.3018,2.892
0,-0.000239425,0.311681,-0.000107793,0,-1.12417e-38,-0.0269865,-1.2766e-05,0,0,-0,-0,-1714.84,40.4607,2.896
0,-0.000239425,0.311573,-0.000107793,0,-7.49446e-39,-0.0270863,-8.51067e-06,0,0,-0,-0,-1714.24,40.6166,2.9
0,-0.000239425,0.311465,-0.000107448,0,-4.99631e-39,-0.0271862,2.31171e-05,0,0,-0,-0,-1713.65,40.8139,2.904
0,-0.000239425,0.311356,-0.000107448,0,-3.33087e-39,-0.0272863,1.54114e-05,0,0,-0,-0,-1713.05,40.9526,2.908
0,-0.000239425,0.311246,-0.000107793,0,-2.22058e-39,-0.0273866,-1.85166e-05,0,0,-0,-0,-1712.45,41.0522,2.912
0,-0.000239425,0.311136,-0.000107793,0,-1.48039e-39,-0.0274872,-1.23444e-05,0,0,-0,-0,-1711.84,41.2123,2.916
0,-0.000239425,0.311026,-0.000107448,0,-9.86925e-40,-0.0275879,2.05613e-05,0,0,-0,-0,-1711.24,41.4127,2.92
0,-0.000239425,0.310916,-0.000107793,0,-6.5795e-40,-0.0276889,-1.50834e-05,0,0,-0,-0,-1710.63,41.5107,2.924
0,-0.000239425,0.310805,-0.000107793,0,-4.38633e-40,-0.0277901,-1.00556e-05,0,0,-0,-0,-1710.02,41.67,2.928
0,-0.000239425,0.310693,-0.000107448,0,-2.92422e-40,-0.0278914,2.20872e-05,0,0,-0,-0,-1709.4,41.8703,2.932
0,-0.000239425,0.310582,-0.000107448,0,-1.94948e-40,-0.027993,1.47248e-05,0,0,-0,-0,-1708.79,42.0116,2.936
0,-0.000239425,0.31047,-0.000107448,0,-1.29965e-40,-0.0280948,9.81653e-06,0,0,-0,-0,-1708.17,42.1569,2.94
0,-0.000239425,0.310357,-0.000107448,0,-8.66436e-41,-0.0281968,6.54435e-06,0,0,-0,-0,-1707.55,42.305,2.944
0,-0.000239425,0.310244,-0.000107448,0,-5.77624e-41,-0.028299,4.3629e-06,0,0,-0,-0,-1706.93,42.455,2.948
0,-0.000239425,0.310131,-0.000107448,0,-3.85083e-41,-0.0284014,2.9086e-06,0,0,-0,-0,-1706.31,42.6065,2.952
0,-0.000239425,0.310017,-0.000107448,0,-2.56722e-41,-0.028504,1.93907e-06,0,0,-0,-0,-1705.68,42.759,2.956
0,-0.000239425,0.309902,-0.000107793,0,-1.71148e-41,-0.0286069,-2.74982e-05,0,0,-0,-0,-1705.06,42.869,2.96
0,-0.000239425,0.309788,-0.000107793,0,-1.14099e-41,-0.0287099,-1.83321e-05,0,0,-0,-0,-1704.43,43.0373,2.964
0,-0.000239425,0.309673,-0.000107448,0,-7.60657e-42,-0.0288131,1.65695e-05,0,0,-0,-0,-1703.79,43.2446,2.968
0,-0.000239425,0.309557,-0.000107793,0,-5.07105e-42,-0.0289166,-1.77446e-05,0,0,-0,-0,-1703.16,43.3483,2.972
0,-0.000239425,0.309441,-0.000107448,0,-3.3807e-42,-0.0290202,1.69612e-05,0,0,-0,-0,-1702.52,43.5558,2.976
0,-0.000239425,0.309325,-0.000107448,0,-2.2538e-42,-0.0291241,1.13075e-05,0,0,-0,-0,-1701.88,43.7031,2.98
0,-0.000239425,0.309208,-0.000107448,0,-1.50253e-42,-0.0292282,7.53831e-06,0,0,-0,-0,-1701.24,43.8536,2.984
0,-0.000239425,0.309091,-0.000107448,0,-1.00169e-42,-0.0293325,5.02554e-06,0,0,-0,-0,-1700.59,44.0062,2.988
0,-0.000239425,0.308974,-0.000107793,0,-6.67792e-43,-0.029437,-2.54406e-05,0,0,-0,-0,-1699.95,44.1173,2.992
0,-0.000239425,0.308856,-0.000107793,0,-4.45195e-43,-0.0295417,-1.69604e-05,0,0,-0,-0,-1699.3,44.287,2.996
0,-0.000239425,0.308737,-0.000107793,0,-2.96797e-43,-0.0296466,-1.13069e-05,0,0,-0,-0,-1698.65,44.4529,3
0,-0.000239425,0.308619,-0.000107793,0,-1.97864e-43,-0.0297517,-7.53795e-06,0,0,-0,-0,-1698,44.6162,3.004
0,-0.000239425,0.308499,-0.000107448,0,-1.3191e-43,-0.029857,2.37656e-05,0,0,-0,-0,-1697.34,44.8211,3.008
0,-0.000239425,0.30838,-0.000107793,0,-8.79397e-44,-0.0299625,-1.29472e-05,0,0,-0,-0,-1696.68,44.9243,3.012
0,-0.000239425,0.30826,-0.000107448,0,-5.86265e-44,-0.0300682,2.01595e-05,0,0,-0,-0,-1696.02,45.1326,3.016
0,-0.000239425,0.308139,-0.000107448,0,-3.90843e-44,-0.0301742,1.34397e-05,0,0,-0,-0,-1695.36,45.2814,3.02
0,-0.000239425,0.308018,-0.000107448,0,-2.60562e-44,-0.0302803,8.95977e-06,0,0,-0,-0,-1694.69,45.4339,3.024
0,-0.000239425,0.307897,-0.000107448,0,-1.73708e-44,-0.0303867,5.97318e-06,0,0,-0,-0,-1694.02,45.589,3.028
0,-0.000239425,0.307775,-0.000107793,0,-1.15805e-44,-0.0304933,-2.48088e-05,0,0,-0,-0,-1693.36,45.7027,3.032
0,-0.000239425,0.307653,-0.000107793,0,-7.72036e-45,-0.0306,-1.65392e-05,0,0,-0,-0,-1692.68,45.8752,3.036
0,-0.000239425,0.30753,-0.000107793,0,-5.14691e-45,-0.030707,-1.10261e-05,0,0,-0,-0,-1692.01,46.044,3.04
0,-0.000239425,0.307407,-0.000107793,0,-3.43127e-45,-0.0308142,-7.35076e-06,0,0,-0,-0,-1691.33,46.2103,3.044
0,-0.000239425,0.307284,-0.000107793,0,-2.28751e-45,-0.0309216,-4.9005e-06,0,0,-0,-0,-1690.65,46.375,3.048
0,-0.000239425,0.30716,-0.000107448,0,-1.52501e-45,-0.0310292,2.55239e-05,0,0,-0,-0,-1689.97,46.5821,3.052
0,-0.000239425,0.307036,-0.000107793,0,-1.01667e-45,-0.031137,-1.1775e-05,0,0,-0,-0,-1689.29,46.6878,3.056
0,-0.000239425,0.306911,-0.000107793,0,-6.77782e-46,-0.031245,-7.84998e-06,0,0,-0,-0,-1688.6,46.8557,3.06
0,-0.000239425,0.306786,-0.000107793,0,-4.51855e-46,-0.0313532,-5.23332e-06,0,0,-0,-0,-1687.91,47.022,3.064
0,-0.000239425,0.30666,-0.000107448,0,-3.01236e-46,-0.0314617,2.5302e-05,0,0,-0,-0,-1687.22,47.2305,3.068
0,-0.000239425,0.306534,-0.000107793,0,-2.00824e-46,-0.0315703,-1.19229e-05,0,0,-0,-0,-1686.53,47.3376,3.072
0,-0.000239425,0.306408,-0.000107448,0,-1.33883e-46,-0.0316792,2.08423e-05,0,0,-0,-0,-1685.83,47.55,3.076
0,-0.000239425,0.306281,-0.000107102,0,-8.92552e-47,-0.0317882,4.26858e-05,0,0,-0,-0,-1685.13,47.7463,3.08
0,-0.000239425,0.306153,-0.000107793,0,-5.95035e-47,-0.0318975,-2.91246e-05,0,0,-0,-0,-1684.44,47.8025,3.084
0,-0.000239425,0.306025,-0.000107448,0,-3.9669e-47,-0.0320069,9.3745e-06,0,0,-0,-0,-1683.73,48.0245,3.088
0,-0.000239425,0.305897,-0.000107793,0,-2.6446e-47,-0.0321166,-2.25413e-05,0,0,-0,-0,-1683.03,48.1411,3.092
0,-0.000239425,0.305769,-0.000107793,0,-1.76307e-47,-0.0322265,-1.50275e-05,0,0,-0,-0,-1682.32,48.3172,3.096
0,-0.000239425,0.305639,-0.000107448,0,-1.17538e-47,-0.0323366,1.87726e-05,0,0,-0,-0,-1681.61,48.533,3.1
0,-0.000239425,0.30551,-0.000107793,0,-7.83585e-48,-0.0324469,-1.62759e-05,0,0,-0,-0,-1680.9,48.6459,3.104
0,-0.000239425,0.30538,-0.000107793,0,-5.2239e-48,-0.0325574,-1.08506e-05,0,0,-0,-0,-1680.18,48.8198,3.108
0,-0.000239425,0.305249,-0.000107793,0,-3.4826e-48,-0.0326681,-7.23372e-06,0,0,-0,-0,-1679.46,48.9913,3.112
0,-0.000239425,0.305118,-0.000107793,0,-2.32173e-48,-0.032779,-4.82248e-06,0,0,-0,-0,-1678.74,49.1613,3.116
0,-0.000239425,0.304987,-0.000107793,0,-1.54782e-48,-0.0328901,-3.21499e-06,0,0,-0,-0,-1678.02,49.3304,3.12
0,-0.000239425,0.304855,-0.000107448,0,-1.03188e-48,-0.0330015,2.66476e-05,0,0,-0,-0,-1677.3,49.5421,3.124
0,-0.000239425,0.304723,-0.000107793,0,-6.87921e-49,-0.033113,-1.10259e-05,0,0,-0,-0,-1676.57,49.6529,3.128
0,-0.000239425,0.30459,-0.000107793,0,-4.58614e-49,-0.0332247,-7.35057e-06,0,0,-0,-0,-1675.84,49.8261,3.132
0,-0.000239425,0.304457,-0.000107793,0,-3.05743e-49,-0.0333367,-4.90038e-06,0,0,-0,-0,-1675.11,49.9977,3.136
0,-0.000239425,0.304324,-0.000107793,0,-2.03828e-49,-0.0334488,-3.26692e-06,0,0,-0,-0,-1674.37,50.1684,3.14
0,-0.000239425,0.30419,-0.000107793,0,-1.35886e-49,-0.0335612,-2.17795e-06,0,0,-0,-0,-1673.64,50.3385,3.144
0,-0.000239425,0.304055,-0.000107793,0,-9.05904e-50,-0.0336738,-1.45196e-06,0,0,-0,-0,-1672.9,50.5085,3.148
0,-0.000239425,0.30392,-0.000107448,0,-6.03936e-50,-0.0337865,2.78229e-05,0,0,-0,-0,-1672.15,50.7216,3.152
0,-0.000239425,0.303785,-0.000107793,0,-4.02624e-50,-0.0338995,-1.02423e-05,0,0,-0,-0,-1671.41,50.8339,3.156
0,-0.000239425,0.303649,-0.000108139,0,-2.68416e-50,-0.0340127,-3.56191e-05,0,0,-0,-0,-1670.67,50.9657,3.16
0,-0.000239425,0.303513,-0.000107448,0,-1.78944e-50,-0.0341261,3.38358e-05,0,0,-0,-0,-1669.91,51.2399,3.164
0,-0.000239425,0.303376,-0.000107448,0,-1.19296e-50,-0.0342397,2.25572e-05,0,0,-0,-0,-1669.16,51.3934,3.168
0,-0.000239425,0.303239,-0.000107793,0,-7.95307e-51,-0.0343535,-1.37528e-05,0,0,-0,-0,-1668.41,51.5097,3.172
0,-0.000239425,0.303101,-0.000107793,0,-5.30204e-51,-0.0344675,-9.16854e-06,0,0,-0,-0,-1667.65,51.6876,3.176
0,-0.000239425,0.302963,-0.000107448,0,-3.5347e-51,-0.0345818,2.26786e-05,0,0,-0,-0,-1666.89,51.9067,3.18
0,-0.000239425,0.302825,-0.000107793,0,-2.35646e-51,-0.0346962,-1.36719e-05,0,0,-0,-0,-1666.13,52.0238,3.184
0,-0.000239425,0.302686,-0.000107793,0,-1.57098e-51,-0.0348108,-9.11459e-06,0,0,-0,-0,-1665.36,52.2026,3.188
0,-0.000239425,0.302546,-0.000107793,0,-1.04732e-51,-0.0349257,-6.07639e-06,0,0,-0,-0,-1664.6,52.3794,3.192
0,-0.000239425,0.302406,-0.000107448,0,-6.98212e-52,-0.0350407,2.474e-05,0,0,-0,-0,-1663.83,52.5982,3.196
0,-0.000239425,0.302266,-0.000107448,0,-4.65474e-52,-0.035156,1.64933e-05,0,0,-0,-0,-1663.05,52.7587,3.2
0,-0.000239425,0.302125,-0.000107793,0,-3.10316e-52,-0.0352714,-1.77954e-05,0,0,-0,-0,-1662.28,52.8804,3.204
0,-0.000239425,0.301984,-0.000107448,0,-2.06878e-52,-0.0353871,1.69273e-05,0,0,-0,-0,-1661.5,53.106,3.208
0,-0.000239425,0.301842,-0.000107448,0,-1.37918e-52,-0.035503,1.12849e-05,0,0,-0,-0,-1660.72,53.2714,3.212
0,-0.000239425,0.3017,-0.000107793,0,-9.19456e-53,-0.035619,-2.12677e-05,0,0,-0,-0,-1659.94,53.3967,3.216
0,-0.000239425,0.301557,-0.000107793,0,-6.1297e-53,-0.0357353,-1.41784e-05,0,0,-0,-0,-1659.16,53.5817,3.22
0,-0.000239425,0.301414,-0.000107793,0,-4.08647e-53,-0.0358518,-9.45229e-06,0,0,-0,-0,-1658.37,53.7635,3.224
0,-0.000239425,0.30127,-0.000107793,0,-2.72431e-53,-0.0359685,-6.30153e-06,0,0,-0,-0,-1657.58,53.9433,3.228
0,-0.000239425,0.301126,-0.000107102,0,-1.81621e-53,-0.0360854,5.33808e-05,0,0,-0,-0,-1656.78,54.2082,3.232
0,-0.000239425,0.300981,-0.000107448,0,-1.21081e-53,-0.0362025,6.7963e-06,0,0,-0,-0,-1655.99,54.314,3.236
0,-0.000239425,0.300836,-0.000107793,0,-8.07204e-54,-0.0363198,-2.42601e-05,0,0,-0,-0,-1655.19,54.4433,3.24
0,-0.000239425,0.300691,-0.000107793,0,-5.38136e-54,-0.0364373,-1.61734e-05,0,0,-0,-0,-1654.39,54.6317,3.244
0,-0.000239425,0.300545,-0.000107793,0,-3.58757e-54,-0.0365551,-1.07822e-05,0,0,-0,-0,-1653.59,54.8164,3.248
0,-0.000239425,0.300398,-0.000107793,0,-2.39172e-54,-0.036673,-7.18817e-06,0,0,-0,-0,-1652.78,54.9987,3.252
0,-0.000239425,0.300252,-0.000107448,0,-1.59448e-54,-0.0367911,2.39988e-05,0,0,-0,-0,-1651.97,55.2227,3.256
0,-0.000239425,0.300104,-0.000107793,0,-1.06298e-54,-0.0369094,-1.27917e-05,0,0,-0,-0,-1651.17,55.345,3.26
0,-0.000239425,0.299956,-0.000107793,0,-7.08656e-55,-0.037028,-8.52781e-06,0,0,-0,-0,-1650.35,55.5292,3.264
0,-0.000239425,0.299808,-0.000107448,0,-4.72438e-55,-0.0371467,2.31057e-05,0,0,-0,-0,-1649.53,55.7548,3.268
0,-0.000239425,0.299659,-0.000107793,0,-3.14958e-55,-0.0372657,-1.33871e-05,0,0,-0,-0,-1648.72,55.8784,3.272
0,-0.000239425,0.29951,-0.000107448,0,-2.09972e-55,-0.0373848,1.98662e-05,0,0,-0,-0,-1647.89,56.1071,3.276
0,-0.000239425,0.29936,-0.000107793,0,-1.39982e-55,-0.0375042,-1.55468e-05,0,0,-0,-0,-1647.07,56.233,3.28
0,-0.000239425,0.29921,-0.000107793,0,-9.3321e-56,-0.0376238,-1.03645e-05,0,0,-0,-0,-1646.25,56.4201,3.284
0,-0.000239425,0.299059,-0.000107793,0,-6.2214e-56,-0.0377435,-6.90969e-06,0,0,-0,-0,-1645.42,56.6049,3.288
0,-0.000239425,0.298908,-0.000107793,0,-4.1476e-56,-0.0378635,-4.60646e-06,0,0,-0,-0,-1644.59,56.7884,3.292
0,-0.000239425,0.298756,-0.000107793,0,-2.76507e-56,-0.0379837,-3.07097e-06,0,0,-0,-0,-1643.75,56.9709,3.296
0,-0.000239425,0.298604,-0.000107793,0,-1.84338e-56,-0.0381041,-2.04732e-06,0,0,-0,-0,-1642.91,57.1531,3.3
0,-0.000239425,0.298451,-0.000107448,0,-1.22892e-56,-0.0382247,2.7426e-05,0,0,-0,-0,-1642.07,57.3781,3.304
0,-0.000239425,0.298298,-0.000107448,0,-8.19279e-57,-0.0383455,1.8284e-05,0,0,-0,-0,-1641.23,57.5456,3.308
0,-0.000239425,0.298145,-0.000107793,0,-5.46186e-57,-0.0384665,-1.66016e-05,0,0,-0,-0,-1640.39,57.6748,3.312
0,-0.000239771,0.29799,-0.000107793,0,-2.87909e-05,-0.0385877,-1.10677e-05,0,0,-0,-0,-1639.54,57.8649,3.316
0,-0.000239425,0.297836,-0.000107793,0,9.59697e-06,-0.0387091,-7.37848e-06,0,0,-0,0,-1638.69,58.0525,3.32
0,-0.000239425,0.297681,-0.000107448,0,6.39798e-06,-0.0388307,2.38719e-05,0,0,-0,0,-1637.83,58.2818,3.324
0,-0.000239425,0.297525,-0.000107793,0,4.26532e-06,-0.0389525,-1.28763e-05,0,0,-0,0,-1636.98,58.4094,3.328
0,-0.000239425,0.297369,-0.000107793,0,2.84355e-06,-0.0390745,-8.5842e-06,0,0,-0,0,-1636.12,58.5989,3.332
0,-0.000239425,0.297213,-0.000107448,0,1.8957e-06,-0.0391967,2.30681e-05,0,0,-0,0,-1635.26,58.8297,3.336
0,-0.000239425,0.297056,-0.000107448,0,1.2638e-06,-0.0393192,1.53788e-05,0,0,-0,0,-1634.4,59.0018,3.34
0,-0.000239425,0.296898,-0.000107793,0,8.42533e-07,-0.0394418,-1.85384e-05,0,0,-0,0,-1633.53,59.1349,3.344
0,-0.000239425,0.29674,-0.000107793,0,5.61689e-07,-0.0395646,-1.23589e-05,0,0,-0,0,-1632.66,59.3284,3.348
0,-0.000239425,0.296581,-0.000107448,0,3.74459e-07,-0.0396877,2.05516e-05,0,0,-0,0,-1631.79,59.5623,3.352
0,-0.000239425,0.296423,-0.000107448,0,2.49639e-07,-0.0398109,1.37011e-05,0,0,-0,0,-1630.91,59.7369,3.356
0,-0.000239425,0.296263,-0.000107793,0,1.66426e-07,-0.0399344,-1.96569e-05,0,0,-0,0,-1630.04,59.872,3.36
0,-0.000239425,0.296103,-0.000107793,0,1.10951e-07,-0.040058,-1.31046e-05,0,0,-0,0,-1629.16,60.0673,3.364
0,-0.000239425,0.295943,-0.000107102,0,7.39672e-08,-0.0401818,4.88455e-05,0,0,-0,0,-1628.27,60.346,3.368
0,-0.000239425,0.295782,-0.000107102,0,4.93115e-08,-0.0403059,3.25636e-05,0,0,-0,0,-1627.39,60.5077,3.372
0,-0.000239425,0.29562,-0.000107102,0,3.28743e-08,-0.0404302,2.17091e-05,0,0,-0,0,-1626.5,60.6778,3.376
0,-0.000239425,0.295458,-0.000107793,0,2.19162e-08,-0.0405546,-4.31091e-05,0,0,-0,0,-1625.61,60.7673,3.38
0,-0.000239425,0.295296,-0.000107102,0,1.46108e-08,-0.0406793,2.88424e-05,0,0,-0,0,-1624.72,61.0622,3.384
0,-0.000239425,0.295133,-0.000108139,0,9.74054e-09,-0.0408041,-6.71445e-05,0,0,-0,0,-1623.82,61.1055,3.388
0,-0.000239425,0.294969,-0.000108139,0,6.49369e-09,-0.0409292,-4.4763e-05,0,0,-0,0,-1622.93,61.3267,3.392
0,-0.000239425,0.294805,-0.000107102,0,4.32913e-09,-0.0410545,5.65308e-05,0,0,-0,0,-1622.02,61.6665,3.396
0,-0.000239425,0.294641,-0.000107793,0,2.88609e-09,-0.04118,-1.98947e-05,0,0,-0,0,-1621.12,61.7401,3.4
0,-0.000239425,0.294476,-0.000107102,0,1.92406e-09,-0.0413056,4.43187e-05,0,0,-0,0,-1620.21,62.0249,3.404
0,-0.000239425,0.29431,-0.000107102,0,1.2827e-09,-0.0414315,2.95458e-05,0,0,-0,0,-1619.3,62.1916,3.408
0,-0.000239425,0.294144,-0.000107793,0,8.55136e-10,-0.0415576,-3.78846e-05,0,0,-0,0,-1618.39,62.2796,3.412
0,-0.000239425,0.293978,-0.000107793,0,5.70091e-10,-0.0416839,-2.52564e-05,0,0,-0,0,-1617.47,62.4879,3.416
0,-0.000239425,0.293811,-0.000108139,0,3.80061e-10,-0.0418104,-4.56285e-05,0,0,-0,0,-1616.55,62.6471,3.42
0,-0.000239425,0.293643,-0.000108139,0,2.53374e-10,-0.041937,-3.0419e-05,0,0,-0,0,-1615.63,62.8599,3.424
0,-0.000239425,0.293475,-0.000107102,0,1.68916e-10,-0.0420639,6.60934e-05,0,0,-0,0,-1614.7,63.195,3.428
0,-0.000239425,0.293307,-0.000107448,0,1.12611e-10,-0.042191,1.52714e-05,0,0,-0,0,-1613.78,63.3095,3.432
0,-0.000239425,0.293138,-0.000107793,0,7.50737e-11,-0.0423183,-1.861e-05,0,0,-0,0,-1612.85,63.4496,3.436
0,-0.000239425,0.292968,-0.000107102,0,5.00491e-11,-0.0424458,4.51752e-05,0,0,-0,0,-1611.91,63.7365,3.44
0,-0.000239425,0.292798,-0.000107793,0,3.33661e-11,-0.0425735,-2.74651e-05,0,0,-0,0,-1610.98,63.8191,3.444
0,-0.000239425,0.292628,-0.000107793,0,2.22441e-11,-0.0427014,-1.831e-05,0,0,-0,0,-1610.05,64.0246,3.448
0,-0.000239425,0.292457,-0.000108139,0,1.48294e-11,-0.0428295,-4.09976e-05,0,0,-0,0,-1609.11,64.1828,3.452
0,-0.000239425,0.292285,-0.000107448,0,9.88625e-12,-0.0429578,3.02501e-05,0,0,-0,0,-1608.16,64.4821,3.456
0,-0.000239425,0.292113,-0.000108139,0,6.59083e-12,-0.0430863,-3.74151e-05,0,0,-0,0,-1607.22,64.5733,3.46
0,-0.000239425,0.29194,-0.000107448,0,4.39389e-12,-0.043215,3.26384e-05,0,0,-0,0,-1606.26,64.8715,3.464
0,-0.000239425,0.291767,-0.000107102,0,2.92926e-12,-0.0433439,5.05499e-05,0,0,-0,0,-1605.31,65.0917,3.468
0,-0.000239425,0.291594,-0.000107793,0,1.95284e-12,-0.043473,-2.38819e-05,0,0,-0,0,-1604.36,65.1737,3.472
0,-0.000239425,0.29142,-0.000107793,0,1.30189e-12,-0.0436023,-1.59213e-05,0,0,-0,0,-1603.4,65.3796,3.476
0,-0.000239425,0.291245,-0.000107448,0,8.67929e-13,-0.0437318,1.81767e-05,0,0,-0,0,-1602.44,65.625,3.48
0,-0.000239425,0.29107,-0.000108139,0,5.78619e-13,-0.0438615,-4.5464e-05,0,0,-0,0,-1601.48,65.7241,3.484
0,-0.000239425,0.290894,-0.000107102,0,3.85746e-13,-0.0439914,5.60634e-05,0,0,-0,0,-1600.51,66.0712,3.488
0,-0.000239425,0.290718,-0.000107448,0,2.57164e-13,-0.0441215,8.58469e-06,0,0,-0,0,-1599.54,66.1952,3.492
0,-0.000239425,0.290541,-0.000107448,0,1.71443e-13,-0.0442518,5.72313e-06,0,0,-0,0,-1598.57,66.3863,3.496
0,-0.000239425,0.290364,-0.000107793,0,1.14295e-13,-0.0443823,-2.49755e-05,0,0,-0,0,-1597.59,66.5361,3.5
0,-0.000239425,0.290186,-0.000107793,0,7.61967e-14,-0.0445131,-1.66503e-05,0,0,-0,0,-1596.62,66.7446,3.504
0,-0.000239425,0.290008,-0.000107448,0,5.07978e-14,-0.044644,1.76907e-05,0,0,-0,0,-1595.63,66.9925,3.508
0,-0.000239425,0.289829,-0.000107793,0,3.38652e-14,-0.0447751,-1.69971e-05,0,0,-0,0,-1594.65,67.1371,3.512
0,-0.000239425,0.289649,-0.000108139,0,2.25768e-14,-0.0449064,-4.01223e-05,0,0,-0,0,-1593.67,67.2994,3.516
0,-0.000239425,0.28947,-0.000107793,0,1.50512e-14,-0.0450379,2.0427e-06,0,0,-0,0,-1592.68,67.5599,3.52
0,-0.000239425,0.289289,-0.000107448,0,1.00341e-14,-0.0451696,3.01527e-05,0,0,-0,0,-1591.68,67.7996,3.524
0,-0.000239425,0.289108,-0.000107102,0,6.68943e-15,-0.0453015,4.88927e-05,0,0,-0,0,-1590.68,68.0256,3.528
0,-0.000239425,0.288927,-0.000107102,0,4.45962e-15,-0.0454336,3.25952e-05,0,0,-0,0,-1589.69,68.1993,3.532
0,-0.000239425,0.288745,-0.000107793,0,2.97308e-15,-0.0455659,-3.58517e-05,0,0,-0,0,-1588.69,68.295,3.536
0,-0.000239425,0.288562,-0.000108139,0,1.98205e-15,-0.0456984,-5.26921e-05,0,0,-0,0,-1587.69,68.4685,3.54
0,-0.000239425,0.288379,-0.000107102,0,1.32137e-15,-0.0458311,5.12447e-05,0,0,-0,0,-1586.67,68.8235,3.544
0,-0.000239425,0.288196,-0.000107448,0,8.80912e-16,-0.045964,5.37222e-06,0,0,-0,0,-1585.67,68.954,3.548
0,-0.000239425,0.288011,-0.000107448,0,5.87275e-16,-0.0460971,3.58148e-06,0,0,-0,0,-1584.65,69.151,3.552
0,-0.000239425,0.287827,-0.000108139,0,3.91517e-16,-0.0462304,-5.51942e-05,0,0,-0,0,-1583.64,69.2628,3.556
0,-0.000239425,0.287642,-0.000108139,0,2.61011e-16,-0.0463639,-3.67961e-05,0,0,-0,0,-1582.62,69.4906,3.56
0,-0.000239425,0.287456,-0.000107102,0,1.74007e-16,-0.0464976,6.1842e-05,0,0,-0,0,-1581.6,69.8391,3.564
0,-0.000239425,0.28727,-0.000107448,0,1.16005e-16,-0.0466314,1.24371e-05,0,0,-0,0,-1580.57,69.9658,3.568
0,-0.000239425,0.287083,-0.000107793,0,7.73366e-17,-0.0467655,-2.04995e-05,0,0,-0,0,-1579.55,70.1176,3.572
0,-0.000239425,0.286895,-0.000108139,0,5.15577e-17,-0.0468998,-4.24573e-05,0,0,-0,0,-1578.52,70.286,3.576
0,-0.000239425,0.286708,-0.000107102,0,3.43718e-17,-0.0470343,5.80679e-05,0,0,-0,0,-1577.48,70.6386,3.58
0,-0.000239425,0.286519,-0.000107448,0,2.29145e-17,-0.047169,9.92102e-06,0,0,-0,0,-1576.45,70.7684,3.584
0,-0.000239425,0.28633,-0.000108139,0,1.52764e-17,-0.0473039,-5.09678e-05,0,0,-0,0,-1575.41,70.8793,3.588
0,-0.000239425,0.286141,-0.000108139,0,1.01842e-17,-0.0474389,-3.39786e-05,0,0,-0,0,-1574.37,71.1074,3.592
0,-0.000239425,0.285951,-0.000107448,0,6.7895e-18,-0.0475742,3.49295e-05,0,0,-0,0,-1573.32,71.4137,3.596
0,-0.000239425,0.28576,-0.000107102,0,4.52633e-18,-0.0477097,5.20772e-05,0,0,-0,0,-1572.27,71.6426,3.6
0,-0.000239425,0.285569,-0.000107793,0,3.01755e-18,-0.0478453,-2.28637e-05,0,0,-0,0,-1571.22,71.7337,3.604
0,-0.000239425,0.285377,-0.000107448,0,2.0117e-18,-0.0479812,1.35485e-05,0,0,-0,0,-1570.17,71.9921,3.608
0,-0.000239425,0.285185,-0.000107793,0,1.34113e-18,-0.0481173,-1.97586e-05,0,0,-0,0,-1569.11,72.1463,3.612
0,-0.000239425,0.284992,-0.000107102,0,8.9409e-19,-0.0482535,4.44094e-05,0,0,-0,0,-1568.05,72.4469,3.616
0,-0.000239425,0.284799,-0.000107102,0,5.9606e-19,-0.04839,2.96063e-05,0,0,-0,0,-1566.98,72.6294,3.62
0,-0.000239425,0.284605,-0.000107102,0,3.97373e-19,-0.0485266,1.97375e-05,0,0,-0,0,-1565.92,72.8196,3.624
0,-0.000239425,0.284411,-0.000108139,0,2.64916e-19,-0.0486635,-7.32144e-05,0,0,-0,0,-1564.86,72.8854,3.628
0,-0.000239425,0.284216,-0.000107102,0,1.7661e-19,-0.0488005,3.75632e-05,0,0,-0,0,-1563.78,73.2571,3.632
0,-0.000239425,0.284021,-0.000107102,0,1.1774e-19,-0.0489378,2.50421e-05,0,0,-0,0,-1562.7,73.4442,3.636
0,-0.000239425,0.283825,-0.000107793,0,7.84935e-20,-0.0490752,-4.08871e-05,0,0,-0,0,-1561.63,73.5515,3.64
0,-0.000239425,0.283628,-0.000108139,0,5.2329e-20,-0.0492128,-5.6049e-05,0,0,-0,0,-1560.55,73.7352,3.644
0,-0.000239425,0.283431,-0.000107793,0,3.4886e-20,-0.0493506,-8.57507e-06,0,0,-0,0,-1559.46,74.0131,3.648
0,-0.000239425,0.283233,-0.000107793,0,2.32573e-20,-0.0494887,-5.71672e-06,0,0,-0,0,-1558.38,74.2244,3.652
0,-0.000239425,0.283035,-0.000107448,0,1.55049e-20,-0.0496269,2.49798e-05,0,0,-0,0,-1557.28,74.4778,3.656
0,-0.000239425,0.282836,-0.000107102,0,1.03366e-20,-0.0497653,4.54441e-05,0,0,-0,0,-1556.19,74.7161,3.66
0,-0.000239425,0.282637,-0.000108139,0,6.89106e-21,-0.0499039,-5.60767e-05,0,0,-0,0,-1555.1,74.7717,3.664
0,-0.000239425,0.282437,-0.000108139,0,4.59404e-21,-0.0500427,-3.73845e-05,0,0,-0,0,-1554,75.008,3.668
0,-0.000239425,0.282236,-0.000108139,0,3.06269e-21,-0.0501817,-2.4923e-05,0,0,-0,0,-1552.9,75.2352,3.672
0,-0.000239425,0.282035,-0.000108139,0,2.0418e-21,-0.0503209,-1.66153e-05,0,0,-0,0,-1551.79,75.4564,3.676
0,-0.000239425,0.281834,-0.000107448,0,1.3612e-21,-0.0504603,4.6505e-05,0,0,-0,0,-1550.68,75.7602,3.68
0,-0.000239425,0.281632,-0.000107448,0,9.07465e-22,-0.0505998,3.10033e-05,0,0,-0,0,-1549.57,75.9463,3.684
0,-0.000239425,0.281429,-0.000108139,0,6.04977e-22,-0.0507396,-3.6913e-05,0,0,-0,0,-1548.45,76.0541,3.688
0,-0.000239425,0.281226,-0.000107793,0,4.03318e-22,-0.0508796,4.18228e-06,0,0,-0,0,-1547.33,76.3257,3.692
0,-0.000239425,0.281022,-0.000107102,0,2.68878e-22,-0.0510197,6.037e-05,0,0,-0,0,-1546.21,76.6202,3.696
0,-0.000239425,0.280818,-0.000107102,0,1.79252e-22,-0.0511601,4.02467e-05,0,0,-0,0,-1545.09,76.8005,3.7
0,-0.000239425,0.280613,-0.000107793,0,1.19502e-22,-0.0513006,-3.07507e-05,0,0,-0,0,-1543.96,76.9048,3.704
0,-0.000239425,0.280407,-0.000108139,0,7.96677e-23,-0.0514414,-4.92914e-05,0,0,-0,0,-1542.83,77.0881,3.708
