peachynonah/Fire_monitor_/csv_datas/trial12/cdsl_data_t12_3.csv
joint1_pos_desired, joint1_pos, joint2_pos_desired, joint2_pos, joint1_vel_desired, joint1_vel_filtered, joint2_vel_desired, joint2_vel_filtered, target_torque_joint1, target_torque_joint2, estimated_disturbance_joint1, saturated_DOB_joint1, estimated_disturbance_joint2, saturated_DOB_joint2, current_time
-1.43868,-1.43739,0.628809,0.626807,-7.52997e-07,0,-3.76499e-07,0,5,-92,0,0,18.6734,0.1,0.004
-1.43868,-1.43739,0.628809,0.626698,-3.00958e-06,-5.75818e-05,-1.50479e-06,-0.00909793,5,-101,0.00605574,0.00605574,18.572,0.1,0.008
-1.43868,-1.43739,0.628809,0.626615,-6.76613e-06,-6.71788e-05,-3.38307e-06,-0.0129463,5,-104,0.011767,0.011767,18.4658,0.1,0.012
-1.43868,-1.43739,0.628809,0.626545,-1.2019e-05,-4.47859e-05,-6.00952e-06,-0.0144754,5,-106,0.017455,0.017455,18.3578,0.1,0.016
-1.43868,-1.43739,0.628809,0.626489,-1.87647e-05,-2.98573e-05,-9.38236e-06,-0.0143432,5,-106,0.0233236,0.0233236,18.2495,0.1,0.02
-1.43868,-1.43739,0.628809,0.62645,-2.69995e-05,-1.99048e-05,-1.34998e-05,-0.0128155,6,-105,0.0293346,0.0293346,18.1421,0.1,0.024
-1.43868,-1.43739,0.628809,0.626429,-3.67199e-05,-7.08517e-05,-1.836e-05,-0.0102999,5,-104,0.0354382,0.0354382,18.0366,0.1,0.028
-1.43868,-1.43739,0.628809,0.626425,-4.79222e-05,-1.84436e-05,-2.39611e-05,-0.00721211,6,-101,0.0413169,0.0413169,17.9338,0.1,0.032
-1.43868,-1.43739,0.628809,0.626433,-6.06029e-05,-1.22957e-05,-3.03014e-05,-0.00411709,6,-98,0.0475972,0.0475972,17.8339,0.1,0.036
-1.43868,-1.43739,0.628809,0.626452,-7.47583e-05,-3.69881e-05,-3.73792e-05,-0.00119002,6,-96,0.053989,0.053989,17.7369,0.1,0.04
-1.43868,-1.43739,0.628808,0.626478,-9.03849e-05,-2.46587e-05,-4.51925e-05,0.00139477,6,-94,0.0603288,0.0603288,17.6426,0.1,0.044
-1.43868,-1.43739,0.628808,0.626511,-0.000107479,-1.64391e-05,-5.37396e-05,0.00372256,6,-91,0.0668535,0.0668535,17.5509,0.1,0.048
-1.43868,-1.43739,0.628808,0.626551,-0.000126037,-1.09594e-05,-6.30187e-05,0.00576387,6,-89,0.0735465,0.0735465,17.4615,0.1,0.052
-1.43868,-1.43739,0.628808,0.626596,-0.000146056,-7.30628e-06,-7.3028e-05,0.00761419,7,-88,0.0804001,0.0804001,17.3743,0.1,0.056
-1.43868,-1.43739,0.628807,0.626647,-0.000167531,-4.87086e-06,-8.37657e-05,0.0093084,7,-86,0.0874124,0.0874124,17.2892,0.1,0.06
-1.43868,-1.43739,0.628807,0.626703,-0.00019046,-3.24724e-06,-9.52301e-05,0.0108409,7,-84,0.0945854,0.0945854,17.2062,0.1,0.064
-1.43868,-1.43739,0.628807,0.626763,-0.000214839,-2.16483e-06,-0.000107419,0.0122945,7,-83,0.101924,0.1,17.1251,0.1,0.068
-1.43868,-1.43739,0.628806,0.626828,-0.000240663,-1.44322e-06,-0.000120332,0.0135802,7,-81,0.109426,0.1,17.0459,0.1,0.072
-1.43868,-1.43739,0.628806,0.626897,-0.00026793,-9.62144e-07,-0.000133965,0.0148405,8,-79,0.117074,0.1,16.9685,0.1,0.076
-1.43868,-1.43739,0.628805,0.626972,-0.000296636,2.81495e-05,-0.000148318,0.0160837,8,-78,0.12489,0.1,16.8929,0.1,0.08
-1.43869,-1.43739,0.628804,0.62705,-0.000326778,-1.00246e-05,-0.000163389,0.0172292,8,-76,0.133029,0.1,16.8192,0.1,0.084
-1.43869,-1.43739,0.628804,0.627128,-0.000358351,-6.42649e-05,-0.000179176,0.0179929,8,-75,0.141076,0.1,16.7471,0.1,0.088
-1.43869,-1.43739,0.628803,0.627211,-0.000391353,-1.40524e-05,-0.000195676,0.0189051,8,-74,0.148988,0.1,16.6765,0.1,0.092
-1.43869,-1.43739,0.628802,0.627296,-0.000425779,-9.36823e-06,-0.00021289,0.0197147,9,-73,0.157403,0.1,16.6076,0.1,0.096
-1.43869,-1.43739,0.628801,0.627385,-0.000461627,-6.24549e-06,-0.000230814,0.0205136,9,-71,0.166045,0.1,16.5402,0.1,0.1
-1.43869,-1.43739,0.6288,0.627472,-0.000498892,-4.16366e-06,-0.000249446,0.0209311,9,-70,0.174913,0.1,16.4742,0.1,0.104
-1.4387,-1.43739,0.628799,0.62756,-0.000537572,-2.77577e-06,-0.000268786,0.0212957,9,-69,0.18401,0.1,16.4095,0.1,0.108
-1.4387,-1.43739,0.628798,0.627645,-0.000577662,-3.06414e-05,-0.000288831,0.0213373,9,-69,0.193328,0.1,16.3458,0.1,0.112
-1.4387,-1.43739,0.628797,0.627726,-0.000619159,-2.04276e-05,-0.00030958,0.0209619,10,-69,0.20271,0.1,16.2828,0.1,0.116
-1.4387,-1.43739,0.628796,0.627795,-0.00066206,1.51725e-05,-0.00033103,0.019704,10,-69,0.212415,0.1,16.2199,0.1,0.12
-1.43871,-1.43739,0.628794,0.627851,-0.000706361,-1.86759e-05,-0.00035318,0.0177714,10,-70,0.222577,0.1,16.1565,0.1,0.124
-1.43871,-1.43739,0.628793,0.627892,-0.000752058,-1.24506e-05,-0.000376029,0.0152737,11,-72,0.232792,0.1,16.0919,0.1,0.128
-1.43871,-1.43739,0.628791,0.627917,-0.000799148,-8.30041e-06,-0.000399574,0.0122842,11,-74,0.243317,0.1,16.0256,0.1,0.132
-1.43872,-1.43739,0.62879,0.627927,-0.000847627,-5.53361e-06,-0.000423814,0.00905319,11,-77,0.254148,0.1,15.9573,0.1,0.136
-1.43872,-1.43739,0.628788,0.627924,-0.000897492,-3.68907e-06,-0.000448746,0.00577634,12,-79,0.265284,0.1,15.8868,0.1,0.14
-1.43872,-1.43739,0.628786,0.627919,-0.00094874,-2.45938e-06,-0.00047437,0.00344782,12,-81,0.27673,0.1,15.8146,0.1,0.144
-1.43873,-1.43739,0.628784,0.627915,-0.00100137,-1.63959e-06,-0.000500683,0.00189548,12,-83,0.288489,0.1,15.7412,0.1,0.148
-1.43873,-1.43739,0.628782,0.627911,-0.00105537,-1.09306e-06,-0.000527684,0.000975741,13,-83,0.300567,0.1,15.6673,0.1,0.152
-1.43874,-1.43739,0.62878,0.62791,-0.00111074,-2.95196e-05,-0.000555371,0.000564121,13,-84,0.312959,0.1,15.5932,0.1,0.156
-1.43874,-1.43739,0.628778,0.627909,-0.00116748,-1.96798e-05,-0.000583742,0.000318499,13,-84,0.32551,0.1,15.5193,0.1,0.16
-1.43874,-1.43739,0.628775,0.627909,-0.00122559,-1.31198e-05,-0.000612796,0.000212333,14,-84,0.338467,0.1,15.4456,0.1,0.164
-1.43875,-1.43739,0.628773,0.627909,-0.00128506,-8.74656e-06,-0.00064253,0.000141555,14,-84,0.351814,0.1,15.3722,0.1,0.168
-1.43875,-1.43739,0.62877,0.627909,-0.00134589,-5.83104e-06,-0.000672943,9.43701e-05,15,-84,0.365548,0.1,15.2992,0.1,0.172
-1.43876,-1.43739,0.628767,0.627909,-0.00140807,-3.88736e-06,-0.000704033,6.29134e-05,15,-84,0.379666,0.1,15.2265,0.1,0.176
-1.43877,-1.43739,0.628764,0.627909,-0.0014716,-3.13825e-05,-0.000735798,4.19423e-05,15,-84,0.394158,0.1,15.1541,0.1,0.18
-1.43877,-1.43739,0.628761,0.627909,-0.00153648,-2.09217e-05,-0.000768238,-8.29418e-07,16,-84,0.408867,0.1,15.0821,0.1,0.184
-1.43878,-1.43739,0.628758,0.627909,-0.0016027,-1.39478e-05,-0.000801349,2.8238e-05,16,-84,0.424036,0.1,15.0104,0.1,0.188
-1.43878,-1.43739,0.628755,0.627909,-0.00167026,-3.80894e-05,-0.00083513,1.88253e-05,17,-84,0.439636,0.1,14.9391,0.1,0.192
-1.43879,-1.43739,0.628752,0.627909,-0.00173916,-8.29748e-05,-0.00086958,1.25502e-05,17,-84,0.455473,0.1,14.8682,0.1,0.196
-1.4388,-1.43739,0.628748,0.627909,-0.00180939,-8.41075e-05,-0.000904697,8.36681e-06,17,-84,0.471449,0.1,14.7976,0.1,0.2
-1.43881,-1.43739,0.628744,0.627909,-0.00188096,-0.000113653,-0.000940478,5.57787e-06,18,-84,0.48783,0.1,14.7274,0.1,0.204
-1.43881,-1.4374,0.628741,0.627909,-0.00195385,-0.000133351,-0.000976923,3.71858e-06,18,-84,0.504452,0.1,14.6576,0.1,0.208
-1.43882,-1.4374,0.628737,0.627909,-0.00202806,-0.000146482,-0.00101403,2.47905e-06,18,-83,0.521388,0.1,14.5882,0.1,0.212
-1.43883,-1.4374,0.628732,0.627909,-0.00210359,-0.000126446,-0.0010518,-2.71382e-05,19,-83,0.538702,0.1,14.5191,0.1,0.216
-1.43884,-1.4374,0.628728,0.627909,-0.00218044,-0.000113088,-0.00109022,1.06988e-05,20,-83,0.556605,0.1,14.4503,0.1,0.22
-1.43885,-1.4374,0.628724,0.627909,-0.0022586,-0.000132974,-0.0011293,7.13252e-06,20,-83,0.575048,0.1,14.382,0.1,0.224
-1.43886,-1.4374,0.628719,0.627909,-0.00233807,-0.00011744,-0.00116904,4.75501e-06,21,-83,0.59385,0.1,14.314,0.1,0.228
-1.43887,-1.4374,0.628714,0.627909,-0.00241885,-0.000135875,-0.00120942,3.17001e-06,21,-83,0.613221,0.1,14.2464,0.1,0.232
-1.43888,-1.4374,0.628709,0.627909,-0.00250092,-0.000176956,-0.00125046,2.11334e-06,21,-83,0.63295,0.1,14.1791,0.1,0.236
-1.43889,-1.4374,0.628704,0.627909,-0.0025843,-0.000204344,-0.00129215,1.40889e-06,22,-83,0.652911,0.1,14.1122,0.1,0.24
-1.4389,-1.4374,0.628699,0.627909,-0.00266897,-0.000222602,-0.00133449,9.39262e-07,22,-83,0.6732,0.1,14.0457,0.1,0.244
-1.43891,-1.4374,0.628694,0.627909,-0.00275494,-0.000292356,-0.00137747,6.26174e-07,22,-83,0.693859,0.1,13.9796,0.1,0.248
-1.43892,-1.4374,0.628688,0.627909,-0.00284219,-0.000310068,-0.00142109,4.1745e-07,23,-83,0.714601,0.1,13.9138,0.1,0.252
-1.43893,-1.43741,0.628682,0.627909,-0.00293073,-0.000350666,-0.00146536,-2.85126e-05,23,-83,0.735747,0.1,13.8483,0.1,0.256
-1.43894,-1.43741,0.628676,0.627909,-0.00302055,-0.00032015,-0.00151027,9.78251e-06,24,-83,0.757196,0.1,13.7833,0.1,0.26
-1.43895,-1.43741,0.62867,0.627909,-0.00311164,-0.000357388,-0.00155582,6.52167e-06,25,-83,0.779364,0.1,13.7186,0.1,0.264
-1.43897,-1.43741,0.628664,0.627909,-0.00320402,-0.000353422,-0.00160201,4.34778e-06,25,-82,0.801858,0.1,13.6543,0.1,0.268
-1.43898,-1.43741,0.628657,0.627909,-0.00329766,-0.000321988,-0.00164883,2.89852e-06,26,-82,0.824956,0.1,13.5904,0.1,0.272
-1.43899,-1.43741,0.628651,0.627909,-0.00339257,-0.000329822,-0.00169629,1.93235e-06,27,-82,0.848815,0.1,13.5268,0.1,0.276
-1.43901,-1.43741,0.628644,0.627909,-0.00348875,-0.000335045,-0.00174437,1.28823e-06,27,-82,0.873201,0.1,13.4636,0.1,0.28
-1.43902,-1.43742,0.628637,0.627909,-0.00358618,-0.000367318,-0.00179309,8.58821e-07,28,-82,0.898125,0.1,13.4008,0.1,0.284
-1.43904,-1.43742,0.628629,0.627909,-0.00368488,-0.000388833,-0.00184244,5.72547e-07,28,-82,0.923434,0.1,13.3383,0.1,0.288
-1.43905,-1.43742,0.628622,0.627909,-0.00378483,-0.000403177,-0.00189241,3.81698e-07,29,-82,0.949204,0.1,13.2762,0.1,0.292
-1.43907,-1.43742,0.628614,0.627909,-0.00388603,-0.000412739,-0.00194301,2.54465e-07,30,-82,0.97549,0.1,13.2145,0.1,0.296
-1.43908,-1.43742,0.628606,0.627909,-0.00398848,-0.000476696,-0.00199424,1.69644e-07,30,-82,1.0023,0.1,13.1532,0.1,0.3
-1.4391,-1.43743,0.628598,0.627909,-0.00409217,-0.000548125,-0.00204608,1.13096e-07,30,-82,1.02931,0.1,13.0922,0.1,0.304
-1.43911,-1.43743,0.62859,0.627909,-0.0041971,-0.000653326,-0.00209855,7.53972e-08,30,-82,1.05646,0.1,13.0316,0.1,0.308
-1.43913,-1.43743,0.628582,0.627909,-0.00430327,-0.000781042,-0.00215163,5.02648e-08,30,-81,1.08354,0.1,12.9714,0.1,0.312
-1.43915,-1.43744,0.628573,0.627909,-0.00441067,-0.000923767,-0.00220534,3.35099e-08,30,-81,1.11041,0.1,12.9115,0.1,0.316
-1.43917,-1.43744,0.628564,0.627909,-0.0045193,-0.00104771,-0.00225965,2.23399e-08,30,-81,1.137,0.1,12.852,0.1,0.32
-1.43919,-1.43745,0.628555,0.627909,-0.00462916,-0.00110155,-0.00231458,1.48933e-08,30,-81,1.16346,0.1,12.7929,0.1,0.324
-1.4392,-1.43745,0.628545,0.627909,-0.00474025,-0.00119502,-0.00237012,9.92885e-09,30,-81,1.19023,0.1,12.7342,0.1,0.328
-1.43922,-1.43746,0.628536,0.627909,-0.00485255,-0.00128612,-0.00242628,6.61923e-09,31,-81,1.21705,0.1,12.6758,0.1,0.332
-1.43924,-1.43747,0.628526,0.627909,-0.00496608,-0.00134686,-0.00248304,4.41282e-09,31,-81,1.24397,0.1,12.6178,0.1,0.336
-1.43926,-1.43747,0.628516,0.627909,-0.00508081,-0.00144494,-0.00254041,-2.8788e-05,31,-81,1.27117,0.1,12.5602,0.1,0.34
-1.43928,-1.43748,0.628506,0.627909,-0.00519676,-0.00153911,-0.00259838,9.59894e-06,31,-81,1.29842,0.1,12.503,0.1,0.344
-1.4393,-1.43749,0.628495,0.627909,-0.00531391,-0.00163068,-0.00265695,6.39929e-06,32,-80,1.32577,0.1,12.4461,0.1,0.348
-1.43933,-1.4375,0.628484,0.627909,-0.00543226,-0.0017781,-0.00271613,4.26619e-06,32,-80,1.3532,0.1,12.3896,0.1,0.352
-1.43935,-1.4375,0.628473,0.627909,-0.00555182,-0.00193397,-0.00277591,2.84413e-06,31,-80,1.38037,0.1,12.3335,0.1,0.356
-1.43937,-1.43751,0.628462,0.627909,-0.00567257,-0.00212425,-0.00283629,1.89609e-06,31,-80,1.40724,0.1,12.2778,0.1,0.36
-1.43939,-1.43752,0.628451,0.627909,-0.00579452,-0.0022511,-0.00289726,1.26406e-06,31,-80,1.43361,0.1,12.2224,0.1,0.364
-1.43942,-1.43754,0.628439,0.627909,-0.00591765,-0.00242204,-0.00295883,8.42705e-07,31,-80,1.45987,0.1,12.1675,0.1,0.368
-1.43944,-1.43755,0.628427,0.627909,-0.00604198,-0.00250721,-0.00302099,5.61803e-07,31,-80,1.48581,0.1,12.1129,0.1,0.372
-1.43947,-1.43756,0.628415,0.627909,-0.00616748,-0.00267916,-0.00308374,3.74536e-07,31,-80,1.5119,0.1,12.0587,0.1,0.376
-1.43949,-1.43757,0.628402,0.627909,-0.00629417,-0.00290895,-0.00314708,2.4969e-07,30,-79,1.53761,0.1,12.0048,0.1,0.38
-1.43952,-1.43759,0.62839,0.627909,-0.00642203,-0.00309094,-0.00321101,1.6646e-07,30,-79,1.5626,0.1,11.9514,0.1,0.384
-1.43954,-1.4376,0.628377,0.627909,-0.00655106,-0.00324105,-0.00327553,1.10973e-07,30,-79,1.5872,0.1,11.8983,0.1,0.388
-1.43957,-1.43761,0.628364,0.627909,-0.00668127,-0.00334113,-0.00334064,7.39823e-08,30,-79,1.61162,0.1,11.8456,0.1,0.392
-1.43959,-1.43763,0.62835,0.627909,-0.00681264,-0.00346543,-0.00340632,4.93216e-08,30,-79,1.63618,0.1,11.7933,0.1,0.396
-1.43962,-1.43764,0.628336,0.627909,-0.00694518,-0.0035483,-0.00347259,3.2881e-08,31,-79,1.66076,0.1,11.7414,0.1,0.4
-1.43965,-1.43766,0.628322,0.627909,-0.00707887,-0.00357475,-0.00353944,2.19207e-08,31,-79,1.68565,0.1,11.6899,0.1,0.404
-1.43968,-1.43767,0.628308,0.627909,-0.00721372,-0.0035348,-0.00360686,1.46138e-08,33,-78,1.71122,0.1,11.6387,0.1,0.408
-1.43971,-1.43769,0.628293,0.627909,-0.00734973,-0.00350817,-0.00367487,9.74253e-09,34,-78,1.7379,0.1,11.5879,0.1,0.412
-1.43974,-1.4377,0.628279,0.627909,-0.00748689,-0.00357679,-0.00374344,6.49502e-09,34,-78,1.76557,0.1,11.5376,0.1,0.416
-1.43977,-1.43772,0.628263,0.627909,-0.00762519,-0.0037377,-0.00381259,4.33001e-09,34,-78,1.79359,0.1,11.4876,0.1,0.42
-1.4398,-1.43773,0.628248,0.627909,-0.00776463,-0.00390256,-0.00388232,2.88668e-09,34,-78,1.8214,0.1,11.438,0.1,0.424
-1.43983,-1.43775,0.628232,0.627909,-0.00790522,-0.00412762,-0.00395261,1.92445e-09,33,-78,1.84896,0.1,11.3888,0.1,0.428
-1.43986,-1.43777,0.628216,0.627909,-0.00804694,-0.00439283,-0.00402347,1.28297e-09,33,-77,1.87588,0.1,11.3399,0.1,0.432
-1.43989,-1.43779,0.6282,0.627909,-0.00818979,-0.00454085,-0.0040949,8.55311e-10,33,-77,1.90198,0.1,11.2915,0.1,0.436
-1.43993,-1.43781,0.628184,0.627909,-0.00833378,-0.00466831,-0.00416689,5.70207e-10,33,-77,1.928,0.1,11.2435,0.1,0.44
-1.43996,-1.43783,0.628167,0.627909,-0.00847889,-0.00483966,-0.00423945,3.80138e-10,33,-77,1.95406,0.1,11.1958,0.1,0.444
-1.44,-1.43785,0.62815,0.627909,-0.00862513,-0.00504027,-0.00431256,2.53426e-10,33,-77,1.97988,0.1,11.1485,0.1,0.448
-1.44003,-1.43787,0.628132,0.627909,-0.00877248,-0.00514522,-0.00438624,1.6895e-10,33,-77,2.00534,0.1,11.1017,0.1,0.452
-1.44007,-1.4379,0.628115,0.627909,-0.00892096,-0.00518639,-0.00446048,1.12634e-10,34,-76,2.03105,0.1,11.0552,0.1,0.456
-1.4401,-1.43792,0.628097,0.627909,-0.00907054,-0.005329,-0.00453527,7.5089e-11,34,-76,2.05737,0.1,11.0091,0.1,0.46
-1.44014,-1.43794,0.628078,0.627909,-0.00922124,-0.00556803,-0.00461062,5.00594e-11,33,-76,2.08365,0.1,10.9635,0.1,0.464
-1.44018,-1.43797,0.62806,0.627909,-0.00937304,-0.00581376,-0.00468652,3.33729e-11,33,-76,2.10928,0.1,10.9182,0.1,0.468
-1.44021,-1.43799,0.628041,0.627909,-0.00952595,-0.00606395,-0.00476298,2.22486e-11,32,-76,2.13423,0.1,10.8733,0.1,0.472
-1.44025,-1.43802,0.628022,0.627909,-0.00967996,-0.00623074,-0.00483998,1.48324e-11,32,-75,2.15853,0.1,10.8288,0.1,0.476
-1.44029,-1.43805,0.628002,0.627909,-0.00983507,-0.00628436,-0.00491753,9.88827e-12,33,-75,2.18274,0.1,10.7847,0.1,0.48
-1.44033,-1.43807,0.627982,0.627909,-0.00999127,-0.0063201,-0.00499563,6.59218e-12,34,-75,2.20759,0.1,10.741,0.1,0.484
-1.44037,-1.4381,0.627962,0.627909,-0.0101486,-0.00622876,-0.00507428,4.39479e-12,35,-75,2.23325,0.1,10.6977,0.1,0.488
-1.44041,-1.43812,0.627942,0.627909,-0.0103069,-0.0060815,-0.00515347,2.92986e-12,37,-75,2.26054,0.1,10.6549,0.1,0.492
-1.44045,-1.43814,0.627921,0.627909,-0.0104664,-0.005753,-0.0052332,1.95324e-12,40,-74,2.2899,0.1,10.6124,0.1,0.496
-1.4405,-1.43816,0.6279,0.627909,-0.0106269,-0.0052173,-0.00531347,1.30216e-12,45,-74,2.32254,0.1,10.5703,0.1,0.5
-1.44054,-1.43817,0.627878,0.627909,-0.0107886,-0.00448588,-0.00539428,8.68106e-13,51,-74,2.35985,0.1,10.5286,0.1,0.504
-1.44058,-1.43817,0.627857,0.627909,-0.0109513,-0.0035952,-0.00547563,5.78737e-13,58,-74,2.4031,0.1,10.4873,0.1,0.508
-1.44063,-1.43818,0.627835,0.627909,-0.011115,-0.00256954,-0.00555751,3.85825e-13,65,-74,2.45335,0.1,10.4465,0.1,0.512
-1.44067,-1.43818,0.627812,0.627909,-0.0112799,-0.00162666,-0.00563993,2.57217e-13,73,-73,2.51138,0.1,10.406,0.1,0.516
-1.44072,-1.43818,0.62779,0.627909,-0.0114458,-0.00105565,-0.00572288,1.71478e-13,78,-73,2.57651,0.1,10.366,0.1,0.52
-1.44076,-1.43818,0.627766,0.627909,-0.0116127,-0.000703764,-0.00580636,1.14318e-13,81,-73,2.64632,0.1,10.3264,0.1,0.524
-1.44081,-1.43818,0.627743,0.627909,-0.0117807,-0.000469176,-0.00589036,7.62123e-14,84,-73,2.71941,0.1,10.2871,0.1,0.528
-1.44086,-1.43818,0.627719,0.627909,-0.0119498,-0.000312784,-0.0059749,5.08082e-14,86,-72,2.79501,0.1,10.2483,0.1,0.532
-1.4409,-1.43818,0.627695,0.627909,-0.0121199,-0.000237314,-0.00605996,3.38721e-14,88,-72,2.87262,0.1,10.2099,0.1,0.536
-1.44095,-1.43818,0.627671,0.627909,-0.0122911,-0.000158209,-0.00614555,2.25814e-14,90,-72,2.95173,0.1,10.1719,0.1,0.54
-1.441,-1.43818,0.627646,0.627909,-0.0124633,-0.000105473,-0.00623166,1.50543e-14,91,-72,3.03236,0.1,10.1344,0.1,0.544
-1.44105,-1.43818,0.627621,0.627909,-0.0126366,-7.03152e-05,-0.00631829,1.00362e-14,93,-71,3.11434,0.1,10.0972,0.1,0.548
-1.4411,-1.43818,0.627596,0.627909,-0.0128109,-4.68768e-05,-0.00640544,6.69079e-15,94,-71,3.19756,0.1,10.0605,0.1,0.552
-1.44116,-1.43818,0.62757,0.627909,-0.0129862,-6.00421e-05,-0.00649311,4.46053e-15,96,-71,3.28195,0.1,10.0242,0.1,0.556
-1.44121,-1.43818,0.627544,0.627909,-0.0131626,-4.00281e-05,-0.00658129,2.97369e-15,97,-71,3.36729,0.1,9.98827,0.1,0.56
-1.44126,-1.43818,0.627517,0.627909,-0.01334,-2.66854e-05,-0.00666999,1.98246e-15,99,-70,3.45379,0.1,9.95279,0.1,0.564
-1.44131,-1.43818,0.62749,0.627909,-0.0135184,-1.77903e-05,-0.0067592,1.32164e-15,100,-70,3.54142,0.1,9.91773,0.1,0.568
-1.44137,-1.43818,0.627463,0.627909,-0.0136978,-1.18602e-05,-0.00684892,8.81092e-16,102,-70,3.63014,0.1,9.8831,0.1,0.572
-1.44142,-1.43818,0.627435,0.627909,-0.0138783,-3.66977e-05,-0.00693915,5.87395e-16,103,-70,3.71994,0.1,9.84889,0.1,0.576
-1.44148,-1.43818,0.627408,0.627909,-0.0140598,-2.44651e-05,-0.00702989,3.91597e-16,104,-69,3.81065,0.1,9.8151,0.1,0.58
-1.44154,-1.43818,0.627379,0.627909,-0.0142423,-1.63101e-05,-0.00712114,2.61064e-16,106,-69,3.90249,0.1,9.78174,0.1,0.584
-1.44159,-1.43818,0.627351,0.627909,-0.0144258,-3.96643e-05,-0.00721289,1.74043e-16,107,-69,3.99544,0.1,9.74881,0.1,0.588
-1.44165,-1.43818,0.627322,0.627909,-0.0146103,-2.64429e-05,-0.00730515,1.16029e-16,109,-69,4.08932,0.1,9.7163,0.1,0.592
-1.44171,-1.43818,0.627292,0.627909,-0.0147958,-4.64195e-05,-0.0073979,7.73524e-17,110,-68,4.18434,0.1,9.68422,0.1,0.596
-1.44177,-1.43818,0.627262,0.627909,-0.0149823,-3.09463e-05,-0.00749116,5.15683e-17,111,-68,4.28033,0.1,9.65258,0.1,0.6
-1.44183,-1.43818,0.627232,0.627909,-0.0151698,-4.94218e-05,-0.00758492,3.43788e-17,113,-68,4.3775,0.1,9.62136,0.1,0.604
-1.44189,-1.43818,0.627202,0.627909,-0.0153583,-3.29479e-05,-0.00767917,2.29192e-17,114,-67,4.47565,0.1,9.59058,0.1,0.608
-1.44195,-1.43818,0.627171,0.627909,-0.0155478,-7.95471e-05,-0.00777392,1.52795e-17,116,-67,4.57497,0.1,9.56023,0.1,0.612
-1.44202,-1.43818,0.627139,0.627909,-0.0157383,-8.18223e-05,-0.00786916,1.01863e-17,117,-67,4.67511,0.1,9.53032,0.1,0.616
-1.44208,-1.43818,0.627108,0.627909,-0.0159298,-0.00011213,-0.00796489,6.79088e-18,118,-67,4.77633,0.1,9.50085,0.1,0.62
-1.44214,-1.43818,0.627076,0.627909,-0.0161222,-0.000103544,-0.00806112,4.52726e-18,120,-66,4.87848,0.1,9.47181,0.1,0.624
-1.44221,-1.43818,0.627043,0.627909,-0.0163157,-9.78205e-05,-0.00815783,3.01817e-18,121,-66,4.9818,0.1,9.44321,0.1,0.628
-1.44227,-1.43818,0.62701,0.627909,-0.0165101,-9.40046e-05,-0.00825503,2.01211e-18,123,-66,5.08628,0.1,9.41505,0.1,0.632
-1.44234,-1.43818,0.626977,0.627909,-0.0167054,-6.26697e-05,-0.00835272,1.34141e-18,125,-65,5.19193,0.1,9.38733,0.1,0.636
-1.44241,-1.43818,0.626944,0.627909,-0.0169018,-9.93617e-05,-0.00845089,8.94273e-19,126,-65,5.29889,0.1,9.36005,0.1,0.64
-1.44248,-1.43818,0.62691,0.627909,-0.0170991,-9.5032e-05,-0.00854955,5.96182e-19,128,-65,5.40676,0.1,9.33322,0.1,0.644
-1.44254,-1.43818,0.626875,0.627909,-0.0172974,-0.000149727,-0.00864868,3.97454e-19,129,-64,5.51577,0.1,9.30683,0.1,0.648
-1.44261,-1.43818,0.62684,0.627909,-0.0174966,-0.0001574,-0.0087483,2.6497e-19,130,-64,5.6256,0.1,9.28089,0.1,0.652
-1.44268,-1.43818,0.626805,0.627909,-0.0176968,-0.000191306,-0.00884839,1.76646e-19,132,-64,5.73651,0.1,9.25539,0.1,0.656
-1.44276,-1.43818,0.62677,0.627909,-0.0178979,-0.000185119,-0.00894896,1.17764e-19,133,-63,5.84838,0.1,9.23035,0.1,0.66
-1.44283,-1.43819,0.626734,0.627909,-0.0181,-0.000152204,-0.00905,7.85095e-20,135,-63,5.96146,0.1,9.20575,0.1,0.664
-1.4429,-1.43819,0.626697,0.627909,-0.018303,-0.000159051,-0.00915152,-2.87909e-05,137,-63,6.07592,0.1,9.18159,0.1,0.668
-1.44297,-1.43819,0.62666,0.627909,-0.018507,-0.000163616,-0.00925351,-1.91939e-05,138,-62,6.1915,0.1,9.15788,0.1,0.672
-1.44305,-1.43819,0.626623,0.627909,-0.0187119,-0.00019545,-0.00935597,-1.2796e-05,140,-62,6.30822,0.1,9.13463,0.1,0.676
-1.44312,-1.43819,0.626586,0.627909,-0.0189178,-0.000216673,-0.0094589,-8.53064e-06,141,-62,6.42591,0.1,9.11183,0.1,0.68
-1.4432,-1.43819,0.626548,0.627909,-0.0191246,-0.000288403,-0.00956229,-5.6871e-06,143,-61,6.54463,0.1,9.0895,0.1,0.684
-1.44328,-1.43819,0.626509,0.627909,-0.0193323,-0.000307432,-0.00966615,-3.7914e-06,144,-61,6.6641,0.1,9.06762,0.1,0.688
-1.44335,-1.43819,0.62647,0.627909,-0.019541,-0.000320119,-0.00977048,-2.5276e-06,146,-61,6.78463,0.1,9.04621,0.1,0.692
-1.44343,-1.43819,0.626431,0.627909,-0.0197505,-0.000357367,-0.00987527,-1.68507e-06,147,-60,6.90628,0.1,9.02525,0.1,0.696
-1.44351,-1.4382,0.626391,0.627909,-0.019961,-0.000353408,-0.00998051,-1.12338e-06,149,-60,7.02891,0.1,9.00476,0.1,0.7
-1.44359,-1.4382,0.626351,0.627908,-0.0201724,-0.000350769,-0.0100862,-5.83308e-05,151,-60,7.15277,0.1,8.9847,0.1,0.704
-1.44367,-1.4382,0.626311,0.627909,-0.0203848,-0.000320219,-0.0101924,-1.00963e-05,153,-59,7.27789,0.1,8.96511,0.1,0.708
-1.44376,-1.4382,0.62627,0.627909,-0.020598,-0.000299852,-0.010299,-6.73084e-06,154,-59,7.40443,0.1,8.94601,0.1,0.712
-1.44384,-1.4382,0.626228,0.627909,-0.0208122,-0.000286274,-0.0104061,-4.48722e-06,156,-59,7.53232,0.1,8.92737,0.1,0.716
-1.44392,-1.4382,0.626186,0.627909,-0.0210272,-0.000277222,-0.0105136,-2.99148e-06,158,-58,7.66154,0.1,8.90921,0.1,0.72
-1.44401,-1.4382,0.626144,0.627909,-0.0212432,-0.000242397,-0.0106216,-1.99432e-06,160,-58,7.79207,0.1,8.89151,0.1,0.724
-1.44409,-1.4382,0.626101,0.627909,-0.02146,-0.00021918,-0.01073,-1.32955e-06,162,-57,7.92406,0.1,8.87428,0.1,0.728
-1.44418,-1.4382,0.626058,0.627908,-0.0216778,-0.000203702,-0.0108389,-5.84682e-05,164,-57,8.05745,0.1,8.8575,0.1,0.732
-1.44427,-1.4382,0.626015,0.627908,-0.0218964,-0.000222174,-0.0109482,-1.01879e-05,165,-57,8.19218,0.1,8.8412,0.1,0.736
-1.44435,-1.43821,0.625971,0.627908,-0.022116,-0.000205698,-0.011058,-6.79192e-06,167,-56,8.32805,0.1,8.82539,0.1,0.74
-1.44444,-1.43821,0.625926,0.627908,-0.0223364,-0.000252296,-0.0111682,-4.52795e-06,169,-56,8.46527,0.1,8.81006,0.1,0.744
-1.44453,-1.43821,0.625881,0.627908,-0.0225577,-0.00025457,-0.0112789,-3.01863e-06,171,-55,8.60345,0.1,8.79521,0.1,0.748
-1.44462,-1.43821,0.625836,0.627908,-0.0227799,-0.000284877,-0.01139,-2.01242e-06,172,-55,8.74288,0.1,8.78083,0.1,0.752
-1.44471,-1.43821,0.62579,0.627908,-0.023003,-0.000333873,-0.0115015,-3.01325e-05,174,-55,8.88337,0.1,8.76693,0.1,0.756
-1.44481,-1.43821,0.625744,0.627908,-0.0232269,-0.000395327,-0.0116135,-2.00884e-05,175,-54,9.0248,0.1,8.7535,0.1,0.76
-1.4449,-1.43822,0.625697,0.627908,-0.0234518,-0.000436297,-0.0117259,-1.33922e-05,177,-54,9.16711,0.1,8.74056,0.1,0.764
-1.44499,-1.43822,0.62565,0.627908,-0.0236775,-0.000492401,-0.0118387,-8.92816e-06,178,-53,9.31043,0.1,8.72812,0.1,0.768
-1.44509,-1.43822,0.625603,0.627908,-0.023904,-0.000529804,-0.011952,-3.4743e-05,180,-53,9.45468,0.1,8.71614,0.1,0.772
-1.44519,-1.43822,0.625555,0.627908,-0.0241314,-0.00058353,-0.0120657,-2.3162e-05,181,-53,9.59997,0.1,8.70465,0.1,0.776
-1.44528,-1.43822,0.625506,0.627908,-0.0243597,-0.000561766,-0.0121799,-1.54413e-05,183,-52,9.74623,0.1,8.69366,0.1,0.78
-1.44538,-1.43823,0.625457,0.627908,-0.0245888,-0.000576047,-0.0122944,-1.02942e-05,185,-52,9.89393,0.1,8.68316,0.1,0.784
-1.44548,-1.43823,0.625408,0.627908,-0.0248188,-0.000614359,-0.0124094,-6.86282e-06,187,-51,10.0428,0.1,8.67316,0.1,0.788
-1.44558,-1.43823,0.625358,0.627907,-0.0250497,-0.000611109,-0.0125248,-3.33661e-05,189,-51,10.1928,0.1,8.66364,0.1,0.792
-1.44568,-1.43824,0.625307,0.627907,-0.0252814,-0.000637733,-0.0126407,-2.22441e-05,191,-50,10.3441,0.1,8.65461,0.1,0.796
-1.44578,-1.43824,0.625257,0.627907,-0.0255139,-0.000626692,-0.0127569,-4.36203e-05,193,-50,10.4966,0.1,8.64607,0.1,0.8
-1.44588,-1.43824,0.625205,0.627907,-0.0257473,-0.000648122,-0.0128736,-2.90802e-05,194,-50,10.6504,0.1,8.63803,0.1,0.804
-1.44599,-1.43824,0.625154,0.627907,-0.0259815,-0.000662409,-0.0129907,-1.93868e-05,196,-49,10.8055,0.1,8.63049,0.1,0.808
-1.44609,-1.43825,0.625101,0.627907,-0.0262165,-0.000671933,-0.0131083,-1.29245e-05,198,-49,10.9618,0.1,8.62347,0.1,0.812
-1.4462,-1.43825,0.625049,0.627907,-0.0264524,-0.000620701,-0.0132262,-3.74073e-05,200,-48,11.1194,0.1,8.61693,0.1,0.816
-1.4463,-1.43825,0.624996,0.627907,-0.0266891,-0.000644128,-0.0133446,-2.49382e-05,202,-48,11.2786,0.1,8.6109,0.1,0.82
-1.44641,-1.43825,0.624942,0.627906,-0.0269266,-0.000630955,-0.0134633,-4.54164e-05,204,-47,11.4391,0.1,8.60536,0.1,0.824
-1.44652,-1.43826,0.624888,0.627906,-0.027165,-0.000708546,-0.0135825,-3.02776e-05,206,-47,11.6009,0.1,8.60033,0.1,0.828
-1.44663,-1.43826,0.624833,0.627906,-0.0274042,-0.000760273,-0.0137021,-4.8976e-05,208,-46,11.7636,0.1,8.59581,0.1,0.832
-1.44674,-1.43826,0.624778,0.627906,-0.0276442,-0.00085234,-0.0138221,-6.14416e-05,209,-46,11.9273,0.1,8.59178,0.1,0.836
-1.44685,-1.43827,0.624723,0.627905,-0.027885,-0.000942509,-0.0139425,-6.9752e-05,210,-45,12.0918,0.1,8.58825,0.1,0.84
-1.44696,-1.43827,0.624667,0.627905,-0.0281266,-0.00100262,-0.0140633,-0.000104083,212,-45,12.257,0.1,8.58521,0.1,0.844
-1.44707,-1.43828,0.62461,0.627904,-0.028369,-0.00110028,-0.0141845,-0.000126971,213,-44,12.4232,0.1,8.58266,0.1,0.848
-1.44719,-1.43828,0.624553,0.627903,-0.0286123,-0.00116538,-0.0143061,-0.000142229,215,-44,12.5901,0.1,8.58061,0.1,0.852
-1.4473,-1.43829,0.624496,0.627902,-0.0288563,-0.0011512,-0.0144282,-0.000209983,217,-44,12.758,0.1,8.57903,0.1,0.856
-1.44742,-1.43829,0.624438,0.6279,-0.0291012,-0.00122812,-0.0145506,-0.000255152,219,-43,12.9274,0.1,8.57792,0.1,0.86
-1.44754,-1.4383,0.624379,0.627899,-0.0293468,-0.00116424,-0.0146734,-0.000256474,221,-43,13.0977,0.1,8.57731,0.1,0.864
-1.44765,-1.4383,0.624321,0.627899,-0.0295932,-0.00115044,-0.0147966,-0.000228565,223,-42,13.2698,0.1,8.57722,0.1,0.868
-1.44777,-1.43831,0.624261,0.627898,-0.0298404,-0.00108366,-0.0149202,-0.000238749,226,-42,13.4434,0.1,8.57766,0.1,0.872
-1.44789,-1.43831,0.624201,0.627897,-0.0300884,-0.00106793,-0.0150442,-0.000216748,228,-41,13.6188,0.1,8.57863,0.1,0.876
-1.44801,-1.43831,0.624141,0.627896,-0.0303372,-0.000999864,-0.0151686,-0.000202081,231,-41,13.7958,0.1,8.58014,0.1,0.88
-1.44814,-1.43832,0.62408,0.627895,-0.0305868,-0.000954485,-0.0152934,-0.000221093,233,-40,13.9746,0.1,8.58216,0.1,0.884
-1.44826,-1.43832,0.624018,0.627894,-0.0308372,-0.00083786,-0.0154186,-0.000204977,236,-40,14.1552,0.1,8.58471,0.1,0.888
-1.44838,-1.43832,0.623956,0.627893,-0.0310883,-0.000788901,-0.0155441,-0.000223024,238,-39,14.3379,0.1,8.58778,0.1,0.892
-1.44851,-1.43832,0.623894,0.627893,-0.0313402,-0.00072747,-0.0156701,-0.000177474,241,-38,14.5224,0.1,8.5914,0.1,0.896
-1.44863,-1.43833,0.623831,0.627892,-0.0315928,-0.000744099,-0.0157964,-0.000204689,243,-38,14.7087,0.1,8.59554,0.1,0.9
-1.44876,-1.43833,0.623768,0.627892,-0.0318463,-0.000668811,-0.0159231,-0.00016525,246,-37,14.8963,0.1,8.60024,0.1,0.904
-1.44889,-1.43833,0.623704,0.627891,-0.0321005,-0.000704992,-0.0160502,-0.000167749,248,-37,15.0858,0.1,8.60547,0.1,0.908
-1.44902,-1.43834,0.623639,0.62789,-0.0323554,-0.000700322,-0.0161777,-0.000169414,250,-36,15.2765,0.1,8.61124,0.1,0.912
-1.44915,-1.43834,0.623574,0.62789,-0.0326111,-0.000697209,-0.0163056,-0.000170525,252,-36,15.4687,0.1,8.61755,0.1,0.916
-1.44928,-1.43834,0.623509,0.627889,-0.0328676,-0.000723924,-0.0164338,-0.000171265,254,-35,15.6623,0.1,8.62439,0.1,0.92
-1.44941,-1.43834,0.623443,0.627888,-0.0331248,-0.000741735,-0.0165624,-0.000200549,256,-35,15.8572,0.1,8.63176,0.1,0.924
-1.44954,-1.43835,0.623376,0.627887,-0.0333828,-0.000782399,-0.0166914,-0.000220072,258,-34,16.0533,0.1,8.63965,0.1,0.928
-1.44968,-1.43835,0.623309,0.627885,-0.0336415,-0.000838299,-0.0168208,-0.000261879,260,-34,16.2507,0.1,8.64805,0.1,0.932
-1.44981,-1.43836,0.623242,0.627884,-0.033901,-0.000846776,-0.0169505,-0.000260959,262,-33,16.4492,0.1,8.65698,0.1,0.936
-1.44995,-1.43836,0.623174,0.627883,-0.0341612,-0.000881217,-0.0170806,-0.000317927,264,-33,16.649,0.1,8.66642,0.1,0.94
-1.45008,-1.43836,0.623105,0.627881,-0.0344221,-0.000932969,-0.0172111,-0.000355906,266,-32,16.8501,0.1,8.67637,0.1,0.944
-1.45022,-1.43837,0.623036,0.627879,-0.0346838,-0.000967471,-0.0173419,-0.000381225,268,-31,17.0523,0.1,8.68684,0.1,0.948
-1.45036,-1.43837,0.622966,0.627877,-0.0349462,-0.000961681,-0.0174731,-0.000426896,271,-31,17.2558,0.1,8.69782,0.1,0.952
-1.4505,-1.43838,0.622896,0.627875,-0.0352093,-0.0010154,-0.0176047,-0.000457343,273,-30,17.4607,0.1,8.70932,0.1,0.956
-1.45064,-1.43838,0.622826,0.627872,-0.0354732,-0.0011088,-0.0177366,-0.000535223,274,-30,17.6667,0.1,8.72131,0.1,0.96
-1.45079,-1.43839,0.622754,0.62787,-0.0357378,-0.00125744,-0.0178689,-0.000587142,276,-29,17.8736,0.1,8.7338,0.1,0.964
-1.45093,-1.43839,0.622683,0.627866,-0.0360031,-0.00138532,-0.0180015,-0.000679338,277,-29,18.081,0.1,8.74676,0.1,0.968
-1.45107,-1.4384,0.62261,0.627863,-0.0362691,-0.00152815,-0.0181345,-0.000740801,279,-28,18.289,0.1,8.76022,0.1,0.972
-1.45122,-1.43841,0.622537,0.627859,-0.0365358,-0.00170975,-0.0182679,-0.000781777,280,-28,18.4975,0.1,8.77417,0.1,0.976
-1.45137,-1.43842,0.622464,0.627855,-0.0368032,-0.00185961,-0.0184016,-0.000866675,281,-27,18.7063,0.1,8.78862,0.1,0.98
-1.45151,-1.43843,0.62239,0.627852,-0.0370714,-0.00190193,-0.0185357,-0.000865693,283,-27,18.9157,0.1,8.80359,0.1,0.984
-1.45166,-1.43843,0.622316,0.627848,-0.0373402,-0.00193014,-0.0186701,-0.000893829,285,-26,19.1263,0.1,8.81909,0.1,0.988
-1.45181,-1.43844,0.622241,0.627844,-0.0376098,-0.00174742,-0.0188049,-0.000883795,289,-25,19.3384,0.1,8.83513,0.1,0.992
-1.45196,-1.43844,0.622165,0.627841,-0.0378801,-0.00151044,-0.01894,-0.000877106,293,-25,19.5531,0.1,8.85174,0.1,0.996
-1.45212,-1.43844,0.622089,0.627838,-0.038151,-0.00112212,-0.0190755,-0.000843856,298,-24,19.7711,0.1,8.86892,0.1,1
-1.45227,-1.43845,0.622013,0.627834,-0.0384226,-0.000834454,-0.0192113,-0.00085048,302,-24,19.9931,0.1,8.88666,0.1,1.004
-1.45242,-1.43845,0.621936,0.627831,-0.038695,-0.000498721,-0.0193475,-0.000826105,307,-23,20.2185,0.1,8.90497,0.1,1.008
-1.45258,-1.43845,0.621858,0.627828,-0.038968,-0.000390062,-0.019484,-0.000809855,310,-22,20.4476,0.1,8.92386,0.1,1.012
-1.45274,-1.43845,0.62178,0.627825,-0.0392417,-0.000231251,-0.0196208,-0.000770231,313,-22,20.679,0.1,8.94334,0.1,1.016
-1.45289,-1.43845,0.621701,0.627822,-0.0395161,-0.000154167,-0.019758,-0.000772605,316,-21,20.9129,0.1,8.96339,0.1,1.02
-1.45305,-1.43845,0.621622,0.62782,-0.0397912,-0.000131569,-0.0198956,-0.000745398,319,-20,21.1487,0.1,8.98402,0.1,1.024
-1.45321,-1.43845,0.621542,0.627817,-0.0400669,-0.000116504,-0.0200334,-0.000698468,321,-20,21.3863,0.1,9.00526,0.1,1.028
-1.45337,-1.43845,0.621462,0.627815,-0.0403433,-0.00010646,-0.0201717,-0.000667182,324,-19,21.6254,0.1,9.0271,0.1,1.032
-1.45353,-1.43845,0.621381,0.627812,-0.0406204,-0.000128555,-0.0203102,-0.000646324,326,-18,21.8662,0.1,9.04953,0.1,1.036
-1.4537,-1.43845,0.621299,0.62781,-0.0408981,-0.000229658,-0.0204491,-0.000603629,328,-18,22.1083,0.1,9.07257,0.1,1.04
-1.45386,-1.43845,0.621217,0.627808,-0.0411766,-0.000239478,-0.0205883,-0.000603955,331,-17,22.3512,0.1,9.0962,0.1,1.044
-1.45403,-1.43845,0.621134,0.627806,-0.0414556,-0.000361189,-0.0207278,-0.000546592,332,-16,22.5956,0.1,9.12045,0.1,1.048
-1.45419,-1.43845,0.621051,0.627804,-0.0417354,-0.000442329,-0.0208677,-0.000508349,334,-16,22.8408,0.1,9.14531,0.1,1.052
-1.45436,-1.43846,0.620967,0.627803,-0.0420158,-0.000525213,-0.0210079,-0.000482854,336,-15,23.0869,0.1,9.17079,0.1,1.056
-1.45453,-1.43846,0.620883,0.627801,-0.0422968,-0.00058047,-0.0211484,-0.000465857,338,-14,23.3341,0.1,9.19687,0.1,1.06
-1.4547,-1.43846,0.620798,0.627799,-0.0425785,-0.000646098,-0.0212893,-0.000425735,341,-13,23.5824,0.1,9.22358,0.1,1.064
-1.45487,-1.43847,0.620713,0.627798,-0.0428609,-0.000718641,-0.0214304,-0.000398987,343,-13,23.8318,0.1,9.2509,0.1,1.068
-1.45504,-1.43847,0.620627,0.627797,-0.0431438,-0.000795794,-0.0215719,-0.000381155,345,-12,24.0823,0.1,9.27883,0.1,1.072
-1.45521,-1.43847,0.62054,0.627795,-0.0434275,-0.000876021,-0.0217137,-0.000398058,347,-11,24.3339,0.1,9.30736,0.1,1.076
-1.45539,-1.43848,0.620453,0.627794,-0.0437117,-0.000958296,-0.0218559,-0.000380536,349,-11,24.5864,0.1,9.3365,0.1,1.08
-1.45556,-1.43848,0.620365,0.627792,-0.0439966,-0.000926773,-0.0219983,-0.000368854,352,-10,24.8401,0.1,9.36624,0.1,1.084
-1.45574,-1.43849,0.620277,0.62779,-0.0442822,-0.000876967,-0.0221411,-0.000447439,355,-9,25.0955,0.1,9.39655,0.1,1.088
-1.45592,-1.43849,0.620188,0.627787,-0.0445684,-0.000786181,-0.0222842,-0.000499829,358,-9,25.3528,0.1,9.42741,0.1,1.092
-1.4561,-1.43849,0.620099,0.627784,-0.0448552,-0.000783239,-0.0224276,-0.000621129,360,-8,25.6123,0.1,9.45879,0.1,1.096
-1.45628,-1.43849,0.620009,0.627779,-0.0451426,-0.000781278,-0.0225713,-0.000788368,363,-7,25.8734,0.1,9.49064,0.1,1.1
-1.45646,-1.4385,0.619918,0.627774,-0.0454306,-0.000808761,-0.0227153,-0.00101502,366,-7,26.136,0.1,9.52292,0.1,1.104
-1.45664,-1.4385,0.619827,0.627768,-0.0457193,-0.000855874,-0.0228596,-0.00113734,368,-6,26.4001,0.1,9.55565,0.1,1.108
-1.45682,-1.43851,0.619735,0.627763,-0.0460086,-0.000887283,-0.0230043,-0.00121888,370,-6,26.6654,0.1,9.5889,0.1,1.112
-1.45701,-1.43851,0.619643,0.627756,-0.0462984,-0.000879431,-0.0231492,-0.00138841,373,-5,26.9321,0.1,9.62262,0.1,1.116
-1.45719,-1.43851,0.61955,0.627749,-0.0465889,-0.000845406,-0.0232945,-0.00147263,376,-4,27.2005,0.1,9.65683,0.1,1.12
-1.45738,-1.43852,0.619457,0.627741,-0.0468801,-0.000822722,-0.02344,-0.00167274,379,-4,27.4707,0.1,9.6915,0.1,1.124
-1.45757,-1.43852,0.619363,0.627732,-0.0471718,-0.000836391,-0.0235859,-0.00183493,381,-3,27.7426,0.1,9.72661,0.1,1.128
-1.45776,-1.43852,0.619268,0.627723,-0.0474641,-0.000816712,-0.023732,-0.00197185,384,-3,28.016,0.1,9.76217,0.1,1.132
-1.45795,-1.43852,0.619173,0.627714,-0.047757,-0.000746011,-0.0238785,-0.00209192,387,-2,28.2912,0.1,9.79822,0.1,1.136
-1.45814,-1.43853,0.619077,0.627703,-0.0480505,-0.000698877,-0.0240253,-0.00231592,390,-2,28.5685,0.1,9.83468,0.1,1.14
-1.45833,-1.43853,0.618981,0.627694,-0.0483446,-0.000581082,-0.0241723,-0.00226372,394,-1,28.8477,0.1,9.87169,0.1,1.144
-1.45853,-1.43853,0.618884,0.627685,-0.0486393,-0.000502552,-0.0243197,-0.00225771,397,0,29.1292,0.1,9.9093,0.1,1.148
-1.45872,-1.43853,0.618786,0.627678,-0.0489346,-0.000421407,-0.0244673,-0.00213854,401,0,29.413,0.1,9.94756,0.1,1.152
-1.45892,-1.43853,0.618688,0.62767,-0.0492305,-0.000367311,-0.0246152,-0.0020303,404,1,29.6988,0.1,9.9865,0.1,1.156
-1.45912,-1.43853,0.618589,0.627664,-0.0495269,-0.000244874,-0.0247635,-0.00190056,407,1,29.9867,0.1,10.0261,0.1,1.16
-1.45932,-1.43853,0.61849,0.627656,-0.049824,-0.000220831,-0.024912,-0.00192923,410,2,30.2769,0.1,10.0664,0.1,1.164
-1.45952,-1.43853,0.61839,0.627648,-0.0501216,-0.000233594,-0.0250608,-0.00189077,413,3,30.5689,0.1,10.1073,0.1,1.168
-1.45972,-1.43853,0.618289,0.62764,-0.0504198,-0.00018452,-0.0252099,-0.00200907,416,4,30.8624,0.1,10.1487,0.1,1.172
-1.45992,-1.43853,0.618188,0.627631,-0.0507185,-0.000209386,-0.0253593,-0.00203036,419,4,31.1579,0.1,10.1907,0.1,1.176
-1.46012,-1.43854,0.618086,0.627624,-0.0510178,-0.000312336,-0.0255089,-0.00195819,421,5,31.4548,0.1,10.2333,0.1,1.18
-1.46033,-1.43854,0.617984,0.627616,-0.0513177,-0.000323388,-0.0256589,-0.00193886,424,6,31.7526,0.1,10.2766,0.1,1.184
-1.46053,-1.43854,0.617881,0.627608,-0.0516182,-0.000359547,-0.0258091,-0.00195476,426,7,32.052,0.1,10.3204,0.1,1.188
-1.46074,-1.43854,0.617778,0.627601,-0.0519192,-0.000354861,-0.0259596,-0.00193658,429,7,32.3528,0.1,10.3649,0.1,1.192
-1.46095,-1.43854,0.617673,0.627594,-0.0522208,-0.000351738,-0.0261104,-0.00186687,432,8,32.6553,0.1,10.4101,0.1,1.196
-1.46116,-1.43854,0.617569,0.627586,-0.0525229,-0.000292074,-0.0262615,-0.00193556,435,9,32.9594,0.1,10.4558,0.1,1.2
-1.46137,-1.43854,0.617463,0.627578,-0.0528256,-0.000252298,-0.0264128,-0.00192377,438,10,33.2656,0.1,10.5021,0.1,1.204
-1.46158,-1.43854,0.617357,0.62757,-0.0531288,-0.00022578,-0.0265644,-0.0019735,441,11,33.5736,0.1,10.5491,0.1,1.208
-1.46179,-1.43855,0.617251,0.627562,-0.0534326,-0.000236893,-0.0267163,-0.00197786,444,11,33.8835,0.1,10.5966,0.1,1.212
-1.46201,-1.43855,0.617144,0.627556,-0.0537369,-0.000157929,-0.0268685,-0.00180802,448,12,34.195,0.1,10.6448,0.1,1.216
-1.46222,-1.43855,0.617036,0.627549,-0.0540418,-0.000162868,-0.0270209,-0.00175237,451,13,34.5086,0.1,10.6938,0.1,1.22
-1.46244,-1.43855,0.616927,0.627544,-0.0543472,-0.000194951,-0.0271736,-0.0016289,453,14,34.8238,0.1,10.7435,0.1,1.224
-1.46266,-1.43855,0.616818,0.627539,-0.0546531,-0.000273922,-0.0273266,-0.00148901,456,15,35.1404,0.1,10.7939,0.1,1.228
-1.46288,-1.43855,0.616709,0.627536,-0.0549596,-0.000297778,-0.0274798,-0.00128058,459,16,35.4581,0.1,10.8451,0.1,1.232
-1.4631,-1.43855,0.616599,0.627532,-0.0552666,-0.000284892,-0.0276333,-0.00111284,462,17,35.7774,0.1,10.8971,0.1,1.236
-1.46332,-1.43855,0.616488,0.62753,-0.0555741,-0.000362673,-0.0277871,-0.00097222,464,18,36.0983,0.1,10.9499,0.1,1.24
-1.46354,-1.43855,0.616376,0.627528,-0.0558822,-0.000328155,-0.0279411,-0.000792101,467,19,36.4204,0.1,11.0035,0.1,1.244
-1.46377,-1.43856,0.616264,0.627527,-0.0561907,-0.000333934,-0.0280954,-0.000643231,470,20,36.7444,0.1,11.0579,0.1,1.248
-1.46399,-1.43856,0.616152,0.627525,-0.0564998,-0.000337786,-0.0282499,-0.000543985,473,21,37.0701,0.1,11.1131,0.1,1.252
-1.46422,-1.43856,0.616038,0.627524,-0.0568094,-0.000225191,-0.0284047,-0.000420238,477,22,37.3974,0.1,11.169,0.1,1.256
-1.46445,-1.43856,0.615924,0.627524,-0.0571196,-0.000207709,-0.0285598,-0.000337741,480,23,37.727,0.1,11.2257,0.1,1.26
-1.46468,-1.43856,0.61581,0.627523,-0.0574302,-0.000167264,-0.0287151,-0.000282742,483,24,38.0585,0.1,11.2832,0.1,1.264
-1.46491,-1.43856,0.615695,0.627522,-0.0577413,-0.0001403,-0.0288707,-0.000246077,486,25,38.3919,0.1,11.3413,0.1,1.268
-1.46514,-1.43856,0.615579,0.627522,-0.058053,-0.000179906,-0.0290265,-0.000221633,489,26,38.7271,0.1,11.4002,0.1,1.272
-1.46537,-1.43856,0.615462,0.62752,-0.0583651,-0.000177519,-0.0291826,-0.000262919,492,27,39.0637,0.1,11.4597,0.1,1.276
-1.4656,-1.43856,0.615345,0.627519,-0.0586778,-0.000147137,-0.0293389,-0.000319234,496,28,39.402,0.1,11.5199,0.1,1.28
-1.46584,-1.43856,0.615228,0.627517,-0.058991,-0.000242046,-0.0294955,-0.000385568,498,29,39.7421,0.1,11.5808,0.1,1.284
-1.46608,-1.43856,0.615109,0.627514,-0.0593046,-0.000218946,-0.0296523,-0.000487373,501,29,40.0833,0.1,11.6422,0.1,1.288
-1.46631,-1.43857,0.61499,0.627511,-0.0596187,-0.000318709,-0.0298094,-0.000584034,504,30,40.4263,0.1,11.7043,0.1,1.292
-1.46655,-1.43857,0.614871,0.627506,-0.0599334,-0.000327637,-0.0299667,-0.000763638,507,31,40.7703,0.1,11.7669,0.1,1.296
-1.46679,-1.43857,0.614751,0.627503,-0.0602485,-0.000276006,-0.0301242,-0.000797001,510,32,41.116,0.1,11.8301,0.1,1.3
-1.46704,-1.43857,0.61463,0.627499,-0.0605641,-0.000327959,-0.030282,-0.000848034,513,33,41.4637,0.1,11.8939,0.1,1.304
-1.46728,-1.43857,0.614508,0.627495,-0.0608802,-0.000333803,-0.0304401,-0.000882056,516,34,41.8127,0.1,11.9585,0.1,1.308
-1.46752,-1.43857,0.614386,0.627491,-0.0611967,-0.000308908,-0.0305984,-0.000933529,519,35,42.1634,0.1,12.0236,0.1,1.312
-1.46777,-1.43857,0.614264,0.627485,-0.0615138,-0.00023473,-0.0307569,-0.00108301,523,35,42.5159,0.1,12.0894,0.1,1.316
-1.46801,-1.43857,0.61414,0.62748,-0.0618313,-0.000242859,-0.0309156,-0.00121145,526,36,42.8706,0.1,12.1557,0.1,1.32
-1.46826,-1.43857,0.614016,0.627473,-0.0621493,-0.000219488,-0.0310746,-0.00135466,529,37,43.227,0.1,12.2226,0.1,1.324
-1.46851,-1.43857,0.613892,0.627466,-0.0624677,-0.000232698,-0.0312339,-0.00150772,532,38,43.5852,0.1,12.2901,0.1,1.328
-1.46876,-1.43858,0.613766,0.627457,-0.0627866,-0.000270296,-0.0313933,-0.00175371,535,39,43.945,0.1,12.358,0.1,1.332
-1.46901,-1.43858,0.613641,0.627447,-0.063106,-0.000324152,-0.031553,-0.00200408,538,39,44.3062,0.1,12.4264,0.1,1.336
-1.46927,-1.43858,0.613514,0.627435,-0.0634258,-0.000388847,-0.0317129,-0.00228615,541,40,44.6687,0.1,12.4953,0.1,1.34
-1.46952,-1.43858,0.613387,0.627423,-0.0637461,-0.00054714,-0.0318731,-0.00253178,543,41,45.0325,0.1,12.5646,0.1,1.344
-1.46978,-1.43859,0.613259,0.627411,-0.0640669,-0.000710251,-0.0320335,-0.00269554,545,42,45.397,0.1,12.6344,0.1,1.348
-1.47003,-1.43859,0.613131,0.627397,-0.0643881,-0.00076141,-0.0321941,-0.00300624,548,42,45.7621,0.1,12.7046,0.1,1.352
-1.47029,-1.4386,0.613002,0.627381,-0.0647098,-0.000881889,-0.0323549,-0.00329975,550,43,46.1285,0.1,12.7752,0.1,1.356
-1.47055,-1.4386,0.612872,0.627363,-0.0650319,-0.000847044,-0.0325159,-0.00372576,554,43,46.496,0.1,12.8462,0.1,1.36
-1.47081,-1.4386,0.612741,0.627342,-0.0653544,-0.000823814,-0.0326772,-0.0041825,557,44,46.8654,0.1,12.9174,0.1,1.364
-1.47107,-1.4386,0.61261,0.627321,-0.0656774,-0.000750746,-0.0328387,-0.00457337,561,44,47.2367,0.1,12.9889,0.1,1.368
-1.47134,-1.4386,0.612479,0.627298,-0.0660008,-0.000558079,-0.0330004,-0.00497791,566,45,47.6102,0.1,13.0607,0.1,1.372
-1.4716,-1.43861,0.612346,0.627275,-0.0663247,-0.000400844,-0.0331623,-0.00521881,570,46,47.9868,0.1,13.1328,0.1,1.376
-1.47187,-1.43861,0.612213,0.627251,-0.066649,-0.000324811,-0.0333245,-0.00546578,574,46,48.3661,0.1,13.2053,0.1,1.38
-1.47214,-1.43861,0.61208,0.627227,-0.0669737,-0.000245332,-0.0334869,-0.00568801,577,47,48.7477,0.1,13.2782,0.1,1.384
-1.4724,-1.43861,0.611945,0.627192,-0.0672989,-0.000278718,-0.0336494,-0.00669989,581,47,49.1314,0.1,13.3512,0.1,1.388
-1.47267,-1.43861,0.611811,0.627174,-0.0676245,-0.000272185,-0.0338122,-0.00596372,584,49,49.5167,0.1,13.4248,0.1,1.392
-1.47295,-1.43861,0.611675,0.627146,-0.0679505,-0.000498157,-0.0339752,-0.00627909,586,49,49.9037,0.1,13.499,0.1,1.396
-1.47322,-1.43862,0.611539,0.627117,-0.0682769,-0.000677596,-0.0341385,-0.0066045,588,50,50.2909,0.1,13.5736,0.1,1.4
-1.47349,-1.43862,0.611402,0.627088,-0.0686038,-0.000854803,-0.0343019,-0.00682143,590,50,50.6786,0.1,13.6485,0.1,1.404
-1.47377,-1.43863,0.611264,0.627059,-0.068931,-0.00114569,-0.0344655,-0.00699485,592,51,51.0669,0.1,13.7239,0.1,1.408
-1.47404,-1.43863,0.611126,0.627029,-0.0692587,-0.00131082,-0.0346294,-0.00716805,594,52,51.455,0.1,13.7997,0.1,1.412
-1.47432,-1.43864,0.610987,0.626998,-0.0695868,-0.00147849,-0.0347934,-0.00734109,596,53,51.8438,0.1,13.8759,0.1,1.416
-1.4746,-1.43865,0.610848,0.626966,-0.0699153,-0.00138873,-0.0349576,-0.00757162,600,53,52.2334,0.1,13.9526,0.1,1.42
-1.47488,-1.43865,0.610708,0.626933,-0.0702442,-0.00127131,-0.0351221,-0.00775409,604,54,52.6254,0.1,14.0296,0.1,1.424
-1.47516,-1.43865,0.610567,0.626899,-0.0705735,-0.000933914,-0.0352867,-0.0080197,610,55,53.0199,0.1,14.107,0.1,1.428
-1.47544,-1.43865,0.610425,0.626865,-0.0709032,-0.000593819,-0.0354516,-0.00819677,615,55,53.4186,0.1,14.1848,0.1,1.432
-1.47573,-1.43865,0.610283,0.62683,-0.0712333,-0.00042467,-0.0356167,-0.00837239,620,56,53.8211,0.1,14.263,0.1,1.436
-1.47601,-1.43865,0.61014,0.626795,-0.0715638,-0.000283113,-0.0357819,-0.00846069,624,57,54.2266,0.1,14.3417,0.1,1.44
-1.4763,-1.43865,0.609997,0.626759,-0.0718947,-0.000188742,-0.0359473,-0.00872109,628,58,54.6347,0.1,14.4208,0.1,1.444
-1.47659,-1.43865,0.609853,0.626721,-0.072226,-0.000154619,-0.036113,-0.00895227,632,58,55.0452,0.1,14.5003,0.1,1.448
-1.47688,-1.43865,0.609708,0.626682,-0.0725576,-0.000103079,-0.0362788,-0.00922155,636,59,55.4576,0.1,14.5801,0.1,1.452
-1.47717,-1.43865,0.609563,0.626642,-0.0728897,-0.000126301,-0.0364448,-0.00948745,639,60,55.8722,0.1,14.6602,0.1,1.456
-1.47746,-1.43865,0.609417,0.6266,-0.0732221,-0.000112992,-0.0366111,-0.00980867,643,60,56.2884,0.1,14.7406,0.1,1.46
-1.47776,-1.43865,0.60927,0.626557,-0.0735549,-0.000104119,-0.0367775,-0.010138,646,61,56.7064,0.1,14.8212,0.1,1.464
-1.47805,-1.43865,0.609122,0.626512,-0.0738881,-0.000155785,-0.0369441,-0.0104727,649,61,57.1263,0.1,14.9022,0.1,1.468
-1.47835,-1.43866,0.608974,0.626467,-0.0742217,-0.000219021,-0.0371109,-0.0107822,652,62,57.5476,0.1,14.9834,0.1,1.472
-1.47864,-1.43866,0.608825,0.626422,-0.0745556,-0.000203596,-0.0372778,-0.0109309,656,63,57.9703,0.1,15.0649,0.1,1.476
-1.47894,-1.43866,0.608676,0.62638,-0.0748899,-0.000308476,-0.037445,-0.0107422,659,64,58.3948,0.1,15.147,0.1,1.48
-1.47924,-1.43866,0.608526,0.626342,-0.0752246,-0.000320814,-0.0376123,-0.0103285,662,65,58.8204,0.1,15.23,0.1,1.484
-1.47954,-1.43866,0.608375,0.626309,-0.0755597,-0.00032904,-0.0377798,-0.00964958,666,66,59.2478,0.1,15.314,0.1,1.488
-1.47985,-1.43866,0.608224,0.626281,-0.0758951,-0.000334524,-0.0379475,-0.00879391,669,68,59.6768,0.1,15.3992,0.1,1.492
-1.48015,-1.43866,0.608071,0.626259,-0.0762308,-0.000338179,-0.0381154,-0.00770522,673,70,60.1076,0.1,15.4859,0.1,1.496
-1.48046,-1.43867,0.607919,0.626243,-0.0765669,-0.000340617,-0.0382835,-0.0064612,676,72,60.5402,0.1,15.5743,0.1,1.5
-1.48076,-1.43867,0.607765,0.626233,-0.0769034,-0.000313451,-0.0384517,-0.00511361,680,74,60.9745,0.1,15.6644,0.1,1.504
-1.48107,-1.43867,0.607611,0.626229,-0.0772402,-0.000266549,-0.0386201,-0.00372577,684,77,61.4107,0.1,15.7563,0.1,1.508
-1.48138,-1.43867,0.607456,0.626229,-0.0775774,-0.000235281,-0.0387887,-0.00248385,688,79,61.849,0.1,15.8502,0.1,1.512
-1.48169,-1.43867,0.607301,0.62623,-0.0779149,-0.000243227,-0.0389575,-0.00159832,691,81,62.2893,0.1,15.9456,0.1,1.516
-1.48201,-1.43867,0.607145,0.62623,-0.0782528,-0.000219733,-0.0391264,-0.00106555,695,82,62.7312,0.1,16.0424,0.1,1.52
-1.48232,-1.43867,0.606988,0.62623,-0.078591,-0.000204071,-0.0392955,-0.000710364,699,84,63.1751,0.1,16.1403,0.1,1.524
-1.48263,-1.43867,0.60683,0.62623,-0.0789295,-0.00022242,-0.0394648,-0.000473576,702,85,63.6208,0.1,16.2393,0.1,1.528
-1.48295,-1.43867,0.606672,0.62623,-0.0792684,-0.000234653,-0.0396342,-0.000315717,706,87,64.0681,0.1,16.3392,0.1,1.532
-1.48327,-1.43867,0.606513,0.62623,-0.0796076,-0.000271599,-0.0398038,-0.000210478,709,88,64.5171,0.1,16.4401,0.1,1.536
-1.48359,-1.43868,0.606354,0.62623,-0.0799472,-0.000267439,-0.0399736,-0.000140319,713,89,64.9676,0.1,16.5419,0.1,1.54
-1.48391,-1.43868,0.606193,0.62623,-0.080287,-0.000264665,-0.0401435,-9.35458e-05,716,91,65.4199,0.1,16.6445,0.1,1.544
-1.48423,-1.43868,0.606032,0.62623,-0.0806272,-0.000262816,-0.0403136,-6.23639e-05,720,92,65.874,0.1,16.748,0.1,1.548
-1.48455,-1.43868,0.605871,0.62623,-0.0809678,-0.000290375,-0.0404839,-4.15759e-05,723,93,66.3298,0.1,16.8524,0.1,1.552
-1.48488,-1.43868,0.605709,0.62623,-0.0813086,-0.000308747,-0.0406543,-2.77173e-05,727,94,66.7872,0.1,16.9576,0.1,1.556
-1.4852,-1.43868,0.605546,0.62623,-0.0816498,-0.000378577,-0.0408249,-1.84782e-05,730,96,67.2462,0.1,17.0636,0.1,1.56
-1.48553,-1.43868,0.605382,0.62623,-0.0819913,-0.00042513,-0.0409956,-1.23188e-05,733,97,67.7065,0.1,17.1705,0.1,1.564
-1.48586,-1.43869,0.605218,0.62623,-0.0823331,-0.000484956,-0.0411665,-8.21253e-06,737,98,68.1683,0.1,17.2782,0.1,1.568
-1.48619,-1.43869,0.605053,0.62623,-0.0826752,-0.000553632,-0.0413376,-5.47502e-06,740,99,68.6314,0.1,17.3868,0.1,1.572
-1.48652,-1.43869,0.604887,0.62623,-0.0830176,-0.000570624,-0.0415088,-3.65001e-06,744,101,69.0959,0.1,17.4962,0.1,1.576
-1.48685,-1.4387,0.604721,0.62623,-0.0833603,-0.000668325,-0.0416801,-2.43334e-06,747,102,69.5619,0.1,17.6064,0.1,1.58
-1.48719,-1.4387,0.604554,0.62623,-0.0837033,-0.00076225,-0.0418517,-3.04132e-05,750,103,70.0291,0.1,17.7175,0.1,1.584
-1.48752,-1.4387,0.604386,0.626229,-0.0840467,-0.00091124,-0.0420233,-4.90664e-05,752,105,70.4974,0.1,17.8293,0.1,1.588
-1.48786,-1.43871,0.604217,0.62623,-0.0843903,-0.00109694,-0.0421951,-3.91998e-06,755,106,70.9665,0.1,17.9421,0.1,1.592
-1.4882,-1.43872,0.604048,0.62623,-0.0847342,-0.00127832,-0.0423671,-2.61332e-06,758,107,71.436,0.1,18.0557,0.1,1.596
-1.48854,-1.43872,0.603878,0.62623,-0.0850784,-0.0015432,-0.0425392,-1.74221e-06,760,108,71.9062,0.1,18.1701,0.1,1.6
-1.48888,-1.43874,0.603708,0.62623,-0.0854229,-0.0019789,-0.0427115,-1.16148e-06,760,110,72.3762,0.1,18.2854,0.1,1.604
-1.48922,-1.43875,0.603537,0.62623,-0.0857677,-0.00261486,-0.0428839,-7.74317e-07,760,111,72.845,0.1,18.4016,0.1,1.608
-1.48957,-1.43877,0.603365,0.62623,-0.0861128,-0.00338432,-0.0430564,-5.16212e-07,759,112,73.3113,0.1,18.5186,0.1,1.612
-1.48991,-1.4388,0.603192,0.62623,-0.0864582,-0.00473223,-0.0432291,-3.44141e-07,754,114,73.774,0.1,18.6365,0.1,1.616
-1.49026,-1.43884,0.603019,0.62623,-0.0868038,-0.00629303,-0.0434019,-2.29427e-07,748,115,74.2294,0.1,18.7552,0.1,1.62
-1.4906,-1.43888,0.602845,0.62623,-0.0871498,-0.00802455,-0.0435749,-1.52952e-07,740,116,74.6762,0.1,18.8747,0.1,1.624
-1.49095,-1.43894,0.60267,0.626229,-0.087496,-0.0102729,-0.043748,-2.88929e-05,729,118,75.1129,0.1,18.9951,0.1,1.628
-1.4913,-1.43901,0.602495,0.626229,-0.0878425,-0.0124341,-0.0439212,-1.92619e-05,719,119,75.5366,0.1,19.1164,0.1,1.632
-1.49166,-1.43909,0.602319,0.626229,-0.0881892,-0.014681,-0.0440946,-1.28413e-05,708,120,75.9477,0.1,19.2385,0.1,1.636
-1.49201,-1.43917,0.602142,0.626229,-0.0885363,-0.0167259,-0.0442681,-8.56086e-06,699,122,76.3458,0.1,19.3615,0.1,1.64
-1.49237,-1.43926,0.601965,0.626229,-0.0888836,-0.0188666,-0.0444418,-6.32891e-05,688,123,76.7321,0.1,19.4854,0.1,1.644
-1.49272,-1.43937,0.601787,0.626229,-0.0892311,-0.021215,-0.0446156,-1.34018e-05,677,124,77.1061,0.1,19.6101,0.1,1.648
-1.49308,-1.43948,0.601608,0.626229,-0.0895789,-0.0235004,-0.0447895,-8.93453e-06,666,126,77.4663,0.1,19.7356,0.1,1.652
-1.49344,-1.4396,0.601428,0.626228,-0.089927,-0.0260029,-0.0449635,-6.35382e-05,653,127,77.8132,0.1,19.8621,0.1,1.656
-1.4938,-1.43974,0.601248,0.626228,-0.0902754,-0.0288228,-0.0451377,-4.23588e-05,638,129,78.1453,0.1,19.9894,0.1,1.66
-1.49416,-1.43988,0.601067,0.626228,-0.0906239,-0.0311922,-0.045312,-5.70301e-05,626,130,78.4608,0.1,20.1175,0.1,1.664
-1.49452,-1.44004,0.600886,0.626227,-0.0909728,-0.0335204,-0.0454864,-9.56019e-05,615,131,78.7626,0.1,20.2465,0.1,1.668
-1.49489,-1.4402,0.600703,0.626226,-0.0913219,-0.0361954,-0.0456609,-0.000121316,601,133,79.0508,0.1,20.3764,0.1,1.672
-1.49525,-1.44037,0.60052,0.626225,-0.0916712,-0.0377196,-0.0458356,-0.000196041,594,134,79.3239,0.1,20.507,0.1,1.676
-1.49562,-1.44054,0.600337,0.626224,-0.0920208,-0.0395131,-0.0460104,-0.000188276,586,135,79.5888,0.1,20.6385,0.1,1.68
-1.49599,-1.44071,0.600152,0.626223,-0.0923707,-0.0408815,-0.0461853,-0.000240681,580,137,79.8441,0.1,20.7708,0.1,1.684
-1.49636,-1.44089,0.599967,0.626222,-0.0927207,-0.0422544,-0.0463604,-0.000246827,574,138,80.0924,0.1,20.904,0.1,1.688
-1.49673,-1.44107,0.599781,0.626221,-0.093071,-0.0430545,-0.0465355,-0.000279715,572,140,80.3341,0.1,21.038,0.1,1.692
-1.49711,-1.44125,0.599595,0.626221,-0.0934216,-0.0435303,-0.0467108,-0.000186477,573,141,80.5727,0.1,21.173,0.1,1.696
-1.49748,-1.44143,0.599408,0.62622,-0.0937724,-0.0437324,-0.0468862,-0.0001819,574,142,80.8106,0.1,21.3088,0.1,1.7
-1.49786,-1.4416,0.59922,0.62622,-0.0941234,-0.0438383,-0.0470617,-0.000150057,577,144,81.0493,0.1,21.4455,0.1,1.704
-1.49823,-1.44178,0.599031,0.626219,-0.0944746,-0.0435634,-0.0472373,-0.000186411,582,145,81.2898,0.1,21.583,0.1,1.708
-1.49861,-1.44195,0.598842,0.626219,-0.0948261,-0.043265,-0.0474131,-0.000124274,587,147,81.5343,0.1,21.7215,0.1,1.712
-1.49899,-1.44211,0.598652,0.626218,-0.0951778,-0.0425478,-0.0475889,-0.000140431,595,148,81.7832,0.1,21.8608,0.1,1.716
-1.49937,-1.44228,0.598461,0.626217,-0.0955297,-0.0421273,-0.0477649,-0.000179994,601,150,82.0389,0.1,22.001,0.1,1.72
-1.49976,-1.44244,0.59827,0.626215,-0.0958818,-0.0416166,-0.0479409,-0.000235159,607,151,82.2997,0.1,22.1421,0.1,1.724
-1.50014,-1.4426,0.598078,0.626213,-0.0962342,-0.041564,-0.0481171,-0.000329518,611,152,82.5659,0.1,22.2839,0.1,1.728
-1.50053,-1.44277,0.597885,0.626211,-0.0965868,-0.0415578,-0.0482934,-0.000392425,614,154,82.8345,0.1,22.4266,0.1,1.732
-1.50091,-1.44294,0.597691,0.626209,-0.0969395,-0.0418703,-0.0484698,-0.000434362,615,155,83.1053,0.1,22.5701,0.1,1.736
-1.5013,-1.44311,0.597497,0.626206,-0.0972925,-0.042453,-0.0486463,-0.000577484,615,157,83.376,0.1,22.7144,0.1,1.74
-1.50169,-1.44329,0.597302,0.626202,-0.0976457,-0.0431293,-0.0488229,-0.000701689,614,158,83.645,0.1,22.8595,0.1,1.744
-1.50208,-1.44347,0.597107,0.626197,-0.0979991,-0.0438969,-0.0489996,-0.000842075,612,159,83.9116,0.1,23.0053,0.1,1.748
-1.50247,-1.44366,0.59691,0.626193,-0.0983527,-0.0450708,-0.0491764,-0.000964456,608,161,84.175,0.1,23.1519,0.1,1.752
-1.50287,-1.44386,0.596713,0.626187,-0.0987065,-0.0461413,-0.0493533,-0.00110363,604,162,84.4329,0.1,23.2993,0.1,1.756
-1.50326,-1.44406,0.596515,0.626181,-0.0990605,-0.0472869,-0.0495303,-0.00125399,600,163,84.6859,0.1,23.4474,0.1,1.76
-1.50366,-1.44426,0.596317,0.626174,-0.0994147,-0.04854,-0.0497074,-0.00138302,595,165,84.9334,0.1,23.5963,0.1,1.764
-1.50406,-1.44446,0.596118,0.626168,-0.0997691,-0.0492027,-0.0498846,-0.00144025,594,166,85.175,0.1,23.7459,0.1,1.768
-1.50446,-1.44467,0.595918,0.626161,-0.100124,-0.0499324,-0.0500619,-0.00156478,592,167,85.4144,0.1,23.8963,0.1,1.772
-1.50486,-1.44487,0.595717,0.626155,-0.100478,-0.050131,-0.0502392,-0.00156142,594,169,85.6515,0.1,24.0476,0.1,1.776
-1.50526,-1.44507,0.595516,0.626148,-0.100833,-0.0504937,-0.0504167,-0.00161677,595,170,85.8894,0.1,24.1996,0.1,1.78
-1.50567,-1.44528,0.595314,0.626141,-0.101189,-0.0505051,-0.0505943,-0.00165366,598,172,86.1273,0.1,24.3525,0.1,1.784
-1.50607,-1.44548,0.595111,0.626134,-0.101544,-0.0507431,-0.0507719,-0.00164947,600,173,86.3673,0.1,24.5063,0.1,1.788
-1.50648,-1.44568,0.594908,0.626127,-0.101899,-0.0508154,-0.0509497,-0.00173305,603,175,86.608,0.1,24.6608,0.1,1.792
-1.50689,-1.44589,0.594704,0.626119,-0.102255,-0.0511803,-0.0511275,-0.00181756,604,176,86.8504,0.1,24.8162,0.1,1.796
-1.5073,-1.4461,0.594499,0.626111,-0.102611,-0.0514523,-0.0513055,-0.00181631,605,178,87.0926,0.1,24.9724,0.1,1.8
-1.50771,-1.44631,0.594293,0.626103,-0.102967,-0.0515473,-0.0514835,-0.00187307,608,179,87.3354,0.1,25.1294,0.1,1.804
-1.50812,-1.44652,0.594087,0.626095,-0.103323,-0.0521289,-0.0516616,-0.00193969,607,181,87.5795,0.1,25.2873,0.1,1.808
-1.50854,-1.44673,0.59388,0.626087,-0.10368,-0.0522863,-0.0518398,-0.00198411,609,182,87.8223,0.1,25.446,0.1,1.812
-1.50895,-1.44695,0.593672,0.626078,-0.104036,-0.0527655,-0.052018,-0.0020713,610,183,88.0661,0.1,25.6054,0.1,1.816
-1.50937,-1.44716,0.593464,0.626069,-0.104393,-0.0532001,-0.0521964,-0.00215822,610,185,88.309,0.1,25.7657,0.1,1.82
-1.50979,-1.44738,0.593255,0.626058,-0.10475,-0.0533459,-0.0523748,-0.00230254,612,186,88.5513,0.1,25.9267,0.1,1.824
-1.51021,-1.44759,0.593045,0.626047,-0.105107,-0.0535583,-0.0525533,-0.00245634,614,188,88.795,0.1,26.0884,0.1,1.828
-1.51063,-1.44781,0.592834,0.626035,-0.105464,-0.0539014,-0.0527319,-0.00264524,615,189,89.0394,0.1,26.2509,0.1,1.832
-1.51105,-1.44803,0.592623,0.626024,-0.105821,-0.0542453,-0.0529105,-0.0027136,616,190,89.2838,0.1,26.4141,0.1,1.836
-1.51147,-1.44825,0.592411,0.626012,-0.106179,-0.0547337,-0.0530893,-0.00281675,616,192,89.5282,0.1,26.5781,0.1,1.84
-1.5119,-1.44848,0.592198,0.626,-0.106536,-0.0552032,-0.0532681,-0.00285672,616,193,89.7715,0.1,26.7429,0.1,1.844
-1.51233,-1.44871,0.591985,0.625987,-0.106894,-0.0562936,-0.053447,-0.00294095,613,195,90.0137,0.1,26.9085,0.1,1.848
-1.51275,-1.44895,0.591771,0.625975,-0.107252,-0.05751,-0.0536259,-0.0030259,608,196,90.2509,0.1,27.0749,0.1,1.852
-1.51318,-1.44919,0.591556,0.625961,-0.10761,-0.0586088,-0.053805,-0.00311132,604,198,90.4822,0.1,27.2421,0.1,1.856
-1.51361,-1.44945,0.59134,0.625947,-0.107968,-0.0600899,-0.0539841,-0.00328343,598,199,90.7084,0.1,27.41,0.1,1.86
-1.51405,-1.4497,0.591124,0.62593,-0.108326,-0.0614516,-0.0541632,-0.00359971,592,200,90.927,0.1,27.5786,0.1,1.864
-1.51448,-1.44997,0.590907,0.625913,-0.108685,-0.0629928,-0.0543425,-0.00381056,585,202,91.1388,0.1,27.7477,0.1,1.868
-1.51492,-1.45024,0.590689,0.625895,-0.109044,-0.0643945,-0.0545218,-0.0040375,580,203,91.3427,0.1,27.9176,0.1,1.872
-1.51535,-1.45051,0.590471,0.625878,-0.109402,-0.0658473,-0.0547011,-0.00410242,573,205,91.5396,0.1,28.0881,0.1,1.876
-1.51579,-1.45079,0.590251,0.625861,-0.109761,-0.0672764,-0.0548806,-0.0041745,567,206,91.7292,0.1,28.2595,0.1,1.88
-1.51623,-1.45108,0.590032,0.625843,-0.11012,-0.0688338,-0.0550601,-0.00425133,560,207,91.9115,0.1,28.4316,0.1,1.884
-1.51667,-1.45138,0.589811,0.625825,-0.110479,-0.0706494,-0.0552396,-0.00438893,552,209,92.0857,0.1,28.6044,0.1,1.888
-1.51712,-1.45168,0.58959,0.625805,-0.110839,-0.072378,-0.0554193,-0.00459583,544,210,92.2503,0.1,28.7779,0.1,1.892
-1.51756,-1.45199,0.589368,0.625784,-0.111198,-0.0743078,-0.0555989,-0.00479134,534,212,92.4056,0.1,28.9521,0.1,1.896
-1.51801,-1.45232,0.589145,0.625762,-0.111557,-0.0763717,-0.0557787,-0.00497926,524,213,92.5505,0.1,29.127,0.1,1.9
-1.51845,-1.45264,0.588921,0.62574,-0.111917,-0.0781795,-0.0559585,-0.00519092,515,214,92.6841,0.1,29.3025,0.1,1.904
-1.5189,-1.45298,0.588697,0.625715,-0.112277,-0.0799029,-0.0561383,-0.00553356,507,216,92.8082,0.1,29.4786,0.1,1.908
-1.51935,-1.45331,0.588472,0.625689,-0.112636,-0.0808791,-0.0563182,-0.00584836,504,217,92.9236,0.1,29.6551,0.1,1.912
-1.5198,-1.45365,0.588247,0.625663,-0.112996,-0.0822497,-0.0564982,-0.00605823,498,218,93.0348,0.1,29.8323,0.1,1.916
-1.52025,-1.45398,0.58802,0.625639,-0.113356,-0.0829043,-0.0566782,-0.00602539,496,220,93.1397,0.1,30.0102,0.1,1.92
-1.52071,-1.45432,0.587793,0.625618,-0.113717,-0.0834558,-0.0568583,-0.00583076,496,221,93.2429,0.1,30.189,0.1,1.924
-1.52116,-1.45466,0.587565,0.625598,-0.114077,-0.0837372,-0.0570384,-0.00552825,497,223,93.345,0.1,30.3689,0.1,1.928
-1.52162,-1.455,0.587337,0.625581,-0.114437,-0.0840399,-0.0572186,-0.00506747,498,225,93.4478,0.1,30.5499,0.1,1.932
-1.52208,-1.45533,0.587108,0.625568,-0.114798,-0.0840977,-0.0573988,-0.00452995,500,227,93.5511,0.1,30.7321,0.1,1.936
-1.52254,-1.45566,0.586878,0.625558,-0.115158,-0.0833877,-0.057579,-0.0038549,508,230,93.657,0.1,30.9157,0.1,1.94
-1.523,-1.45599,0.586647,0.625551,-0.115519,-0.0830008,-0.0577594,-0.00308817,513,232,93.77,0.1,31.1008,0.1,1.944
-1.52346,-1.45632,0.586416,0.625549,-0.115879,-0.0825413,-0.0579397,-0.00226032,519,234,93.8881,0.1,31.2875,0.1,1.948
-1.52393,-1.45664,0.586184,0.625549,-0.11624,-0.0821486,-0.0581201,-0.00150688,524,237,94.0117,0.1,31.4758,0.1,1.952
-1.52439,-1.45697,0.585951,0.625549,-0.116601,-0.0818868,-0.0583006,-0.00100459,529,239,94.1404,0.1,31.6655,0.1,1.956
-1.52486,-1.45729,0.585717,0.625549,-0.116962,-0.081741,-0.058481,-0.000669724,533,241,94.2732,0.1,31.8565,0.1,1.96
-1.52533,-1.45762,0.585483,0.625549,-0.117323,-0.0816151,-0.0586616,-0.000446482,537,243,94.4094,0.1,32.0486,0.1,1.964
-1.5258,-1.45795,0.585248,0.625549,-0.117684,-0.0817902,-0.0588421,-0.000297655,538,245,94.5488,0.1,32.2419,0.1,1.968
-1.52627,-1.45828,0.585012,0.625549,-0.118046,-0.0818494,-0.0590228,-0.000198437,541,246,94.6895,0.1,32.4363,0.1,1.972
-1.52674,-1.45861,0.584776,0.625549,-0.118407,-0.0822631,-0.0592034,-0.000132291,541,248,94.8321,0.1,32.6316,0.1,1.976
-1.52722,-1.45894,0.584539,0.625549,-0.118768,-0.0826541,-0.0593841,-8.81941e-05,542,250,94.9744,0.1,32.828,0.1,1.98
-1.52769,-1.45928,0.584301,0.625548,-0.11913,-0.0834042,-0.0595648,-0.000116378,540,252,95.1163,0.1,33.0254,0.1,1.984
-1.52817,-1.45963,0.584062,0.625549,-0.119491,-0.0841922,-0.0597455,8.78751e-06,538,254,95.2557,0.1,33.2238,0.1,1.988
-1.52865,-1.45998,0.583823,0.625549,-0.119853,-0.0852646,-0.0599263,-5.17235e-05,534,255,95.3921,0.1,33.4233,0.1,1.992
-1.52913,-1.46033,0.583583,0.625549,-0.120214,-0.086037,-0.0601072,-3.44823e-05,532,257,95.524,0.1,33.6236,0.1,1.996
-1.52961,-1.46068,0.583342,0.625549,-0.120576,-0.0867536,-0.060288,-2.29882e-05,530,259,95.6532,0.1,33.8249,0.1,2
-1.53009,-1.46103,0.5831,0.625549,-0.120938,-0.0874904,-0.0604689,-1.53255e-05,528,261,95.7801,0.1,34.0273,0.1,2.004
-1.53058,-1.46139,0.582858,0.625548,-0.1213,-0.0881543,-0.0606498,-3.90079e-05,527,263,95.9046,0.1,34.2305,0.1,2.008
-1.53106,-1.46175,0.582615,0.625548,-0.121661,-0.0886833,-0.0608307,-2.60053e-05,527,264,96.0272,0.1,34.4348,0.1,2.012
-1.53155,-1.46211,0.582371,0.625548,-0.122023,-0.0892663,-0.0610117,-4.61278e-05,526,266,96.1488,0.1,34.64,0.1,2.016
-1.53204,-1.46248,0.582127,0.625548,-0.122385,-0.0897989,-0.0611927,-3.07519e-05,525,268,96.2689,0.1,34.8462,0.1,2.02
-1.53253,-1.46284,0.581882,0.625547,-0.122747,-0.0905571,-0.0613737,-0.000106874,523,270,96.3879,0.1,35.0534,0.1,2.024
-1.53302,-1.46322,0.581636,0.625547,-0.123109,-0.091408,-0.0615547,-7.12493e-05,521,272,96.5042,0.1,35.2615,0.1,2.028
-1.53352,-1.46359,0.581389,0.625546,-0.123472,-0.0919177,-0.0617358,-0.000105081,520,274,96.6176,0.1,35.4706,0.1,2.032
-1.53401,-1.46397,0.581142,0.625545,-0.123834,-0.0929197,-0.0619169,-0.000127636,517,275,96.7298,0.1,35.6807,0.1,2.036
-1.53451,-1.46434,0.580894,0.625544,-0.124196,-0.0932134,-0.062098,-0.000229045,518,277,96.8381,0.1,35.8916,0.1,2.04
-1.535,-1.46472,0.580645,0.625543,-0.124558,-0.0932365,-0.0622791,-0.000210279,520,279,96.9471,0.1,36.1035,0.1,2.044
-1.5355,-1.4651,0.580396,0.625542,-0.12492,-0.0936837,-0.0624602,-0.00025535,520,281,97.0583,0.1,36.3164,0.1,2.048
-1.536,-1.46547,0.580146,0.62554,-0.125283,-0.0938667,-0.0626414,-0.000314188,522,283,97.1691,0.1,36.5301,0.1,2.052
-1.53651,-1.46585,0.579895,0.625538,-0.125645,-0.0941039,-0.0628226,-0.000353413,523,284,97.2811,0.1,36.7449,0.1,2.056
-1.53701,-1.46623,0.579643,0.625535,-0.126007,-0.0941468,-0.0630037,-0.000465936,526,286,97.3942,0.1,36.9605,0.1,2.06
-1.53751,-1.46661,0.579391,0.625533,-0.12637,-0.0943194,-0.0631849,-0.000540951,528,288,97.5094,0.1,37.177,0.1,2.064
-1.53802,-1.46698,0.579138,0.625531,-0.126732,-0.0941753,-0.0633662,-0.00053338,532,290,97.6262,0.1,37.3945,0.1,2.068
-1.53853,-1.46736,0.578884,0.625527,-0.127095,-0.0941657,-0.0635474,-0.000643496,535,292,97.7463,0.1,37.6129,0.1,2.072
-1.53904,-1.46773,0.578629,0.625524,-0.127457,-0.0940441,-0.0637286,-0.000716906,538,293,97.869,0.1,37.8322,0.1,2.076
-1.53955,-1.46811,0.578374,0.62552,-0.12782,-0.093963,-0.0639099,-0.000765847,542,295,97.995,0.1,38.0524,0.1,2.08
-1.54006,-1.46849,0.578118,0.625516,-0.128182,-0.0940241,-0.0640911,-0.000856056,544,297,98.1239,0.1,38.2735,0.1,2.084
-1.54057,-1.46887,0.577861,0.625511,-0.128545,-0.0943527,-0.0642724,-0.00100257,545,299,98.2548,0.1,38.4955,0.1,2.088
-1.54109,-1.46925,0.577604,0.625506,-0.128907,-0.0949461,-0.0644537,-0.00110024,544,301,98.3859,0.1,38.7184,0.1,2.092
-1.5416,-1.46963,0.577346,0.6255,-0.12927,-0.0953705,-0.0646349,-0.00119415,545,302,98.5155,0.1,38.9422,0.1,2.096
-1.54212,-1.47002,0.577087,0.625494,-0.129632,-0.0959413,-0.0648162,-0.00131434,544,304,98.6447,0.1,39.1668,0.1,2.1
-1.54264,-1.47041,0.576827,0.625487,-0.129995,-0.0966386,-0.0649975,-0.00142325,542,306,98.7726,0.1,39.3923,0.1,2.104
-1.54316,-1.47081,0.576567,0.625479,-0.130358,-0.0974489,-0.0651788,-0.00161103,540,308,98.8981,0.1,39.6187,0.1,2.108
-1.54368,-1.47121,0.576306,0.625472,-0.13072,-0.0983346,-0.0653601,-0.00167863,537,310,99.0208,0.1,39.8459,0.1,2.112
-1.54421,-1.47162,0.576044,0.625463,-0.131083,-0.0992418,-0.0655414,-0.00186765,534,311,99.14,0.1,40.074,0.1,2.116
-1.54473,-1.47202,0.575781,0.625454,-0.131445,-0.100077,-0.0657227,-0.00202245,532,313,99.2556,0.1,40.3028,0.1,2.12
-1.54526,-1.47243,0.575518,0.625445,-0.131808,-0.100634,-0.0659039,-0.00209687,531,315,99.3684,0.1,40.5325,0.1,2.124
-1.54579,-1.47284,0.575254,0.625436,-0.13217,-0.100861,-0.0660852,-0.00211768,533,317,99.48,0.1,40.7631,0.1,2.128
-1.54632,-1.47324,0.574989,0.625428,-0.132533,-0.101127,-0.0662665,-0.00207398,534,319,99.5927,0.1,40.9947,0.1,2.132
-1.54685,-1.47365,0.574724,0.625421,-0.132896,-0.101478,-0.0664478,-0.00195847,534,321,99.706,0.1,41.2273,0.1,2.136
-1.54738,-1.47406,0.574458,0.625416,-0.133258,-0.101913,-0.066629,-0.00173751,534,323,99.8195,0.1,41.461,0.1,2.14
-1.54791,-1.47447,0.574191,0.625412,-0.133621,-0.102376,-0.0668103,-0.00150383,534,325,99.9325,0.1,41.6959,0.1,2.144
-1.54845,-1.47489,0.573923,0.62541,-0.133983,-0.102713,-0.0669916,-0.00114651,535,327,100.045,0.1,41.932,0.1,2.148
-1.54899,-1.4753,0.573655,0.625409,-0.134346,-0.103025,-0.0671728,-0.000850713,536,329,100.158,0.1,42.1694,0.1,2.152
-1.54952,-1.47572,0.573386,0.625409,-0.134708,-0.103434,-0.067354,-0.000595933,536,332,100.271,0.1,42.408,0.1,2.156
-1.55006,-1.47614,0.573116,0.625409,-0.135071,-0.103879,-0.0675353,-0.000397288,536,334,100.384,0.1,42.6478,0.1,2.16
-1.5506,-1.47656,0.572846,0.625409,-0.135433,-0.104119,-0.0677165,-0.000264859,538,336,100.496,0.1,42.8886,0.1,2.164
-1.55115,-1.47698,0.572574,0.625409,-0.135795,-0.104307,-0.0678977,-0.000205364,539,338,100.61,0.1,43.1306,0.1,2.168
-1.55169,-1.4774,0.572302,0.625408,-0.136158,-0.104548,-0.0680788,-0.0001657,541,340,100.724,0.1,43.3736,0.1,2.172
-1.55224,-1.47782,0.57203,0.625408,-0.13652,-0.104622,-0.06826,-0.000168048,543,342,100.84,0.1,43.6177,0.1,2.176
-1.55278,-1.47824,0.571756,0.625406,-0.136882,-0.105132,-0.0684412,-0.000227196,543,344,100.957,0.1,43.8627,0.1,2.18
-1.55333,-1.47866,0.571482,0.625404,-0.137245,-0.105501,-0.0686223,-0.00032421,543,346,101.074,0.1,44.1086,0.1,2.184
-1.55388,-1.47909,0.571207,0.625401,-0.137607,-0.106092,-0.0688034,-0.000475258,542,348,101.19,0.1,44.3555,0.1,2.188
-1.55443,-1.47952,0.570932,0.625397,-0.137969,-0.10663,-0.0689845,-0.00066233,542,350,101.305,0.1,44.6032,0.1,2.192
-1.55498,-1.47996,0.570656,0.625391,-0.138331,-0.107364,-0.0691656,-0.000902208,540,351,101.419,0.1,44.8517,0.1,2.196
-1.55554,-1.4804,0.570378,0.625384,-0.138693,-0.107852,-0.0693466,-0.00120608,540,353,101.531,0.1,45.101,0.1,2.2
-1.55609,-1.48084,0.570101,0.625377,-0.139055,-0.108696,-0.0695277,-0.00143745,537,355,101.641,0.1,45.3511,0.1,2.204
-1.55665,-1.48128,0.569822,0.625367,-0.139417,-0.109201,-0.0697087,-0.00176445,537,357,101.749,0.1,45.6018,0.1,2.208
-1.55721,-1.48172,0.569543,0.625357,-0.139779,-0.109509,-0.0698897,-0.00201124,538,359,101.856,0.1,45.8533,0.1,2.212
-1.55777,-1.48216,0.569263,0.625346,-0.140141,-0.110031,-0.0700706,-0.00223334,537,360,101.963,0.1,46.1056,0.1,2.216
-1.55833,-1.48261,0.568983,0.625334,-0.140503,-0.110495,-0.0702516,-0.00249658,537,362,102.069,0.1,46.3586,0.1,2.22
-1.55889,-1.48305,0.568701,0.625322,-0.140865,-0.110832,-0.0704325,-0.00267207,538,364,102.175,0.1,46.6124,0.1,2.224
-1.55946,-1.4835,0.568419,0.625312,-0.141227,-0.111086,-0.0706134,-0.00264511,539,366,102.281,0.1,46.8671,0.1,2.228
-1.56002,-1.48395,0.568136,0.625304,-0.141588,-0.111486,-0.0707942,-0.0024256,539,368,102.388,0.1,47.1229,0.1,2.232
-1.56059,-1.48441,0.567853,0.625298,-0.14195,-0.112385,-0.070975,-0.00204893,536,371,102.494,0.1,47.38,0.1,2.236
-1.56116,-1.48486,0.567568,0.625296,-0.142312,-0.112438,-0.0711558,-0.0015387,539,373,102.597,0.1,47.6384,0.1,2.24
-1.56173,-1.48531,0.567283,0.625296,-0.142673,-0.113049,-0.0713366,-0.00105459,538,376,102.702,0.1,47.8982,0.1,2.244
-1.5623,-1.48579,0.566998,0.625296,-0.143035,-0.114925,-0.0715173,-0.000703059,528,378,102.805,0.1,48.1595,0.1,2.248
-1.56287,-1.48624,0.566711,0.625296,-0.143396,-0.11416,-0.071698,-0.000468706,536,380,102.9,0.1,48.4218,0.1,2.252
-1.56345,-1.4867,0.566424,0.625296,-0.143757,-0.114917,-0.0718786,-0.000312471,534,383,103.001,0.1,48.6854,0.1,2.256
-1.56402,-1.48717,0.566136,0.625296,-0.144118,-0.115133,-0.0720592,-0.000208314,536,385,103.099,0.1,48.9501,0.1,2.26
-1.5646,-1.48765,0.565848,0.625296,-0.14448,-0.116717,-0.0722398,-0.000138876,528,387,103.199,0.1,49.216,0.1,2.264
-1.56518,-1.4881,0.565558,0.625296,-0.144841,-0.115873,-0.0724204,-0.000121375,537,389,103.291,0.1,49.4827,0.1,2.268
-1.56576,-1.48857,0.565268,0.625296,-0.145202,-0.116001,-0.0726009,-8.09166e-05,539,391,103.391,0.1,49.7506,0.1,2.272
-1.56634,-1.48904,0.564978,0.625295,-0.145563,-0.116432,-0.0727813,-8.27353e-05,539,393,103.492,0.1,50.0196,0.1,2.276
-1.56692,-1.4895,0.564686,0.625295,-0.145923,-0.116489,-0.0729617,-8.39478e-05,541,395,103.594,0.1,50.2895,0.1,2.28
-1.56751,-1.48997,0.564394,0.625295,-0.146284,-0.1167,-0.0731421,-5.59652e-05,543,398,103.697,0.1,50.5605,0.1,2.284
-1.56809,-1.49045,0.564101,0.625294,-0.146645,-0.117733,-0.0733225,-9.4892e-05,539,400,103.801,0.1,50.8326,0.1,2.288
-1.56868,-1.49093,0.563807,0.625293,-0.147005,-0.11799,-0.0735027,-0.000178425,540,402,103.901,0.1,51.1056,0.1,2.292
-1.56927,-1.49141,0.563513,0.625291,-0.147366,-0.118766,-0.073683,-0.000262905,538,404,104.001,0.1,51.3796,0.1,2.296
-1.56986,-1.49189,0.563218,0.625289,-0.147726,-0.119456,-0.0738632,-0.000376806,536,406,104.099,0.1,51.6545,0.1,2.3
-1.57045,-1.49237,0.562922,0.625285,-0.148087,-0.119484,-0.0740433,-0.000539113,539,408,104.195,0.1,51.9303,0.1,2.304
-1.57104,-1.49285,0.562625,0.625282,-0.148447,-0.120165,-0.0742234,-0.000676109,537,410,104.293,0.1,52.207,0.1,2.308
-1.57164,-1.49334,0.562328,0.625277,-0.148807,-0.120532,-0.0744035,-0.000796231,538,412,104.389,0.1,52.4846,0.1,2.312
-1.57223,-1.49383,0.56203,0.625273,-0.149167,-0.120892,-0.0745835,-0.000905102,538,414,104.486,0.1,52.7631,0.1,2.316
-1.57283,-1.49431,0.561732,0.625268,-0.149527,-0.121277,-0.0747634,-0.00103527,539,416,104.582,0.1,53.0426,0.1,2.32
-1.57343,-1.4948,0.561432,0.625261,-0.149887,-0.121446,-0.0749433,-0.00120841,540,418,104.678,0.1,53.3228,0.1,2.324
-1.57403,-1.49529,0.561132,0.625254,-0.150246,-0.12179,-0.0751232,-0.00141022,541,420,104.776,0.1,53.604,0.1,2.328
-1.57463,-1.49578,0.560831,0.625246,-0.150606,-0.122191,-0.075303,-0.00160234,541,422,104.873,0.1,53.886,0.1,2.332
-1.57524,-1.49628,0.56053,0.625237,-0.150965,-0.122517,-0.0754827,-0.00184558,542,424,104.971,0.1,54.1688,0.1,2.336
-1.57584,-1.49678,0.560227,0.625227,-0.151325,-0.12331,-0.0756624,-0.00209411,540,426,105.069,0.1,54.4524,0.1,2.34
-1.57645,-1.49727,0.559924,0.625216,-0.151684,-0.123521,-0.075842,-0.0022598,541,428,105.164,0.1,54.7367,0.1,2.344
-1.57705,-1.49777,0.559621,0.625206,-0.152043,-0.123749,-0.0760216,-0.00237026,542,430,105.26,0.1,55.022,0.1,2.348
-1.57766,-1.49827,0.559316,0.625196,-0.152402,-0.124073,-0.0762011,-0.00241511,543,432,105.357,0.1,55.3082,0.1,2.352
-1.57827,-1.49876,0.559011,0.625188,-0.152761,-0.124146,-0.0763806,-0.00230106,545,435,105.455,0.1,55.5954,0.1,2.356
-1.57888,-1.49927,0.558705,0.625182,-0.15312,-0.124511,-0.0765599,-0.0019659,546,437,105.555,0.1,55.8838,0.1,2.36
-1.5795,-1.49977,0.558398,0.62518,-0.153479,-0.125301,-0.0767393,-0.00154093,544,440,105.654,0.1,56.1736,0.1,2.364
-1.58011,-1.50027,0.558091,0.625179,-0.153837,-0.124907,-0.0769185,-0.00108487,549,442,105.751,0.1,56.4647,0.1,2.368
-1.58073,-1.50077,0.557783,0.625179,-0.154195,-0.125363,-0.0770977,-0.000723245,549,445,105.853,0.1,56.7572,0.1,2.372
-1.58135,-1.50128,0.557474,0.625179,-0.154554,-0.12561,-0.0772769,-0.000482163,550,447,105.955,0.1,57.0509,0.1,2.376
-1.58197,-1.50179,0.557165,0.625179,-0.154912,-0.126322,-0.0774559,-0.000350233,548,450,106.057,0.1,57.3459,0.1,2.38
-1.58259,-1.50229,0.556855,0.625179,-0.15527,-0.126163,-0.077635,-0.000233489,552,452,106.157,0.1,57.642,0.1,2.384
-1.58321,-1.5028,0.556544,0.625178,-0.155628,-0.126431,-0.0778139,-0.00018445,553,454,106.26,0.1,57.9391,0.1,2.388
-1.58383,-1.50331,0.556232,0.625178,-0.155986,-0.126524,-0.0779928,-0.000180549,555,457,106.364,0.1,58.2374,0.1,2.392
-1.58446,-1.50382,0.55592,0.625177,-0.156343,-0.127219,-0.0781716,-0.000177948,554,459,106.47,0.1,58.5367,0.1,2.396
-1.58508,-1.50433,0.555607,0.625176,-0.156701,-0.127366,-0.0783503,-0.000176214,556,461,106.574,0.1,58.837,0.1,2.4
-1.58571,-1.50485,0.555293,0.625175,-0.157058,-0.128298,-0.0785289,-0.000232639,553,463,106.679,0.1,59.1384,0.1,2.404
-1.58634,-1.50537,0.554979,0.625173,-0.157415,-0.128978,-0.0787075,-0.000270257,551,466,106.78,0.1,59.4408,0.1,2.408
-1.58697,-1.50589,0.554663,0.625172,-0.157772,-0.129229,-0.078886,-0.000324126,552,468,106.88,0.1,59.7442,0.1,2.412
-1.5876,-1.50642,0.554348,0.625169,-0.158129,-0.130174,-0.0790645,-0.000446411,549,470,106.979,0.1,60.0485,0.1,2.416
-1.58823,-1.50695,0.554031,0.625166,-0.158486,-0.13089,-0.0792428,-0.000556726,547,472,107.076,0.1,60.3538,0.1,2.42
-1.58887,-1.50748,0.553714,0.625162,-0.158842,-0.131109,-0.0794211,-0.00065906,548,475,107.17,0.1,60.66,0.1,2.424
-1.5895,-1.50801,0.553396,0.625158,-0.159199,-0.1316,-0.0795993,-0.000813655,548,477,107.265,0.1,60.9671,0.1,2.428
-1.59014,-1.50854,0.553077,0.625152,-0.159555,-0.132474,-0.0797775,-0.00100309,545,479,107.359,0.1,61.2752,0.1,2.432
-1.59078,-1.50908,0.552757,0.625145,-0.159911,-0.132741,-0.0799555,-0.00130213,546,481,107.449,0.1,61.584,0.1,2.436
-1.59142,-1.50961,0.552437,0.625136,-0.160267,-0.132803,-0.0801335,-0.00161665,549,483,107.541,0.1,61.8935,0.1,2.44
-1.59206,-1.51014,0.552116,0.625123,-0.160623,-0.133046,-0.0803114,-0.00217182,550,485,107.635,0.1,62.2036,0.1,2.444
-1.59271,-1.51068,0.551795,0.625108,-0.160978,-0.133784,-0.0804892,-0.0026571,548,487,107.729,0.1,62.5144,0.1,2.448
-1.59335,-1.51122,0.551472,0.625093,-0.161334,-0.133499,-0.0806669,-0.00306699,553,488,107.821,0.1,62.8257,0.1,2.452
-1.594,-1.51176,0.551149,0.625079,-0.161689,-0.134201,-0.0808446,-0.0031963,551,491,107.918,0.1,63.1378,0.1,2.456
-1.59464,-1.5123,0.550826,0.625067,-0.162044,-0.134928,-0.0810222,-0.00310976,549,493,108.012,0.1,63.451,0.1,2.46
-1.59529,-1.51285,0.550501,0.625058,-0.162399,-0.135125,-0.0811996,-0.00279294,550,496,108.103,0.1,63.7653,0.1,2.464
-1.59594,-1.5134,0.550176,0.625052,-0.162754,-0.136264,-0.081377,-0.00240899,546,498,108.196,0.1,64.0809,0.1,2.468
-1.59659,-1.51395,0.54985,0.625047,-0.163109,-0.136476,-0.0815543,-0.00200907,547,501,108.284,0.1,64.3978,0.1,2.472
-1.59725,-1.51451,0.549524,0.625043,-0.163463,-0.13751,-0.0817316,-0.00162729,543,504,108.372,0.1,64.7161,0.1,2.476
-1.5979,-1.51507,0.549196,0.625041,-0.163817,-0.138344,-0.0819087,-0.00131519,541,506,108.457,0.1,65.0357,0.1,2.48
-1.59856,-1.51563,0.548868,0.625038,-0.164171,-0.139561,-0.0820857,-0.00113591,536,509,108.538,0.1,65.3566,0.1,2.484
-1.59922,-1.5162,0.54854,0.625035,-0.164525,-0.140143,-0.0822627,-0.00101639,535,511,108.613,0.1,65.6785,0.1,2.488
-1.59987,-1.51677,0.54821,0.625031,-0.164879,-0.140962,-0.0824395,-0.000936712,532,514,108.687,0.1,66.0016,0.1,2.492
-1.60053,-1.51734,0.54788,0.625028,-0.165233,-0.141307,-0.0826163,-0.000912384,532,516,108.758,0.1,66.3257,0.1,2.496
-1.6012,-1.51791,0.547549,0.625023,-0.165586,-0.141595,-0.082793,-0.00101133,533,518,108.83,0.1,66.6508,0.1,2.5
-1.60186,-1.51848,0.547218,0.625016,-0.165939,-0.142017,-0.0829695,-0.00125004,533,520,108.902,0.1,66.9768,0.1,2.504
-1.60252,-1.51905,0.546885,0.625008,-0.166292,-0.142442,-0.083146,-0.00149555,533,523,108.973,0.1,67.3036,0.1,2.508
-1.60319,-1.51962,0.546553,0.624998,-0.166645,-0.142668,-0.0833224,-0.00183197,534,525,109.045,0.1,67.6312,0.1,2.512
-1.60386,-1.5202,0.546219,0.624986,-0.166997,-0.143452,-0.0834987,-0.00225779,532,527,109.117,0.1,67.9595,0.1,2.516
-1.60453,-1.52078,0.545885,0.624969,-0.16735,-0.143255,-0.0836749,-0.00294474,536,528,109.186,0.1,68.2882,0.1,2.52
-1.6052,-1.52135,0.545549,0.624945,-0.167702,-0.143757,-0.083851,-0.00394973,536,530,109.26,0.1,68.6171,0.1,2.524
-1.60587,-1.52194,0.545214,0.62491,-0.168054,-0.144523,-0.084027,-0.00548346,533,531,109.332,0.1,68.946,0.1,2.528
-1.60654,-1.52253,0.544877,0.624863,-0.168406,-0.145351,-0.0842029,-0.00759999,531,531,109.401,0.1,69.2741,0.1,2.532
-1.60721,-1.52311,0.54454,0.624802,-0.168757,-0.145788,-0.0843787,-0.0101627,531,531,109.468,0.1,69.601,0.1,2.536
-1.60789,-1.52371,0.544202,0.624724,-0.169109,-0.146914,-0.0845544,-0.0133106,526,531,109.533,0.1,69.9262,0.1,2.54
-1.60857,-1.52431,0.543864,0.624626,-0.16946,-0.147866,-0.0847299,-0.0169928,523,529,109.594,0.1,70.2492,0.1,2.544
-1.60925,-1.5249,0.543524,0.624506,-0.169811,-0.14804,-0.0849054,-0.0213766,524,527,109.652,0.1,70.5692,0.1,2.548
-1.60993,-1.5255,0.543184,0.624358,-0.170162,-0.148646,-0.0850808,-0.026516,523,525,109.71,0.1,70.8857,0.1,2.552
-1.61061,-1.5261,0.542844,0.624185,-0.170512,-0.149165,-0.0852561,-0.0321016,523,521,109.767,0.1,71.1979,0.1,2.556
-1.61129,-1.5267,0.542502,0.62398,-0.170862,-0.14928,-0.0854312,-0.0385316,525,517,109.823,0.1,71.5051,0.1,2.56
-1.61197,-1.5273,0.54216,0.623748,-0.171213,-0.149386,-0.0856063,-0.0450353,527,513,109.881,0.1,71.8068,0.1,2.564
-1.61266,-1.5279,0.541818,0.623486,-0.171562,-0.149514,-0.0857812,-0.0518182,529,508,109.941,0.1,72.1028,0.1,2.568
-1.61335,-1.52849,0.541474,0.623193,-0.171912,-0.14934,-0.0859561,-0.058989,533,502,110.003,0.1,72.3926,0.1,2.572
-1.61404,-1.52909,0.54113,0.622869,-0.172262,-0.149484,-0.0861308,-0.0663031,535,496,110.069,0.1,72.6758,0.1,2.576
-1.61472,-1.52969,0.540785,0.622518,-0.172611,-0.149119,-0.0863054,-0.0734824,540,491,110.137,0.1,72.9522,0.1,2.58
-1.61542,-1.53028,0.540439,0.622137,-0.17296,-0.14899,-0.0864799,-0.0807159,544,485,110.209,0.1,73.2218,0.1,2.584
-1.61611,-1.53088,0.540093,0.621725,-0.173309,-0.149222,-0.0866543,-0.0881006,545,478,110.285,0.1,73.4842,0.1,2.588
-1.6168,-1.53148,0.539746,0.621285,-0.173657,-0.14952,-0.0868286,-0.0954709,546,472,110.363,0.1,73.7393,0.1,2.592
-1.6175,-1.53208,0.539399,0.620817,-0.174006,-0.149402,-0.0870028,-0.102601,550,465,110.441,0.1,73.9869,0.1,2.596
-1.61819,-1.53267,0.53905,0.620326,-0.174354,-0.149265,-0.0871768,-0.109313,554,459,110.523,0.1,74.2273,0.1,2.6
-1.61889,-1.53328,0.538701,0.6198,-0.174702,-0.149779,-0.0873508,-0.116724,554,451,110.608,0.1,74.46,0.1,2.604
-1.61959,-1.53388,0.538351,0.619245,-0.175049,-0.150496,-0.0875246,-0.124054,552,444,110.693,0.1,74.6847,0.1,2.608
-1.62029,-1.53449,0.538001,0.618667,-0.175397,-0.150427,-0.0876983,-0.13087,556,437,110.776,0.1,74.9015,0.1,2.612
-1.621,-1.53509,0.53765,0.618066,-0.175744,-0.150554,-0.0878718,-0.137343,558,430,110.863,0.1,75.1105,0.1,2.616
-1.6217,-1.5357,0.537298,0.617434,-0.176091,-0.151214,-0.0880453,-0.144249,557,423,110.951,0.1,75.3117,0.1,2.62
-1.6224,-1.53631,0.536945,0.616777,-0.176437,-0.151452,-0.0882186,-0.150898,559,415,111.038,0.1,75.5047,0.1,2.624
-1.62311,-1.53691,0.536592,0.616107,-0.176784,-0.15118,-0.0883919,-0.156424,564,409,111.126,0.1,75.6901,0.1,2.628
-1.62382,-1.53752,0.536238,0.615411,-0.17713,-0.151574,-0.088565,-0.162296,565,402,111.219,0.1,75.868,0.1,2.632
-1.62453,-1.53813,0.535884,0.614697,-0.177476,-0.151894,-0.0887379,-0.167708,566,395,111.313,0.1,76.0383,0.1,2.636
-1.62524,-1.53874,0.535528,0.613962,-0.177822,-0.152107,-0.0889108,-0.173044,568,388,111.407,0.1,76.2012,0.1,2.64
-1.62595,-1.53935,0.535172,0.61321,-0.178167,-0.152509,-0.0890835,-0.178012,568,381,111.503,0.1,76.3568,0.1,2.644
-1.62666,-1.53996,0.534816,0.612443,-0.178512,-0.152632,-0.0892561,-0.182562,571,375,111.599,0.1,76.5052,0.1,2.648
-1.62738,-1.54058,0.534458,0.611656,-0.178857,-0.15283,-0.0894286,-0.187351,573,368,111.697,0.1,76.6465,0.1,2.652
-1.62809,-1.54119,0.5341,0.610859,-0.179202,-0.152818,-0.0896009,-0.191264,576,362,111.797,0.1,76.7808,0.1,2.656
-1.62881,-1.5418,0.533742,0.610055,-0.179546,-0.153098,-0.0897731,-0.194534,578,356,111.901,0.1,76.9088,0.1,2.66
-1.62953,-1.54242,0.533382,0.609248,-0.17989,-0.153111,-0.0899452,-0.196974,581,351,112.005,0.1,77.031,0.1,2.664
-1.63025,-1.54303,0.533022,0.608436,-0.180234,-0.153466,-0.0901172,-0.198946,582,347,112.113,0.1,77.1479,0.1,2.668
-1.63097,-1.54365,0.532661,0.607636,-0.180578,-0.153616,-0.090289,-0.19931,585,343,112.221,0.1,77.2606,0.1,2.672
-1.6317,-1.54426,0.5323,0.606846,-0.180921,-0.153457,-0.0904607,-0.198661,589,341,112.332,0.1,77.37,0.1,2.676
-1.63242,-1.54488,0.531938,0.606059,-0.181264,-0.154013,-0.0906322,-0.198026,589,339,112.446,0.1,77.4766,0.1,2.68
-1.63315,-1.5455,0.531575,0.605289,-0.181607,-0.154355,-0.0908037,-0.196192,590,338,112.56,0.1,77.581,0.1,2.684
-1.63387,-1.54612,0.531211,0.604533,-0.18195,-0.154842,-0.0909749,-0.193847,590,337,112.674,0.1,77.684,0.1,2.688
-1.6346,-1.54675,0.530847,0.603796,-0.182292,-0.155426,-0.0911461,-0.190614,590,337,112.788,0.1,77.7862,0.1,2.692
-1.63533,-1.54739,0.530482,0.603064,-0.182634,-0.156737,-0.0913171,-0.188055,584,337,112.901,0.1,77.8877,0.1,2.696
-1.63606,-1.54803,0.530116,0.602341,-0.182976,-0.158244,-0.091488,-0.185687,578,336,113.007,0.1,77.9883,0.1,2.7
-1.6368,-1.54869,0.52975,0.601622,-0.183318,-0.159911,-0.0916588,-0.183705,570,336,113.106,0.1,78.0877,0.1,2.704
-1.63753,-1.54935,0.529383,0.600904,-0.183659,-0.16154,-0.0918294,-0.182298,562,335,113.196,0.1,78.1855,0.1,2.708
-1.63826,-1.55001,0.529015,0.600187,-0.184,-0.162886,-0.0919998,-0.181244,557,333,113.278,0.1,78.2815,0.1,2.712
-1.639,-1.55068,0.528647,0.599469,-0.18434,-0.16456,-0.0921702,-0.180686,549,331,113.354,0.1,78.3753,0.1,2.716
-1.63974,-1.55134,0.528278,0.598759,-0.184681,-0.165129,-0.0923403,-0.179594,548,330,113.421,0.1,78.467,0.1,2.72
-1.64048,-1.55201,0.527908,0.598053,-0.185021,-0.165365,-0.0925104,-0.178578,549,329,113.488,0.1,78.5568,0.1,2.724
-1.64122,-1.55266,0.527538,0.597356,-0.185361,-0.165003,-0.0926803,-0.177152,555,328,113.557,0.1,78.6449,0.1,2.728
-1.64196,-1.55332,0.527167,0.596662,-0.1857,-0.164561,-0.09285,-0.175942,561,326,113.631,0.1,78.7315,0.1,2.732
-1.6427,-1.55397,0.526795,0.59598,-0.186039,-0.164065,-0.0930197,-0.174071,568,326,113.711,0.1,78.8168,0.1,2.736
-1.64345,-1.55462,0.526423,0.595309,-0.186378,-0.163417,-0.0931891,-0.171959,575,326,113.798,0.1,78.9013,0.1,2.74
-1.6442,-1.55526,0.52605,0.594654,-0.186717,-0.162553,-0.0933585,-0.169256,584,326,113.892,0.1,78.9855,0.1,2.744
-1.64494,-1.55591,0.525676,0.594012,-0.187055,-0.161978,-0.0935276,-0.166359,591,327,113.995,0.1,79.0697,0.1,2.748
-1.64569,-1.55655,0.525301,0.593382,-0.187393,-0.161421,-0.0936967,-0.163363,598,328,114.105,0.1,79.1542,0.1,2.752
-1.64644,-1.5572,0.524926,0.592754,-0.187731,-0.161741,-0.0938655,-0.161251,599,328,114.221,0.1,79.2386,0.1,2.756
-1.64719,-1.55783,0.52455,0.592147,-0.188069,-0.160803,-0.0940343,-0.158115,609,329,114.339,0.1,79.3231,0.1,2.76
-1.64795,-1.55848,0.524174,0.59154,-0.188406,-0.161098,-0.0942029,-0.155967,610,329,114.465,0.1,79.4078,0.1,2.764
-1.6487,-1.55913,0.523797,0.59094,-0.188743,-0.161699,-0.0943713,-0.153988,609,329,114.592,0.1,79.4922,0.1,2.768
-1.64946,-1.55979,0.523419,0.590338,-0.189079,-0.162732,-0.0945396,-0.152812,606,329,114.717,0.1,79.5761,0.1,2.772
-1.65021,-1.56044,0.523041,0.589751,-0.189415,-0.162557,-0.0947077,-0.150819,610,329,114.838,0.1,79.6594,0.1,2.776
-1.65097,-1.56112,0.522661,0.58915,-0.189751,-0.164687,-0.0948757,-0.150614,599,328,114.962,0.1,79.7418,0.1,2.78
-1.65173,-1.56178,0.522282,0.588569,-0.190087,-0.164926,-0.0950435,-0.148807,601,328,115.075,0.1,79.8233,0.1,2.784
-1.65249,-1.56244,0.521901,0.588004,-0.190422,-0.164855,-0.0952112,-0.146306,604,329,115.19,0.1,79.9049,0.1,2.788
-1.65326,-1.5631,0.52152,0.587446,-0.190757,-0.165095,-0.0953787,-0.144064,606,330,115.307,0.1,79.9869,0.1,2.792
-1.65402,-1.56377,0.521138,0.586887,-0.191092,-0.165803,-0.095546,-0.142569,604,330,115.425,0.1,80.0688,0.1,2.796
-1.65478,-1.56444,0.520755,0.586337,-0.191426,-0.166476,-0.0957132,-0.140881,603,330,115.542,0.1,80.1506,0.1,2.8
-1.65555,-1.56511,0.520372,0.58579,-0.191761,-0.167126,-0.0958803,-0.139525,601,330,115.656,0.1,80.2321,0.1,2.804
-1.65632,-1.56579,0.519988,0.585251,-0.192094,-0.167992,-0.0960471,-0.13796,599,331,115.768,0.1,80.3134,0.1,2.808
-1.65709,-1.56646,0.519604,0.584725,-0.192428,-0.16782,-0.0962139,-0.135764,603,332,115.878,0.1,80.3949,0.1,2.812
-1.65786,-1.56714,0.519219,0.584199,-0.192761,-0.168857,-0.0963804,-0.134358,599,332,115.99,0.1,80.4766,0.1,2.816
-1.65863,-1.56782,0.518833,0.583689,-0.193094,-0.168541,-0.0965468,-0.132125,604,333,116.1,0.1,80.5586,0.1,2.82
-1.6594,-1.5685,0.518446,0.583183,-0.193426,-0.169021,-0.0967131,-0.130233,604,334,116.213,0.1,80.6411,0.1,2.824
-1.66018,-1.56918,0.518059,0.582681,-0.193758,-0.1696,-0.0968791,-0.128598,603,335,116.326,0.1,80.7239,0.1,2.828
-1.66095,-1.56986,0.517671,0.582189,-0.19409,-0.1699,-0.0970451,-0.126759,604,335,116.438,0.1,80.8071,0.1,2.832
-1.66173,-1.57055,0.517283,0.5817,-0.194422,-0.170561,-0.0972108,-0.125245,603,336,116.55,0.1,80.8907,0.1,2.836
-1.66251,-1.57124,0.516894,0.581217,-0.194753,-0.171001,-0.0973764,-0.123804,603,337,116.66,0.1,80.9744,0.1,2.84
-1.66329,-1.57193,0.516504,0.580737,-0.195084,-0.171928,-0.0975418,-0.122498,600,337,116.769,0.1,81.0584,0.1,2.844
-1.66407,-1.57262,0.516113,0.580266,-0.195414,-0.172028,-0.097707,-0.120878,602,338,116.876,0.1,81.1426,0.1,2.848
-1.66485,-1.57332,0.515722,0.579795,-0.195744,-0.172785,-0.0978721,-0.119856,600,339,116.983,0.1,81.2271,0.1,2.852
-1.66563,-1.57401,0.51533,0.57933,-0.196074,-0.173262,-0.098037,-0.118686,600,339,117.088,0.1,81.3116,0.1,2.856
-1.66642,-1.5747,0.514938,0.578873,-0.196404,-0.173032,-0.0982018,-0.117214,605,340,117.193,0.1,81.3965,0.1,2.86
-1.66721,-1.5754,0.514545,0.578418,-0.196733,-0.173167,-0.0983664,-0.11606,607,341,117.302,0.1,81.4816,0.1,2.864
-1.66799,-1.57609,0.514151,0.577969,-0.197062,-0.173429,-0.0985308,-0.114744,608,342,117.413,0.1,81.5671,0.1,2.868
-1.66878,-1.5768,0.513756,0.577527,-0.19739,-0.174036,-0.098695,-0.113349,607,342,117.524,0.1,81.6531,0.1,2.872
-1.66957,-1.5775,0.513361,0.577089,-0.197718,-0.174585,-0.0988591,-0.112073,606,343,117.634,0.1,81.7396,0.1,2.876
-1.67036,-1.57821,0.512966,0.576653,-0.198046,-0.175498,-0.099023,-0.11102,603,344,117.742,0.1,81.8264,0.1,2.88
-1.67116,-1.57892,0.512569,0.576221,-0.198373,-0.176394,-0.0991867,-0.110002,600,345,117.847,0.1,81.9136,0.1,2.884
-1.67195,-1.57964,0.512172,0.57579,-0.1987,-0.177309,-0.0993502,-0.109295,596,345,117.947,0.1,82.0009,0.1,2.888
-1.67275,-1.58036,0.511774,0.575365,-0.199027,-0.178264,-0.0995136,-0.108276,593,346,118.044,0.1,82.0884,0.1,2.892
-1.67354,-1.58108,0.511376,0.574944,-0.199354,-0.179332,-0.0996768,-0.10728,588,347,118.136,0.1,82.1763,0.1,2.896
-1.67434,-1.58182,0.510977,0.574529,-0.19968,-0.180735,-0.0998398,-0.106127,582,348,118.224,0.1,82.2648,0.1,2.9
-1.67514,-1.58255,0.510577,0.574121,-0.200005,-0.181498,-0.100003,-0.104696,579,349,118.304,0.1,82.3538,0.1,2.904
-1.67594,-1.58329,0.510177,0.573717,-0.200331,-0.182352,-0.100165,-0.103511,576,350,118.381,0.1,82.4436,0.1,2.908
-1.67674,-1.58402,0.509776,0.573318,-0.200655,-0.182893,-0.100328,-0.102261,575,351,118.456,0.1,82.534,0.1,2.912
-1.67755,-1.58475,0.509374,0.572922,-0.20098,-0.182562,-0.10049,-0.101168,581,352,118.529,0.1,82.625,0.1,2.916
-1.67835,-1.58547,0.508972,0.572527,-0.201304,-0.181968,-0.100652,-0.100325,588,353,118.608,0.1,82.7165,0.1,2.92
-1.67916,-1.58618,0.508569,0.572136,-0.201628,-0.180391,-0.100814,-0.0994746,601,354,118.694,0.1,82.8084,0.1,2.924
-1.67996,-1.58688,0.508165,0.571748,-0.201952,-0.178562,-0.100976,-0.0986486,617,355,118.794,0.1,82.9007,0.1,2.928
-1.68077,-1.58758,0.507761,0.571356,-0.202275,-0.177602,-0.101137,-0.0984146,627,355,118.909,0.1,82.9933,0.1,2.932
-1.68158,-1.58828,0.507356,0.570966,-0.202598,-0.176098,-0.101299,-0.0981435,640,356,119.034,0.1,83.0858,0.1,2.936
-1.68239,-1.58897,0.506951,0.570573,-0.20292,-0.175499,-0.10146,-0.0981931,647,356,119.172,0.1,83.1783,0.1,2.94
-1.68321,-1.58968,0.506545,0.570174,-0.203242,-0.175531,-0.101621,-0.0987156,650,356,119.317,0.1,83.2704,0.1,2.944
-1.68402,-1.59037,0.506138,0.56978,-0.203564,-0.175294,-0.101782,-0.098632,655,356,119.464,0.1,83.3621,0.1,2.948
-1.68483,-1.59108,0.50573,0.569383,-0.203885,-0.17574,-0.101943,-0.0988067,655,356,119.614,0.1,83.4537,0.1,2.952
-1.68565,-1.5918,0.505322,0.568985,-0.204206,-0.176728,-0.102103,-0.0990095,651,356,119.764,0.1,83.5449,0.1,2.956
-1.68647,-1.59252,0.504914,0.56859,-0.204527,-0.17779,-0.102263,-0.0990007,647,356,119.909,0.1,83.636,0.1,2.96
-1.68729,-1.59323,0.504504,0.568198,-0.204847,-0.17847,-0.102423,-0.0986206,645,357,120.05,0.1,83.727,0.1,2.964
-1.68811,-1.59396,0.504094,0.567806,-0.205166,-0.179613,-0.102583,-0.098396,640,357,120.188,0.1,83.8181,0.1,2.968
-1.68893,-1.59469,0.503684,0.567416,-0.205486,-0.18075,-0.102743,-0.0981598,635,357,120.32,0.1,83.9093,0.1,2.972
-1.68975,-1.59543,0.503272,0.567028,-0.205805,-0.18171,-0.102902,-0.0977721,632,358,120.446,0.1,84.0006,0.1,2.976
-1.69057,-1.59618,0.50286,0.566635,-0.206124,-0.183357,-0.103062,-0.0978591,623,358,120.568,0.1,84.092,0.1,2.98
-1.6914,-1.5969,0.502448,0.566257,-0.206442,-0.182497,-0.103221,-0.0967367,632,360,120.682,0.1,84.1835,0.1,2.984
-1.69223,-1.59763,0.502035,0.565872,-0.20676,-0.18299,-0.10338,-0.0966218,632,360,120.804,0.1,84.2755,0.1,2.988
-1.69305,-1.59837,0.501621,0.565489,-0.207077,-0.183087,-0.103539,-0.0963437,634,360,120.925,0.1,84.3676,0.1,2.992
-1.69388,-1.5991,0.501206,0.565103,-0.207394,-0.183239,-0.103697,-0.0963886,636,361,121.047,0.1,84.4597,0.1,2.996
-1.69471,-1.59984,0.500791,0.564713,-0.207711,-0.183599,-0.103856,-0.0967352,636,361,121.172,0.1,84.5515,0.1,3
-1.69554,-1.60058,0.500375,0.56432,-0.208027,-0.184127,-0.104014,-0.097283,636,361,121.295,0.1,84.6428,0.1,3.004
-1.69638,-1.60132,0.499959,0.563924,-0.208343,-0.184566,-0.104172,-0.0978497,635,360,121.418,0.1,84.7335,0.1,3.008
-1.69721,-1.60207,0.499542,0.563523,-0.208659,-0.185664,-0.104329,-0.0986018,631,360,121.54,0.1,84.8237,0.1,3.012
-1.69805,-1.60282,0.499124,0.563126,-0.208974,-0.185907,-0.104487,-0.0988441,632,360,121.657,0.1,84.9133,0.1,3.016
-1.69888,-1.60356,0.498706,0.562733,-0.209289,-0.18604,-0.104644,-0.0986602,634,360,121.774,0.1,85.0028,0.1,3.02
-1.69972,-1.60432,0.498287,0.562338,-0.209603,-0.186704,-0.104801,-0.0987103,632,361,121.893,0.1,85.0923,0.1,3.024
-1.70056,-1.60507,0.497868,0.561946,-0.209917,-0.187119,-0.104958,-0.0984557,632,361,122.01,0.1,85.1818,0.1,3.028
-1.7014,-1.60582,0.497448,0.561557,-0.21023,-0.187481,-0.105115,-0.098027,633,362,122.127,0.1,85.2715,0.1,3.032
-1.70224,-1.60657,0.497027,0.561175,-0.210544,-0.187608,-0.105272,-0.0971653,635,363,122.243,0.1,85.3617,0.1,3.036
-1.70308,-1.60733,0.496605,0.560795,-0.210856,-0.187807,-0.105428,-0.0964469,636,364,122.361,0.1,85.4526,0.1,3.04
-1.70393,-1.60808,0.496183,0.560416,-0.211169,-0.188084,-0.105584,-0.0958816,637,365,122.48,0.1,85.544,0.1,3.044
-1.70477,-1.60883,0.495761,0.560039,-0.211481,-0.188211,-0.10574,-0.0953607,639,366,122.6,0.1,85.6358,0.1,3.048
-1.70562,-1.60959,0.495338,0.559661,-0.211792,-0.188526,-0.105896,-0.0950711,640,366,122.721,0.1,85.728,0.1,3.052
-1.70647,-1.61035,0.494914,0.55928,-0.212103,-0.188909,-0.106052,-0.0951659,640,367,122.842,0.1,85.8203,0.1,3.056
-1.70732,-1.61111,0.494489,0.558895,-0.212414,-0.189366,-0.106207,-0.0954594,640,367,122.963,0.1,85.9124,0.1,3.06
-1.70817,-1.61188,0.494064,0.558506,-0.212724,-0.190045,-0.106362,-0.0960582,638,367,123.083,0.1,86.0041,0.1,3.064
-1.70902,-1.61264,0.493638,0.558115,-0.213034,-0.190382,-0.106517,-0.0966589,639,366,123.201,0.1,86.0953,0.1,3.068
-1.70987,-1.6134,0.493212,0.557722,-0.213343,-0.190578,-0.106672,-0.0971746,640,366,123.318,0.1,86.186,0.1,3.072
-1.71073,-1.61417,0.492785,0.557327,-0.213652,-0.190709,-0.106826,-0.0977487,642,366,123.437,0.1,86.2762,0.1,3.076
-1.71158,-1.61495,0.492357,0.556922,-0.213961,-0.192552,-0.10698,-0.0988799,632,366,123.557,0.1,86.3658,0.1,3.08
-1.71244,-1.61572,0.491929,0.556528,-0.214269,-0.19191,-0.107135,-0.0987704,640,366,123.667,0.1,86.4548,0.1,3.084
-1.71329,-1.61647,0.4915,0.556138,-0.214577,-0.191193,-0.107288,-0.0983231,648,367,123.784,0.1,86.544,0.1,3.088
-1.71415,-1.61724,0.491071,0.555753,-0.214884,-0.190975,-0.107442,-0.0976218,652,368,123.909,0.1,86.6338,0.1,3.092
-1.71501,-1.618,0.490641,0.55537,-0.215191,-0.190801,-0.107596,-0.0970104,656,369,124.038,0.1,86.7242,0.1,3.096
-1.71588,-1.61875,0.49021,0.554994,-0.215498,-0.190195,-0.107749,-0.0959981,664,370,124.171,0.1,86.8153,0.1,3.1
-1.71674,-1.61952,0.489779,0.554614,-0.215804,-0.190597,-0.107902,-0.09564,664,371,124.31,0.1,86.9071,0.1,3.104
-1.7176,-1.6203,0.489347,0.554231,-0.216109,-0.191873,-0.108055,-0.0957179,658,371,124.448,0.1,86.9991,0.1,3.108
-1.71847,-1.62107,0.488914,0.55385,-0.216415,-0.191975,-0.108207,-0.0955971,660,372,124.58,0.1,87.0911,0.1,3.112
-1.71933,-1.62182,0.488481,0.553475,-0.216719,-0.190805,-0.10836,-0.0949408,671,373,124.714,0.1,87.1834,0.1,3.116
-1.7202,-1.62263,0.488047,0.553071,-0.217024,-0.194315,-0.108512,-0.0969216,649,371,124.857,0.1,87.2755,0.1,3.12
-1.72107,-1.6234,0.487613,0.552683,-0.217328,-0.194237,-0.108664,-0.0969466,653,372,124.978,0.1,87.3665,0.1,3.124
-1.72194,-1.62419,0.487178,0.552288,-0.217631,-0.195106,-0.108815,-0.0975679,649,372,125.102,0.1,87.4574,0.1,3.128
-1.72281,-1.62499,0.486742,0.551887,-0.217934,-0.196434,-0.108967,-0.0984427,643,371,125.222,0.1,87.5477,0.1,3.132
-1.72368,-1.62578,0.486306,0.551491,-0.218237,-0.197232,-0.109118,-0.0987093,640,371,125.334,0.1,87.6375,0.1,3.136
-1.72456,-1.62656,0.485869,0.551103,-0.218539,-0.196239,-0.109269,-0.0980808,650,372,125.445,0.1,87.7275,0.1,3.14
-1.72543,-1.62737,0.485432,0.550703,-0.21884,-0.19837,-0.10942,-0.0987271,638,372,125.563,0.1,87.8176,0.1,3.144
-1.72631,-1.62817,0.484994,0.550305,-0.219142,-0.19907,-0.109571,-0.0989564,636,372,125.669,0.1,87.9073,0.1,3.148
-1.72718,-1.62896,0.484556,0.549916,-0.219443,-0.198933,-0.109721,-0.0983895,639,373,125.773,0.1,87.9972,0.1,3.152
-1.72806,-1.62974,0.484116,0.549534,-0.219743,-0.197315,-0.109871,-0.0974358,654,375,125.881,0.1,88.0877,0.1,3.156
-1.72894,-1.63053,0.483677,0.549145,-0.220043,-0.197273,-0.110021,-0.0973758,657,375,126.003,0.1,88.1787,0.1,3.16
-1.72982,-1.63132,0.483236,0.54875,-0.220342,-0.197504,-0.110171,-0.0978828,658,375,126.127,0.1,88.2696,0.1,3.164
-1.7307,-1.63212,0.482795,0.548348,-0.220641,-0.197802,-0.110321,-0.0987102,659,375,126.252,0.1,88.36,0.1,3.168
-1.73159,-1.63291,0.482354,0.547943,-0.22094,-0.198145,-0.11047,-0.0995498,659,374,126.377,0.1,88.4496,0.1,3.172
-1.73247,-1.63371,0.481911,0.547532,-0.221238,-0.198863,-0.110619,-0.100685,657,374,126.502,0.1,88.5385,0.1,3.176
-1.73336,-1.63451,0.481469,0.54712,-0.221536,-0.198765,-0.110768,-0.101414,661,373,126.624,0.1,88.6265,0.1,3.18
-1.73424,-1.63529,0.481025,0.546708,-0.221833,-0.198038,-0.110917,-0.101985,669,373,126.75,0.1,88.714,0.1,3.184
-1.73513,-1.63609,0.480581,0.546283,-0.22213,-0.198792,-0.111065,-0.103346,666,372,126.883,0.1,88.8006,0.1,3.188
-1.73602,-1.6369,0.480137,0.545855,-0.222426,-0.199524,-0.111213,-0.104627,664,372,127.013,0.1,88.8861,0.1,3.192
-1.73691,-1.6377,0.479692,0.545423,-0.222722,-0.20007,-0.111361,-0.10574,663,371,127.14,0.1,88.9705,0.1,3.196
-1.7378,-1.63851,0.479246,0.54499,-0.223017,-0.200722,-0.111509,-0.106568,661,370,127.265,0.1,89.0539,0.1,3.2
-1.7387,-1.63932,0.4788,0.544555,-0.223312,-0.20156,-0.111656,-0.107264,658,370,127.388,0.1,89.1367,0.1,3.204
-1.73959,-1.64014,0.478353,0.544122,-0.223607,-0.202061,-0.111803,-0.107585,658,370,127.507,0.1,89.2189,0.1,3.208
-1.74048,-1.64095,0.477905,0.543693,-0.223901,-0.202308,-0.11195,-0.107453,659,370,127.625,0.1,89.301,0.1,3.212
-1.74138,-1.64176,0.477457,0.543267,-0.224194,-0.202991,-0.112097,-0.107192,657,371,127.744,0.1,89.3831,0.1,3.216
-1.74228,-1.64258,0.477008,0.54284,-0.224487,-0.203505,-0.112244,-0.107018,656,371,127.86,0.1,89.4654,0.1,3.22
-1.74318,-1.6434,0.476559,0.542414,-0.22478,-0.203501,-0.11239,-0.106816,659,372,127.974,0.1,89.5476,0.1,3.224
-1.74408,-1.64421,0.476109,0.541988,-0.225072,-0.203672,-0.112536,-0.106767,660,372,128.092,0.1,89.6298,0.1,3.228
-1.74498,-1.64502,0.475659,0.541565,-0.225364,-0.203469,-0.112682,-0.106418,665,372,128.21,0.1,89.7122,0.1,3.232
-1.74588,-1.64584,0.475208,0.541139,-0.225655,-0.203506,-0.112828,-0.106474,667,373,128.333,0.1,89.7945,0.1,3.236
-1.74678,-1.64666,0.474756,0.540706,-0.225946,-0.204337,-0.112973,-0.107029,664,372,128.457,0.1,89.8766,0.1,3.24
-1.74769,-1.64748,0.474304,0.540274,-0.226236,-0.204517,-0.113118,-0.10737,666,372,128.578,0.1,89.9582,0.1,3.244
-1.74859,-1.6483,0.473851,0.539837,-0.226526,-0.204896,-0.113263,-0.107972,666,372,128.699,0.1,90.0392,0.1,3.248
-1.7495,-1.64913,0.473398,0.539399,-0.226815,-0.205235,-0.113408,-0.108488,666,372,128.821,0.1,90.1197,0.1,3.252
-1.75041,-1.64995,0.472944,0.538959,-0.227104,-0.205633,-0.113552,-0.109005,666,372,128.942,0.1,90.1996,0.1,3.256
-1.75132,-1.65078,0.472489,0.53852,-0.227392,-0.205813,-0.113696,-0.109234,668,372,129.063,0.1,90.2792,0.1,3.26
-1.75223,-1.65161,0.472034,0.538078,-0.22768,-0.206451,-0.11384,-0.109704,666,371,129.184,0.1,90.3583,0.1,3.264
-1.75314,-1.65245,0.471579,0.537636,-0.227968,-0.207308,-0.113984,-0.109931,663,371,129.303,0.1,90.4371,0.1,3.268
-1.75405,-1.65328,0.471123,0.537194,-0.228255,-0.208081,-0.114127,-0.110082,660,372,129.418,0.1,90.5156,0.1,3.272
-1.75496,-1.65412,0.470666,0.536758,-0.228541,-0.208481,-0.11427,-0.10978,660,372,129.53,0.1,90.5941,0.1,3.276
-1.75588,-1.65496,0.470208,0.536321,-0.228827,-0.209093,-0.114413,-0.109578,658,372,129.642,0.1,90.6727,0.1,3.28
-1.75679,-1.65581,0.46975,0.535888,-0.229112,-0.209674,-0.114556,-0.109127,657,373,129.751,0.1,90.7515,0.1,3.284
-1.75771,-1.65665,0.469292,0.535455,-0.229397,-0.210464,-0.114699,-0.108884,654,373,129.858,0.1,90.8306,0.1,3.288
-1.75863,-1.6575,0.468833,0.535021,-0.229682,-0.210963,-0.114841,-0.108722,653,374,129.962,0.1,90.9097,0.1,3.292
-1.75955,-1.65836,0.468373,0.534582,-0.229966,-0.211755,-0.114983,-0.109075,650,374,130.064,0.1,90.9886,0.1,3.296
-1.76047,-1.65921,0.467913,0.534141,-0.230249,-0.212053,-0.115125,-0.109454,651,374,130.163,0.1,91.0671,0.1,3.3
-1.76139,-1.66005,0.467452,0.533702,-0.230532,-0.211532,-0.115266,-0.109534,657,374,130.262,0.1,91.1452,0.1,3.304
-1.76231,-1.6609,0.466991,0.533254,-0.230815,-0.211962,-0.115407,-0.110393,657,373,130.368,0.1,91.2229,0.1,3.308
-1.76324,-1.66175,0.466529,0.532798,-0.231097,-0.212393,-0.115548,-0.111599,656,373,130.472,0.1,91.2996,0.1,3.312
-1.76416,-1.6626,0.466066,0.532344,-0.231378,-0.211989,-0.115689,-0.112202,662,372,130.576,0.1,91.3753,0.1,3.316
-1.76509,-1.66344,0.465603,0.531885,-0.231659,-0.211979,-0.11583,-0.113065,665,372,130.686,0.1,91.4503,0.1,3.32
-1.76602,-1.66429,0.46514,0.531421,-0.23194,-0.21203,-0.11597,-0.114043,667,371,130.797,0.1,91.5244,0.1,3.324
-1.76694,-1.66514,0.464676,0.530959,-0.23222,-0.211977,-0.11611,-0.114522,670,371,130.911,0.1,91.5977,0.1,3.328
-1.76787,-1.66599,0.464211,0.530496,-0.2325,-0.212432,-0.11625,-0.114928,670,370,131.028,0.1,91.6706,0.1,3.332
-1.7688,-1.66684,0.463746,0.530044,-0.232779,-0.211785,-0.116389,-0.114277,677,371,131.144,0.1,91.7434,0.1,3.336
-1.76974,-1.66769,0.46328,0.52959,-0.233057,-0.212131,-0.116529,-0.114016,678,371,131.266,0.1,91.8165,0.1,3.34
-1.77067,-1.66854,0.462813,0.529138,-0.233335,-0.212275,-0.116668,-0.113698,680,372,131.389,0.1,91.8897,0.1,3.344
-1.7716,-1.6694,0.462346,0.528686,-0.233613,-0.213321,-0.116806,-0.113486,675,372,131.512,0.1,91.9631,0.1,3.348
-1.77254,-1.67025,0.461879,0.528239,-0.23389,-0.212925,-0.116945,-0.112884,680,373,131.631,0.1,92.0366,0.1,3.352
-1.77347,-1.67111,0.461411,0.527788,-0.234166,-0.213466,-0.117083,-0.112828,679,373,131.755,0.1,92.1103,0.1,3.356
-1.77441,-1.67197,0.460942,0.527338,-0.234442,-0.214,-0.117221,-0.112705,678,374,131.876,0.1,92.184,0.1,3.36
-1.77535,-1.67282,0.460473,0.526886,-0.234718,-0.214126,-0.117359,-0.112795,680,374,131.996,0.1,92.2576,0.1,3.364
-1.77629,-1.67369,0.460003,0.526427,-0.234993,-0.214872,-0.117496,-0.113517,677,373,132.118,0.1,92.3307,0.1,3.368
-1.77723,-1.67455,0.459533,0.525967,-0.235267,-0.215369,-0.117634,-0.113999,676,373,132.236,0.1,92.4033,0.1,3.372
-1.77817,-1.67543,0.459062,0.525506,-0.235541,-0.216277,-0.11777,-0.114406,673,373,132.352,0.1,92.4753,0.1,3.376
-1.77911,-1.6763,0.458591,0.525042,-0.235814,-0.216766,-0.117907,-0.114908,672,373,132.464,0.1,92.5468,0.1,3.38
-1.78006,-1.67717,0.458119,0.524581,-0.236087,-0.216834,-0.118044,-0.11507,674,373,132.575,0.1,92.6179,0.1,3.384
-1.781,-1.67802,0.457647,0.524119,-0.23636,-0.215842,-0.11818,-0.115207,684,373,132.688,0.1,92.6887,0.1,3.388
