peachynonah/Fire_monitor_/csv_datas/trial12/cdsl_data_t12_2.csv
joint1_pos_desired, joint1_pos, joint2_pos_desired, joint2_pos, joint1_vel_desired, joint1_vel_filtered, joint2_vel_desired, joint2_vel_filtered, target_torque_joint1, target_torque_joint2, estimated_disturbance_joint1, saturated_DOB_joint1, estimated_disturbance_joint2, saturated_DOB_joint2, current_time
-1.0042e-09,-0.000187256,0.3929,0.00012334,-7.52997e-07,0,0.0999999,0,-1,-2500,0,0,23.0563,0.1,0.004
-8.02876e-09,-0.000187256,0.3933,0.00012334,-3.00958e-06,0,0.0999996,0,-1,-2500,-0.00133315,-0.00133315,20.0778,0.1,0.008
-2.70808e-08,-0.000187256,0.3937,0.000137851,-6.76613e-06,0,0.0999991,0.00120922,-1,-2500,-0.00264254,-0.00264254,17.1106,0.1,0.012
-6.4153e-08,-0.000187602,0.3941,0.000313015,-1.2019e-05,-2.87909e-05,0.0999984,0.0154031,-1,-2500,-0.00393366,-0.00393366,14.164,0.1,0.016
-1.25224e-07,-0.000187256,0.3945,0.000672671,-1.87647e-05,9.59697e-06,0.0999975,0.0402401,-1,-2500,-0.00541391,-0.00541391,11.2485,0.1,0.02
-2.16256e-07,-0.000187256,0.3949,0.00117536,-2.69995e-05,6.39798e-06,0.0999964,0.0687175,0,-2500,-0.00646721,-0.00646721,8.36945,0.1,0.024
-3.43201e-07,-0.000187256,0.3953,0.00177962,-3.67199e-05,4.26532e-06,0.0999951,0.096167,0,-2500,-0.00746751,-0.00746751,5.52737,0.1,0.028
-5.11991e-07,-0.000187256,0.3957,0.00244089,-4.79222e-05,2.84355e-06,0.0999937,0.119217,0,-2500,-0.00838921,-0.00838921,2.7196,0.1,0.032
-7.28549e-07,-0.000187256,0.3961,0.0030918,-6.06029e-05,1.8957e-06,0.099992,0.13372,0,-2500,-0.00921018,-0.00921018,-0.0603222,-0.0603222,0.036
-9.98781e-07,-0.000187256,0.3965,0.00371161,-7.47583e-05,1.2638e-06,0.0999901,0.140798,0,-2500,-0.00991061,-0.00991061,-2.81978,-0.1,0.04
-1.32858e-06,-0.000187256,0.3969,0.0042948,-9.03849e-05,8.42533e-07,0.099988,0.142464,0,-2500,-0.0104722,-0.0104722,-5.56346,-0.1,0.044
-1.72382e-06,-0.000187256,0.3973,0.0048545,-0.000107479,5.61689e-07,0.0999858,0.141617,0,-2500,-0.0108778,-0.0108778,-8.29406,-0.1,0.048
-2.19036e-06,-0.000187602,0.3977,0.00540866,-0.000126037,-2.84165e-05,0.0999833,0.140592,0,-2500,-0.0111314,-0.0111314,-11.0123,-0.1,0.052
-2.73406e-06,-0.000187256,0.3981,0.00595972,-0.000146056,9.84661e-06,0.0999806,0.13965,0,-2500,-0.0114394,-0.0114394,-13.7182,-0.1,0.056
-3.36075e-06,-0.000187602,0.3985,0.00654049,-0.000167531,-2.22265e-05,0.0999778,0.141497,0,-2500,-0.0112057,-0.0112057,-16.4099,-0.1,0.06
-4.07625e-06,-0.000187256,0.398899,0.00712403,-0.00019046,1.39732e-05,0.0999747,0.142959,0,-2500,-0.0110264,-0.0110264,-19.0872,-0.1,0.064
-4.88637e-06,-0.000187256,0.399299,0.00770791,-0.000214839,9.3155e-06,0.0999715,0.143963,0,-2500,-0.0102746,-0.0102746,-21.7503,-0.1,0.068
-5.79689e-06,-0.000187256,0.399699,0.00831459,-0.000240663,6.21033e-06,0.099968,0.146532,1,-2500,-0.00931704,-0.00931704,-24.3984,-0.1,0.072
-6.81359e-06,-0.000187602,0.400099,0.00892853,-0.00026793,-2.46507e-05,0.0999644,0.14885,1,-2500,-0.00814384,-0.00814384,-27.0313,-0.1,0.076
-7.94225e-06,-0.000187256,0.400499,0.00954246,-0.000296636,1.23571e-05,0.0999606,0.150395,1,-2500,-0.00695235,-0.00695235,-29.6497,-0.1,0.08
-9.1886e-06,-0.000187256,0.400899,0.0101502,-0.000326778,8.23808e-06,0.0999566,0.150906,2,-2500,-0.00511951,-0.00511951,-32.2543,-0.1,0.084
-1.05584e-05,-0.000187256,0.401299,0.0107462,-0.000358351,5.49205e-06,0.0999524,0.150269,2,-2500,-0.00301474,-0.00301474,-34.8463,-0.1,0.088
-1.20573e-05,-0.000187602,0.401698,0.011328,-0.000391353,-2.51296e-05,0.099948,0.148663,2,-2500,-0.000629899,-0.000629899,-37.4267,-0.1,0.092
-1.36911e-05,-0.000187256,0.402098,0.0119008,-0.000425779,1.20379e-05,0.0999434,0.146844,3,-2500,0.00183649,0.00183649,-39.9959,-0.1,0.096
-1.54654e-05,-0.000187256,0.402498,0.012474,-0.000461627,8.02526e-06,0.0999386,0.14566,3,-2500,0.00500674,0.00500674,-42.5536,-0.1,0.1
-1.7386e-05,-0.000187602,0.402898,0.0130454,-0.000498892,-2.34408e-05,0.0999336,0.144727,3,-2500,0.00849039,0.00849039,-45.0996,-0.1,0.104
-1.94585e-05,-0.000187602,0.403297,0.0136272,-0.000537572,-1.56272e-05,0.0999285,0.144969,3,-2500,0.0120725,0.0120725,-47.633,-0.1,0.108
-2.16885e-05,-0.000187256,0.403697,0.0142173,-0.000577662,1.83728e-05,0.0999231,0.145821,4,-2500,0.0161554,0.0161554,-50.1534,-0.1,0.112
-2.40816e-05,-0.000187602,0.404097,0.0148164,-0.000619159,-1.65424e-05,0.0999175,0.147137,4,-2500,0.0209517,0.0209517,-52.6601,-0.1,0.116
-2.66436e-05,-0.000187256,0.404496,0.01543,-0.00066206,1.77627e-05,0.0999118,0.149224,5,-2500,0.0258789,0.0258789,-55.1527,-0.1,0.12
-2.938e-05,-0.000187602,0.404896,0.0160498,-0.000706361,-1.69491e-05,0.0999059,0.151134,5,-2500,0.031553,0.031553,-57.6311,-0.1,0.124
-3.22964e-05,-0.000187602,0.405296,0.0166755,-0.000752058,-1.12994e-05,0.0998998,0.152896,6,-2500,0.03737,0.03737,-60.0955,-0.1,0.128
-3.53983e-05,-0.000187602,0.405695,0.0173122,-0.000799148,-7.53295e-06,0.0998935,0.154992,6,-2500,0.0437224,0.0437224,-62.5456,-0.1,0.132
-3.86914e-05,-0.000187256,0.406095,0.017951,-0.000847627,2.3769e-05,0.099887,0.156563,7,-2500,0.0506276,0.0506276,-64.9818,-0.1,0.136
-4.21812e-05,-0.000187256,0.406494,0.0185916,-0.000897492,1.5846e-05,0.0998803,0.157754,8,-2500,0.0583318,0.0583318,-67.4044,-0.1,0.14
-4.58732e-05,-0.000187602,0.406894,0.0192349,-0.00094874,-1.82269e-05,0.0998734,0.158778,8,-2500,0.0664638,0.0664638,-69.8137,-0.1,0.144
-4.97729e-05,-0.000187602,0.407293,0.0198751,-0.00100137,-1.21513e-05,0.0998664,0.159201,8,-2500,0.0748214,0.0748214,-72.2102,-0.1,0.148
-5.38859e-05,-0.000187602,0.407693,0.0205225,-0.00105537,-8.10086e-06,0.0998591,0.160088,9,-2500,0.0837949,0.0837949,-74.5936,-0.1,0.152
-5.82177e-05,-0.000187602,0.408092,0.0211724,-0.00111074,-5.40058e-06,0.0998517,0.160881,10,-2500,0.0933798,0.0933798,-76.9641,-0.1,0.156
-6.27737e-05,-0.000187602,0.408492,0.0218302,-0.00116748,-3.60038e-06,0.0998441,0.162072,10,-2500,0.103578,0.1,-79.3214,-0.1,0.16
-6.75594e-05,-0.000187602,0.408891,0.0224894,-0.00122559,-2.40026e-06,0.0998363,0.162981,11,-2500,0.114381,0.1,-81.6655,-0.1,0.164
-7.25802e-05,-0.000187602,0.40929,0.0231541,-0.00128506,-1.60017e-06,0.0998283,0.164048,12,-2500,0.125764,0.1,-83.9966,-0.1,0.168
-7.78417e-05,-0.000187602,0.40969,0.0238237,-0.00134589,-1.06678e-06,0.0998201,0.165162,12,-2500,0.137739,0.1,-86.3146,-0.1,0.172
-8.33491e-05,-0.000187602,0.410089,0.024497,-0.00140807,-7.11187e-07,0.0998118,0.166222,13,-2500,0.150313,0.1,-88.6194,-0.1,0.176
-8.9108e-05,-0.000187602,0.410488,0.0251573,-0.0014716,-4.74125e-07,0.0998032,0.165834,14,-2500,0.163499,0.1,-90.9122,-0.1,0.18
-9.51237e-05,-0.000188293,0.410887,0.0258161,-0.00153648,-5.78979e-05,0.0997945,0.16546,14,-2500,0.177267,0.1,-93.1934,-0.1,0.184
-0.000101402,-0.000188293,0.411286,0.0264757,-0.0016027,-3.85986e-05,0.0997856,0.165269,14,-2500,0.191141,0.1,-95.4628,-0.1,0.188
-0.000107947,-0.000188984,0.411686,0.0271383,-0.00167026,-8.33143e-05,0.0997765,0.1654,15,-2500,0.205811,0.1,-97.7202,-0.1,0.192
-0.000114765,-0.000189329,0.412085,0.0278075,-0.00173916,-8.43338e-05,0.0997672,0.166035,15,-2500,0.220719,0.1,-99.9654,-0.1,0.196
-0.000121862,-0.000189675,0.412484,0.0284657,-0.00180939,-8.50134e-05,0.0997577,0.165537,16,-2500,0.236289,0.1,-102.199,-0.1,0.2
-0.000129242,-0.000189675,0.412883,0.0291366,-0.00188096,-5.66756e-05,0.0997481,0.16627,17,-2500,0.252556,0.1,-104.42,-0.1,0.204
-0.000136912,-0.00019002,0.413282,0.0298235,-0.00195385,-6.65747e-05,0.0997382,0.168083,18,-2500,0.269778,0.1,-106.628,-0.1,0.208
-0.000144875,-0.000190366,0.413681,0.0305103,-0.00202806,-7.3174e-05,0.0997282,0.169292,19,-2500,0.287611,0.1,-108.824,-0.1,0.212
-0.000153138,-0.000191057,0.41408,0.0312065,-0.00210359,-0.000106365,0.099718,0.170875,19,-2500,0.306078,0.1,-111.006,-0.1,0.216
-0.000161705,-0.000191748,0.414478,0.0319089,-0.00218044,-0.000128492,0.0997076,0.172448,20,-2500,0.32495,0.1,-113.175,-0.1,0.22
-0.000170583,-0.000192093,0.414877,0.0326109,-0.0022586,-0.000114452,0.0996971,0.173469,21,-2500,0.344368,0.1,-115.332,-0.1,0.224
-0.000179776,-0.000192784,0.415276,0.0333029,-0.00233807,-0.000133883,0.0996863,0.173314,21,-2500,0.364663,0.1,-117.476,-0.1,0.228
-0.000189289,-0.000193821,0.415675,0.0340036,-0.00241885,-0.000175628,0.0996754,0.173931,22,-2500,0.385514,0.1,-119.609,-0.1,0.232
-0.000199128,-0.000194857,0.416073,0.0346994,-0.00250092,-0.000203458,0.0996643,0.173939,22,-2500,0.406734,0.1,-121.73,-0.1,0.236
-0.000209298,-0.000195893,0.416472,0.035398,-0.0025843,-0.000222012,0.099653,0.174174,23,-2500,0.428474,0.1,-123.839,-0.1,0.24
-0.000219805,-0.00019693,0.416871,0.0360893,-0.00266897,-0.000234381,0.0996415,0.173727,24,-2500,0.450836,0.1,-125.938,-0.1,0.244
-0.000230652,-0.000197621,0.417269,0.0367834,-0.00275494,-0.000213836,0.0996299,0.173659,25,-2500,0.473915,0.1,-128.025,-0.1,0.248
-0.000241846,-0.000198657,0.417668,0.037474,-0.00284219,-0.00022893,0.0996181,0.173326,26,-2500,0.498006,0.1,-130.1,-0.1,0.252
-0.000253391,-0.000199348,0.418066,0.038155,-0.00293073,-0.000210202,0.0996061,0.172297,27,-2500,0.522809,0.1,-132.166,-0.1,0.256
-0.000265293,-0.000200039,0.418464,0.0388291,-0.00302055,-0.000197716,0.0995939,0.171036,28,-2500,0.548649,0.1,-134.221,-0.1,0.26
-0.000277557,-0.000200385,0.418863,0.039499,-0.00311164,-0.000160602,0.0995815,0.16985,29,-2500,0.575498,0.1,-136.266,-0.1,0.264
-0.000290188,-0.000201076,0.419261,0.0401623,-0.00320402,-0.00016465,0.099569,0.168512,30,-2500,0.603567,0.1,-138.302,-0.1,0.268
-0.000303191,-0.000202112,0.419659,0.0408291,-0.00329766,-0.000196139,0.0995563,0.167908,31,-2500,0.632462,0.1,-140.327,-0.1,0.272
-0.000316571,-0.000202803,0.420058,0.0414945,-0.00339257,-0.000188341,0.0995434,0.16739,32,-2500,0.661964,0.1,-142.341,-0.1,0.276
-0.000330333,-0.000203494,0.420456,0.0421668,-0.00348875,-0.000183143,0.0995303,0.16762,33,-2500,0.692453,0.1,-144.345,-0.1,0.28
-0.000344483,-0.000204531,0.420854,0.042835,-0.00358618,-0.000208468,0.0995171,0.167429,34,-2500,0.723893,0.1,-146.338,-0.1,0.284
-0.000359025,-0.000205567,0.421252,0.043507,-0.00368488,-0.000225351,0.0995036,0.167617,34,-2500,0.756014,0.1,-148.32,-0.1,0.288
-0.000373964,-0.000207295,0.42165,0.044179,-0.00378483,-0.000294189,0.09949,0.167743,35,-2500,0.788871,0.1,-150.292,-0.1,0.292
-0.000389305,-0.000210404,0.422048,0.0448544,-0.00388603,-0.000455244,0.0994763,0.168115,34,-2500,0.821923,0.1,-152.252,-0.1,0.296
-0.000405053,-0.000213859,0.422446,0.0455326,-0.00398848,-0.000591405,0.0994623,0.168593,34,-2500,0.854333,0.1,-154.202,-0.1,0.3
-0.000421214,-0.000217659,0.422843,0.0462153,-0.00409217,-0.00071097,0.0994482,0.169286,34,-2500,0.886361,0.1,-156.14,-0.1,0.304
-0.000437792,-0.000222842,0.423241,0.0468977,-0.0041971,-0.000905844,0.0994339,0.16972,33,-2500,0.918121,0.1,-158.067,-0.1,0.308
-0.000454793,-0.000227333,0.423639,0.0475769,-0.00430327,-0.000978178,0.0994194,0.169749,34,-2500,0.949008,0.1,-159.984,-0.1,0.312
-0.00047222,-0.000232861,0.424037,0.0482523,-0.00441067,-0.00111277,0.0994047,0.169453,33,-2500,0.980141,0.1,-161.89,-0.1,0.316
-0.00049008,-0.00023908,0.424434,0.0489222,-0.0045193,-0.00126009,0.0993899,0.168794,33,-2500,1.01094,0.1,-163.786,-0.1,0.32
-0.000508376,-0.000244262,0.424832,0.0495859,-0.00462916,-0.00127192,0.0993749,0.167837,34,-2500,1.04139,0.1,-165.673,-0.1,0.324
-0.000527115,-0.000250136,0.425229,0.0502458,-0.00474025,-0.00133739,0.0993597,0.166882,35,-2500,1.07274,0.1,-167.55,-0.1,0.328
-0.0005463,-0.000257045,0.425627,0.0509074,-0.00485255,-0.00146741,0.0993444,0.166389,35,-2500,1.10446,0.1,-169.418,-0.1,0.332
-0.000565937,-0.000265683,0.426024,0.051568,-0.00496608,-0.00169805,0.0993289,0.165974,34,-2500,1.13587,0.1,-171.276,-0.1,0.336
-0.00058603,-0.000275356,0.426421,0.0522251,-0.00508081,-0.00193818,0.0993132,0.16541,32,-2500,1.16604,0.1,-173.124,-0.1,0.34
-0.000606585,-0.000285721,0.426818,0.0528805,-0.00519676,-0.00215585,0.0992973,0.16489,32,-2500,1.19492,0.1,-174.963,-0.1,0.344
-0.000627606,-0.000296431,0.427216,0.0535356,-0.00531391,-0.00232975,0.0992813,0.164514,31,-2500,1.22275,0.1,-176.792,-0.1,0.348
-0.000649098,-0.000307142,0.427613,0.0541896,-0.00543226,-0.00244569,0.0992651,0.164177,31,-2500,1.25,0.1,-178.611,-0.1,0.352
-0.000671065,-0.000317506,0.42801,0.0548391,-0.00555182,-0.00249418,0.0992487,0.163578,32,-2500,1.27728,0.1,-180.421,-0.1,0.356
-0.000693514,-0.000327526,0.428407,0.0554814,-0.00567257,-0.00249773,0.0992321,0.162575,33,-2500,1.30526,0.1,-182.222,-0.1,0.36
-0.000716448,-0.000337545,0.428804,0.0561302,-0.00579452,-0.00250009,0.0992154,0.162452,34,-2500,1.33438,0.1,-184.014,-0.1,0.364
-0.000739872,-0.00034791,0.4292,0.0567794,-0.00591765,-0.00253045,0.0991985,0.1624,35,-2500,1.36464,0.1,-185.796,-0.1,0.368
-0.00076379,-0.000357929,0.429597,0.057432,-0.00604198,-0.00252191,0.0991814,0.162653,37,-2500,1.39581,0.1,-187.568,-0.1,0.372
-0.000788209,-0.000367948,0.429994,0.0580836,-0.00616748,-0.00251621,0.0991642,0.162735,38,-2500,1.42826,0.1,-189.33,-0.1,0.376
-0.000813132,-0.000379004,0.43039,0.0587369,-0.00629417,-0.00259878,0.0991468,0.162933,39,-2500,1.46193,0.1,-191.082,-0.1,0.38
-0.000838564,-0.000391441,0.430787,0.0593927,-0.00642203,-0.00276899,0.0991292,0.163267,38,-2500,1.49592,0.1,-192.825,-0.1,0.384
-0.00086451,-0.000405261,0.431184,0.0600495,-0.00655106,-0.00299763,0.0991115,0.163577,37,-2500,1.52938,0.1,-194.558,-0.1,0.388
-0.000890974,-0.000421154,0.43158,0.0607239,-0.00668127,-0.0033228,0.0990936,0.165251,36,-2500,1.56172,0.1,-196.28,-0.1,0.392
-0.000917961,-0.000435664,0.431976,0.0613682,-0.00681264,-0.00342442,0.0990755,0.163862,36,-2500,1.5922,0.1,-197.993,-0.1,0.396
-0.000945477,-0.000452248,0.432373,0.0620288,-0.00694518,-0.00366491,0.0990573,0.16429,35,-2500,1.62283,0.1,-199.697,-0.1,0.4
-0.000973524,-0.000469522,0.432769,0.0627035,-0.00707887,-0.00388282,0.0990388,0.165755,34,-2500,1.65234,0.1,-201.39,-0.1,0.404
-0.00100211,-0.000487142,0.433165,0.0633555,-0.00721372,-0.00405688,0.0990203,0.164832,34,-2500,1.68098,0.1,-203.074,-0.1,0.408
-0.00103124,-0.000504762,0.433561,0.0640091,-0.00734973,-0.00417293,0.0990015,0.16436,34,-2500,1.70922,0.1,-204.75,-0.1,0.412
-0.00106091,-0.000522383,0.433957,0.0646521,-0.00748689,-0.00425029,0.0989826,0.163154,35,-2500,1.73764,0.1,-206.417,-0.1,0.416
-0.00109113,-0.000540694,0.434353,0.0653268,-0.00762519,-0.00435944,0.0989635,0.164998,35,-2500,1.76659,0.1,-208.073,-0.1,0.42
-0.00112191,-0.000559005,0.434749,0.0659919,-0.00776463,-0.00443222,0.0989443,0.165421,36,-2500,1.79582,0.1,-209.72,-0.1,0.424
-0.00115325,-0.000577316,0.435144,0.0666425,-0.00790522,-0.00448073,0.0989248,0.164494,37,-2500,1.82568,0.1,-211.359,-0.1,0.428
-0.00118515,-0.000595972,0.43554,0.0673106,-0.00804694,-0.00454186,0.0989053,0.165344,38,-2500,1.85641,0.1,-212.987,-0.1,0.432
-0.00121763,-0.000616011,0.435936,0.0679861,-0.00818979,-0.00469778,0.0988855,0.166516,38,-2500,1.88784,0.1,-214.606,-0.1,0.436
-0.00125067,-0.000635358,0.436331,0.0686812,-0.00833378,-0.00474415,0.0988656,0.168938,39,-2500,1.91917,0.1,-216.214,-0.1,0.44
-0.0012843,-0.000656433,0.436726,0.0693556,-0.00847889,-0.00491901,0.0988455,0.168825,39,-2500,1.95133,0.1,-217.812,-0.1,0.444
-0.00131851,-0.000677854,0.437122,0.0700335,-0.00862513,-0.00506438,0.0988253,0.169038,39,-2500,1.98316,0.1,-219.401,-0.1,0.448
-0.0013533,-0.00070031,0.437517,0.0707372,-0.00877248,-0.00524766,0.0988049,0.171339,38,-2500,2.01492,0.1,-220.979,-0.1,0.452
-0.00138869,-0.000721731,0.437912,0.0714244,-0.00892096,-0.00528348,0.0987843,0.171491,40,-2500,2.04637,0.1,-222.547,-0.1,0.456
-0.00142467,-0.000743842,0.438307,0.0721102,-0.00907054,-0.00536494,0.0987636,0.171477,40,-2500,2.07887,0.1,-224.107,-0.1,0.46
-0.00146125,-0.000765954,0.438702,0.0727822,-0.00922124,-0.00541924,0.0987427,0.170317,41,-2500,2.11202,0.1,-225.658,-0.1,0.464
-0.00149844,-0.000790138,0.439097,0.0734645,-0.00937304,-0.00562819,0.0987216,0.170407,41,-2500,2.14598,0.1,-227.201,-0.1,0.468
-0.00153624,-0.000815359,0.439492,0.0741503,-0.00952595,-0.00585387,0.0987004,0.170754,40,-2500,2.17929,0.1,-228.735,-0.1,0.472
-0.00157465,-0.000840925,0.439887,0.0748337,-0.00967996,-0.00603311,0.098679,0.170785,40,-2500,2.21185,0.1,-230.259,-0.1,0.476
-0.00161368,-0.000867874,0.440282,0.0755206,-0.00983507,-0.00626776,0.0986575,0.171093,39,-2500,2.24407,0.1,-231.775,-0.1,0.48
-0.00165333,-0.00089724,0.440676,0.0762032,-0.00999127,-0.00662574,0.0986358,0.170953,38,-2500,2.27534,0.1,-233.282,-0.1,0.484
-0.00169361,-0.000926262,0.441071,0.0768852,-0.0101486,-0.0068356,0.0986139,0.170802,37,-2500,2.30464,0.1,-234.78,-0.1,0.488
-0.00173452,-0.000955283,0.441465,0.0775624,-0.0103069,-0.0069755,0.0985919,0.170298,37,-2500,2.3334,0.1,-236.27,-0.1,0.492
-0.00177607,-0.000984304,0.441859,0.0782482,-0.0104664,-0.00706877,0.0985697,0.170682,38,-2500,2.36234,0.1,-237.751,-0.1,0.496
-0.00181826,-0.00101471,0.442254,0.0789312,-0.0106269,-0.00724612,0.0985474,0.170708,38,-2500,2.39184,0.1,-239.223,-0.1,0.5
-0.00186109,-0.00104477,0.442648,0.0796139,-0.0107886,-0.00733555,0.0985248,0.170696,39,-2500,2.42118,0.1,-240.687,-0.1,0.504
-0.00190457,-0.00107448,0.443042,0.0803008,-0.0109513,-0.00736639,0.0985022,0.171034,40,-2500,2.45124,0.1,-242.142,-0.1,0.508
-0.0019487,-0.00110419,0.443436,0.0809841,-0.011115,-0.00738695,0.0984794,0.170971,42,-2500,2.48259,0.1,-243.589,-0.1,0.512
-0.00199349,-0.00113356,0.44383,0.0816737,-0.0112799,-0.00737186,0.0984564,0.171447,43,-2500,2.51534,0.1,-245.027,-0.1,0.516
-0.00203894,-0.00116292,0.444223,0.0823589,-0.0114458,-0.0073618,0.0984332,0.171391,45,-2500,2.54985,0.1,-246.456,-0.1,0.52
-0.00208506,-0.00119333,0.444617,0.0830623,-0.0116127,-0.00744147,0.0984099,0.172879,46,-2500,2.586,0.1,-247.876,-0.1,0.524
-0.00213184,-0.00122269,0.445011,0.0837491,-0.0117807,-0.00740821,0.0983864,0.172489,48,-2500,2.62305,0.1,-249.287,-0.1,0.528
-0.0021793,-0.00125275,0.445404,0.0844228,-0.0119498,-0.00744362,0.0983628,0.171135,50,-2500,2.66201,0.1,-250.691,-0.1,0.532
-0.00222744,-0.00128246,0.445798,0.0851114,-0.0121199,-0.00743843,0.098339,0.17147,51,-2500,2.70228,0.1,-252.087,-0.1,0.536
-0.00227626,-0.00130976,0.446191,0.0857975,-0.0122911,-0.00723344,0.0983151,0.171492,55,-2500,2.74438,0.1,-253.474,-0.1,0.54
-0.00232577,-0.00133532,0.446584,0.0864851,-0.0124633,-0.00695282,0.098291,0.171622,60,-2500,2.79024,0.1,-254.853,-0.1,0.544
-0.00237597,-0.00135847,0.446977,0.0871712,-0.0126366,-0.0065642,0.0982668,0.171594,65,-2500,2.84065,0.1,-256.224,-0.1,0.548
-0.00242687,-0.00137851,0.44737,0.0878515,-0.0128109,-0.00604601,0.0982423,0.171085,72,-2500,2.8967,0.1,-257.588,-0.1,0.552
-0.00247846,-0.0013944,0.447763,0.0885317,-0.0129862,-0.00535506,0.0982178,0.170746,81,-2500,2.95973,0.1,-258.943,-0.1,0.556
-0.00253076,-0.00140546,0.448156,0.0892037,-0.0131626,-0.00449135,0.0981931,0.169829,91,-2498,3.03146,0.1,-260.291,-0.1,0.56
-0.00258376,-0.00141271,0.448549,0.0898781,-0.01334,-0.00359884,0.0981682,0.169419,102,-2497,3.11354,0.1,-261.631,-0.1,0.564
-0.00263748,-0.00141582,0.448941,0.0905467,-0.0135184,-0.00265835,0.0981432,0.168657,113,-2495,3.20624,0.1,-262.964,-0.1,0.568
-0.00269191,-0.00141582,0.449334,0.0912169,-0.0136978,-0.00177223,0.098118,0.168292,123,-2494,3.30998,0.1,-264.29,-0.1,0.572
-0.00274706,-0.00141582,0.449726,0.0918813,-0.0138783,-0.00118149,0.0980926,0.16756,131,-2493,3.42404,0.1,-265.608,-0.1,0.576
-0.00280294,-0.00141617,0.450119,0.0925529,-0.0140598,-0.000816449,0.0980671,0.167676,137,-2491,3.54548,0.1,-266.919,-0.1,0.58
-0.00285954,-0.00141651,0.450511,0.093219,-0.0142423,-0.00057309,0.0980415,0.167293,141,-2489,3.67211,0.1,-268.222,-0.1,0.584
-0.00291688,-0.00141686,0.450903,0.0938844,-0.0144258,-0.000410851,0.0980157,0.16698,145,-2487,3.80274,0.1,-269.517,-0.1,0.588
-0.00297495,-0.00141755,0.451295,0.0945509,-0.0146103,-0.000331483,0.0979897,0.166858,148,-2485,3.93657,0.1,-270.805,-0.1,0.592
-0.00303376,-0.00141859,0.451687,0.0952215,-0.0147958,-0.000307361,0.0979636,0.167122,150,-2483,4.07278,0.1,-272.086,-0.1,0.596
-0.00309332,-0.00141962,0.452079,0.0958955,-0.0149823,-0.00029128,0.0979373,0.167586,152,-2481,4.21085,0.1,-273.358,-0.1,0.6
-0.00315362,-0.0014217,0.45247,0.0965623,-0.0151698,-0.000366932,0.0979109,0.16729,154,-2479,4.35066,0.1,-274.622,-0.1,0.604
-0.00321468,-0.00142446,0.452862,0.0972354,-0.0153583,-0.000474949,0.0978844,0.167611,155,-2477,4.49134,0.1,-275.879,-0.1,0.608
-0.00327649,-0.00142757,0.453253,0.0979111,-0.0155478,-0.000575751,0.0978576,0.168056,156,-2475,4.63259,0.1,-277.128,-0.1,0.612
-0.00333906,-0.00143206,0.453645,0.0985911,-0.0157383,-0.000758116,0.0978308,0.168698,157,-2472,4.77444,0.1,-278.369,-0.1,0.616
-0.0034024,-0.00143621,0.454036,0.0992689,-0.0159298,-0.000850902,0.0978037,0.168953,158,-2470,4.9162,0.1,-279.602,-0.1,0.62
-0.0034665,-0.00144104,0.454427,0.0999495,-0.0161222,-0.000970341,0.0977766,0.169353,159,-2468,5.05869,0.1,-280.828,-0.1,0.624
-0.00353138,-0.00144588,0.454818,0.100633,-0.0163157,-0.00104997,0.0977492,0.16988,160,-2465,5.2017,0.1,-282.045,-0.1,0.628
-0.00359703,-0.00145037,0.455209,0.10132,-0.0165101,-0.00107426,0.0977217,0.170489,163,-2463,5.34565,0.1,-283.254,-0.1,0.632
-0.00366346,-0.00145417,0.4556,0.102008,-0.0167054,-0.00103287,0.0976941,0.170982,165,-2460,5.49111,0.1,-284.456,-0.1,0.636
-0.00373067,-0.00145728,0.455991,0.102695,-0.0169018,-0.000947701,0.0976663,0.171225,168,-2458,5.63872,0.1,-285.649,-0.1,0.64
-0.00379867,-0.00145935,0.456381,0.103376,-0.0170991,-0.000804546,0.0976384,0.170925,172,-2456,5.78895,0.1,-286.836,-0.1,0.644
-0.00386747,-0.00146143,0.456772,0.104061,-0.0172974,-0.00070911,0.0976103,0.170985,175,-2454,5.94231,0.1,-288.015,-0.1,0.648
-0.00393705,-0.00146177,0.457162,0.104736,-0.0174966,-0.000501531,0.0975821,0.170276,180,-2453,6.09842,0.1,-289.188,-0.1,0.652
-0.00400744,-0.00146281,0.457553,0.105416,-0.0176968,-0.000420727,0.0975537,0.170207,183,-2451,6.25827,0.1,-290.353,-0.1,0.656
-0.00407863,-0.00146246,0.457943,0.106097,-0.0178979,-0.000251693,0.0975252,0.170189,187,-2449,6.42071,0.1,-291.511,-0.1,0.66
-0.00415062,-0.00146281,0.458333,0.10678,-0.0181,-0.000196587,0.0974965,0.170408,190,-2446,6.58652,0.1,-292.662,-0.1,0.664
-0.00422343,-0.00146385,0.458723,0.107457,-0.018303,-0.00021743,0.0974677,0.169978,192,-2445,6.75457,0.1,-293.806,-0.1,0.668
-0.00429705,-0.00146523,0.459113,0.10814,-0.018507,-0.000260117,0.0974387,0.170267,194,-2443,6.92415,0.1,-294.942,-0.1,0.672
-0.00437149,-0.0014673,0.459502,0.108821,-0.0187119,-0.000346157,0.0974096,0.17023,195,-2441,7.09503,0.1,-296.072,-0.1,0.676
-0.00444675,-0.00147006,0.459892,0.109501,-0.0189178,-0.000461099,0.0973804,0.170147,197,-2439,7.26679,0.1,-297.194,-0.1,0.68
-0.00452283,-0.00147421,0.460281,0.110177,-0.0191246,-0.00065289,0.0973509,0.169833,197,-2437,7.43913,0.1,-298.31,-0.1,0.684
-0.00459974,-0.00147939,0.460671,0.110854,-0.0193323,-0.000867124,0.0973214,0.169623,198,-2435,7.61132,0.1,-299.418,-0.1,0.688
-0.00467749,-0.00148492,0.46106,0.111525,-0.019541,-0.00103874,0.0972917,0.168965,199,-2434,7.7832,0.1,-300.521,-0.1,0.692
-0.00475607,-0.00148976,0.461449,0.112191,-0.0197505,-0.00109556,0.0972618,0.168124,201,-2432,7.95523,0.1,-301.617,-0.1,0.696
-0.0048355,-0.00149321,0.461838,0.112856,-0.019961,-0.00101829,0.0972318,0.167534,204,-2431,8.12861,0.1,-302.707,-0.1,0.7
-0.00491576,-0.00149632,0.462227,0.113517,-0.0201724,-0.000937975,0.0972017,0.166795,207,-2430,8.30457,0.1,-303.79,-0.1,0.704
-0.00499688,-0.0014977,0.462616,0.114182,-0.0203848,-0.000740481,0.0971714,0.166619,211,-2428,8.48324,0.1,-304.867,-0.1,0.708
-0.00507884,-0.00149701,0.463004,0.114848,-0.020598,-0.000436072,0.097141,0.166588,217,-2426,8.66579,0.1,-305.938,-0.1,0.712
-0.00516166,-0.0014977,0.463393,0.115511,-0.0208122,-0.000348296,0.0971104,0.16628,220,-2424,8.85305,0.1,-307.002,-0.1,0.716
-0.00524534,-0.0014977,0.463781,0.116172,-0.0210272,-0.000232198,0.0970797,0.165959,224,-2423,9.04305,0.1,-308.059,-0.1,0.72
-0.00532988,-0.00149805,0.464169,0.116838,-0.0212432,-0.000183589,0.0970488,0.166091,227,-2421,9.23599,0.1,-309.11,-0.1,0.724
-0.00541529,-0.00149909,0.464557,0.117501,-0.02146,-0.000208766,0.0970178,0.166006,229,-2419,9.4312,0.1,-310.154,-0.1,0.728
-0.00550156,-0.00150047,0.464945,0.118164,-0.0216778,-0.000254341,0.0969867,0.16592,232,-2417,9.628,0.1,-311.192,-0.1,0.732
-0.00558871,-0.00150254,0.465333,0.118835,-0.0218964,-0.000342306,0.0969554,0.166554,233,-2414,9.82616,0.1,-312.223,-0.1,0.736
-0.00567674,-0.001506,0.465721,0.119507,-0.022116,-0.000516113,0.0969239,0.167035,234,-2412,10.0252,0.1,-313.246,-0.1,0.74
-0.00576564,-0.00151014,0.466109,0.120185,-0.0223364,-0.000689567,0.0968924,0.167787,235,-2409,10.2245,0.1,-314.263,-0.1,0.744
-0.00585543,-0.00151532,0.466496,0.120863,-0.0225577,-0.000891575,0.0968606,0.168432,236,-2407,10.4238,0.1,-315.272,-0.1,0.748
-0.0059461,-0.00152085,0.466884,0.121544,-0.0227799,-0.00105504,0.0968288,0.169006,237,-2404,10.623,0.1,-316.275,-0.1,0.752
-0.00603767,-0.00152603,0.467271,0.122229,-0.023003,-0.00113522,0.0967968,0.169706,239,-2402,10.8226,0.1,-317.27,-0.1,0.756
-0.00613013,-0.00153156,0.467658,0.12291,-0.0232269,-0.00121747,0.0967646,0.169913,241,-2399,11.0232,0.1,-318.258,-0.1,0.76
-0.00622349,-0.00154054,0.468045,0.123586,-0.0234518,-0.00156021,0.0967323,0.169619,240,-2398,11.2248,0.1,-319.24,-0.1,0.764
-0.00631774,-0.00155333,0.468432,0.124256,-0.0236775,-0.0021054,0.0966999,0.168876,238,-2396,11.4247,0.1,-320.217,-0.1,0.768
-0.00641291,-0.00156888,0.468819,0.124925,-0.023904,-0.00269919,0.0966673,0.168381,235,-2395,11.6211,0.1,-321.187,-0.1,0.772
-0.00650898,-0.0015865,0.469205,0.125594,-0.0241314,-0.0032678,0.0966346,0.167964,232,-2393,11.8135,0.1,-322.151,-0.1,0.776
-0.00660596,-0.00160515,0.469592,0.126262,-0.0243597,-0.00373324,0.0966018,0.167687,230,-2391,12.0023,0.1,-323.11,-0.1,0.78
-0.00670386,-0.00162243,0.469978,0.126936,-0.0245888,-0.00392838,0.0965688,0.167905,231,-2389,12.1886,0.1,-324.062,-0.1,0.784
-0.00680267,-0.0016359,0.470364,0.127609,-0.0248188,-0.00374176,0.0965357,0.168079,236,-2387,12.3752,0.1,-325.008,-0.1,0.788
-0.00690241,-0.00164661,0.47075,0.128282,-0.0250497,-0.00338703,0.0965024,0.168137,242,-2385,12.5657,0.1,-325.947,-0.1,0.792
-0.00700307,-0.0016549,0.471136,0.128975,-0.0252814,-0.002949,0.096469,0.169788,249,-2382,12.7619,0.1,-326.879,-0.1,0.796
-0.00710466,-0.00165974,0.471522,0.12963,-0.0255139,-0.00236907,0.0964354,0.16778,257,-2381,12.9644,0.1,-327.806,-0.1,0.8
-0.00720718,-0.00166285,0.471908,0.130304,-0.0257473,-0.0018385,0.0964017,0.168082,265,-2379,13.1747,0.1,-328.726,-0.1,0.804
-0.00731064,-0.00166354,0.472293,0.131002,-0.0259815,-0.00128325,0.0963679,0.170184,273,-2375,13.3923,0.1,-329.64,-0.1,0.808
-0.00741503,-0.00166423,0.472679,0.131664,-0.0262165,-0.000913081,0.096334,0.168619,280,-2374,13.6173,0.1,-330.547,-0.1,0.812
-0.00752037,-0.00166492,0.473064,0.132345,-0.0264524,-0.000666303,0.0962999,0.169131,285,-2372,13.8478,0.1,-331.449,-0.1,0.816
-0.00762665,-0.00166596,0.473449,0.133031,-0.0266891,-0.000530574,0.0962656,0.16999,289,-2369,14.0827,0.1,-332.344,-0.1,0.82
-0.00773389,-0.00166838,0.473834,0.133717,-0.0269266,-0.000555253,0.0962313,0.170506,292,-2367,14.3208,0.1,-333.232,-0.1,0.824
-0.00784207,-0.00167183,0.474219,0.134402,-0.027165,-0.000658078,0.0961968,0.170734,294,-2364,14.5605,0.1,-334.114,-0.1,0.828
-0.00795121,-0.00167736,0.474604,0.135086,-0.0274042,-0.000899373,0.0961621,0.170771,294,-2362,14.8011,0.1,-334.989,-0.1,0.832
-0.0080613,-0.001686,0.474988,0.135788,-0.0276442,-0.00131936,0.0961273,0.172351,293,-2359,15.0412,0.1,-335.858,-0.1,0.836
-0.00817236,-0.00169498,0.475373,0.136449,-0.027885,-0.00162813,0.0960924,0.169977,293,-2359,15.2792,0.1,-336.722,-0.1,0.84
-0.00828438,-0.00170534,0.475757,0.137126,-0.0281266,-0.00194915,0.0960574,0.169748,293,-2357,15.5161,0.1,-337.58,-0.1,0.844
-0.00839738,-0.00171605,0.476141,0.137799,-0.028369,-0.00219195,0.0960222,0.169279,294,-2355,15.7519,0.1,-338.433,-0.1,0.848
-0.00851134,-0.00172573,0.476525,0.138477,-0.0286123,-0.00226745,0.0959869,0.169312,296,-2353,15.9875,0.1,-339.281,-0.1,0.852
-0.00862627,-0.00173264,0.476909,0.139149,-0.0288563,-0.00208745,0.0959514,0.16893,301,-2351,16.2244,0.1,-340.122,-0.1,0.856
-0.00874219,-0.00173782,0.477293,0.139823,-0.0291012,-0.0018235,0.0959158,0.168734,306,-2350,16.4653,0.1,-340.958,-0.1,0.86
-0.00885908,-0.00174058,0.477676,0.140489,-0.0293468,-0.00144599,0.0958801,0.167998,313,-2348,16.7109,0.1,-341.789,-0.1,0.864
-0.00897696,-0.00174128,0.47806,0.141157,-0.0295932,-0.00102158,0.0958442,0.167709,320,-2347,16.9624,0.1,-342.615,-0.1,0.868
-0.00909583,-0.00174128,0.478443,0.141823,-0.0298404,-0.000681051,0.0958082,0.167286,326,-2345,17.22,0.1,-343.435,-0.1,0.872
-0.00921569,-0.00174128,0.478826,0.142496,-0.0300884,-0.000454034,0.0957721,0.16758,332,-2343,17.4829,0.1,-344.249,-0.1,0.876
-0.00933654,-0.00174197,0.479209,0.143168,-0.0303372,-0.000360271,0.0957359,0.167776,336,-2340,17.7501,0.1,-345.057,-0.1,0.88
-0.00945839,-0.00174162,0.479592,0.143845,-0.0305868,-0.00021139,0.0956995,0.168223,340,-2338,18.0202,0.1,-345.86,-0.1,0.884
-0.00958124,-0.00174197,0.479975,0.144519,-0.0308372,-0.000169718,0.095663,0.16832,344,-2336,18.2938,0.1,-346.656,-0.1,0.888
-0.00970509,-0.00174266,0.480357,0.145195,-0.0310883,-0.000170727,0.0956263,0.168557,347,-2334,18.5698,0.1,-347.447,-0.1,0.892
-0.00982994,-0.00174335,0.48074,0.145868,-0.0313402,-0.0001714,0.0955895,0.168485,350,-2332,18.8478,0.1,-348.232,-0.1,0.896
-0.00995581,-0.00174508,0.481122,0.146541,-0.0315928,-0.000258221,0.0955526,0.168408,352,-2330,19.1279,0.1,-349.012,-0.1,0.9
-0.0100827,-0.00174715,0.481504,0.147218,-0.0318463,-0.000344893,0.0955155,0.168673,355,-2327,19.4091,0.1,-349.786,-0.1,0.904
-0.0102106,-0.0017506,0.481886,0.147891,-0.0321005,-0.000517838,0.0954784,0.168534,356,-2326,19.6914,0.1,-350.555,-0.1,0.908
-0.0103395,-0.00175579,0.482268,0.148559,-0.0323554,-0.000777089,0.0954411,0.168009,357,-2324,19.9741,0.1,-351.318,-0.1,0.912
-0.0104694,-0.001762,0.48265,0.149224,-0.0326111,-0.0010363,0.0954036,0.167428,358,-2322,20.2562,0.1,-352.076,-0.1,0.916
-0.0106004,-0.0017703,0.483031,0.149892,-0.0328676,-0.00138185,0.095366,0.167301,358,-2321,20.5378,0.1,-352.83,-0.1,0.92
-0.0107324,-0.00177928,0.483413,0.150561,-0.0331248,-0.00166979,0.0953283,0.167215,358,-2319,20.8181,0.1,-353.578,-0.1,0.924
-0.0108654,-0.00179103,0.483794,0.151224,-0.0333828,-0.00209209,0.0952905,0.166784,357,-2317,21.0975,0.1,-354.321,-0.1,0.928
-0.0109994,-0.0018045,0.484175,0.15189,-0.0336415,-0.00251757,0.0952526,0.166698,356,-2315,21.3749,0.1,-355.058,-0.1,0.932
-0.0111345,-0.00181832,0.484556,0.152564,-0.033901,-0.00283002,0.0952145,0.167303,357,-2313,21.6503,0.1,-355.79,-0.1,0.936
-0.0112706,-0.00183421,0.484937,0.153237,-0.0341612,-0.00321106,0.0951763,0.167563,356,-2310,21.9246,0.1,-356.517,-0.1,0.94
-0.0114078,-0.0018501,0.485317,0.153912,-0.0344221,-0.00346509,0.0951379,0.167995,357,-2308,22.1975,0.1,-357.237,-0.1,0.944
-0.011546,-0.00186565,0.485698,0.154588,-0.0346838,-0.00360565,0.0950994,0.16834,359,-2305,22.47,0.1,-357.952,-0.1,0.948
-0.0116853,-0.00188051,0.486078,0.155273,-0.0349462,-0.00364178,0.0950608,0.169262,362,-2303,22.7433,0.1,-358.662,-0.1,0.952
-0.0118256,-0.00189536,0.486458,0.155961,-0.0352093,-0.00366586,0.0950221,0.170164,365,-2300,23.0185,0.1,-359.365,-0.1,0.956
-0.011967,-0.00191091,0.486838,0.156636,-0.0354732,-0.0037395,0.0949833,0.169729,367,-2298,23.2955,0.1,-360.063,-0.1,0.96
-0.0121094,-0.00192784,0.487218,0.157309,-0.0357378,-0.00390375,0.0949443,0.169237,369,-2296,23.5739,0.1,-360.756,-0.1,0.964
-0.0122529,-0.00194753,0.487598,0.157979,-0.0360031,-0.00424359,0.0949052,0.168622,369,-2295,23.8528,0.1,-361.444,-0.1,0.968
-0.0123974,-0.0019693,0.487977,0.158651,-0.0362691,-0.00464289,0.0948659,0.168413,369,-2293,24.1304,0.1,-362.128,-0.1,0.972
-0.012543,-0.00199348,0.488357,0.159321,-0.0365358,-0.00511062,0.0948266,0.168187,367,-2291,24.4063,0.1,-362.806,-0.1,0.976
-0.0126897,-0.00202078,0.488736,0.159993,-0.0368032,-0.00568156,0.0947871,0.168066,365,-2289,24.6796,0.1,-363.48,-0.1,0.98
-0.0128374,-0.00205256,0.489115,0.160677,-0.0370714,-0.00643647,0.0947475,0.16905,361,-2286,24.9494,0.1,-364.148,-0.1,0.984
-0.0129863,-0.00208884,0.489494,0.161339,-0.0373402,-0.00731403,0.0947077,0.167892,356,-2285,25.2139,0.1,-364.811,-0.1,0.988
-0.0131362,-0.00213064,0.489873,0.162011,-0.0376098,-0.00835972,0.0946679,0.167955,350,-2283,25.4718,0.1,-365.469,-0.1,0.992
-0.0132871,-0.00217867,0.490251,0.162683,-0.0378801,-0.00957509,0.0946279,0.16794,341,-2281,25.7216,0.1,-366.123,-0.1,0.996
-0.0134392,-0.00223395,0.49063,0.163334,-0.038151,-0.0109899,0.0945877,0.166202,331,-2281,25.9616,0.1,-366.773,-0.1,1
-0.0135923,-0.00230028,0.491008,0.164003,-0.0384226,-0.0128545,0.0945475,0.166512,317,-2278,26.1897,0.1,-367.417,-0.1,1.004
-0.0137466,-0.00237732,0.491386,0.164671,-0.038695,-0.01499,0.0945071,0.166689,300,-2276,26.4015,0.1,-368.057,-0.1,1.008
-0.0139019,-0.00246335,0.491764,0.165338,-0.038968,-0.0171623,0.0944667,0.166722,282,-2274,26.5946,0.1,-368.692,-0.1,1.012
-0.0140583,-0.0025594,0.492142,0.166005,-0.0392417,-0.0194454,0.0944261,0.166743,264,-2272,26.7687,0.1,-369.322,-0.1,1.016
-0.0142158,-0.00266374,0.49252,0.166673,-0.0395161,-0.0216585,0.0943853,0.166844,246,-2270,26.9228,0.1,-369.947,-0.1,1.02
-0.0143745,-0.00277878,0.492897,0.167341,-0.0397912,-0.0240264,0.0943445,0.166911,226,-2268,27.0575,0.1,-370.567,-0.1,1.024
-0.0145342,-0.00289936,0.493274,0.168011,-0.0400669,-0.0260656,0.0943035,0.167099,210,-2266,27.1717,0.1,-371.182,-0.1,1.028
-0.014695,-0.00302892,0.493651,0.168682,-0.0403433,-0.0281737,0.0942624,0.167312,193,-2263,27.2683,0.1,-371.792,-0.1,1.032
-0.0148569,-0.00316332,0.494028,0.169356,-0.0406204,-0.0299821,0.0942212,0.167683,179,-2261,27.347,0.1,-372.397,-0.1,1.036
-0.01502,-0.00330151,0.494405,0.170034,-0.0408981,-0.0315044,0.0941798,0.168277,167,-2258,27.4108,0.1,-372.997,-0.1,1.04
-0.0151841,-0.00344593,0.494782,0.17071,-0.0411766,-0.0330376,0.0941384,0.1685,155,-2256,27.4623,0.1,-373.592,-0.1,1.044
-0.0153494,-0.00359207,0.495158,0.171387,-0.0414556,-0.0342036,0.0940968,0.168763,147,-2254,27.5017,0.1,-374.181,-0.1,1.048
-0.0155158,-0.00374271,0.495535,0.172059,-0.0417354,-0.0353552,0.0940551,0.168536,139,-2252,27.5324,0.1,-374.766,-0.1,1.052
-0.0156833,-0.00389679,0.495911,0.172732,-0.0420158,-0.0364109,0.0940132,0.168413,132,-2250,27.5545,0.1,-375.347,-0.1,1.056
-0.0158519,-0.00405157,0.496287,0.173399,-0.0422968,-0.0371723,0.0939713,0.167842,127,-2248,27.5693,0.1,-375.923,-0.1,1.06
-0.0160216,-0.00421015,0.496663,0.174074,-0.0425785,-0.0379966,0.0939292,0.168152,122,-2246,27.5794,0.1,-376.494,-0.1,1.064
-0.0161925,-0.00437012,0.497038,0.174752,-0.0428609,-0.0386612,0.093887,0.168618,119,-2243,27.5843,0.1,-377.06,-0.1,1.068
-0.0163645,-0.00453457,0.497414,0.175435,-0.0431438,-0.0394786,0.0938447,0.16936,114,-2241,27.5854,0.1,-377.621,-0.1,1.072
-0.0165377,-0.00469626,0.497789,0.17612,-0.0434275,-0.0397932,0.0938023,0.169942,113,-2238,27.5816,0.1,-378.177,-0.1,1.076
-0.0167119,-0.00486141,0.498164,0.176807,-0.0437117,-0.0402909,0.0937597,0.170588,112,-2235,27.5775,0.1,-378.728,-0.1,1.08
-0.0168874,-0.00502966,0.498539,0.17752,-0.0439966,-0.0408818,0.0937171,0.173121,109,-2231,27.5714,0.1,-379.272,-0.1,1.084
-0.0170639,-0.00519446,0.498914,0.178213,-0.0442822,-0.0409878,0.0936743,0.173169,110,-2229,27.5626,0.1,-379.811,-0.1,1.088
-0.0172416,-0.00535718,0.499288,0.178905,-0.0445684,-0.0408857,0.0936314,0.173114,114,-2226,27.5558,0.1,-380.345,-0.1,1.092
-0.0174205,-0.00551507,0.499663,0.179579,-0.0448552,-0.0404146,0.0935884,0.17158,121,-2226,27.5531,0.1,-380.876,-0.1,1.096
-0.0176005,-0.00567849,0.500037,0.180285,-0.0451426,-0.0405612,0.0935452,0.173236,123,-2222,27.5575,0.1,-381.401,-0.1,1.1
-0.0177816,-0.00583431,0.500411,0.180953,-0.0454306,-0.0400255,0.093502,0.171172,131,-2222,27.5637,0.1,-381.923,-0.1,1.104
-0.0179639,-0.0059922,0.500785,0.181632,-0.0457193,-0.0398411,0.0934586,0.170631,135,-2220,27.5779,0.1,-382.44,-0.1,1.108
-0.0181474,-0.00614732,0.501159,0.182305,-0.0460086,-0.0394879,0.0934151,0.169897,141,-2218,27.5968,0.1,-382.954,-0.1,1.112
-0.018332,-0.00630383,0.501532,0.182976,-0.0462984,-0.0393675,0.0933715,0.169119,145,-2217,27.6219,0.1,-383.465,-0.1,1.116
-0.0185177,-0.00645688,0.501906,0.183642,-0.0465889,-0.0389994,0.0933278,0.168312,152,-2216,27.6511,0.1,-383.971,-0.1,1.12
-0.0187047,-0.00661166,0.502279,0.184307,-0.0468801,-0.0388979,0.0932839,0.167602,155,-2214,27.6867,0.1,-384.474,-0.1,1.124
-0.0188928,-0.00676472,0.502652,0.184983,-0.0471718,-0.0386863,0.09324,0.168078,160,-2212,27.7261,0.1,-384.972,-0.1,1.128
-0.0190821,-0.00691639,0.503025,0.18566,-0.0474641,-0.0384301,0.0931959,0.168483,166,-2209,27.7705,0.1,-385.466,-0.1,1.132
-0.0192725,-0.00706771,0.503398,0.186348,-0.047757,-0.0382305,0.0931517,0.169644,171,-2206,27.8202,0.1,-385.954,-0.1,1.136
-0.0194641,-0.00721904,0.50377,0.18704,-0.0480505,-0.0380974,0.0931074,0.170764,175,-2203,27.8747,0.1,-386.437,-0.1,1.14
-0.0196569,-0.00737243,0.504143,0.187736,-0.0483446,-0.0381815,0.093063,0.171857,177,-2200,27.9331,0.1,-386.915,-0.1,1.144
-0.0198509,-0.00752376,0.504515,0.188439,-0.0486393,-0.0380647,0.0930185,0.173103,181,-2196,27.9937,0.1,-387.387,-0.1,1.148
-0.020046,-0.00767889,0.504887,0.189146,-0.0489346,-0.0383036,0.0929738,0.174308,182,-2193,28.058,0.1,-387.853,-0.1,1.152
-0.0202423,-0.00783194,0.505258,0.189845,-0.0492305,-0.0382901,0.0929291,0.17445,185,-2191,28.1229,0.1,-388.315,-0.1,1.156
-0.0204399,-0.00798983,0.50563,0.190547,-0.0495269,-0.0386842,0.0928842,0.174832,184,-2188,28.1905,0.1,-388.772,-0.1,1.16
-0.0206386,-0.00814806,0.506002,0.191244,-0.049824,-0.0389757,0.0928392,0.174626,184,-2186,28.2572,0.1,-389.225,-0.1,1.164
-0.0208385,-0.00830664,0.506373,0.19194,-0.0501216,-0.0391988,0.0927941,0.17446,185,-2184,28.3239,0.1,-389.674,-0.1,1.168
-0.0210395,-0.00847179,0.506744,0.192654,-0.0504198,-0.0398946,0.0927489,0.175817,182,-2180,28.391,0.1,-390.117,-0.1,1.172
-0.0212418,-0.00863382,0.507115,0.193347,-0.0507185,-0.0400994,0.0927036,0.174909,183,-2179,28.4544,0.1,-390.557,-0.1,1.176
-0.0214453,-0.00879551,0.507486,0.194026,-0.0510178,-0.0402071,0.0926581,0.17318,185,-2178,28.5187,0.1,-390.993,-0.1,1.18
-0.02165,-0.00895962,0.507856,0.194714,-0.0513177,-0.0404804,0.0926126,0.172834,185,-2176,28.5848,0.1,-391.426,-0.1,1.184
-0.0218558,-0.00913029,0.508226,0.195401,-0.0516182,-0.0412096,0.0925669,0.172488,182,-2174,28.6507,0.1,-391.855,-0.1,1.188
-0.0220629,-0.00930304,0.508597,0.196083,-0.0519192,-0.0418686,0.0925212,0.171767,178,-2172,28.7125,0.1,-392.28,-0.1,1.192
-0.0222712,-0.00947993,0.508967,0.196755,-0.0522208,-0.0426533,0.0924753,0.170568,174,-2171,28.7706,0.1,-392.702,-0.1,1.196
-0.0224807,-0.00965786,0.509336,0.197422,-0.0525229,-0.0432629,0.0924293,0.169249,171,-2170,28.824,0.1,-393.121,-0.1,1.2
-0.0226914,-0.00984097,0.509706,0.198087,-0.0528256,-0.0441011,0.0923832,0.168227,167,-2169,28.8743,0.1,-393.537,-0.1,1.204
-0.0229033,-0.0100251,0.510075,0.19875,-0.0531288,-0.0447463,0.092337,0.167401,164,-2168,28.9195,0.1,-393.95,-0.1,1.208
-0.0231164,-0.0102162,0.510445,0.199421,-0.0534326,-0.0457522,0.0922906,0.167513,157,-2165,28.9611,0.1,-394.359,-0.1,1.212
-0.0233307,-0.0104065,0.510814,0.200094,-0.0537369,-0.0463653,0.0922442,0.167789,154,-2163,28.9961,0.1,-394.764,-0.1,1.216
-0.0235463,-0.0106031,0.511183,0.200768,-0.0540418,-0.0472922,0.0921977,0.16803,149,-2161,29.0279,0.1,-395.164,-0.1,1.22
-0.0237631,-0.0108014,0.511551,0.201452,-0.0543472,-0.0480541,0.092151,0.169055,145,-2158,29.0538,0.1,-395.56,-0.1,1.224
-0.0239811,-0.0110039,0.51192,0.202139,-0.0546531,-0.0489076,0.0921042,0.169882,140,-2155,29.0752,0.1,-395.951,-0.1,1.228
-0.0242003,-0.0112101,0.512288,0.202831,-0.0549596,-0.0497932,0.0920574,0.170952,134,-2152,29.0912,0.1,-396.337,-0.1,1.232
-0.0244208,-0.0114171,0.512656,0.203518,-0.0552666,-0.0504413,0.0920104,0.171233,131,-2149,29.1019,0.1,-396.719,-0.1,1.236
-0.0246424,-0.0116313,0.513024,0.204207,-0.0555741,-0.0514779,0.0919633,0.171593,124,-2147,29.1089,0.1,-397.097,-0.1,1.24
-0.0248653,-0.0118476,0.513392,0.204893,-0.0558822,-0.0523417,0.0919161,0.171517,119,-2144,29.1091,0.1,-397.47,-0.1,1.244
-0.0250895,-0.0120677,0.51376,0.205573,-0.0561907,-0.0532343,0.0918688,0.171063,114,-2143,29.1039,0.1,-397.84,-0.1,1.248
-0.0253149,-0.0122926,0.514127,0.206251,-0.0564998,-0.0542324,0.0918214,0.17053,107,-2141,29.093,0.1,-398.206,-0.1,1.252
-0.0255415,-0.0125178,0.514494,0.206922,-0.0568094,-0.0549266,0.0917739,0.169541,104,-2140,29.0757,0.1,-398.57,-0.1,1.256
-0.0257693,-0.0127462,0.514861,0.207591,-0.0571196,-0.0556486,0.0917262,0.168853,100,-2138,29.0548,0.1,-398.93,-0.1,1.26
-0.0259984,-0.0129784,0.515228,0.20826,-0.0574302,-0.0564465,0.0916785,0.168279,95,-2136,29.0299,0.1,-399.287,-0.1,1.264
-0.0262288,-0.0132112,0.515595,0.20893,-0.0577413,-0.0570361,0.0916306,0.167983,93,-2134,29.0005,0.1,-399.64,-0.1,1.268
-0.0264604,-0.0134458,0.515961,0.209593,-0.058053,-0.0575731,0.0915827,0.167267,91,-2133,28.9686,0.1,-399.99,-0.1,1.272
-0.0266932,-0.0136814,0.516327,0.210255,-0.0583651,-0.0580175,0.0915346,0.166704,89,-2131,28.9347,0.1,-400.337,-0.1,1.276
-0.0269273,-0.0139178,0.516693,0.210915,-0.0586778,-0.0583713,0.0914865,0.166098,89,-2130,28.8996,0.1,-400.681,-0.1,1.28
-0.0271626,-0.0141544,0.517059,0.211567,-0.058991,-0.058636,0.0914382,0.165089,89,-2129,28.8643,0.1,-401.022,-0.1,1.284
-0.0273992,-0.0143939,0.517425,0.212222,-0.0593046,-0.0590428,0.0913898,0.164618,88,-2127,28.8296,0.1,-401.36,-0.1,1.288
-0.0276371,-0.0146305,0.51779,0.212875,-0.0596187,-0.0590836,0.0913414,0.164218,91,-2125,28.7942,0.1,-401.695,-0.1,1.292
-0.0278762,-0.0148696,0.518156,0.213532,-0.0599334,-0.0593124,0.0912928,0.164181,92,-2123,28.7616,0.1,-402.026,-0.1,1.296
-0.0281165,-0.0151087,0.518521,0.214191,-0.0602485,-0.0594649,0.0912441,0.164359,93,-2121,28.7299,0.1,-402.353,-0.1,1.3
-0.0283582,-0.0153864,0.518886,0.214961,-0.0605641,-0.0627912,0.0911953,0.173776,65,-2110,28.698,0.1,-402.671,-0.1,1.304
-0.0286011,-0.0155816,0.51925,0.215508,-0.0608802,-0.0581277,0.0911464,0.161398,111,-2119,28.6419,0.1,-402.991,-0.1,1.308
-0.0288452,-0.0158183,0.519615,0.216169,-0.0611967,-0.0584736,0.0910974,0.162733,111,-2116,28.631,0.1,-403.309,-0.1,1.312
-0.0290906,-0.0160512,0.519979,0.216827,-0.0615138,-0.0583875,0.0910483,0.163336,115,-2114,28.6203,0.1,-403.624,-0.1,1.316
-0.0293373,-0.0162865,0.520343,0.217489,-0.0618313,-0.0585316,0.0909991,0.164025,117,-2111,28.6133,0.1,-403.934,-0.1,1.32
-0.0295853,-0.0165217,0.520707,0.21815,-0.0621493,-0.0586277,0.0909498,0.164456,119,-2108,28.6081,0.1,-404.24,-0.1,1.324
-0.0298345,-0.016756,0.521071,0.218808,-0.0624677,-0.0586054,0.0909004,0.164484,122,-2106,28.6051,0.1,-404.543,-0.1,1.328
-0.030085,-0.0169892,0.521434,0.219464,-0.0627866,-0.0585041,0.0908509,0.164244,126,-2105,28.6055,0.1,-404.842,-0.1,1.332
-0.0303368,-0.0172238,0.521797,0.220113,-0.063106,-0.0585518,0.0908013,0.163651,128,-2103,28.61,0.1,-405.138,-0.1,1.336
-0.0305899,-0.0174542,0.522161,0.220762,-0.0634258,-0.0582381,0.0907516,0.16317,134,-2101,28.6173,0.1,-405.432,-0.1,1.34
-0.0308442,-0.0176864,0.522523,0.221413,-0.0637461,-0.0581729,0.0907018,0.163051,138,-2099,28.6306,0.1,-405.722,-0.1,1.344
-0.0310998,-0.0179175,0.522886,0.22207,-0.0640669,-0.058043,0.0906518,0.163432,142,-2097,28.6477,0.1,-406.009,-0.1,1.348
-0.0313568,-0.0181473,0.523249,0.22273,-0.0643881,-0.0578413,0.0906018,0.163917,147,-2095,28.6692,0.1,-406.291,-0.1,1.352
-0.0316149,-0.0183749,0.523611,0.223391,-0.0647098,-0.0575341,0.0905517,0.164412,153,-2092,28.6958,0.1,-406.57,-0.1,1.356
-0.0318744,-0.0186016,0.523973,0.224054,-0.0650319,-0.0572429,0.0905015,0.164858,159,-2090,28.7284,0.1,-406.846,-0.1,1.36
-0.0321352,-0.0188251,0.524335,0.224719,-0.0653544,-0.0567897,0.0904512,0.16527,166,-2087,28.767,0.1,-407.117,-0.1,1.364
-0.0323973,-0.0190476,0.524697,0.225381,-0.0656774,-0.0564011,0.0904007,0.165401,173,-2085,28.813,0.1,-407.385,-0.1,1.368
-0.0326606,-0.0192656,0.525058,0.226049,-0.0660008,-0.0557678,0.0903502,0.165863,182,-2082,28.866,0.1,-407.649,-0.1,1.372
-0.0329253,-0.0194822,0.52542,0.226716,-0.0663247,-0.0552305,0.0902996,0.166228,190,-2080,28.928,0.1,-407.91,-0.1,1.376
-0.0331912,-0.0196954,0.525781,0.227388,-0.066649,-0.0545843,0.0902489,0.166788,199,-2077,28.9983,0.1,-408.167,-0.1,1.38
-0.0334585,-0.0199044,0.526142,0.228058,-0.0669737,-0.053808,0.090198,0.167047,210,-2075,29.078,0.1,-408.42,-0.1,1.384
-0.033727,-0.0201145,0.526502,0.228731,-0.0672989,-0.0533769,0.0901471,0.167392,217,-2072,29.1678,0.1,-408.669,-0.1,1.388
-0.0339969,-0.0203187,0.526863,0.229406,-0.0676245,-0.0526,0.0900961,0.167881,228,-2070,29.2651,0.1,-408.915,-0.1,1.392
-0.034268,-0.0205225,0.527223,0.230083,-0.0679505,-0.0520533,0.090045,0.168293,236,-2067,29.3726,0.1,-409.157,-0.1,1.396
-0.0345405,-0.0207236,0.527583,0.23076,-0.0682769,-0.0514585,0.0899938,0.168654,245,-2065,29.4883,0.1,-409.396,-0.1,1.4
-0.0348142,-0.0209233,0.527943,0.231439,-0.0686038,-0.0509469,0.0899425,0.168982,253,-2062,29.6127,0.1,-409.63,-0.1,1.404
-0.0350893,-0.0211202,0.528303,0.232115,-0.068931,-0.0503754,0.0898911,0.169027,262,-2060,29.7449,0.1,-409.862,-0.1,1.408
-0.0353657,-0.0213147,0.528662,0.232794,-0.0692587,-0.0497929,0.0898396,0.169259,270,-2057,29.8856,0.1,-410.09,-0.1,1.412
-0.0356434,-0.0215103,0.529021,0.233472,-0.0695868,-0.0494909,0.089788,0.169356,277,-2055,30.0345,0.1,-410.314,-0.1,1.416
-0.0359224,-0.0217017,0.52938,0.234152,-0.0699153,-0.0489441,0.0897363,0.169536,285,-2053,30.1895,0.1,-410.535,-0.1,1.42
-0.0362027,-0.0218931,0.529739,0.234834,-0.0702442,-0.0485796,0.0896845,0.169857,292,-2050,30.3524,0.1,-410.753,-0.1,1.424
-0.0364843,-0.022081,0.530098,0.235518,-0.0705735,-0.0480487,0.0896326,0.170273,300,-2048,30.5218,0.1,-410.967,-0.1,1.428
-0.0367673,-0.0222686,0.530456,0.236201,-0.0709032,-0.0476659,0.0895806,0.170435,307,-2045,30.6991,0.1,-411.177,-0.1,1.432
-0.0370515,-0.0224531,0.530814,0.236892,-0.0712333,-0.0471516,0.0895285,0.171176,316,-2042,30.8829,0.1,-411.384,-0.1,1.436
-0.0373371,-0.0226348,0.531172,0.237578,-0.0715638,-0.0465784,0.0894763,0.171325,324,-2040,31.0746,0.1,-411.587,-0.1,1.44
-0.0376241,-0.0228155,0.53153,0.238268,-0.0718947,-0.0461099,0.0894241,0.171683,332,-2037,31.2745,0.1,-411.786,-0.1,1.444
-0.0379123,-0.0229945,0.531888,0.238953,-0.072226,-0.0456537,0.0893717,0.171519,340,-2035,31.4817,0.1,-411.983,-0.1,1.448
-0.0382019,-0.0231717,0.532245,0.239634,-0.0725576,-0.0452055,0.0893192,0.171151,348,-2033,31.6961,0.1,-412.176,-0.1,1.452
-0.0384928,-0.0233493,0.532602,0.240317,-0.0728897,-0.0449355,0.0892667,0.17102,354,-2031,31.9174,0.1,-412.366,-0.1,1.456
-0.038785,-0.0235252,0.532959,0.240999,-0.0732221,-0.0446116,0.089214,0.170818,361,-2029,32.1442,0.1,-412.554,-0.1,1.46
-0.0390785,-0.0237024,0.533316,0.241678,-0.0735549,-0.0445108,0.0891613,0.170482,365,-2027,32.3766,0.1,-412.738,-0.1,1.464
-0.0393734,-0.023879,0.533673,0.242355,-0.0738881,-0.044386,0.0891084,0.170027,370,-2025,32.6128,0.1,-412.92,-0.1,1.468
-0.0396696,-0.0240555,0.534029,0.243035,-0.0742217,-0.0443029,0.0890555,0.170012,375,-2023,32.853,0.1,-413.098,-0.1,1.472
-0.0399672,-0.0242327,0.534385,0.243715,-0.0745556,-0.044305,0.0890025,0.170059,378,-2020,33.0967,0.1,-413.274,-0.1,1.476
-0.0402661,-0.0244114,0.534741,0.2444,-0.0748899,-0.0444216,0.0889493,0.170437,381,-2018,33.343,0.1,-413.446,-0.1,1.48
-0.0405663,-0.0245889,0.535097,0.24508,-0.0752246,-0.0444129,0.0888961,0.170314,385,-2015,33.5911,0.1,-413.615,-0.1,1.484
-0.0408679,-0.0247651,0.535452,0.245757,-0.0755597,-0.044292,0.0888428,0.169915,389,-2014,33.842,0.1,-413.781,-0.1,1.488
-0.0411708,-0.02494,0.535807,0.246436,-0.0758951,-0.0440962,0.0887894,0.169851,395,-2011,34.097,0.1,-413.944,-0.1,1.492
-0.041475,-0.0251155,0.536163,0.247111,-0.0762308,-0.0440233,0.0887359,0.16952,399,-2009,34.3564,0.1,-414.104,-0.1,1.496
-0.0417806,-0.0252879,0.536517,0.247783,-0.0765669,-0.0437155,0.0886824,0.169012,406,-2007,34.6195,0.1,-414.262,-0.1,1.5
-0.0420876,-0.0254606,0.536872,0.248456,-0.0769034,-0.0435391,0.0886287,0.168759,411,-2005,34.8881,0.1,-414.417,-0.1,1.504
-0.0423959,-0.0256316,0.537226,0.249127,-0.0772402,-0.0432776,0.0885749,0.168418,418,-2004,35.1612,0.1,-414.569,-0.1,1.508
-0.0427055,-0.0258044,0.537581,0.249795,-0.0775774,-0.0432472,0.0885211,0.167932,422,-2002,35.4393,0.1,-414.719,-0.1,1.512
-0.0430165,-0.025974,0.537935,0.250459,-0.0779149,-0.0429678,0.0884671,0.167262,428,-2000,35.7206,0.1,-414.866,-0.1,1.516
-0.0433288,-0.0261468,0.538288,0.251125,-0.0782528,-0.0430407,0.0884131,0.167046,431,-1998,36.0071,0.1,-415.011,-0.1,1.52
-0.0436425,-0.0263174,0.538642,0.251791,-0.078591,-0.0429165,0.088359,0.166873,436,-1996,36.2957,0.1,-415.153,-0.1,1.524
-0.0439576,-0.0264909,0.538995,0.252458,-0.0789295,-0.043064,0.0883047,0.166815,439,-1994,36.5881,0.1,-415.292,-0.1,1.528
-0.044274,-0.0266633,0.539348,0.253124,-0.0792684,-0.043076,0.0882504,0.166719,442,-1992,36.8818,0.1,-415.428,-0.1,1.532
-0.0445917,-0.0268384,0.539701,0.253795,-0.0796076,-0.0433144,0.088196,0.167058,444,-1989,37.1779,0.1,-415.561,-0.1,1.536
-0.0449108,-0.0270129,0.540054,0.254464,-0.0799472,-0.0434157,0.0881416,0.167082,447,-1987,37.4746,0.1,-415.691,-0.1,1.54
-0.0452313,-0.0271881,0.540406,0.255132,-0.080287,-0.0435408,0.088087,0.167127,450,-1985,37.7731,0.1,-415.819,-0.1,1.544
-0.0455531,-0.0273601,0.540759,0.255807,-0.0806272,-0.0433651,0.0880323,0.167676,455,-1982,38.0732,0.1,-415.943,-0.1,1.548
-0.0458763,-0.0275346,0.541111,0.256485,-0.0809678,-0.0434495,0.0879776,0.168272,458,-1979,38.3775,0.1,-416.064,-0.1,1.552
-0.0462009,-0.0277046,0.541462,0.257164,-0.0813086,-0.0431314,0.0879227,0.168698,465,-1976,38.684,0.1,-416.181,-0.1,1.556
-0.0465268,-0.027877,0.541814,0.257848,-0.0816498,-0.043121,0.0878678,0.1695,469,-1973,38.9959,0.1,-416.295,-0.1,1.56
-0.046854,-0.028048,0.542165,0.258537,-0.0819913,-0.0429988,0.0878128,0.17038,474,-1970,39.3108,0.1,-416.406,-0.1,1.564
-0.0471827,-0.0282187,0.542516,0.25922,-0.0823331,-0.0428886,0.0877577,0.170535,479,-1968,39.6294,0.1,-416.513,-0.1,1.568
-0.0475127,-0.0283928,0.542867,0.259905,-0.0826752,-0.043103,0.0877025,0.170811,481,-1965,39.9515,0.1,-416.617,-0.1,1.572
-0.0478441,-0.0285794,0.543218,0.26059,-0.0830176,-0.0442824,0.0876472,0.170909,474,-1963,40.2737,0.1,-416.718,-0.1,1.576
-0.0481769,-0.0287773,0.543569,0.261267,-0.0833603,-0.0460188,0.0875919,0.170398,463,-1961,40.5871,0.1,-416.817,-0.1,1.58
-0.048511,-0.0289926,0.543919,0.261945,-0.0837033,-0.048616,0.0875364,0.170087,443,-1959,40.8862,0.1,-416.913,-0.1,1.584
-0.0488465,-0.0292244,0.544269,0.262622,-0.0840467,-0.0517294,0.0874809,0.169764,418,-1957,41.1632,0.1,-417.006,-0.1,1.588
-0.0491834,-0.0294718,0.544619,0.263299,-0.0843903,-0.0551005,0.0874253,0.169606,391,-1955,41.4134,0.1,-417.097,-0.1,1.592
-0.0495216,-0.0297343,0.544968,0.263972,-0.0847342,-0.0586148,0.0873696,0.169155,363,-1953,41.6345,0.1,-417.186,-0.1,1.596
-0.0498612,-0.0300166,0.545318,0.264652,-0.0850784,-0.0625987,0.0873138,0.169488,331,-1950,41.8251,0.1,-417.271,-0.1,1.6
-0.0502022,-0.0303141,0.545667,0.265332,-0.0854229,-0.0665215,0.0872579,0.169595,298,-1948,41.981,0.1,-417.354,-0.1,1.604
-0.0505446,-0.030624,0.546016,0.266008,-0.0857677,-0.0701731,0.0872019,0.169407,269,-1946,42.1032,0.1,-417.434,-0.1,1.608
-0.0508884,-0.0309484,0.546364,0.266687,-0.0861128,-0.0738167,0.0871459,0.169512,239,-1943,42.1941,0.1,-417.511,-0.1,1.612
-0.0512335,-0.0312818,0.546713,0.267365,-0.0864582,-0.0769944,0.0870897,0.169496,214,-1941,42.254,0.1,-417.586,-0.1,1.616
-0.05158,-0.0316352,0.547061,0.268058,-0.0868038,-0.0807827,0.0870335,0.170781,182,-1937,42.2869,0.1,-417.657,-0.1,1.62
-0.0519279,-0.0319752,0.547409,0.268708,-0.0871498,-0.0821854,0.0869772,0.168067,173,-1938,42.2887,0.1,-417.727,-0.1,1.624
-0.0522772,-0.0323435,0.547757,0.269397,-0.087496,-0.0854814,0.0869208,0.169454,146,-1934,42.2796,0.1,-417.793,-0.1,1.628
-0.0526279,-0.0327042,0.548104,0.270064,-0.0878425,-0.0870453,0.0868644,0.168536,135,-1933,42.2438,0.1,-417.858,-0.1,1.632
-0.05298,-0.0330604,0.548452,0.270714,-0.0881892,-0.0877137,0.0868078,0.166513,132,-1932,42.1973,0.1,-417.921,-0.1,1.636
-0.0533334,-0.0334366,0.548799,0.2714,-0.0885363,-0.0898291,0.0867512,0.168159,116,-1928,42.1471,0.1,-417.981,-0.1,1.64
-0.0536883,-0.0338115,0.549146,0.272072,-0.0888836,-0.0911242,0.0866945,0.168104,107,-1926,42.0808,0.1,-418.039,-0.1,1.644
-0.0540445,-0.034187,0.549492,0.272742,-0.0892311,-0.0920452,0.0866377,0.167953,102,-1924,42.0061,0.1,-418.093,-0.1,1.648
-0.0544021,-0.0345526,0.549839,0.273394,-0.0895789,-0.0918243,0.0865808,0.166297,107,-1923,41.9269,0.1,-418.147,-0.1,1.652
-0.0547611,-0.0349298,0.550185,0.274067,-0.089927,-0.0926559,0.0865238,0.16692,103,-1920,41.8527,0.1,-418.197,-0.1,1.656
-0.0551215,-0.0353192,0.550531,0.274758,-0.0902754,-0.094218,0.0864668,0.168862,92,-1916,41.7737,0.1,-418.244,-0.1,1.66
-0.0554833,-0.0356889,0.550877,0.275413,-0.0906239,-0.0936183,0.0864097,0.167134,100,-1916,41.6847,0.1,-418.289,-0.1,1.664
-0.0558465,-0.0360703,0.551222,0.276089,-0.0909728,-0.0941974,0.0863524,0.167766,98,-1913,41.6042,0.1,-418.331,-0.1,1.668
-0.0562111,-0.0364645,0.551568,0.276784,-0.0913219,-0.0956487,0.0862952,0.1698,88,-1909,41.5213,0.1,-418.369,-0.1,1.672
-0.0565771,-0.0368484,0.551913,0.277461,-0.0916712,-0.0957525,0.0862378,0.169573,90,-1906,41.4291,0.1,-418.405,-0.1,1.676
-0.0569445,-0.037235,0.552258,0.278137,-0.0920208,-0.096052,0.0861803,0.169364,90,-1904,41.3392,0.1,-418.438,-0.1,1.68
-0.0573133,-0.0376122,0.552602,0.278794,-0.0923707,-0.0954744,0.0861228,0.167727,98,-1903,41.2506,0.1,-418.469,-0.1,1.684
-0.0576835,-0.0380023,0.552947,0.27947,-0.0927207,-0.0961545,0.0860652,0.168104,95,-1901,41.1701,0.1,-418.498,-0.1,1.688
-0.058055,-0.038393,0.553291,0.280141,-0.093071,-0.0966656,0.0860075,0.16801,94,-1899,41.0869,0.1,-418.525,-0.1,1.692
-0.058428,-0.0387862,0.553635,0.28081,-0.0934216,-0.0972078,0.0859497,0.167775,92,-1896,41.0023,0.1,-418.549,-0.1,1.696
-0.0588024,-0.0391804,0.553978,0.281478,-0.0937724,-0.0976556,0.0858919,0.167503,91,-1894,40.9162,0.1,-418.572,-0.1,1.7
-0.0591782,-0.0395767,0.554322,0.282149,-0.0941234,-0.0981269,0.0858339,0.167609,89,-1892,40.8295,0.1,-418.591,-0.1,1.704
-0.0595554,-0.0399737,0.554665,0.282816,-0.0944746,-0.0984987,0.0857759,0.167306,89,-1890,40.7419,0.1,-418.609,-0.1,1.708
-0.059934,-0.0403717,0.555008,0.283487,-0.0948261,-0.098833,0.0857179,0.167421,89,-1888,40.6543,0.1,-418.623,-0.1,1.712
-0.060314,-0.0407731,0.555351,0.284158,-0.0951778,-0.0993437,0.0856597,0.167526,87,-1885,40.5671,0.1,-418.636,-0.1,1.716
-0.0606954,-0.0411739,0.555693,0.284828,-0.0955297,-0.0996266,0.0856014,0.167567,88,-1883,40.4787,0.1,-418.646,-0.1,1.72
-0.0610782,-0.0415878,0.556036,0.28552,-0.0958818,-0.100909,0.0855431,0.16938,79,-1879,40.3906,0.1,-418.652,-0.1,1.724
-0.0614625,-0.04199,0.556378,0.28619,-0.0962342,-0.100785,0.0854847,0.168745,83,-1877,40.2948,0.1,-418.656,-0.1,1.728
-0.0618481,-0.0423842,0.556719,0.286853,-0.0965868,-0.100041,0.0854262,0.167689,93,-1876,40.2041,0.1,-418.658,-0.1,1.732
-0.0622352,-0.0427901,0.557061,0.287535,-0.0969395,-0.100523,0.0853677,0.168684,92,-1872,40.1232,0.1,-418.658,-0.1,1.736
-0.0626236,-0.0431912,0.557402,0.288211,-0.0972925,-0.100442,0.0853091,0.168771,96,-1870,40.0415,0.1,-418.655,-0.1,1.74
-0.0630135,-0.0435968,0.557743,0.288889,-0.0976457,-0.100762,0.0852503,0.16903,96,-1867,39.9639,0.1,-418.649,-0.1,1.744
-0.0634048,-0.0440156,0.558084,0.289587,-0.0979991,-0.102069,0.0851916,0.170845,87,-1863,39.8862,0.1,-418.639,-0.1,1.748
-0.0637975,-0.0444136,0.558425,0.29025,-0.0983527,-0.101213,0.0851327,0.169117,98,-1863,39.8011,0.1,-418.628,-0.1,1.752
-0.0641916,-0.0448233,0.558765,0.290927,-0.0987065,-0.101621,0.0850738,0.169146,97,-1860,39.7267,0.1,-418.615,-0.1,1.756
-0.0645872,-0.0452351,0.559106,0.291604,-0.0990605,-0.102066,0.0850147,0.169223,96,-1858,39.652,0.1,-418.6,-0.1,1.76
-0.0649841,-0.0456463,0.559446,0.292279,-0.0994147,-0.102305,0.0849557,0.169044,97,-1855,39.5767,0.1,-418.582,-0.1,1.764
-0.0653825,-0.0460595,0.559785,0.292959,-0.0997691,-0.102638,0.0848965,0.169357,97,-1853,39.5026,0.1,-418.561,-0.1,1.768
-0.0657823,-0.0464765,0.560125,0.293636,-0.100124,-0.103176,0.0848373,0.169306,95,-1850,39.4288,0.1,-418.539,-0.1,1.772
-0.0661835,-0.0468935,0.560464,0.294308,-0.100478,-0.103534,0.0847779,0.168898,95,-1848,39.3536,0.1,-418.514,-0.1,1.776
-0.0665861,-0.0473112,0.560803,0.294981,-0.100833,-0.103831,0.0847186,0.168654,96,-1846,39.2786,0.1,-418.487,-0.1,1.78
-0.0669901,-0.0477324,0.561142,0.295656,-0.101189,-0.104317,0.0846591,0.168723,94,-1844,39.2042,0.1,-418.458,-0.1,1.784
-0.0673956,-0.0481525,0.56148,0.296332,-0.101544,-0.104554,0.0845995,0.168768,95,-1841,39.1289,0.1,-418.426,-0.1,1.788
-0.0678025,-0.0485736,0.561818,0.296999,-0.101899,-0.104799,0.0845399,0.168136,96,-1840,39.0549,0.1,-418.393,-0.1,1.792
-0.0682108,-0.0489975,0.562157,0.29767,-0.102255,-0.105193,0.0844803,0.168031,96,-1837,38.982,0.1,-418.357,-0.1,1.796
-0.0686205,-0.0494232,0.562494,0.298338,-0.102611,-0.105599,0.0844205,0.167703,95,-1835,38.909,0.1,-418.32,-0.1,1.8
-0.0690317,-0.0498506,0.562832,0.29901,-0.102967,-0.106014,0.0843607,0.167771,94,-1833,38.8356,0.1,-418.28,-0.1,1.804
-0.0694443,-0.0502769,0.563169,0.299681,-0.103323,-0.106204,0.0843008,0.167788,96,-1831,38.7621,0.1,-418.238,-0.1,1.808
-0.0698583,-0.0507063,0.563506,0.300352,-0.10368,-0.10659,0.0842408,0.167742,95,-1828,38.6901,0.1,-418.194,-0.1,1.812
-0.0702737,-0.0511365,0.563843,0.301026,-0.104036,-0.106904,0.0841807,0.16797,95,-1826,38.6181,0.1,-418.148,-0.1,1.816
-0.0706906,-0.051568,0.56418,0.301702,-0.104393,-0.107229,0.0841206,0.168324,96,-1823,38.5466,0.1,-418.099,-0.1,1.82
-0.0711088,-0.0519995,0.564516,0.302375,-0.10475,-0.107446,0.0840604,0.168301,97,-1821,38.4757,0.1,-418.047,-0.1,1.824
-0.0715286,-0.05243,0.564852,0.303051,-0.105107,-0.107504,0.0840001,0.168544,99,-1818,38.4064,0.1,-417.994,-0.1,1.828
-0.0719497,-0.0528615,0.565188,0.303724,-0.105464,-0.107629,0.0839398,0.168476,101,-1816,38.3399,0.1,-417.938,-0.1,1.832
-0.0723723,-0.0532972,0.565524,0.304403,-0.105821,-0.108058,0.0838794,0.168863,100,-1813,38.2756,0.1,-417.88,-0.1,1.836
-0.0727963,-0.0537315,0.565859,0.305073,-0.106179,-0.108229,0.0838189,0.16843,102,-1811,38.2108,0.1,-417.819,-0.1,1.84
-0.0732217,-0.0541657,0.566194,0.305742,-0.106536,-0.108343,0.0837584,0.168054,104,-1809,38.1481,0.1,-417.757,-0.1,1.844
-0.0736486,-0.0546011,0.566529,0.306411,-0.106894,-0.108505,0.0836977,0.167718,106,-1807,38.0876,0.1,-417.693,-0.1,1.848
-0.0740768,-0.0550395,0.566864,0.307083,-0.107252,-0.108872,0.083637,0.167868,105,-1804,38.0291,0.1,-417.627,-0.1,1.852
-0.0745066,-0.0554821,0.567198,0.307757,-0.10761,-0.109463,0.0835763,0.168083,103,-1802,37.9704,0.1,-417.558,-0.1,1.856
-0.0749377,-0.0559202,0.567532,0.308425,-0.107968,-0.109482,0.0835154,0.167708,106,-1800,37.9101,0.1,-417.488,-0.1,1.86
-0.0753703,-0.0563617,0.567866,0.309098,-0.108326,-0.109783,0.0834545,0.167861,107,-1797,37.8529,0.1,-417.415,-0.1,1.864
-0.0758043,-0.056805,0.5682,0.309775,-0.108685,-0.110127,0.0833936,0.168338,107,-1794,37.7964,0.1,-417.34,-0.1,1.868
-0.0762398,-0.0572479,0.568534,0.310456,-0.109044,-0.110328,0.0833325,0.169001,108,-1791,37.7402,0.1,-417.263,-0.1,1.872
-0.0766767,-0.0577115,0.568867,0.311167,-0.109402,-0.11219,0.0832714,0.171861,94,-1786,37.6848,0.1,-417.181,-0.1,1.876
-0.077115,-0.0581337,0.5692,0.311815,-0.109761,-0.109976,0.0832102,0.168586,117,-1787,37.6178,0.1,-417.098,-0.1,1.88
-0.0775548,-0.0585739,0.569532,0.312486,-0.11012,-0.109997,0.083149,0.168331,120,-1785,37.5734,0.1,-417.015,-0.1,1.884
-0.077996,-0.0590126,0.569865,0.313155,-0.110479,-0.109896,0.0830877,0.167989,124,-1783,37.5323,0.1,-416.929,-0.1,1.888
-0.0784386,-0.0594469,0.570197,0.313824,-0.110839,-0.109454,0.0830263,0.167761,131,-1780,37.4957,0.1,-416.842,-0.1,1.892
-0.0788827,-0.0598743,0.570529,0.314487,-0.111198,-0.108584,0.0829648,0.167033,142,-1779,37.4668,0.1,-416.753,-0.1,1.896
-0.0793282,-0.0602913,0.570861,0.315151,-0.111557,-0.10714,0.0829033,0.166749,158,-1776,37.4495,0.1,-416.662,-0.1,1.9
-0.0797751,-0.0606948,0.571192,0.315814,-0.111917,-0.105054,0.0828417,0.166387,179,-1774,37.4492,0.1,-416.57,-0.1,1.904
-0.0802235,-0.0610763,0.571524,0.316474,-0.112277,-0.101821,0.0827801,0.165915,211,-1773,37.472,0.1,-416.476,-0.1,1.908
-0.0806734,-0.0614335,0.571855,0.317134,-0.112636,-0.0976507,0.0827184,0.16563,251,-1770,37.5282,0.1,-416.38,-0.1,1.912
-0.0811246,-0.0617676,0.572185,0.3178,-0.112996,-0.0929413,0.0826566,0.1659,296,-1768,37.626,0.1,-416.283,-0.1,1.916
-0.0815773,-0.0620827,0.572516,0.318469,-0.113356,-0.0882182,0.0825947,0.16631,341,-1765,37.7699,0.1,-416.183,-0.1,1.92
-0.0820315,-0.0623781,0.572846,0.319131,-0.113717,-0.0834284,0.0825328,0.166066,387,-1763,37.96,0.1,-416.081,-0.1,1.924
-0.0824871,-0.0626607,0.573176,0.319794,-0.114077,-0.0791699,0.0824708,0.16596,428,-1761,38.1965,0.1,-415.977,-0.1,1.928
-0.0829441,-0.062934,0.573506,0.320459,-0.114437,-0.0755535,0.0824088,0.166034,464,-1758,38.4743,0.1,-415.872,-0.1,1.932
-0.0834026,-0.0632003,0.573835,0.321122,-0.114798,-0.0725668,0.0823466,0.165968,494,-1756,38.7874,0.1,-415.764,-0.1,1.936
-0.0838625,-0.0634664,0.574165,0.32179,-0.115158,-0.0705469,0.0822844,0.166298,516,-1753,39.1299,0.1,-415.654,-0.1,1.94
-0.0843238,-0.0637314,0.574494,0.322458,-0.115519,-0.0691139,0.0822222,0.166547,532,-1751,39.4931,0.1,-415.542,-0.1,1.944
-0.0847866,-0.0640012,0.574822,0.323123,-0.115879,-0.0685617,0.0821599,0.166483,541,-1748,39.8713,0.1,-415.428,-0.1,1.948
-0.0852509,-0.0642776,0.575151,0.323792,-0.11624,-0.0687405,0.0820975,0.166728,544,-1746,40.2568,0.1,-415.312,-0.1,1.952
-0.0857165,-0.0645581,0.575479,0.32446,-0.116601,-0.0692052,0.0820351,0.166833,544,-1743,40.6429,0.1,-415.194,-0.1,1.956
-0.0861837,-0.064847,0.575807,0.325129,-0.116962,-0.070206,0.0819726,0.166904,539,-1741,41.0271,0.1,-415.074,-0.1,1.96
-0.0866522,-0.065143,0.576135,0.325801,-0.117323,-0.0714778,0.08191,0.167325,532,-1738,41.4045,0.1,-414.952,-0.1,1.964
-0.0871222,-0.0654464,0.576463,0.326475,-0.117684,-0.0729303,0.0818473,0.167692,523,-1735,41.7728,0.1,-414.827,-0.1,1.968
-0.0875937,-0.0657535,0.57679,0.32715,-0.118046,-0.0742154,0.0817847,0.168081,516,-1733,42.1305,0.1,-414.7,-0.1,1.972
-0.0880666,-0.0660627,0.577117,0.327826,-0.118407,-0.0752448,0.0817219,0.16834,511,-1730,42.4793,0.1,-414.571,-0.1,1.976
-0.088541,-0.0663709,0.577444,0.328499,-0.118768,-0.0758447,0.0816591,0.16834,510,-1727,42.8217,0.1,-414.44,-0.1,1.98
-0.0890168,-0.066677,0.57777,0.329175,-0.11913,-0.0760719,0.0815962,0.168542,512,-1725,43.1613,0.1,-414.307,-0.1,1.984
-0.089494,-0.0669779,0.578096,0.329842,-0.119491,-0.0757915,0.0815332,0.167957,518,-1723,43.5019,0.1,-414.172,-0.1,1.988
-0.0899727,-0.0672768,0.578422,0.33051,-0.119853,-0.0754318,0.0814702,0.167624,525,-1721,43.8476,0.1,-414.036,-0.1,1.992
-0.0904528,-0.067576,0.578748,0.331185,-0.120214,-0.0752208,0.0814071,0.167978,531,-1718,44.1991,0.1,-413.897,-0.1,1.996
-0.0909344,-0.067869,0.579074,0.331859,-0.120576,-0.0745619,0.081344,0.168214,541,-1715,44.5554,0.1,-413.757,-0.1,2
-0.0914174,-0.0681623,0.579399,0.332538,-0.120938,-0.0741514,0.0812808,0.168717,548,-1712,44.92,0.1,-413.614,-0.1,2.004
-0.0919019,-0.0684532,0.579724,0.333226,-0.1213,-0.0736762,0.0812175,0.169772,557,-1709,45.291,0.1,-413.469,-0.1,2.008
-0.0923878,-0.0687482,0.580049,0.333932,-0.121661,-0.0737049,0.0811542,0.172059,560,-1704,45.6686,0.1,-413.32,-0.1,2.012
-0.0928752,-0.0690291,0.580373,0.334607,-0.122023,-0.0725437,0.0810908,0.170934,575,-1703,46.049,0.1,-413.169,-0.1,2.016
-0.093364,-0.0693159,0.580697,0.335301,-0.122385,-0.0722589,0.0810274,0.171797,581,-1699,46.442,0.1,-413.016,-0.1,2.02
-0.0938543,-0.0696095,0.581021,0.336014,-0.122747,-0.0726449,0.0809639,0.173956,582,-1695,46.8397,0.1,-412.859,-0.1,2.024
-0.094346,-0.0698946,0.581345,0.336705,-0.123109,-0.0721824,0.0809003,0.173553,590,-1693,47.2368,0.1,-412.7,-0.1,2.028
-0.0948392,-0.0701813,0.581669,0.337391,-0.123472,-0.0720181,0.0808367,0.17288,595,-1691,47.6404,0.1,-412.54,-0.1,2.032
-0.0953338,-0.0704722,0.581992,0.338072,-0.123834,-0.072254,0.080773,0.171943,598,-1689,48.0476,0.1,-412.379,-0.1,2.036
-0.0958298,-0.0707604,0.582315,0.338744,-0.124196,-0.072181,0.0807093,0.170627,602,-1688,48.4554,0.1,-412.216,-0.1,2.04
-0.0963273,-0.0710468,0.582637,0.3394,-0.124558,-0.0719883,0.0806455,0.168454,608,-1687,48.8664,0.1,-412.054,-0.1,2.044
-0.0968263,-0.0713401,0.58296,0.340073,-0.12492,-0.0724357,0.0805816,0.168359,608,-1685,49.2812,0.1,-411.89,-0.1,2.048
-0.0973267,-0.0716307,0.583282,0.340741,-0.125283,-0.0725036,0.0805177,0.167892,612,-1683,49.6947,0.1,-411.725,-0.1,2.052
-0.0978285,-0.071923,0.583604,0.341411,-0.125645,-0.0726929,0.0804537,0.167811,614,-1680,50.1099,0.1,-411.558,-0.1,2.056
-0.0983319,-0.0722211,0.583926,0.342109,-0.126007,-0.0733085,0.0803897,0.170061,613,-1676,50.5257,0.1,-411.388,-0.1,2.06
-0.0988366,-0.0725044,0.584247,0.342776,-0.12637,-0.0724809,0.0803256,0.168883,624,-1674,50.9391,0.1,-411.216,-0.1,2.064
-0.0993428,-0.0728008,0.584568,0.343482,-0.126732,-0.0730232,0.0802614,0.171466,624,-1669,51.3618,0.1,-411.041,-0.1,2.068
-0.0998505,-0.0730886,0.584889,0.344177,-0.127095,-0.072665,0.0801972,0.172209,631,-1666,51.7824,0.1,-410.863,-0.1,2.072
-0.10036,-0.0733688,0.58521,0.344859,-0.127457,-0.0717928,0.0801329,0.171668,643,-1664,52.2089,0.1,-410.684,-0.1,2.076
-0.10087,-0.0736546,0.58553,0.345558,-0.12782,-0.0716719,0.0800686,0.172718,648,-1660,52.6453,0.1,-410.502,-0.1,2.08
-0.101382,-0.0739448,0.58585,0.346261,-0.128182,-0.0719657,0.0800042,0.173706,650,-1657,53.0849,0.1,-410.317,-0.1,2.084
-0.101896,-0.0742398,0.58617,0.346975,-0.128545,-0.0725646,0.0799398,0.175286,649,-1653,53.524,0.1,-410.129,-0.1,2.088
-0.10241,-0.0745255,0.58649,0.34767,-0.128907,-0.0721865,0.0798753,0.174756,656,-1651,53.9607,0.1,-409.94,-0.1,2.092
-0.102927,-0.0748085,0.586809,0.348361,-0.12927,-0.0717041,0.0798107,0.174143,664,-1649,54.4032,0.1,-409.748,-0.1,2.096
-0.103445,-0.0750839,0.587128,0.349039,-0.129632,-0.0707491,0.0797461,0.172526,677,-1647,54.8526,0.1,-409.557,-0.1,2.1
-0.103964,-0.075373,0.587447,0.349746,-0.129995,-0.0712641,0.0796814,0.173952,676,-1643,55.3121,0.1,-409.362,-0.1,2.104
-0.104485,-0.0756608,0.587766,0.350446,-0.130358,-0.0714922,0.0796167,0.174356,679,-1640,55.7695,0.1,-409.166,-0.1,2.108
-0.105007,-0.0759396,0.588084,0.351119,-0.13072,-0.0708958,0.0795519,0.172322,688,-1640,56.2276,0.1,-408.968,-0.1,2.112
-0.10553,-0.0762312,0.588402,0.35181,-0.131083,-0.0715634,0.0794871,0.172435,686,-1637,56.6927,0.1,-408.769,-0.1,2.116
-0.106055,-0.0765232,0.58872,0.352492,-0.131445,-0.0720372,0.0794222,0.17179,687,-1635,57.1542,0.1,-408.569,-0.1,2.12
-0.106582,-0.0768269,0.589038,0.353184,-0.131808,-0.0733321,0.0793572,0.172223,680,-1632,57.6134,0.1,-408.367,-0.1,2.124
-0.10711,-0.0771216,0.589355,0.353847,-0.13217,-0.0734467,0.0792922,0.170037,683,-1631,58.0639,0.1,-408.165,-0.1,2.128
-0.107639,-0.0774187,0.589672,0.354509,-0.132533,-0.0737247,0.0792272,0.168521,685,-1630,58.5157,0.1,-407.962,-0.1,2.132
-0.10817,-0.0777123,0.589989,0.355172,-0.132896,-0.0736221,0.0791621,0.167597,690,-1628,58.9676,0.1,-407.758,-0.1,2.136
-0.108702,-0.0780053,0.590305,0.355841,-0.133258,-0.0734961,0.0790969,0.167471,695,-1626,59.4228,0.1,-407.553,-0.1,2.14
-0.109236,-0.0782993,0.590622,0.356515,-0.133621,-0.0734985,0.0790317,0.167818,699,-1623,59.8814,0.1,-407.346,-0.1,2.144
-0.109771,-0.0785937,0.590938,0.357195,-0.133983,-0.0735288,0.0789664,0.168511,703,-1620,60.3423,0.1,-407.138,-0.1,2.148
-0.110308,-0.0788912,0.591253,0.357878,-0.134346,-0.0738082,0.0789011,0.169318,705,-1617,60.8051,0.1,-406.926,-0.1,2.152
-0.110846,-0.0791814,0.591569,0.358551,-0.134708,-0.0733899,0.0788357,0.168963,713,-1614,61.268,0.1,-406.713,-0.1,2.156
-0.111386,-0.0794833,0.591884,0.359248,-0.135071,-0.0740898,0.0787703,0.170656,711,-1610,61.7365,0.1,-406.498,-0.1,2.16
-0.111927,-0.0797825,0.592199,0.359938,-0.135433,-0.0743262,0.0787048,0.171352,713,-1607,62.2012,0.1,-406.28,-0.1,2.164
-0.112469,-0.0800859,0.592514,0.360634,-0.135795,-0.0748292,0.0786393,0.172191,713,-1604,62.666,0.1,-406.059,-0.1,2.168
-0.113013,-0.0803885,0.592828,0.361326,-0.136158,-0.075107,0.0785737,0.172433,715,-1601,63.1287,0.1,-405.836,-0.1,2.172
-0.113558,-0.0806901,0.593142,0.362014,-0.13652,-0.0752058,0.078508,0.172278,718,-1598,63.5913,0.1,-405.612,-0.1,2.176
-0.114105,-0.0809938,0.593456,0.362697,-0.136882,-0.0754444,0.0784423,0.171829,720,-1596,64.0552,0.1,-405.386,-0.1,2.18
-0.114654,-0.0812982,0.59377,0.363377,-0.137245,-0.0756611,0.0783766,0.171214,723,-1594,64.5194,0.1,-405.159,-0.1,2.184
-0.115203,-0.0816074,0.594083,0.364056,-0.137607,-0.0762086,0.0783108,0.170745,722,-1592,64.9837,0.1,-404.931,-0.1,2.188
-0.115754,-0.081918,0.594396,0.364733,-0.137969,-0.0766888,0.0782449,0.170203,722,-1590,65.4455,0.1,-404.702,-0.1,2.192
-0.116307,-0.0822303,0.594709,0.365405,-0.138331,-0.0771528,0.078179,0.169496,722,-1588,65.9053,0.1,-404.471,-0.1,2.196
-0.116861,-0.0825475,0.595022,0.366082,-0.138693,-0.0778653,0.0781131,0.169427,721,-1585,66.3633,0.1,-404.24,-0.1,2.2
-0.117417,-0.0828629,0.595334,0.366753,-0.139055,-0.0781963,0.0780471,0.168835,722,-1583,66.8174,0.1,-404.007,-0.1,2.204
-0.117973,-0.0831797,0.595646,0.367423,-0.139417,-0.0785322,0.077981,0.168353,723,-1581,67.2709,0.1,-403.772,-0.1,2.208
-0.118532,-0.0835,0.595958,0.368092,-0.139779,-0.079044,0.0779149,0.168004,723,-1579,67.7236,0.1,-403.537,-0.1,2.212
-0.119092,-0.083821,0.596269,0.368752,-0.140141,-0.0794427,0.0778488,0.167022,724,-1577,68.1742,0.1,-403.301,-0.1,2.216
-0.119653,-0.0841468,0.596581,0.369414,-0.140503,-0.0801117,0.0777826,0.166483,722,-1575,68.6235,0.1,-403.063,-0.1,2.22
-0.120216,-0.0844781,0.596892,0.370075,-0.140865,-0.0810183,0.0777163,0.166065,719,-1573,69.069,0.1,-402.825,-0.1,2.224
-0.12078,-0.0848153,0.597202,0.370734,-0.141227,-0.0821121,0.07765,0.165701,713,-1571,69.5088,0.1,-402.585,-0.1,2.228
-0.121346,-0.0851601,0.597513,0.371391,-0.141588,-0.0834748,0.0775837,0.16517,706,-1569,69.9411,0.1,-402.345,-0.1,2.232
-0.121913,-0.0855122,0.597823,0.37205,-0.14195,-0.0849878,0.0775173,0.165075,697,-1566,70.3637,0.1,-402.103,-0.1,2.236
-0.122481,-0.085869,0.598133,0.372705,-0.142312,-0.0863996,0.0774508,0.164638,689,-1564,70.7755,0.1,-401.859,-0.1,2.24
-0.123051,-0.0862353,0.598443,0.373357,-0.142673,-0.0881181,0.0773843,0.164058,679,-1562,71.177,0.1,-401.615,-0.1,2.244
-0.123623,-0.0866101,0.598752,0.374009,-0.143035,-0.0899835,0.0773178,0.163729,667,-1560,71.5657,0.1,-401.37,-0.1,2.248
-0.124195,-0.0869922,0.599061,0.374662,-0.143396,-0.0918318,0.0772512,0.163568,655,-1558,71.9406,0.1,-401.124,-0.1,2.252
-0.12477,-0.0873823,0.59937,0.375314,-0.143757,-0.0937261,0.0771845,0.163345,643,-1556,72.3016,0.1,-400.876,-0.1,2.256
-0.125345,-0.0877762,0.599679,0.375964,-0.144118,-0.0953058,0.0771178,0.16311,634,-1553,72.6487,0.1,-400.627,-0.1,2.26
-0.125923,-0.0881735,0.599987,0.376614,-0.14448,-0.0966467,0.0770511,0.162867,626,-1551,72.9846,0.1,-400.377,-0.1,2.264
-0.126501,-0.0885694,0.600295,0.377262,-0.144841,-0.0974256,0.0769843,0.162618,624,-1549,73.3116,0.1,-400.126,-0.1,2.268
-0.127081,-0.088966,0.600603,0.377916,-0.145202,-0.0980024,0.0769175,0.162914,623,-1546,73.6345,0.1,-399.873,-0.1,2.272
-0.127663,-0.0893592,0.60091,0.378572,-0.145563,-0.098099,0.0768506,0.163197,626,-1544,73.9551,0.1,-399.619,-0.1,2.276
-0.128246,-0.0897503,0.601218,0.379231,-0.145923,-0.0979906,0.0767837,0.16376,630,-1541,74.2775,0.1,-399.363,-0.1,2.28
-0.12883,-0.090141,0.601525,0.379892,-0.146284,-0.0978896,0.0767167,0.164279,635,-1538,74.6035,0.1,-399.105,-0.1,2.284
-0.129416,-0.0905301,0.601831,0.380555,-0.146645,-0.0976783,0.0766497,0.16474,641,-1535,74.9329,0.1,-398.846,-0.1,2.288
-0.130003,-0.0909174,0.602138,0.381218,-0.147005,-0.0973935,0.0765826,0.165048,647,-1532,75.2667,0.1,-398.584,-0.1,2.292
-0.130592,-0.0913047,0.602444,0.38188,-0.147366,-0.0972036,0.0765155,0.165224,652,-1529,75.6054,0.1,-398.321,-0.1,2.296
-0.131182,-0.0916906,0.60275,0.382544,-0.147726,-0.0969619,0.0764484,0.165486,658,-1527,75.9483,0.1,-398.057,-0.1,2.3
-0.131774,-0.0920775,0.603056,0.383213,-0.148087,-0.0968871,0.0763812,0.166034,663,-1524,76.2958,0.1,-397.79,-0.1,2.304
-0.132367,-0.0924645,0.603361,0.383883,-0.148447,-0.0968372,0.0763139,0.166601,667,-1521,76.6463,0.1,-397.522,-0.1,2.308
-0.132962,-0.0928528,0.603666,0.384555,-0.148807,-0.0969192,0.0762466,0.167037,670,-1518,76.9997,0.1,-397.252,-0.1,2.312
-0.133558,-0.0932429,0.603971,0.385226,-0.149167,-0.0971177,0.0761793,0.167299,672,-1515,77.3547,0.1,-396.98,-0.1,2.316
-0.134155,-0.093634,0.604276,0.385901,-0.149527,-0.0973365,0.0761119,0.16779,674,-1512,77.7105,0.1,-396.706,-0.1,2.32
-0.134754,-0.0940354,0.60458,0.386594,-0.149887,-0.098346,0.0760445,0.169586,670,-1508,78.0664,0.1,-396.43,-0.1,2.324
-0.135354,-0.0944227,0.604884,0.387257,-0.150246,-0.0978387,0.075977,0.168307,678,-1506,78.4166,0.1,-396.152,-0.1,2.328
-0.135956,-0.0948176,0.605188,0.38793,-0.150606,-0.0981338,0.0759095,0.168289,679,-1504,78.7734,0.1,-395.873,-0.1,2.332
-0.136559,-0.0952201,0.605491,0.388609,-0.150965,-0.098964,0.075842,0.168767,676,-1500,79.1297,0.1,-395.593,-0.1,2.336
-0.137163,-0.095623,0.605794,0.389282,-0.151325,-0.0995462,0.0757744,0.168567,675,-1498,79.4813,0.1,-395.311,-0.1,2.34
-0.137769,-0.0960337,0.606097,0.389956,-0.151684,-0.100597,0.0757067,0.168607,670,-1495,79.8301,0.1,-395.028,-0.1,2.344
-0.138377,-0.0964463,0.6064,0.390632,-0.152043,-0.101441,0.075639,0.16872,667,-1493,80.1724,0.1,-394.743,-0.1,2.348
-0.138986,-0.0968688,0.606703,0.391327,-0.152402,-0.102838,0.0755713,0.170378,659,-1489,80.5095,0.1,-394.456,-0.1,2.352
-0.139596,-0.0972823,0.607005,0.392011,-0.152761,-0.103022,0.0755035,0.170592,661,-1486,80.8376,0.1,-394.167,-0.1,2.356
-0.140208,-0.0976952,0.607307,0.392699,-0.15312,-0.103086,0.0754357,0.171022,665,-1483,81.1666,0.1,-393.876,-0.1,2.36
-0.140821,-0.0981081,0.607608,0.393389,-0.153479,-0.103129,0.0753679,0.171539,668,-1479,81.4976,0.1,-393.583,-0.1,2.364
-0.141436,-0.0985223,0.607909,0.39408,-0.153837,-0.103273,0.0753,0.171941,671,-1476,81.8305,0.1,-393.288,-0.1,2.368
-0.142052,-0.0989383,0.608211,0.394772,-0.154195,-0.103513,0.075232,0.172267,672,-1473,82.1646,0.1,-392.991,-0.1,2.372
-0.142669,-0.0993394,0.608511,0.395437,-0.154554,-0.102435,0.0751641,0.170296,685,-1472,82.4997,0.1,-392.694,-0.1,2.376
-0.143288,-0.0997623,0.608812,0.396136,-0.154912,-0.10353,0.075096,0.171803,680,-1468,82.8455,0.1,-392.395,-0.1,2.38
-0.143909,-0.100165,0.609112,0.396799,-0.15527,-0.102561,0.075028,0.169757,692,-1467,83.1852,0.1,-392.096,-0.1,2.384
-0.14453,-0.100595,0.609412,0.397501,-0.155628,-0.104248,0.0749599,0.171645,682,-1463,83.5344,0.1,-391.794,-0.1,2.388
-0.145154,-0.100998,0.609712,0.398152,-0.155986,-0.10304,0.0748917,0.168672,695,-1463,83.8728,0.1,-391.493,-0.1,2.392
-0.145778,-0.101421,0.610011,0.398825,-0.156343,-0.103991,0.0748235,0.168591,691,-1460,84.223,0.1,-391.191,-0.1,2.396
-0.146404,-0.101849,0.61031,0.399501,-0.156701,-0.104999,0.0747553,0.168738,687,-1458,84.5675,0.1,-390.887,-0.1,2.4
-0.147032,-0.10229,0.610609,0.400197,-0.157058,-0.106679,0.074687,0.170448,676,-1453,84.9053,0.1,-390.581,-0.1,2.404
-0.147661,-0.102713,0.610908,0.40086,-0.157415,-0.106446,0.0746187,0.16891,682,-1452,85.232,0.1,-390.274,-0.1,2.408
-0.148291,-0.103151,0.611206,0.401542,-0.157772,-0.107442,0.0745504,0.169411,678,-1449,85.5626,0.1,-389.966,-0.1,2.412
-0.148923,-0.103594,0.611504,0.402229,-0.158129,-0.108567,0.074482,0.170206,672,-1446,85.887,0.1,-389.655,-0.1,2.416
-0.149556,-0.104037,0.611802,0.40292,-0.158486,-0.109288,0.0744136,0.171053,670,-1442,86.2043,0.1,-389.343,-0.1,2.42
-0.150191,-0.104484,0.6121,0.403608,-0.158842,-0.110056,0.0743451,0.171329,667,-1439,86.5179,0.1,-389.029,-0.1,2.424
-0.150827,-0.104937,0.612397,0.404298,-0.159199,-0.111173,0.0742766,0.171744,662,-1436,86.8271,0.1,-388.713,-0.1,2.428
-0.151464,-0.105391,0.612694,0.404987,-0.159555,-0.111918,0.0742081,0.171934,659,-1433,87.1294,0.1,-388.395,-0.1,2.432
-0.152103,-0.105849,0.61299,0.405675,-0.159911,-0.11276,0.0741395,0.171916,656,-1430,87.4277,0.1,-388.076,-0.1,2.436
-0.152744,-0.106321,0.613287,0.406374,-0.160267,-0.114559,0.0740709,0.172913,645,-1427,87.7209,0.1,-387.755,-0.1,2.44
-0.153386,-0.106788,0.613583,0.407054,-0.160623,-0.115241,0.0740022,0.171936,643,-1425,88.0016,0.1,-387.433,-0.1,2.444
-0.154029,-0.107256,0.613879,0.407734,-0.160978,-0.11581,0.0739335,0.171284,641,-1423,88.279,0.1,-387.11,-0.1,2.448
-0.154673,-0.107713,0.614175,0.408394,-0.161334,-0.115297,0.0738648,0.16918,649,-1422,88.5546,0.1,-386.787,-0.1,2.452
-0.155319,-0.108192,0.61447,0.409086,-0.161689,-0.116827,0.073796,0.170484,640,-1418,88.8361,0.1,-386.462,-0.1,2.456
-0.155967,-0.108659,0.614765,0.409758,-0.162044,-0.116781,0.0737272,0.169654,644,-1416,89.1078,0.1,-386.137,-0.1,2.46
-0.156616,-0.109125,0.61506,0.410432,-0.162399,-0.116722,0.0736584,0.169274,648,-1413,89.3825,0.1,-385.81,-0.1,2.464
-0.157266,-0.109582,0.615354,0.411087,-0.162754,-0.115876,0.0735895,0.167379,659,-1412,89.6604,0.1,-385.484,-0.1,2.468
-0.157918,-0.110054,0.615648,0.411766,-0.163109,-0.11655,0.0735206,0.168189,657,-1409,89.9474,0.1,-385.156,-0.1,2.472
-0.158571,-0.110521,0.615942,0.412438,-0.163463,-0.116597,0.0734516,0.168153,660,-1406,90.2314,0.1,-384.827,-0.1,2.476
-0.159225,-0.110994,0.616236,0.41312,-0.163817,-0.117204,0.0733826,0.168907,659,-1403,90.5172,0.1,-384.495,-0.1,2.48
-0.159881,-0.111467,0.616529,0.413802,-0.164171,-0.117522,0.0733136,0.169438,660,-1400,90.8005,0.1,-384.163,-0.1,2.484
-0.160539,-0.111957,0.616823,0.414506,-0.164525,-0.119202,0.0732445,0.171634,649,-1395,91.0828,0.1,-383.827,-0.1,2.488
-0.161198,-0.112439,0.617115,0.415188,-0.164879,-0.119631,0.0731754,0.171285,650,-1393,91.3539,0.1,-383.49,-0.1,2.492
-0.161858,-0.112924,0.617408,0.415868,-0.165233,-0.120206,0.0731063,0.170822,648,-1390,91.6237,0.1,-383.151,-0.1,2.496
-0.16252,-0.113418,0.6177,0.416552,-0.165586,-0.121279,0.0730371,0.170916,643,-1388,91.8909,0.1,-382.811,-0.1,2.5
-0.163183,-0.113914,0.617992,0.417229,-0.165939,-0.122197,0.0729679,0.170345,639,-1385,92.1515,0.1,-382.471,-0.1,2.504
-0.163847,-0.114415,0.618284,0.417903,-0.166292,-0.123182,0.0728987,0.169706,635,-1383,92.4067,0.1,-382.129,-0.1,2.508
-0.164513,-0.114921,0.618575,0.418575,-0.166645,-0.124272,0.0728294,0.169136,629,-1381,92.6561,0.1,-381.787,-0.1,2.512
-0.16518,-0.115411,0.618867,0.419228,-0.166997,-0.123702,0.0727601,0.167172,637,-1380,92.8995,0.1,-381.445,-0.1,2.516
-0.165849,-0.115923,0.619157,0.419904,-0.16735,-0.125165,0.0726907,0.167763,629,-1377,93.1494,0.1,-381.102,-0.1,2.52
-0.166519,-0.116448,0.619448,0.420592,-0.167702,-0.127206,0.0726214,0.169194,616,-1373,93.3891,0.1,-380.756,-0.1,2.524
-0.167191,-0.116965,0.619738,0.421267,-0.168054,-0.127817,0.0725519,0.169024,614,-1370,93.6148,0.1,-380.409,-0.1,2.528
-0.167863,-0.117484,0.620029,0.42194,-0.168406,-0.128513,0.0724825,0.168768,612,-1368,93.8378,0.1,-380.061,-0.1,2.532
-0.168538,-0.118006,0.620318,0.422613,-0.168757,-0.12915,0.072413,0.168596,610,-1365,94.0575,0.1,-379.712,-0.1,2.536
-0.169213,-0.118528,0.620608,0.423281,-0.169109,-0.129603,0.0723435,0.168108,610,-1363,94.2744,0.1,-379.362,-0.1,2.54
-0.169891,-0.119051,0.620897,0.423946,-0.16946,-0.129991,0.072274,0.167495,610,-1361,94.4901,0.1,-379.012,-0.1,2.544
-0.170569,-0.119559,0.621186,0.42459,-0.169811,-0.128955,0.0722044,0.165272,622,-1360,94.7058,0.1,-378.661,-0.1,2.548
-0.171249,-0.120091,0.621475,0.425259,-0.170162,-0.130365,0.0721348,0.165978,614,-1357,94.9316,0.1,-378.31,-0.1,2.552
-0.17193,-0.120615,0.621763,0.425911,-0.170512,-0.130529,0.0720651,0.164952,616,-1355,95.1486,0.1,-377.958,-0.1,2.556
-0.172613,-0.121131,0.622051,0.426553,-0.170862,-0.130033,0.0719955,0.16349,623,-1354,95.367,0.1,-377.606,-0.1,2.56
-0.173297,-0.121655,0.622339,0.4272,-0.171213,-0.130393,0.0719258,0.162948,624,-1352,95.5919,0.1,-377.253,-0.1,2.564
-0.173983,-0.122185,0.622627,0.427857,-0.171562,-0.131036,0.071856,0.163334,622,-1349,95.8161,0.1,-376.899,-0.1,2.568
-0.17467,-0.12269,0.622914,0.42847,-0.171912,-0.129508,0.0717862,0.160022,638,-1349,96.0383,0.1,-376.547,-0.1,2.572
-0.175358,-0.123218,0.623201,0.429107,-0.172262,-0.130331,0.0717164,0.159686,634,-1347,96.2748,0.1,-376.194,-0.1,2.576
-0.176048,-0.123754,0.623488,0.429741,-0.172611,-0.131513,0.0716466,0.159317,628,-1345,96.5067,0.1,-375.841,-0.1,2.58
-0.176739,-0.124295,0.623774,0.430378,-0.17296,-0.132762,0.0715767,0.159331,621,-1342,96.7312,0.1,-375.486,-0.1,2.584
-0.177432,-0.124847,0.62406,0.431011,-0.173309,-0.134487,0.0715068,0.158965,611,-1340,96.9475,0.1,-375.131,-0.1,2.588
-0.178126,-0.125413,0.624346,0.431656,-0.173657,-0.136875,0.0714369,0.159701,595,-1337,97.1517,0.1,-374.775,-0.1,2.592
-0.178821,-0.125974,0.624632,0.432284,-0.174006,-0.138007,0.071367,0.15878,589,-1335,97.3389,0.1,-374.417,-0.1,2.596
-0.179518,-0.126541,0.624917,0.432912,-0.174354,-0.13925,0.071297,0.158224,582,-1333,97.5192,0.1,-374.06,-0.1,2.6
-0.180216,-0.127109,0.625202,0.433538,-0.174702,-0.140108,0.071227,0.157623,579,-1331,97.6919,0.1,-373.702,-0.1,2.604
-0.180915,-0.127683,0.625487,0.434158,-0.175049,-0.141285,0.0711569,0.156791,572,-1330,97.8599,0.1,-373.344,-0.1,2.608
-0.181616,-0.128263,0.625771,0.434782,-0.175397,-0.142501,0.0710868,0.156495,566,-1327,98.0207,0.1,-372.986,-0.1,2.612
-0.182318,-0.128827,0.626056,0.435384,-0.175744,-0.142016,0.0710167,0.154484,573,-1327,98.1747,0.1,-372.627,-0.1,2.616
-0.183022,-0.129426,0.62634,0.436015,-0.176091,-0.14463,0.0709466,0.155619,555,-1323,98.334,0.1,-372.268,-0.1,2.62
-0.183727,-0.130016,0.626623,0.436622,-0.176437,-0.145566,0.0708764,0.154274,551,-1322,98.4749,0.1,-371.909,-0.1,2.624
-0.184434,-0.130607,0.626907,0.437222,-0.176784,-0.146305,0.0708062,0.152917,548,-1321,98.6107,0.1,-371.549,-0.1,2.628
-0.185141,-0.131206,0.62719,0.437823,-0.17713,-0.147432,0.070736,0.152012,542,-1320,98.7429,0.1,-371.19,-0.1,2.632
-0.185851,-0.131786,0.627472,0.438401,-0.177476,-0.14657,0.0706657,0.149508,552,-1320,98.8693,0.1,-370.832,-0.1,2.636
-0.186561,-0.13238,0.627755,0.438993,-0.177822,-0.147291,0.0705955,0.148991,550,-1318,99.0049,0.1,-370.474,-0.1,2.64
-0.187273,-0.132974,0.628037,0.439581,-0.178167,-0.147628,0.0705252,0.14833,550,-1316,99.1374,0.1,-370.116,-0.1,2.644
-0.187987,-0.133565,0.628319,0.440165,-0.178512,-0.147709,0.0704548,0.147543,553,-1315,99.2698,0.1,-369.759,-0.1,2.648
-0.188701,-0.13416,0.628601,0.440747,-0.178857,-0.148022,0.0703845,0.146875,553,-1313,99.4041,0.1,-369.401,-0.1,2.652
-0.189417,-0.134771,0.628882,0.441342,-0.179202,-0.149641,0.0703141,0.147466,543,-1310,99.5379,0.1,-369.042,-0.1,2.656
-0.190135,-0.135372,0.629163,0.441918,-0.179546,-0.149857,0.0702436,0.146363,545,-1309,99.6616,0.1,-368.683,-0.1,2.66
-0.190854,-0.135975,0.629444,0.442489,-0.17989,-0.150116,0.0701732,0.145109,546,-1308,99.7861,0.1,-368.324,-0.1,2.664
-0.191574,-0.136565,0.629725,0.443037,-0.180234,-0.149281,0.0701027,0.142402,556,-1308,99.9115,0.1,-367.967,-0.1,2.668
-0.192296,-0.137173,0.630005,0.443591,-0.180578,-0.150193,0.0700322,0.141086,551,-1308,100.046,0.1,-367.611,-0.1,2.672
-0.193019,-0.137787,0.630285,0.444145,-0.180921,-0.15129,0.0699617,0.140296,546,-1306,100.175,0.1,-367.255,-0.1,2.676
-0.193743,-0.138413,0.630565,0.444693,-0.181264,-0.152972,0.0698911,0.139193,536,-1305,100.298,0.1,-366.899,-0.1,2.68
-0.194469,-0.139044,0.630844,0.445235,-0.181607,-0.154611,0.0698206,0.137911,526,-1304,100.409,0.1,-366.544,-0.1,2.684
-0.195196,-0.139686,0.631123,0.44577,-0.18195,-0.15651,0.06975,0.136509,513,-1304,100.509,0.1,-366.19,-0.1,2.688
-0.195924,-0.140338,0.631402,0.446309,-0.182292,-0.158697,0.0696793,0.135977,499,-1302,100.597,0.1,-365.836,-0.1,2.692
-0.196654,-0.140995,0.631681,0.446844,-0.182634,-0.16053,0.0696087,0.135191,488,-1301,100.669,0.1,-365.482,-0.1,2.696
-0.197385,-0.141653,0.631959,0.447372,-0.182976,-0.161895,0.069538,0.134149,480,-1300,100.729,0.1,-365.129,-0.1,2.7
-0.198118,-0.142322,0.632237,0.447901,-0.183318,-0.163641,0.0694673,0.133483,469,-1299,100.781,0.1,-364.776,-0.1,2.704
-0.198852,-0.142993,0.632515,0.44843,-0.183659,-0.165035,0.0693965,0.133096,461,-1297,100.821,0.1,-364.424,-0.1,2.708
-0.199587,-0.143659,0.632792,0.44895,-0.184,-0.165561,0.0693258,0.132119,459,-1296,100.852,0.1,-364.071,-0.1,2.712
-0.200324,-0.144326,0.633069,0.449476,-0.18434,-0.16594,0.069255,0.131841,459,-1295,100.883,0.1,-363.719,-0.1,2.716
-0.201062,-0.144991,0.633346,0.449991,-0.184681,-0.166021,0.0691842,0.130821,461,-1294,100.913,0.1,-363.368,-0.1,2.72
-0.201801,-0.145643,0.633623,0.4505,-0.185021,-0.165038,0.0691134,0.129623,472,-1293,100.946,0.1,-363.017,-0.1,2.724
-0.202542,-0.146295,0.633899,0.451006,-0.185361,-0.164354,0.0690425,0.128652,480,-1293,100.99,0.1,-362.667,-0.1,2.728
-0.203284,-0.146944,0.634175,0.451512,-0.1857,-0.163667,0.0689716,0.127889,489,-1291,101.042,0.1,-362.317,-0.1,2.732
-0.204028,-0.147578,0.634451,0.452007,-0.186039,-0.161885,0.0689007,0.126546,506,-1291,101.103,0.1,-361.968,-0.1,2.736
-0.204773,-0.148213,0.634726,0.452506,-0.186378,-0.160899,0.0688298,0.125938,516,-1290,101.182,0.1,-361.62,-0.1,2.74
-0.205519,-0.148834,0.635002,0.453,-0.186717,-0.159032,0.0687588,0.125072,534,-1289,101.271,0.1,-361.273,-0.1,2.744
-0.206266,-0.149448,0.635276,0.453487,-0.187055,-0.157183,0.0686879,0.124005,552,-1288,101.378,0.1,-360.926,-0.1,2.748
-0.207015,-0.150057,0.635551,0.453972,-0.187393,-0.155489,0.0686169,0.123093,568,-1288,101.504,0.1,-360.58,-0.1,2.752
-0.207765,-0.150665,0.635825,0.454456,-0.187731,-0.154332,0.0685459,0.122398,580,-1287,101.645,0.1,-360.234,-0.1,2.756
-0.208517,-0.151281,0.636099,0.454947,-0.188069,-0.154251,0.0684748,0.122482,584,-1285,101.798,0.1,-359.889,-0.1,2.76
-0.20927,-0.151865,0.636373,0.455416,-0.188406,-0.15149,0.0684037,0.120781,609,-1285,101.955,0.1,-359.544,-0.1,2.764
-0.210024,-0.152461,0.636647,0.45589,-0.188743,-0.150658,0.0683327,0.119993,619,-1284,102.137,0.1,-359.2,-0.1,2.768
-0.21078,-0.153052,0.63692,0.456358,-0.189079,-0.149671,0.0682615,0.119036,630,-1284,102.328,0.1,-358.858,-0.1,2.772
-0.211537,-0.153645,0.637193,0.456833,-0.189415,-0.149215,0.0681904,0.118887,637,-1282,102.529,0.1,-358.515,-0.1,2.776
-0.212295,-0.154239,0.637465,0.457304,-0.189751,-0.148939,0.0681193,0.118558,642,-1281,102.736,0.1,-358.173,-0.1,2.78
-0.213055,-0.154837,0.637738,0.457778,-0.190087,-0.149188,0.0680481,0.11854,643,-1280,102.948,0.1,-357.831,-0.1,2.784
-0.213816,-0.155438,0.63801,0.458251,-0.190422,-0.149497,0.0679769,0.118441,644,-1278,103.16,0.1,-357.489,-0.1,2.788
-0.214578,-0.156045,0.638281,0.45872,-0.190757,-0.150222,0.0679057,0.117973,642,-1277,103.372,0.1,-357.147,-0.1,2.792
-0.215342,-0.15666,0.638553,0.459186,-0.191092,-0.151453,0.0678344,0.117487,635,-1276,103.58,0.1,-356.805,-0.1,2.796
-0.216107,-0.15728,0.638824,0.459654,-0.191426,-0.15262,0.0677632,0.117394,629,-1275,103.78,0.1,-356.464,-0.1,2.8
-0.216873,-0.157899,0.639095,0.46012,-0.191761,-0.153369,0.0676919,0.117073,626,-1274,103.974,0.1,-356.123,-0.1,2.804
-0.217641,-0.158524,0.639366,0.460582,-0.192094,-0.154328,0.0676206,0.116542,622,-1273,104.164,0.1,-355.783,-0.1,2.808
-0.21841,-0.159156,0.639636,0.461048,-0.192428,-0.155544,0.0675493,0.116505,616,-1271,104.348,0.1,-355.443,-0.1,2.812
-0.219181,-0.159775,0.639906,0.461503,-0.192761,-0.155261,0.0674779,0.115616,621,-1271,104.526,0.1,-355.103,-0.1,2.816
-0.219952,-0.160397,0.640176,0.461957,-0.193094,-0.155302,0.0674066,0.114909,624,-1270,104.708,0.1,-354.764,-0.1,2.82
-0.220725,-0.161021,0.640445,0.462415,-0.193426,-0.155589,0.0673352,0.114783,625,-1269,104.892,0.1,-354.426,-0.1,2.824
-0.2215,-0.16164,0.640715,0.462867,-0.193758,-0.15529,0.0672638,0.114152,630,-1268,105.077,0.1,-354.088,-0.1,2.828
-0.222275,-0.162257,0.640983,0.463319,-0.19409,-0.154976,0.0671924,0.113817,636,-1267,105.267,0.1,-353.75,-0.1,2.832
-0.223052,-0.162873,0.641252,0.463772,-0.194422,-0.154652,0.0671209,0.113623,642,-1266,105.461,0.1,-353.413,-0.1,2.836
-0.223831,-0.163506,0.64152,0.464235,-0.194753,-0.155846,0.0670495,0.1143,635,-1264,105.66,0.1,-353.076,-0.1,2.84
-0.22461,-0.164116,0.641788,0.464677,-0.195084,-0.154656,0.066978,0.113052,648,-1263,105.853,0.1,-352.739,-0.1,2.844
-0.225391,-0.164741,0.642056,0.465126,-0.195414,-0.155215,0.0669065,0.112768,647,-1262,106.056,0.1,-352.403,-0.1,2.848
-0.226174,-0.165375,0.642324,0.465574,-0.195744,-0.156337,0.066835,0.112549,641,-1261,106.258,0.1,-352.067,-0.1,2.852
-0.226957,-0.166018,0.642591,0.466023,-0.196074,-0.157805,0.0667635,0.112432,633,-1260,106.452,0.1,-351.732,-0.1,2.856
-0.227742,-0.166677,0.642858,0.466472,-0.196404,-0.160079,0.0666919,0.112325,618,-1259,106.637,0.1,-351.396,-0.1,2.86
-0.228529,-0.167346,0.643124,0.466918,-0.196733,-0.162458,0.0666203,0.112081,603,-1258,106.806,0.1,-351.061,-0.1,2.864
-0.229316,-0.168028,0.643391,0.467362,-0.197062,-0.165196,0.0665488,0.111688,584,-1257,106.957,0.1,-350.726,-0.1,2.868
-0.230105,-0.168724,0.643657,0.4678,-0.19739,-0.168087,0.0664772,0.111023,565,-1256,107.089,0.1,-350.392,-0.1,2.872
-0.230895,-0.169434,0.643923,0.468236,-0.197718,-0.171252,0.0664055,0.110292,543,-1255,107.2,0.1,-350.059,-0.1,2.876
-0.231687,-0.170151,0.644188,0.468664,-0.198046,-0.173938,0.0663339,0.109229,525,-1255,107.288,0.1,-349.726,-0.1,2.88
-0.23248,-0.170882,0.644453,0.46909,-0.198373,-0.176823,0.0662623,0.108318,505,-1255,107.357,0.1,-349.395,-0.1,2.884
-0.233274,-0.171618,0.644718,0.469513,-0.1987,-0.179235,0.0661906,0.107424,490,-1254,107.406,0.1,-349.065,-0.1,2.888
-0.234069,-0.172369,0.644983,0.46993,-0.199027,-0.18211,0.0661189,0.106424,470,-1254,107.437,0.1,-348.735,-0.1,2.892
-0.234866,-0.173126,0.645247,0.470342,-0.199354,-0.184459,0.0660472,0.105239,454,-1254,107.449,0.1,-348.407,-0.1,2.896
-0.235664,-0.173883,0.645511,0.470749,-0.19968,-0.186025,0.0659755,0.104104,445,-1254,107.444,0.1,-348.081,-0.1,2.9
-0.236463,-0.174641,0.645775,0.471153,-0.200005,-0.187184,0.0659037,0.103088,439,-1253,107.43,0.1,-347.755,-0.1,2.904
-0.237264,-0.175395,0.646038,0.471557,-0.200331,-0.18764,0.065832,0.102324,438,-1253,107.41,0.1,-347.431,-0.1,2.908
-0.238066,-0.176141,0.646302,0.471956,-0.200655,-0.18731,0.0657602,0.101527,443,-1253,107.389,0.1,-347.108,-0.1,2.912
-0.238869,-0.17688,0.646564,0.472354,-0.20098,-0.186457,0.0656884,0.100794,452,-1252,107.374,0.1,-346.786,-0.1,2.916
-0.239674,-0.177613,0.646827,0.472747,-0.201304,-0.18537,0.0656166,0.0999604,463,-1252,107.369,0.1,-346.465,-0.1,2.92
-0.24048,-0.178336,0.647089,0.473134,-0.201628,-0.183811,0.0655448,0.0989149,478,-1252,107.376,0.1,-346.145,-0.1,2.924
-0.241287,-0.179057,0.647351,0.473523,-0.201952,-0.182627,0.065473,0.0983618,490,-1251,107.397,0.1,-345.826,-0.1,2.928
-0.242095,-0.179772,0.647613,0.47391,-0.202275,-0.18132,0.0654012,0.0978492,502,-1251,107.431,0.1,-345.508,-0.1,2.932
-0.242905,-0.180486,0.647875,0.4743,-0.202598,-0.18042,0.0653293,0.0976514,512,-1250,107.478,0.1,-345.191,-0.1,2.936
-0.243716,-0.181204,0.648136,0.474683,-0.20292,-0.180078,0.0652574,0.0970588,518,-1250,107.534,0.1,-344.875,-0.1,2.94
-0.244529,-0.181924,0.648397,0.475063,-0.203242,-0.180081,0.0651855,0.0963471,520,-1249,107.596,0.1,-344.559,-0.1,2.944
-0.245342,-0.182648,0.648657,0.475433,-0.203564,-0.180342,0.0651136,0.0950953,521,-1250,107.66,0.1,-344.245,-0.1,2.948
-0.246157,-0.183377,0.648918,0.475802,-0.203885,-0.181035,0.0650417,0.0941744,518,-1250,107.724,0.1,-343.933,-0.1,2.952
-0.246973,-0.184114,0.649178,0.476169,-0.204206,-0.182043,0.0649698,0.0933301,513,-1249,107.785,0.1,-343.621,-0.1,2.956
-0.247791,-0.184854,0.649437,0.476535,-0.204527,-0.183061,0.0648979,0.0927096,508,-1249,107.841,0.1,-343.311,-0.1,2.96
-0.248609,-0.185603,0.649697,0.476897,-0.204847,-0.184459,0.0648259,0.0919505,500,-1249,107.891,0.1,-343.001,-0.1,2.964
-0.249429,-0.186352,0.649956,0.477252,-0.205166,-0.185392,0.0647539,0.0908974,496,-1249,107.933,0.1,-342.693,-0.1,2.968
-0.250251,-0.187116,0.650215,0.477603,-0.205486,-0.187222,0.064682,0.0899074,484,-1249,107.969,0.1,-342.387,-0.1,2.972
-0.251073,-0.187873,0.650473,0.477947,-0.205805,-0.187953,0.06461,0.0885277,481,-1250,107.994,0.1,-342.082,-0.1,2.976
-0.251897,-0.188636,0.650732,0.478286,-0.206124,-0.188901,0.064538,0.0873487,477,-1250,108.015,0.1,-341.779,-0.1,2.98
-0.252722,-0.189399,0.65099,0.478623,-0.206442,-0.189476,0.0644659,0.0863036,475,-1250,108.032,0.1,-341.477,-0.1,2.984
-0.253549,-0.190164,0.651247,0.478957,-0.20676,-0.19006,0.0643939,0.085319,473,-1250,108.047,0.1,-341.177,-0.1,2.988
-0.254376,-0.190933,0.651505,0.479288,-0.207077,-0.190796,0.0643219,0.0845186,470,-1251,108.06,0.1,-340.879,-0.1,2.992
-0.255205,-0.191701,0.651762,0.479611,-0.207394,-0.191228,0.0642498,0.0832365,469,-1251,108.069,0.1,-340.582,-0.1,2.996
-0.256036,-0.192468,0.652019,0.479929,-0.207711,-0.191344,0.0641777,0.0819786,471,-1252,108.079,0.1,-340.287,-0.1,3
-0.256867,-0.193231,0.652275,0.480243,-0.208027,-0.191219,0.0641057,0.0808522,475,-1252,108.09,0.1,-339.994,-0.1,3.004
-0.2577,-0.19399,0.652532,0.480553,-0.208343,-0.190676,0.0640336,0.0796693,482,-1253,108.104,0.1,-339.702,-0.1,3.008
-0.258534,-0.194751,0.652788,0.480863,-0.208659,-0.190543,0.0639615,0.0789959,485,-1253,108.126,0.1,-339.412,-0.1,3.012
-0.259369,-0.195514,0.653043,0.481174,-0.208974,-0.190628,0.0638894,0.078547,487,-1253,108.152,0.1,-339.124,-0.1,3.016
-0.260206,-0.196273,0.653299,0.481483,-0.209289,-0.19031,0.0638172,0.0781037,492,-1253,108.179,0.1,-338.836,-0.1,3.02
-0.261043,-0.19703,0.653554,0.481789,-0.209603,-0.190012,0.0637451,0.0775779,497,-1253,108.212,0.1,-338.55,-0.1,3.024
-0.261882,-0.197788,0.653809,0.482096,-0.209917,-0.189784,0.063673,0.077285,502,-1252,108.249,0.1,-338.265,-0.1,3.028
-0.262723,-0.198548,0.654063,0.4824,-0.21023,-0.189834,0.0636008,0.0768593,504,-1252,108.291,0.1,-337.981,-0.1,3.032
-0.263564,-0.19931,0.654318,0.482704,-0.210544,-0.190069,0.0635287,0.0766044,505,-1252,108.335,0.1,-337.698,-0.1,3.036
-0.264407,-0.200074,0.654572,0.483007,-0.210856,-0.190427,0.0634565,0.0762904,505,-1252,108.38,0.1,-337.416,-0.1,3.04
-0.265251,-0.200846,0.654825,0.483305,-0.211169,-0.191241,0.0633843,0.0757356,501,-1252,108.424,0.1,-337.135,-0.1,3.044
-0.266096,-0.201626,0.655079,0.483605,-0.211481,-0.192533,0.0633121,0.0754809,494,-1252,108.464,0.1,-336.856,-0.1,3.048
-0.266943,-0.202405,0.655332,0.4839,-0.211792,-0.193279,0.0632399,0.0748793,491,-1252,108.496,0.1,-336.577,-0.1,3.052
-0.267791,-0.203188,0.655585,0.484195,-0.212103,-0.194122,0.0631677,0.074507,487,-1252,108.525,0.1,-336.3,-0.1,3.056
-0.26864,-0.203986,0.655837,0.484491,-0.212414,-0.195835,0.0630955,0.0744027,476,-1252,108.55,0.1,-336.024,-0.1,3.06
-0.26949,-0.204773,0.656089,0.484785,-0.212724,-0.196142,0.0630232,0.0740741,477,-1252,108.564,0.1,-335.749,-0.1,3.064
-0.270342,-0.205562,0.656341,0.485082,-0.213034,-0.196578,0.062951,0.0740853,476,-1251,108.578,0.1,-335.475,-0.1,3.068
-0.271194,-0.206351,0.656593,0.485378,-0.213343,-0.196781,0.0628788,0.0740928,477,-1251,108.592,0.1,-335.202,-0.1,3.072
-0.272048,-0.207138,0.656844,0.485676,-0.213652,-0.196773,0.0628065,0.074213,479,-1250,108.607,0.1,-334.93,-0.1,3.076
-0.272904,-0.20792,0.657095,0.485972,-0.213961,-0.196365,0.0627342,0.0741492,485,-1250,108.624,0.1,-334.658,-0.1,3.08
-0.27376,-0.2087,0.657346,0.486266,-0.214269,-0.195891,0.062662,0.0739626,491,-1250,108.648,0.1,-334.388,-0.1,3.084
-0.274618,-0.209478,0.657597,0.48656,-0.214577,-0.195402,0.0625897,0.0737807,498,-1250,108.678,0.1,-334.118,-0.1,3.088
-0.275477,-0.210251,0.657847,0.486853,-0.214884,-0.194674,0.0625174,0.0736018,506,-1249,108.714,0.1,-333.849,-0.1,3.092
-0.276337,-0.211022,0.658097,0.487149,-0.215191,-0.194044,0.0624451,0.0737417,513,-1249,108.758,0.1,-333.582,-0.1,3.096
-0.277198,-0.21179,0.658346,0.487448,-0.215498,-0.193365,0.0623728,0.0740653,521,-1248,108.811,0.1,-333.314,-0.1,3.1
-0.278061,-0.212561,0.658596,0.487754,-0.215804,-0.1932,0.0623005,0.0748856,525,-1247,108.87,0.1,-333.047,-0.1,3.104
-0.278925,-0.213337,0.658845,0.488062,-0.216109,-0.193407,0.0622282,0.075634,526,-1246,108.934,0.1,-332.78,-0.1,3.108
-0.27979,-0.214106,0.659094,0.488371,-0.216415,-0.193055,0.0621558,0.0761618,531,-1245,108.998,0.1,-332.514,-0.1,3.112
-0.280656,-0.214881,0.659342,0.488681,-0.216719,-0.19331,0.0620835,0.0765712,532,-1244,109.067,0.1,-332.247,-0.1,3.116
-0.281523,-0.215663,0.65959,0.488991,-0.217024,-0.194027,0.0620112,0.0769017,529,-1243,109.137,0.1,-331.981,-0.1,3.12
-0.282392,-0.216448,0.659838,0.489307,-0.217328,-0.194736,0.0619388,0.0775539,526,-1242,109.203,0.1,-331.715,-0.1,3.124
-0.283262,-0.217233,0.660086,0.489621,-0.217631,-0.195237,0.0618665,0.0778736,525,-1242,109.266,0.1,-331.45,-0.1,3.128
-0.284133,-0.218025,0.660333,0.489943,-0.217934,-0.196204,0.0617941,0.0787776,520,-1240,109.328,0.1,-331.184,-0.1,3.132
-0.285005,-0.218818,0.66058,0.490267,-0.218237,-0.196849,0.0617218,0.0794955,518,-1239,109.384,0.1,-330.918,-0.1,3.136
-0.285879,-0.219616,0.660827,0.490595,-0.218539,-0.197769,0.0616494,0.0803772,514,-1238,109.438,0.1,-330.653,-0.1,3.14
-0.286754,-0.220411,0.661073,0.490921,-0.21884,-0.198094,0.061577,0.0807346,514,-1237,109.487,0.1,-330.387,-0.1,3.144
-0.28763,-0.221214,0.66132,0.491251,-0.219142,-0.198944,0.0615046,0.0812896,510,-1236,109.535,0.1,-330.122,-0.1,3.148
-0.288507,-0.222021,0.661565,0.49158,-0.219443,-0.199856,0.0614323,0.0816596,505,-1235,109.58,0.1,-329.857,-0.1,3.152
-0.289385,-0.222826,0.661811,0.49191,-0.219743,-0.200378,0.0613599,0.0818775,504,-1234,109.619,0.1,-329.592,-0.1,3.156
-0.290265,-0.223632,0.662056,0.492243,-0.220043,-0.200697,0.0612875,0.0823682,504,-1233,109.658,0.1,-329.327,-0.1,3.16
-0.291146,-0.224439,0.662301,0.492579,-0.220342,-0.201082,0.0612151,0.0828969,504,-1232,109.696,0.1,-329.062,-0.1,3.164
-0.292028,-0.225267,0.662546,0.492924,-0.220641,-0.203038,0.0611427,0.0840268,491,-1230,109.732,0.1,-328.797,-0.1,3.168
-0.292911,-0.226054,0.66279,0.493254,-0.22094,-0.201002,0.0610703,0.0835132,509,-1230,109.758,0.1,-328.533,-0.1,3.172
-0.293795,-0.226852,0.663035,0.493588,-0.221238,-0.20048,0.0609979,0.0835451,516,-1229,109.801,0.1,-328.269,-0.1,3.176
-0.294681,-0.227661,0.663278,0.493924,-0.221536,-0.201081,0.0609254,0.0836527,514,-1228,109.85,0.1,-328.006,-0.1,3.18
-0.295567,-0.228463,0.663522,0.494255,-0.221833,-0.200849,0.060853,0.083379,518,-1228,109.898,0.1,-327.743,-0.1,3.184
-0.296455,-0.229265,0.663765,0.494585,-0.22213,-0.200723,0.0607806,0.0830525,521,-1227,109.949,0.1,-327.481,-0.1,3.188
-0.297344,-0.230072,0.664008,0.494915,-0.222426,-0.2011,0.0607082,0.0828637,521,-1227,110.004,0.1,-327.219,-0.1,3.192
-0.298235,-0.230883,0.664251,0.495242,-0.222722,-0.201668,0.0606357,0.082565,519,-1226,110.057,0.1,-326.958,-0.1,3.196
-0.299126,-0.231689,0.664493,0.495569,-0.223017,-0.201586,0.0605633,0.0822508,522,-1226,110.109,0.1,-326.698,-0.1,3.2
-0.300019,-0.232503,0.664735,0.495898,-0.223312,-0.202193,0.0604909,0.0822716,520,-1225,110.164,0.1,-326.439,-0.1,3.204
-0.300913,-0.233318,0.664977,0.496227,-0.223607,-0.202742,0.0604184,0.0822855,518,-1225,110.217,0.1,-326.179,-0.1,3.208
-0.301808,-0.234139,0.665219,0.496557,-0.223901,-0.203569,0.060346,0.0822947,515,-1224,110.267,0.1,-325.921,-0.1,3.212
-0.302704,-0.234957,0.66546,0.496886,-0.224194,-0.203889,0.0602735,0.0823297,515,-1223,110.313,0.1,-325.663,-0.1,3.216
-0.303601,-0.235778,0.665701,0.497214,-0.224487,-0.204362,0.0602011,0.0822091,514,-1223,110.359,0.1,-325.405,-0.1,3.22
-0.3045,-0.236622,0.665942,0.497552,-0.22478,-0.20652,0.0601286,0.0829636,500,-1221,110.403,0.1,-325.147,-0.1,3.224
-0.3054,-0.23742,0.666182,0.497874,-0.225072,-0.204216,0.0600562,0.082171,519,-1221,110.435,0.1,-324.89,-0.1,3.228
-0.3063,-0.238242,0.666422,0.498208,-0.225364,-0.204609,0.0599837,0.0825639,519,-1220,110.485,0.1,-324.634,-0.1,3.232
-0.307202,-0.239063,0.666662,0.498543,-0.225655,-0.204871,0.0599113,0.0829698,519,-1219,110.535,0.1,-324.378,-0.1,3.236
-0.308106,-0.239882,0.666901,0.498881,-0.225946,-0.204815,0.0598388,0.0834419,522,-1218,110.586,0.1,-324.121,-0.1,3.24
-0.30901,-0.2407,0.667141,0.499222,-0.226236,-0.204663,0.0597664,0.0841022,526,-1217,110.639,0.1,-323.865,-0.1,3.244
-0.309916,-0.241521,0.667379,0.499567,-0.226526,-0.204907,0.0596939,0.0847727,526,-1215,110.695,0.1,-323.608,-0.1,3.248
-0.310822,-0.242347,0.667618,0.499916,-0.226815,-0.205443,0.0596215,0.0856515,525,-1214,110.752,0.1,-323.351,-0.1,3.252
-0.31173,-0.243167,0.667856,0.500266,-0.227104,-0.205283,0.059549,0.0862086,528,-1213,110.807,0.1,-323.094,-0.1,3.256
-0.312639,-0.24399,0.668095,0.500623,-0.227392,-0.205435,0.0594765,0.0872422,530,-1211,110.865,0.1,-322.836,-0.1,3.26
