peachynonah/Fire_monitor_/csv_datas/trial12/cdsl_data_t12_5.csv
joint1_pos_desired, joint1_pos, joint2_pos_desired, joint2_pos, joint1_vel_desired, joint1_vel_filtered, joint2_vel_desired, joint2_vel_filtered, target_torque_joint1, target_torque_joint2, estimated_disturbance_joint1, saturated_DOB_joint1, estimated_disturbance_joint2, saturated_DOB_joint2, current_time
-1.508,-1.51005,0.471378,0.469404,-7.52997e-07,0,-1.88249e-07,0,-11,-100,0,0,20.5624,0.1,0.004
-1.508,-1.51006,0.471378,0.469278,-3.00958e-06,-0.000575818,-7.52395e-07,-0.0105087,-15,-110,-0.0120333,-0.0120333,20.4517,0.1,0.008
-1.508,-1.51006,0.471378,0.469182,-6.76613e-06,-0.000297506,-1.69153e-06,-0.0149521,-13,-114,-0.0282014,-0.0282014,20.3356,0.1,0.012
-1.508,-1.51005,0.471378,0.4691,-1.2019e-05,3.19899e-06,-3.00476e-06,-0.0168203,-11,-116,-0.0420941,-0.0420941,20.2173,0.1,0.016
-1.508,-1.51005,0.471378,0.469034,-1.87647e-05,0.000318833,-4.69118e-06,-0.0167126,-8,-117,-0.053517,-0.053517,20.0985,0.1,0.02
-1.508,-1.51004,0.471378,0.468987,-2.69995e-05,0.000615628,-6.74988e-06,-0.0151149,-6,-116,-0.0623505,-0.0623505,19.9807,0.1,0.024
-1.508,-1.51004,0.471378,0.468957,-3.67199e-05,0.000899864,-9.17998e-06,-0.0125238,-4,-114,-0.0687237,-0.0687237,19.865,0.1,0.028
-1.508,-1.51003,0.471378,0.468946,-4.79222e-05,0.00106056,-1.19806e-05,-0.00924173,-2,-111,-0.072783,-0.072783,19.7521,0.1,0.032
-1.508,-1.51003,0.471378,0.468951,-6.06029e-05,0.00102374,-1.51507e-05,-0.00575808,-3,-108,-0.0755479,-0.0755479,19.6424,0.1,0.036
-1.508,-1.51003,0.471378,0.468968,-7.47583e-05,0.000884032,-1.86896e-05,-0.00242796,-4,-105,-0.0785408,-0.0785408,19.536,0.1,0.04
-1.508,-1.51003,0.471378,0.468993,-9.03849e-05,0.000646936,-2.25962e-05,0.000454304,-5,-103,-0.0825767,-0.0825767,19.4326,0.1,0.044
-1.508,-1.51003,0.471378,0.469025,-0.000107479,0.0004025,-2.68698e-05,0.00298043,-7,-100,-0.0883808,-0.0883808,19.332,0.1,0.048
-1.508,-1.51003,0.471377,0.469065,-0.000126037,0.000239542,-3.15093e-05,0.00526912,-8,-98,-0.0959551,-0.0959551,19.234,0.1,0.052
-1.508,-1.51003,0.471377,0.469111,-0.000146056,0.000159695,-3.6514e-05,0.00739952,-9,-96,-0.104635,-0.1,19.1384,0.1,0.056
-1.508,-1.51003,0.471377,0.469164,-0.000167531,0.000135254,-4.18828e-05,0.00933802,-9,-94,-0.113737,-0.1,19.0453,0.1,0.06
-1.508,-1.51003,0.471377,0.469224,-0.00019046,9.01695e-05,-4.7615e-05,0.0111774,-9,-92,-0.122827,-0.1,18.9544,0.1,0.064
-1.508,-1.51003,0.471377,0.469288,-0.000214839,6.0113e-05,-5.37096e-05,0.0128355,-9,-90,-0.13204,-0.1,18.8657,0.1,0.068
-1.50801,-1.51003,0.471377,0.469357,-0.000240663,4.00753e-05,-6.01658e-05,0.0142576,-9,-89,-0.141246,-0.1,18.7792,0.1,0.072
-1.50801,-1.51003,0.471376,0.46943,-0.00026793,2.67169e-05,-6.69825e-05,0.0156663,-9,-87,-0.150354,-0.1,18.6946,0.1,0.076
-1.50801,-1.51003,0.471376,0.46951,-0.000296636,1.78113e-05,-7.41591e-05,0.0170373,-9,-85,-0.159302,-0.1,18.6121,0.1,0.08
-1.50801,-1.51003,0.471376,0.469592,-0.000326778,1.18742e-05,-8.16944e-05,0.0182393,-8,-84,-0.168041,-0.1,18.5315,0.1,0.084
-1.50801,-1.51003,0.471375,0.469678,-0.000358351,7.91611e-06,-8.95878e-05,0.0193284,-8,-82,-0.176539,-0.1,18.4528,0.1,0.088
-1.50801,-1.51003,0.471375,0.469769,-0.000391353,5.27741e-06,-9.78382e-05,0.0204289,-8,-81,-0.184768,-0.1,18.3759,0.1,0.092
-1.50801,-1.51003,0.471375,0.469864,-0.000425779,3.51827e-06,-0.000106445,0.0215367,-8,-79,-0.192707,-0.1,18.3009,0.1,0.096
-1.50802,-1.51003,0.471374,0.469962,-0.000461627,2.34552e-06,-0.000115407,0.0225632,-7,-78,-0.200339,-0.1,18.2278,0.1,0.1
-1.50802,-1.51003,0.471374,0.470059,-0.000498892,1.56368e-06,-0.000124723,0.0231324,-7,-77,-0.207648,-0.1,18.1563,0.1,0.104
-1.50802,-1.51003,0.471373,0.470155,-0.000537572,1.04245e-06,-0.000134393,0.0234255,-7,-76,-0.214621,-0.1,18.0861,0.1,0.108
-1.50802,-1.51003,0.471373,0.470247,-0.000577662,6.94967e-07,-0.000144416,0.0232754,-6,-75,-0.221244,-0.1,18.0169,0.1,0.112
-1.50802,-1.51003,0.471372,0.470329,-0.000619159,4.63312e-07,-0.00015479,0.0223116,-6,-75,-0.227506,-0.1,17.9481,0.1,0.116
-1.50803,-1.51003,0.471371,0.470397,-0.00066206,3.08874e-07,-0.000165515,0.0205462,-6,-76,-0.233396,-0.1,17.8789,0.1,0.12
-1.50803,-1.51003,0.471371,0.470451,-0.000706361,2.05916e-07,-0.00017659,0.0182176,-5,-78,-0.238903,-0.1,17.8087,0.1,0.124
-1.50803,-1.51003,0.47137,0.470488,-0.000752058,1.37278e-07,-0.000188014,0.0152257,-5,-80,-0.244015,-0.1,17.737,0.1,0.128
-1.50804,-1.51003,0.471369,0.470507,-0.000799148,-2.86994e-05,-0.000199787,0.011734,-5,-83,-0.248739,-0.1,17.6632,0.1,0.132
-1.50804,-1.51003,0.471368,0.470509,-0.000847627,-1.91329e-05,-0.000211907,0.00796661,-4,-86,-0.253258,-0.1,17.5869,0.1,0.136
-1.50804,-1.51003,0.471367,0.470503,-0.000897492,1.60356e-05,-0.000224373,0.00479284,-4,-89,-0.257259,-0.1,17.5082,0.1,0.14
-1.50805,-1.51003,0.471367,0.470494,-0.00094874,-1.81005e-05,-0.000237185,0.00250424,-4,-90,-0.26058,-0.1,17.4277,0.1,0.144
-1.50805,-1.51003,0.471366,0.470486,-0.00100137,-1.2067e-05,-0.000250342,0.000978512,-3,-92,-0.263707,-0.1,17.3462,0.1,0.148
-1.50805,-1.51003,0.471365,0.47048,-0.00105537,-8.04467e-06,-0.000263842,0.000134105,-3,-92,-0.26633,-0.1,17.2642,0.1,0.152
-1.50806,-1.51003,0.471363,0.470476,-0.00111074,-5.36311e-06,-0.000277686,-0.000227297,-2,-93,-0.268454,-0.1,17.1821,0.1,0.156
-1.50806,-1.51003,0.471362,0.470475,-0.00116748,-3.57541e-06,-0.000291871,-0.000209113,-2,-93,-0.27008,-0.1,17.1003,0.1,0.16
-1.50807,-1.51003,0.471361,0.470475,-0.00122559,-2.38361e-06,-0.000306398,-0.000139409,-1,-93,-0.271205,-0.1,17.0189,0.1,0.164
-1.50807,-1.51003,0.47136,0.470475,-0.00128506,-1.58907e-06,-0.000321265,-9.29392e-05,-1,-93,-0.271824,-0.1,16.9379,0.1,0.168
-1.50808,-1.51003,0.471359,0.470475,-0.00134589,-1.05938e-06,-0.000336471,-6.19594e-05,0,-93,-0.271929,-0.1,16.8573,0.1,0.172
-1.50808,-1.51003,0.471357,0.470475,-0.00140807,-7.06253e-07,-0.000352016,-4.13063e-05,0,-93,-0.271513,-0.1,16.7772,0.1,0.176
-1.50809,-1.51003,0.471356,0.470475,-0.0014716,-2.92618e-05,-0.000367899,-2.75375e-05,0,-92,-0.270584,-0.1,16.6974,0.1,0.18
-1.5081,-1.51003,0.471354,0.470475,-0.00153648,-1.95078e-05,-0.000384119,-1.83584e-05,0,-92,-0.269326,-0.1,16.618,0.1,0.184
-1.5081,-1.51003,0.471353,0.470475,-0.0016027,-4.17962e-05,-0.000400674,-1.22389e-05,1,-92,-0.267461,-0.1,16.539,0.1,0.188
-1.50811,-1.51003,0.471351,0.470475,-0.00167026,9.26824e-07,-0.000417565,-8.15927e-06,1,-92,-0.265181,-0.1,16.4604,0.1,0.192
-1.50811,-1.51003,0.471349,0.470475,-0.00173916,6.17882e-07,-0.00043479,-5.43951e-06,2,-92,-0.262015,-0.1,16.3821,0.1,0.196
-1.50812,-1.51003,0.471348,0.470475,-0.00180939,-2.8379e-05,-0.000452348,-3.62634e-06,2,-92,-0.258292,-0.1,16.3042,0.1,0.2
-1.50813,-1.51003,0.471346,0.470475,-0.00188096,-1.89193e-05,-0.000470239,-2.41756e-06,3,-92,-0.254195,-0.1,16.2267,0.1,0.204
-1.50814,-1.51003,0.471344,0.470475,-0.00195385,1.6178e-05,-0.000488462,-1.61171e-06,4,-92,-0.249411,-0.1,16.1496,0.1,0.208
-1.50814,-1.51003,0.471342,0.470475,-0.00202806,-1.80056e-05,-0.000507015,-1.07447e-06,4,-92,-0.243779,-0.1,16.0728,0.1,0.212
-1.50815,-1.51003,0.47134,0.470475,-0.00210359,-1.20037e-05,-0.000525898,-7.16314e-07,5,-92,-0.237785,-0.1,15.9964,0.1,0.216
-1.50816,-1.51003,0.471338,0.470475,-0.00218044,-8.00247e-06,-0.00054511,-4.77543e-07,6,-92,-0.23112,-0.1,15.9204,0.1,0.22
-1.50817,-1.51003,0.471335,0.470475,-0.0022586,-5.33498e-06,-0.00056465,-3.18362e-07,6,-92,-0.223789,-0.1,15.8448,0.1,0.224
-1.50818,-1.51003,0.471333,0.470475,-0.00233807,-3.55666e-06,-0.000584518,-2.12241e-07,7,-92,-0.215795,-0.1,15.7695,0.1,0.228
-1.50819,-1.51003,0.471331,0.470475,-0.00241885,-2.3711e-06,-0.000604711,-1.41494e-07,8,-92,-0.207134,-0.1,15.6946,0.1,0.232
-1.5082,-1.51003,0.471328,0.470475,-0.00250092,-1.58074e-06,-0.000625231,-9.43295e-08,8,-92,-0.197802,-0.1,15.62,0.1,0.236
-1.50821,-1.51003,0.471326,0.470475,-0.0025843,-1.05382e-06,-0.000646075,-6.28863e-08,9,-92,-0.187792,-0.1,15.5458,0.1,0.24
-1.50822,-1.51003,0.471323,0.470475,-0.00266897,-7.02549e-07,-0.000667243,-4.19242e-08,10,-92,-0.177098,-0.1,15.472,0.1,0.244
-1.50823,-1.51003,0.47132,0.470475,-0.00275494,-4.68366e-07,-0.000688734,-2.79495e-08,10,-92,-0.165712,-0.1,15.3985,0.1,0.248
-1.50824,-1.51003,0.471318,0.470475,-0.00284219,-3.12244e-07,-0.000710547,-1.8633e-08,11,-92,-0.153625,-0.1,15.3254,0.1,0.252
-1.50825,-1.51003,0.471315,0.470475,-0.00293073,-2.08163e-07,-0.000732682,-1.2422e-08,12,-92,-0.140829,-0.1,15.2527,0.1,0.256
-1.50827,-1.51003,0.471312,0.470475,-0.00302055,-1.38775e-07,-0.000755137,-8.28132e-09,13,-92,-0.127315,-0.1,15.1803,0.1,0.26
-1.50828,-1.51003,0.471309,0.470475,-0.00311164,-8.64653e-05,-0.000777911,-5.52088e-09,13,-92,-0.113123,-0.1,15.1083,0.1,0.264
-1.50829,-1.51003,0.471305,0.470475,-0.00320402,-0.000172807,-0.000801004,-3.68059e-09,13,-92,-0.0988915,-0.0988915,15.0367,0.1,0.268
-1.5083,-1.51003,0.471302,0.470475,-0.00329766,-0.000172787,-0.000824415,-2.45373e-09,14,-92,-0.0845555,-0.0845555,14.9654,0.1,0.272
-1.50832,-1.51003,0.471299,0.470475,-0.00339257,-0.000143982,-0.000848143,-1.63582e-09,15,-92,-0.069384,-0.069384,14.8945,0.1,0.276
-1.50833,-1.51003,0.471295,0.470475,-0.00348875,-0.000124779,-0.000872187,-1.09054e-09,16,-92,-0.0531549,-0.0531549,14.8239,0.1,0.28
-1.50834,-1.51003,0.471292,0.470475,-0.00358618,-8.3186e-05,-0.000896546,-7.2703e-10,17,-92,-0.0359141,-0.0359141,14.7537,0.1,0.284
-1.50836,-1.51003,0.471288,0.470475,-0.00368488,-5.54573e-05,-0.00092122,-4.84687e-10,18,-92,-0.0174893,-0.0174893,14.6838,0.1,0.288
-1.50837,-1.51003,0.471285,0.470475,-0.00378483,-3.69715e-05,-0.000946207,-3.23124e-10,19,-91,0.00202359,0.00202359,14.6143,0.1,0.292
-1.50839,-1.51003,0.471281,0.470475,-0.00388603,-2.46477e-05,-0.000971507,-2.15416e-10,20,-91,0.0225649,0.0225649,14.5451,0.1,0.296
-1.50841,-1.51003,0.471277,0.470475,-0.00398848,-4.52227e-05,-0.000997119,-1.43611e-10,21,-91,0.0440824,0.0440824,14.4764,0.1,0.3
-1.50842,-1.51003,0.471273,0.470475,-0.00409217,-5.89394e-05,-0.00102304,-9.57405e-11,22,-91,0.0663463,0.0663463,14.4079,0.1,0.304
-1.50844,-1.51003,0.471269,0.470475,-0.0041971,-6.80839e-05,-0.00104927,-6.3827e-11,23,-91,0.0894223,0.0894223,14.3398,0.1,0.308
-1.50845,-1.51003,0.471264,0.470475,-0.00430327,-0.000131762,-0.00107582,-4.25514e-11,23,-91,0.113326,0.1,14.2721,0.1,0.312
-1.50847,-1.51003,0.47126,0.470475,-0.00441067,-0.000145423,-0.00110267,-2.83676e-11,24,-91,0.13763,0.1,14.2047,0.1,0.316
-1.50849,-1.51004,0.471255,0.470475,-0.0045193,-0.000183322,-0.00112983,-1.89117e-11,25,-91,0.162657,0.1,14.1377,0.1,0.32
-1.50851,-1.51004,0.471251,0.470475,-0.00462916,-0.000179796,-0.00115729,-1.26078e-11,26,-91,0.18826,0.1,14.071,0.1,0.324
-1.50853,-1.51004,0.471246,0.470475,-0.00474025,-0.000206237,-0.00118506,-8.40521e-12,27,-91,0.214738,0.1,14.0047,0.1,0.328
-1.50855,-1.51004,0.471241,0.470475,-0.00485255,-0.000195073,-0.00121314,-5.60347e-12,28,-91,0.241899,0.1,13.9387,0.1,0.332
-1.50857,-1.51004,0.471237,0.470475,-0.00496608,-0.000187631,-0.00124152,-2.87909e-05,29,-91,0.270029,0.1,13.8731,0.1,0.336
-1.50859,-1.51004,0.471231,0.470475,-0.00508081,-0.000182669,-0.0012702,9.59697e-06,30,-91,0.299109,0.1,13.8078,0.1,0.34
-1.50861,-1.51004,0.471226,0.470475,-0.00519676,-0.000179361,-0.00129919,6.39798e-06,31,-91,0.329126,0.1,13.7429,0.1,0.344
-1.50863,-1.51004,0.471221,0.470475,-0.00531391,-0.000148365,-0.00132848,4.26532e-06,32,-91,0.360093,0.1,13.6783,0.1,0.348
-1.50865,-1.51004,0.471216,0.470475,-0.00543226,-0.000185283,-0.00135807,2.84355e-06,33,-91,0.392187,0.1,13.6141,0.1,0.352
-1.50867,-1.51004,0.47121,0.470475,-0.00555182,-0.000238686,-0.00138795,1.8957e-06,33,-91,0.424896,0.1,13.5502,0.1,0.356
-1.50869,-1.51004,0.471205,0.470475,-0.00567257,-0.000187915,-0.00141814,1.2638e-06,35,-91,0.458167,0.1,13.4867,0.1,0.36
-1.50872,-1.51004,0.471199,0.470475,-0.00579452,-0.00024044,-0.00144863,8.42533e-07,35,-90,0.492728,0.1,13.4235,0.1,0.364
-1.50874,-1.51005,0.471193,0.470475,-0.00591765,-0.000333039,-0.00147941,5.61688e-07,36,-90,0.527792,0.1,13.3606,0.1,0.368
-1.50876,-1.51005,0.471187,0.470475,-0.00604198,-0.000394772,-0.00151049,3.74459e-07,36,-90,0.563084,0.1,13.2982,0.1,0.372
-1.50879,-1.51005,0.471181,0.470475,-0.00616748,-0.000435927,-0.00154187,2.49639e-07,37,-90,0.598857,0.1,13.236,0.1,0.376
-1.50881,-1.51005,0.471175,0.470475,-0.00629417,-0.000492154,-0.00157354,1.66426e-07,38,-90,0.635266,0.1,13.1742,0.1,0.38
-1.50884,-1.51006,0.471168,0.470475,-0.00642203,-0.000529639,-0.00160551,1.10951e-07,39,-90,0.672215,0.1,13.1127,0.1,0.384
-1.50886,-1.51006,0.471162,0.470475,-0.00655106,-0.000612211,-0.00163777,7.39672e-08,39,-90,0.70983,0.1,13.0516,0.1,0.388
-1.50889,-1.51006,0.471155,0.470475,-0.00668127,-0.000667259,-0.00167032,4.93115e-08,40,-90,0.747795,0.1,12.9909,0.1,0.392
-1.50892,-1.51007,0.471149,0.470475,-0.00681264,-0.00076154,-0.00170316,3.28743e-08,40,-90,0.786305,0.1,12.9304,0.1,0.396
-1.50895,-1.51007,0.471142,0.470475,-0.00694518,-0.000795602,-0.00173629,2.19162e-08,41,-90,0.825107,0.1,12.8704,0.1,0.4
-1.50897,-1.51007,0.471135,0.470475,-0.00707887,-0.000933474,-0.00176972,1.46108e-08,41,-90,0.864603,0.1,12.8106,0.1,0.404
-1.509,-1.51008,0.471127,0.470475,-0.00721372,-0.00105418,-0.00180343,9.74054e-09,42,-90,0.904034,0.1,12.7512,0.1,0.408
-1.50903,-1.51009,0.47112,0.470475,-0.00734973,-0.00122102,-0.00183743,6.49369e-09,41,-90,0.943512,0.1,12.6922,0.1,0.412
-1.50906,-1.51009,0.471113,0.470475,-0.00748689,-0.00133225,-0.00187172,4.32913e-09,42,-90,0.982731,0.1,12.6335,0.1,0.416
-1.50909,-1.5101,0.471105,0.470475,-0.00762519,-0.00146399,-0.0019063,2.88608e-09,42,-89,1.02211,0.1,12.5751,0.1,0.42
-1.50912,-1.51011,0.471098,0.470475,-0.00776463,-0.00160939,-0.00194116,1.92406e-09,42,-89,1.06149,0.1,12.5171,0.1,0.424
-1.50915,-1.51011,0.47109,0.470475,-0.00790522,-0.00173512,-0.0019763,1.2827e-09,42,-89,1.10079,0.1,12.4594,0.1,0.428
-1.50919,-1.51012,0.471082,0.470475,-0.00804694,-0.00179015,-0.00201173,8.55136e-10,43,-89,1.14021,0.1,12.402,0.1,0.432
-1.50922,-1.51013,0.471074,0.470475,-0.00818979,-0.00179804,-0.00204745,5.70091e-10,44,-89,1.18031,0.1,12.345,0.1,0.436
-1.50925,-1.51014,0.471065,0.470475,-0.00833378,-0.00174572,-0.00208345,3.80061e-10,46,-89,1.2215,0.1,12.2884,0.1,0.44
-1.50928,-1.51014,0.471057,0.470475,-0.00847889,-0.00159568,-0.00211972,2.53374e-10,48,-89,1.26428,0.1,12.2321,0.1,0.444
-1.50932,-1.51014,0.471048,0.470475,-0.00862513,-0.00138049,-0.00215628,1.68916e-10,51,-89,1.30942,0.1,12.1761,0.1,0.448
-1.50935,-1.51015,0.47104,0.470475,-0.00877248,-0.00117944,-0.00219312,1.12611e-10,54,-89,1.35742,0.1,12.1204,0.1,0.452
-1.50939,-1.51015,0.471031,0.470475,-0.00892096,-0.000930249,-0.00223024,7.50737e-11,57,-89,1.4082,0.1,12.0651,0.1,0.456
-1.50942,-1.51015,0.471022,0.470475,-0.00907054,-0.00073533,-0.00226764,5.00491e-11,60,-89,1.46209,0.1,12.0102,0.1,0.46
-1.50946,-1.51015,0.471013,0.470475,-0.00922124,-0.000547802,-0.00230531,3.33661e-11,63,-88,1.51869,0.1,11.9555,0.1,0.464
-1.5095,-1.51015,0.471003,0.470475,-0.00937304,-0.000393992,-0.00234326,2.22441e-11,66,-88,1.57793,0.1,11.9013,0.1,0.468
-1.50954,-1.51015,0.470994,0.470475,-0.00952595,-0.000349034,-0.00238149,1.48294e-11,67,-88,1.63949,0.1,11.8473,0.1,0.472
-1.50957,-1.51015,0.470984,0.470475,-0.00967996,-0.000290271,-0.00241999,9.88625e-12,69,-88,1.70258,0.1,11.7937,0.1,0.476
-1.50961,-1.51016,0.470975,0.470475,-0.00983507,-0.000337469,-0.00245877,6.59083e-12,70,-88,1.76724,0.1,11.7404,0.1,0.48
-1.50965,-1.51016,0.470965,0.470475,-0.00999127,-0.000368934,-0.00249782,4.39389e-12,71,-88,1.83271,0.1,11.6875,0.1,0.484
-1.50969,-1.51016,0.470955,0.470475,-0.0101486,-0.000447492,-0.00253714,2.92926e-12,72,-88,1.89907,0.1,11.6349,0.1,0.488
-1.50973,-1.51016,0.470944,0.470475,-0.0103069,-0.000586237,-0.00257673,1.95284e-12,73,-88,1.96595,0.1,11.5827,0.1,0.492
-1.50978,-1.51017,0.470934,0.470475,-0.0104664,-0.000736316,-0.0026166,1.30189e-12,73,-88,2.03289,0.1,11.5307,0.1,0.496
-1.50982,-1.51017,0.470923,0.470475,-0.0106269,-0.000778787,-0.00265673,8.67928e-13,74,-88,2.09989,0.1,11.4792,0.1,0.5
-1.50986,-1.51017,0.470913,0.470475,-0.0107886,-0.0008071,-0.00269714,5.78619e-13,75,-87,2.16777,0.1,11.4279,0.1,0.504
-1.5099,-1.51018,0.470902,0.470475,-0.0109513,-0.000739603,-0.00273781,3.85746e-13,77,-87,2.23669,0.1,11.377,0.1,0.508
-1.50995,-1.51018,0.470891,0.470475,-0.011115,-0.000723396,-0.00277875,2.57164e-13,79,-87,2.30735,0.1,11.3265,0.1,0.512
-1.50999,-1.51018,0.47088,0.470475,-0.0112799,-0.000626219,-0.00281996,1.71443e-13,81,-87,2.37942,0.1,11.2762,0.1,0.516
-1.51004,-1.51018,0.470868,0.470475,-0.0114458,-0.000561434,-0.00286144,1.14295e-13,83,-87,2.45349,0.1,11.2263,0.1,0.52
-1.51009,-1.51018,0.470857,0.470475,-0.0116127,-0.000518244,-0.00290318,7.61967e-14,85,-87,2.52931,0.1,11.1768,0.1,0.524
-1.51013,-1.51019,0.470845,0.470475,-0.0117807,-0.000489451,-0.00294518,5.07978e-14,87,-87,2.60672,0.1,11.1276,0.1,0.528
-1.51018,-1.51019,0.470833,0.470475,-0.0119498,-0.000499046,-0.00298745,3.38652e-14,88,-87,2.68559,0.1,11.0787,0.1,0.532
-1.51023,-1.51019,0.470821,0.470475,-0.0121199,-0.000534234,-0.00302998,2.25768e-14,89,-87,2.76564,0.1,11.0301,0.1,0.536
-1.51028,-1.51019,0.470809,0.470475,-0.0122911,-0.000586483,-0.00307277,1.50512e-14,91,-86,2.84666,0.1,10.9819,0.1,0.54
-1.51033,-1.5102,0.470797,0.470475,-0.0124633,-0.000707689,-0.00311583,1.00341e-14,91,-86,2.9285,0.1,10.9341,0.1,0.544
-1.51038,-1.5102,0.470784,0.470475,-0.0126366,-0.000846075,-0.00315914,6.68942e-15,92,-86,3.01063,0.1,10.8865,0.1,0.548
-1.51043,-1.51021,0.470771,0.470475,-0.0128109,-0.00088075,-0.00320272,4.45962e-15,93,-86,3.093,0.1,10.8393,0.1,0.552
-1.51048,-1.51021,0.470758,0.470475,-0.0129862,-0.000961449,-0.00324655,2.97308e-15,94,-86,3.17636,0.1,10.7925,0.1,0.556
-1.51053,-1.51021,0.470745,0.470475,-0.0131626,-0.00101525,-0.00329064,1.98205e-15,95,-86,3.26039,0.1,10.7459,0.1,0.56
-1.51058,-1.51022,0.470732,0.470475,-0.01334,-0.0010799,-0.00333499,1.32137e-15,96,-86,3.3453,0.1,10.6998,0.1,0.564
-1.51064,-1.51022,0.470719,0.470475,-0.0135184,-0.00100785,-0.0033796,8.80912e-16,99,-86,3.43109,0.1,10.6539,0.1,0.568
-1.51069,-1.51023,0.470705,0.470475,-0.0136978,-0.000902225,-0.00342446,5.87275e-16,101,-85,3.5188,0.1,10.6084,0.1,0.572
-1.51075,-1.51023,0.470691,0.470475,-0.0138783,-0.000860601,-0.00346958,3.91516e-16,103,-85,3.60866,0.1,10.5632,0.1,0.576
-1.5108,-1.51023,0.470677,0.470475,-0.0140598,-0.000804062,-0.00351495,2.61011e-16,105,-85,3.70021,0.1,10.5184,0.1,0.58
-1.51086,-1.51023,0.470663,0.470475,-0.0142423,-0.000737578,-0.00356057,1.74007e-16,107,-85,3.79356,0.1,10.4739,0.1,0.584
-1.51092,-1.51024,0.470649,0.470475,-0.0144258,-0.000664464,-0.00360645,1.16005e-16,110,-85,3.88879,0.1,10.4297,0.1,0.588
-1.51097,-1.51024,0.470634,0.470475,-0.0146103,-0.000586931,-0.00365257,7.73366e-17,112,-85,3.98598,0.1,10.3859,0.1,0.592
-1.51103,-1.51024,0.47062,0.470475,-0.0147958,-0.000506451,-0.00369895,5.15577e-17,114,-85,4.08515,0.1,10.3424,0.1,0.596
-1.51109,-1.51024,0.470605,0.470475,-0.0149823,-0.000481588,-0.00374558,3.43718e-17,116,-85,4.1863,0.1,10.2992,0.1,0.6
-1.51115,-1.51024,0.47059,0.470475,-0.0151698,-0.000436223,-0.00379246,2.29145e-17,118,-84,4.28904,0.1,10.2564,0.1,0.604
-1.51121,-1.51024,0.470574,0.470475,-0.0153583,-0.000405979,-0.00383958,1.52764e-17,121,-84,4.39351,0.1,10.2139,0.1,0.608
-1.51128,-1.51024,0.470559,0.470475,-0.0155478,-0.000414607,-0.00388696,1.01842e-17,122,-84,4.49958,0.1,10.1718,0.1,0.612
-1.51134,-1.51025,0.470543,0.470475,-0.0157383,-0.000420359,-0.00393458,6.78949e-18,124,-84,4.60698,0.1,10.13,0.1,0.616
-1.5114,-1.51025,0.470527,0.470475,-0.0159298,-0.000424194,-0.00398245,4.52633e-18,126,-84,4.71572,0.1,10.0885,0.1,0.62
-1.51147,-1.51025,0.470511,0.470475,-0.0161222,-0.000455542,-0.00403056,3.01755e-18,127,-84,4.82582,0.1,10.0473,0.1,0.624
-1.51153,-1.51025,0.470495,0.470475,-0.0163157,-0.000447649,-0.00407892,2.0117e-18,129,-83,4.93709,0.1,10.0065,0.1,0.628
-1.5116,-1.51025,0.470479,0.470475,-0.0165101,-0.000442387,-0.00412752,1.34113e-18,131,-83,5.04984,0.1,9.96608,0.1,0.632
-1.51166,-1.51026,0.470462,0.470475,-0.0167054,-0.00043888,-0.00417636,8.9409e-19,133,-83,5.16404,0.1,9.92595,0.1,0.636
-1.51173,-1.51026,0.470445,0.470475,-0.0169018,-0.000465332,-0.00422545,5.9606e-19,135,-83,5.27969,0.1,9.88616,0.1,0.64
-1.5118,-1.51026,0.470428,0.470475,-0.0170991,-0.000540549,-0.00427477,3.97373e-19,136,-83,5.39652,0.1,9.84671,0.1,0.644
-1.51187,-1.51026,0.470411,0.470475,-0.0172974,-0.000561902,-0.00432434,2.64915e-19,138,-83,5.51422,0.1,9.8076,0.1,0.648
-1.51194,-1.51027,0.470394,0.470475,-0.0174966,-0.00063372,-0.00437415,1.7661e-19,139,-83,5.63315,0.1,9.76883,0.1,0.652
-1.51201,-1.51027,0.470376,0.470475,-0.0176968,-0.000710389,-0.00442419,1.1774e-19,140,-82,5.75296,0.1,9.73039,0.1,0.656
-1.51208,-1.51027,0.470358,0.470475,-0.0178979,-0.000790293,-0.00447448,7.84935e-20,142,-82,5.8736,0.1,9.69229,0.1,0.66
-1.51215,-1.51028,0.47034,0.470475,-0.0181,-0.000872353,-0.004525,5.2329e-20,143,-82,5.99507,0.1,9.65453,0.1,0.664
-1.51222,-1.51028,0.470322,0.470475,-0.018303,-0.00101343,-0.00457576,3.4886e-20,144,-82,6.1173,0.1,9.61711,0.1,0.668
-1.5123,-1.51029,0.470304,0.470475,-0.018507,-0.0010499,-0.00462676,2.32573e-20,146,-82,6.23994,0.1,9.58002,0.1,0.672
-1.51237,-1.51029,0.470285,0.470475,-0.0187119,-0.00110301,-0.00467799,1.55049e-20,147,-82,6.36376,0.1,9.54328,0.1,0.676
-1.51245,-1.5103,0.470266,0.470475,-0.0189178,-0.0011672,-0.00472945,1.03366e-20,149,-81,6.48863,0.1,9.50687,0.1,0.68
-1.51252,-1.5103,0.470247,0.470475,-0.0191246,-0.00123879,-0.00478115,6.89106e-21,150,-81,6.61448,0.1,9.4708,0.1,0.684
-1.5126,-1.51031,0.470228,0.470475,-0.0193323,-0.00125772,-0.00483308,4.59404e-21,152,-81,6.74128,0.1,9.43508,0.1,0.688
-1.51268,-1.51031,0.470209,0.470475,-0.019541,-0.00127035,-0.00488524,3.06269e-21,154,-81,6.86945,0.1,9.39969,0.1,0.692
-1.51276,-1.51032,0.470189,0.470475,-0.0197505,-0.00127876,-0.00493763,2.0418e-21,156,-81,6.99903,0.1,9.36463,0.1,0.696
-1.51284,-1.51032,0.470169,0.470475,-0.019961,-0.00122679,-0.00499026,1.3612e-21,158,-81,7.13009,0.1,9.32992,0.1,0.7
-1.51292,-1.51033,0.470149,0.470475,-0.0201724,-0.00113456,-0.00504311,9.07465e-22,161,-80,7.26313,0.1,9.29555,0.1,0.704
-1.513,-1.51033,0.470129,0.470475,-0.0203848,-0.00101549,-0.00509619,6.04976e-22,164,-80,7.39845,0.1,9.26152,0.1,0.708
-1.51308,-1.51033,0.470108,0.470475,-0.020598,-0.000878531,-0.0051495,4.03318e-22,167,-80,7.53628,0.1,9.22783,0.1,0.712
-1.51316,-1.51033,0.470088,0.470475,-0.0208122,-0.000787224,-0.00520304,2.68878e-22,170,-80,7.67672,0.1,9.19448,0.1,0.716
-1.51325,-1.51034,0.470067,0.470475,-0.0210272,-0.00066877,-0.0052568,1.79252e-22,173,-80,7.81946,0.1,9.16147,0.1,0.72
-1.51333,-1.51034,0.470046,0.470475,-0.0212432,-0.000647383,-0.00531079,1.19502e-22,175,-79,7.96464,0.1,9.1288,0.1,0.724
-1.51342,-1.51034,0.470024,0.470475,-0.02146,-0.000575544,-0.00536501,7.96677e-23,178,-79,8.11157,0.1,9.09647,0.1,0.728
-1.5135,-1.51034,0.470003,0.470475,-0.0216778,-0.000556441,-0.00541945,5.31118e-23,180,-79,8.2606,0.1,9.06449,0.1,0.732
-1.51359,-1.51035,0.469981,0.470475,-0.0218964,-0.000601288,-0.00547411,3.54079e-23,182,-79,8.41132,0.1,9.03284,0.1,0.736
-1.51368,-1.51035,0.469959,0.470475,-0.022116,-0.000659977,-0.005529,2.36052e-23,184,-79,8.56322,0.1,9.00154,0.1,0.74
-1.51377,-1.51035,0.469937,0.470475,-0.0223364,-0.000756685,-0.0055841,1.57368e-23,185,-78,8.71621,0.1,8.97057,0.1,0.744
-1.51386,-1.51036,0.469914,0.470475,-0.0225577,-0.000821157,-0.00563943,1.04912e-23,187,-78,8.87001,0.1,8.93995,0.1,0.748
-1.51395,-1.51036,0.469891,0.470475,-0.0227799,-0.000748974,-0.00569498,6.99414e-24,189,-78,9.02495,0.1,8.90968,0.1,0.752
-1.51404,-1.51036,0.469869,0.470475,-0.023003,-0.000729644,-0.00575075,4.66276e-24,192,-78,9.18202,0.1,8.87974,0.1,0.756
-1.51413,-1.51036,0.469845,0.470475,-0.0232269,-0.000745547,-0.00580674,3.10851e-24,194,-78,9.34083,0.1,8.85015,0.1,0.76
-1.51422,-1.51037,0.469822,0.470475,-0.0234518,-0.000640986,-0.00586294,2.07234e-24,197,-77,9.50118,0.1,8.8209,0.1,0.764
-1.51432,-1.51037,0.469799,0.470475,-0.0236775,-0.00060007,-0.00591936,1.38156e-24,199,-77,9.66393,0.1,8.79199,0.1,0.768
-1.51441,-1.51037,0.469775,0.470475,-0.023904,-0.00051521,-0.005976,9.2104e-25,202,-77,9.82865,0.1,8.76343,0.1,0.772
-1.51451,-1.51037,0.469751,0.470475,-0.0241314,-0.000516219,-0.00603286,6.14026e-25,205,-77,9.99561,0.1,8.73521,0.1,0.776
-1.51461,-1.51037,0.469727,0.470475,-0.0243597,-0.00045931,-0.00608993,4.09351e-25,207,-77,10.1642,0.1,8.70734,0.1,0.78
-1.5147,-1.51037,0.469702,0.470475,-0.0245888,-0.000450161,-0.00614721,2.72901e-25,210,-76,10.3349,0.1,8.67981,0.1,0.784
-1.5148,-1.51038,0.469677,0.470475,-0.0248188,-0.000444062,-0.00620471,1.81934e-25,212,-76,10.5072,0.1,8.65263,0.1,0.788
-1.5149,-1.51038,0.469652,0.470475,-0.0250497,-0.000497578,-0.00626242,1.21289e-25,214,-76,10.6812,0.1,8.62579,0.1,0.792
-1.515,-1.51038,0.469627,0.470475,-0.0252814,-0.000504464,-0.00632034,8.08594e-26,216,-76,10.8564,0.1,8.59929,0.1,0.796
-1.5151,-1.51038,0.469602,0.470475,-0.0255139,-0.00065301,-0.00637847,5.39063e-26,217,-75,11.0331,0.1,8.57314,0.1,0.8
-1.51521,-1.51039,0.469576,0.470475,-0.0257473,-0.000780831,-0.00643681,3.59375e-26,219,-75,11.2103,0.1,8.54734,0.1,0.804
-1.51531,-1.51039,0.46955,0.470475,-0.0259815,-0.000923627,-0.00649537,2.39584e-26,220,-75,11.3881,0.1,8.52188,0.1,0.808
-1.51542,-1.5104,0.469524,0.470475,-0.0262165,-0.000788497,-0.00655413,1.59722e-26,223,-75,11.5665,0.1,8.49677,0.1,0.812
-1.51552,-1.5104,0.469498,0.470475,-0.0264524,-0.000813574,-0.0066131,-2.87909e-05,226,-75,11.7477,0.1,8.47199,0.1,0.816
-1.51563,-1.5104,0.469471,0.470475,-0.0266891,-0.000830292,-0.00667228,9.59697e-06,228,-74,11.9302,0.1,8.44757,0.1,0.82
-1.51573,-1.51041,0.469445,0.470475,-0.0269266,-0.000783855,-0.00673166,6.39798e-06,231,-74,12.1144,0.1,8.42351,0.1,0.824
-1.51584,-1.51041,0.469417,0.470475,-0.027165,-0.000752898,-0.00679125,4.26532e-06,233,-74,12.3006,0.1,8.3998,0.1,0.828
-1.51595,-1.51041,0.46939,0.470475,-0.0274042,-0.000674677,-0.00685104,2.84355e-06,236,-74,12.4888,0.1,8.37643,0.1,0.832
-1.51606,-1.51041,0.469363,0.470475,-0.0276442,-0.000593739,-0.00691104,-2.68952e-05,239,-73,12.6792,0.1,8.35339,0.1,0.836
-1.51617,-1.51041,0.469335,0.470475,-0.027885,-0.000482199,-0.00697125,1.08608e-05,243,-73,12.8721,0.1,8.33071,0.1,0.84
-1.51628,-1.51041,0.469307,0.470475,-0.0281266,-0.000494212,-0.00703165,7.24052e-06,245,-73,13.0674,0.1,8.30839,0.1,0.844
-1.5164,-1.51042,0.469279,0.470475,-0.028369,-0.00050222,-0.00709226,4.82701e-06,248,-73,13.2643,0.1,8.28642,0.1,0.848
-1.51651,-1.51042,0.46925,0.470475,-0.0286123,-0.00053635,-0.00715307,3.21801e-06,250,-72,13.4629,0.1,8.2648,0.1,0.852
-1.51663,-1.51042,0.469221,0.470475,-0.0288563,-0.000616685,-0.00721408,-2.66456e-05,252,-72,13.6629,0.1,8.2435,0.1,0.856
-1.51674,-1.51042,0.469192,0.470475,-0.0291012,-0.000583869,-0.00727529,-1.77637e-05,254,-72,13.864,0.1,8.22256,0.1,0.86
-1.51686,-1.51043,0.469163,0.470475,-0.0293468,-0.000734737,-0.0073367,1.69484e-05,256,-72,14.0669,0.1,8.20199,0.1,0.864
-1.51698,-1.51043,0.469134,0.470475,-0.0295932,-0.000864107,-0.0073983,-1.7492e-05,257,-71,14.2704,0.1,8.18176,0.1,0.868
-1.5171,-1.51044,0.469104,0.470475,-0.0298404,-0.000950353,-0.00746011,-1.16613e-05,259,-71,14.4746,0.1,8.16187,0.1,0.872
-1.51722,-1.51044,0.469074,0.470475,-0.0300884,-0.00103664,-0.00752211,-7.77421e-06,261,-71,14.6798,0.1,8.14234,0.1,0.876
-1.51734,-1.51045,0.469044,0.470475,-0.0303372,-0.00109417,-0.00758431,-5.1828e-06,263,-71,14.8861,0.1,8.12317,0.1,0.88
-1.51746,-1.51045,0.469013,0.470475,-0.0305868,-0.00113252,-0.0076467,-3.4552e-06,265,-70,15.0937,0.1,8.10435,0.1,0.884
-1.51758,-1.51046,0.468983,0.470475,-0.0308372,-0.00121567,-0.00770929,-2.30347e-06,267,-70,15.3026,0.1,8.08588,0.1,0.888
-1.51771,-1.51046,0.468952,0.470475,-0.0310883,-0.00124231,-0.00777207,-1.53565e-06,270,-70,15.5127,0.1,8.06777,0.1,0.892
-1.51783,-1.51047,0.468921,0.470475,-0.0313402,-0.00134644,-0.00783504,-1.02376e-06,271,-70,15.7243,0.1,8.05001,0.1,0.896
-1.51796,-1.51048,0.468889,0.470475,-0.0315928,-0.00144466,-0.00789821,-6.82509e-07,273,-69,15.9368,0.1,8.03261,0.1,0.9
-1.51808,-1.51048,0.468857,0.470475,-0.0318463,-0.00153892,-0.00796157,-4.55006e-07,275,-69,16.1503,0.1,8.01556,0.1,0.904
-1.51821,-1.51049,0.468825,0.470475,-0.0321005,-0.00160177,-0.00802512,-3.03337e-07,277,-69,16.3648,0.1,7.99887,0.1,0.908
-1.51834,-1.5105,0.468793,0.470475,-0.0323554,-0.00173004,-0.00808886,-2.02225e-07,279,-69,16.5806,0.1,7.98253,0.1,0.912
-1.51847,-1.51051,0.468761,0.470475,-0.0326111,-0.00190192,-0.00815279,-1.34817e-07,280,-68,16.797,0.1,7.96655,0.1,0.916
-1.5186,-1.51051,0.468728,0.470475,-0.0328676,-0.00190135,-0.00821691,-2.88808e-05,283,-68,17.014,0.1,7.95091,0.1,0.92
-1.51873,-1.51052,0.468695,0.470475,-0.0331248,-0.00195855,-0.00828121,-1.92539e-05,285,-68,17.2327,0.1,7.93562,0.1,0.924
-1.51887,-1.51053,0.468662,0.470475,-0.0333828,-0.00188152,-0.0083457,-1.28359e-05,288,-67,17.4529,0.1,7.92069,0.1,0.928
-1.519,-1.51054,0.468628,0.470475,-0.0336415,-0.00174379,-0.00841038,-8.55727e-06,292,-67,17.6755,0.1,7.90613,0.1,0.932
-1.51913,-1.51054,0.468594,0.470475,-0.033901,-0.00147923,-0.00847525,-5.70485e-06,297,-67,17.9011,0.1,7.89193,0.1,0.936
-1.51927,-1.51054,0.46856,0.470475,-0.0341612,-0.0011589,-0.0085403,-3.80323e-06,302,-67,18.1307,0.1,7.87808,0.1,0.94
-1.51941,-1.51054,0.468526,0.470475,-0.0344221,-0.000887762,-0.00860553,-2.53549e-06,307,-66,18.3646,0.1,7.8646,0.1,0.944
-1.51955,-1.51054,0.468491,0.470474,-0.0346838,-0.000620632,-0.00867095,-3.04813e-05,312,-66,18.6025,0.1,7.85146,0.1,0.948
-1.51969,-1.51054,0.468457,0.470474,-0.0349462,-0.000442546,-0.00873655,-2.03208e-05,316,-66,18.8443,0.1,7.83867,0.1,0.952
-1.51983,-1.51054,0.468422,0.470474,-0.0352093,-0.000323821,-0.00880233,-1.35472e-05,320,-65,19.0893,0.1,7.82626,0.1,0.956
-1.51997,-1.51054,0.468386,0.470474,-0.0354732,-0.000331045,-0.0088683,-9.03148e-06,322,-65,19.337,0.1,7.8142,0.1,0.96
-1.52011,-1.51055,0.468351,0.470474,-0.0357378,-0.000307069,-0.00893444,-6.02099e-06,325,-65,19.5865,0.1,7.80251,0.1,0.964
-1.52025,-1.51055,0.468315,0.470474,-0.0360031,-0.000463831,-0.00900077,-4.01399e-06,327,-64,19.8379,0.1,7.79119,0.1,0.968
-1.5204,-1.51055,0.468279,0.470474,-0.0362691,-0.000625921,-0.00906727,-2.67599e-06,329,-64,20.0898,0.1,7.78023,0.1,0.972
-1.52054,-1.51056,0.468242,0.470474,-0.0365358,-0.000820354,-0.00913395,-1.784e-06,330,-64,20.3423,0.1,7.76963,0.1,0.976
-1.52069,-1.51056,0.468206,0.470474,-0.0368032,-0.00100756,-0.00920081,-1.18933e-06,331,-64,20.595,0.1,7.75939,0.1,0.98
-1.52084,-1.51057,0.468169,0.470474,-0.0370714,-0.00124752,-0.00926785,-7.92887e-07,332,-63,20.848,0.1,7.74952,0.1,0.984
-1.52099,-1.51058,0.468131,0.470474,-0.0373402,-0.00149387,-0.00933506,-2.93195e-05,333,-63,21.1009,0.1,7.73999,0.1,0.988
-1.52114,-1.51059,0.468094,0.470474,-0.0376098,-0.00177327,-0.00940245,-1.95463e-05,334,-63,21.3537,0.1,7.73082,0.1,0.992
-1.52129,-1.5106,0.468056,0.470474,-0.0378801,-0.00195954,-0.00947001,-1.30309e-05,335,-62,21.6061,0.1,7.72203,0.1,0.996
-1.52144,-1.51061,0.468018,0.470474,-0.038151,-0.0021125,-0.00953775,-8.68726e-06,337,-62,21.8589,0.1,7.7136,0.1,1
-1.52159,-1.51062,0.46798,0.470474,-0.0384226,-0.00221448,-0.00960566,-5.79151e-06,339,-62,22.1123,0.1,7.70555,0.1,1.004
-1.52175,-1.51063,0.467941,0.470474,-0.038695,-0.00225368,-0.00967374,-3.86101e-06,342,-61,22.3669,0.1,7.69786,0.1,1.008
-1.5219,-1.51063,0.467903,0.470474,-0.038968,-0.00225101,-0.009742,-2.574e-06,345,-61,22.623,0.1,7.69053,0.1,1.012
-1.52206,-1.51064,0.467863,0.470474,-0.0392417,-0.00216287,-0.00981042,-3.05069e-05,348,-61,22.8811,0.1,7.68356,0.1,1.016
-1.52222,-1.51065,0.467824,0.470474,-0.0395161,-0.00207531,-0.00987902,-2.0338e-05,352,-60,23.1418,0.1,7.67695,0.1,1.02
-1.52237,-1.51066,0.467784,0.470474,-0.0397912,-0.00190178,-0.00994779,-1.35586e-05,356,-60,23.4051,0.1,7.67072,0.1,1.024
-1.52253,-1.51066,0.467744,0.470474,-0.0400669,-0.00167092,-0.0100167,-9.03909e-06,361,-60,23.6718,0.1,7.66486,0.1,1.028
-1.52269,-1.51066,0.467704,0.470473,-0.0403433,-0.00143065,-0.0100858,-3.4817e-05,366,-59,23.9422,0.1,7.65935,0.1,1.032
-1.52286,-1.51067,0.467664,0.470473,-0.0406204,-0.00124168,-0.0101551,-2.32113e-05,370,-59,24.2164,0.1,7.65421,0.1,1.036
-1.52302,-1.51067,0.467623,0.470473,-0.0408981,-0.0010869,-0.0102245,-1.54742e-05,375,-59,24.494,0.1,7.64945,0.1,1.04
-1.52318,-1.51067,0.467582,0.470473,-0.0411766,-0.00098372,-0.0102941,-1.03161e-05,378,-58,24.7747,0.1,7.64506,0.1,1.044
-1.52335,-1.51068,0.467541,0.470473,-0.0414556,-0.000943722,-0.0103639,-3.56684e-05,382,-58,25.0581,0.1,7.64103,0.1,1.048
-1.52352,-1.51068,0.467499,0.470473,-0.0417354,-0.00100343,-0.0104338,-2.37789e-05,384,-58,25.3437,0.1,7.63737,0.1,1.052
-1.52368,-1.51069,0.467457,0.470473,-0.0420158,-0.0011584,-0.0105039,-4.46435e-05,386,-57,25.6306,0.1,7.63407,0.1,1.056
-1.52385,-1.5107,0.467415,0.470473,-0.0422968,-0.00146325,-0.0105742,-2.97624e-05,387,-57,25.9181,0.1,7.63114,0.1,1.06
-1.52402,-1.51071,0.467373,0.470472,-0.0425785,-0.00181044,-0.0106446,-4.86325e-05,387,-57,26.205,0.1,7.62858,0.1,1.064
-1.52419,-1.51072,0.46733,0.470472,-0.0428609,-0.00227222,-0.0107152,-3.24217e-05,387,-56,26.491,0.1,7.6264,0.1,1.068
-1.52436,-1.51073,0.467287,0.470472,-0.0431438,-0.00266645,-0.010786,-2.16144e-05,387,-56,26.7752,0.1,7.6246,0.1,1.072
-1.52454,-1.51075,0.467244,0.470472,-0.0434275,-0.00304443,-0.0108569,-4.32006e-05,387,-56,27.0581,0.1,7.62316,0.1,1.076
-1.52471,-1.51076,0.4672,0.470472,-0.0437117,-0.00326763,-0.0109279,-2.88004e-05,388,-55,27.3401,0.1,7.6221,0.1,1.08
-1.52489,-1.51078,0.467156,0.470472,-0.0439966,-0.00344522,-0.0109992,-1.92002e-05,390,-55,27.6223,0.1,7.62143,0.1,1.084
-1.52506,-1.51079,0.467112,0.470471,-0.0442822,-0.00364999,-0.0110705,-4.15911e-05,391,-55,27.9049,0.1,7.62111,0.1,1.088
-1.52524,-1.51081,0.467068,0.470471,-0.0445684,-0.0037865,-0.0111421,-2.77274e-05,393,-54,28.1879,0.1,7.62118,0.1,1.092
-1.52542,-1.51083,0.467023,0.470471,-0.0448552,-0.00405025,-0.0112138,-4.72759e-05,395,-54,28.4717,0.1,7.62161,0.1,1.096
-1.5256,-1.51085,0.466978,0.470471,-0.0451426,-0.00445641,-0.0112856,-3.15172e-05,394,-54,28.7552,0.1,7.62242,0.1,1.1
-1.52578,-1.51087,0.466933,0.470471,-0.0454306,-0.00495752,-0.0113577,-4.98024e-05,394,-53,29.0374,0.1,7.62361,0.1,1.104
-1.52596,-1.5109,0.466887,0.470471,-0.0457193,-0.00546433,-0.0114298,-3.32016e-05,393,-53,29.3176,0.1,7.62517,0.1,1.108
-1.52615,-1.51093,0.466841,0.47047,-0.0460086,-0.00623407,-0.0115021,-5.09253e-05,390,-52,29.5955,0.1,7.62711,0.1,1.112
-1.52633,-1.51097,0.466795,0.47047,-0.0462984,-0.00712151,-0.0115746,-6.27411e-05,386,-52,29.8691,0.1,7.62941,0.1,1.116
-1.52652,-1.51101,0.466749,0.47047,-0.0465889,-0.00820259,-0.0116472,-7.06184e-05,381,-52,30.1375,0.1,7.63209,0.1,1.12
-1.5267,-1.51105,0.466702,0.470469,-0.0468801,-0.00921121,-0.01172,-0.000104661,376,-51,30.3993,0.1,7.63512,0.1,1.124
-1.52689,-1.5111,0.466655,0.470468,-0.0471718,-0.0104019,-0.0117929,-0.000127356,370,-51,30.6549,0.1,7.63851,0.1,1.128
-1.52708,-1.51116,0.466607,0.470468,-0.0474641,-0.0118578,-0.011866,-0.000142486,362,-51,30.9028,0.1,7.64226,0.1,1.132
-1.52727,-1.51123,0.46656,0.470467,-0.047757,-0.0133179,-0.0119393,-0.000152572,354,-50,31.141,0.1,7.64639,0.1,1.136
-1.52746,-1.5113,0.466512,0.470466,-0.0480505,-0.0148095,-0.0120126,-0.000159297,345,-50,31.3696,0.1,7.65088,0.1,1.14
-1.52766,-1.51138,0.466464,0.470466,-0.0483446,-0.0162646,-0.0120862,-0.00016378,337,-49,31.5883,0.1,7.65575,0.1,1.144
-1.52785,-1.51146,0.466415,0.470465,-0.0486393,-0.0177529,-0.0121598,-0.000195559,328,-49,31.7974,0.1,7.66098,0.1,1.148
-1.52805,-1.51155,0.466366,0.470464,-0.0489346,-0.0194073,-0.0122337,-0.000216746,318,-49,31.9966,0.1,7.66658,0.1,1.152
-1.52824,-1.51165,0.466317,0.470462,-0.0492305,-0.0210284,-0.0123076,-0.000259661,309,-48,32.1846,0.1,7.67252,0.1,1.156
-1.52844,-1.51175,0.466268,0.470461,-0.0495269,-0.0226562,-0.0123817,-0.00025948,299,-48,32.3619,0.1,7.67882,0.1,1.16
-1.52864,-1.51186,0.466218,0.47046,-0.049824,-0.0239718,-0.012456,-0.00028815,291,-48,32.5284,0.1,7.68549,0.1,1.164
-1.52884,-1.51197,0.466168,0.470459,-0.0501216,-0.0254822,-0.0125304,-0.000278473,283,-47,32.6864,0.1,7.69254,0.1,1.168
-1.52904,-1.51209,0.466118,0.470458,-0.0504198,-0.026921,-0.0126049,-0.000243231,274,-47,32.8346,0.1,7.69999,0.1,1.172
-1.52924,-1.51222,0.466068,0.470457,-0.0507185,-0.0283696,-0.0126796,-0.000219736,266,-46,32.9735,0.1,7.70785,0.1,1.176
-1.52945,-1.51235,0.466017,0.470457,-0.0510178,-0.0298249,-0.0127545,-0.00014649,257,-46,33.103,0.1,7.71614,0.1,1.18
-1.52965,-1.51248,0.465966,0.470457,-0.0513177,-0.0309677,-0.0128294,-9.76602e-05,251,-45,33.2233,0.1,7.72486,0.1,1.184
-1.52986,-1.51262,0.465914,0.470457,-0.0516182,-0.0320752,-0.0129045,-6.51068e-05,245,-45,33.3368,0.1,7.734,0.1,1.188
-1.53006,-1.51276,0.465862,0.470457,-0.0519192,-0.0330438,-0.0129798,-7.21955e-05,241,-45,33.4438,0.1,7.74353,0.1,1.192
-1.53027,-1.5129,0.46581,0.470457,-0.0522208,-0.0336607,-0.0130552,-4.81303e-05,239,-44,33.5456,0.1,7.75345,0.1,1.196
-1.53048,-1.51304,0.465758,0.470457,-0.0525229,-0.0343599,-0.0131307,-3.20869e-05,236,-44,33.6448,0.1,7.76378,0.1,1.2
-1.53069,-1.51318,0.465705,0.470457,-0.0528256,-0.0345957,-0.0132064,-2.13913e-05,237,-43,33.7409,0.1,7.77451,0.1,1.204
-1.5309,-1.51332,0.465652,0.470457,-0.0531288,-0.0347241,-0.0132822,-4.30518e-05,239,-43,33.8377,0.1,7.78561,0.1,1.208
-1.53112,-1.51346,0.465599,0.470457,-0.0534326,-0.0347234,-0.0133581,-2.87012e-05,241,-42,33.9359,0.1,7.79711,0.1,1.212
-1.53133,-1.5136,0.465545,0.470457,-0.0537369,-0.0347517,-0.0134342,-1.91341e-05,244,-42,34.0365,0.1,7.809,0.1,1.216
-1.53155,-1.51374,0.465491,0.470456,-0.0540418,-0.0348281,-0.0135104,-4.1547e-05,246,-42,34.1393,0.1,7.82128,0.1,1.22
-1.53176,-1.51388,0.465437,0.470456,-0.0543472,-0.0349366,-0.0135868,-5.64889e-05,248,-41,34.2439,0.1,7.83394,0.1,1.224
-1.53198,-1.51402,0.465383,0.470456,-0.0546531,-0.0351242,-0.0136633,-3.76593e-05,249,-41,34.35,0.1,7.847,0.1,1.228
-1.5322,-1.51417,0.465328,0.470456,-0.0549596,-0.0356523,-0.0137399,-5.38971e-05,248,-40,34.4567,0.1,7.86045,0.1,1.232
-1.53242,-1.51431,0.465273,0.470455,-0.0552666,-0.0359755,-0.0138166,-6.47223e-05,248,-40,34.5618,0.1,7.87429,0.1,1.236
-1.53264,-1.51447,0.465217,0.470455,-0.0555741,-0.0366805,-0.0138935,-7.19391e-05,246,-39,34.6665,0.1,7.88852,0.1,1.24
-1.53287,-1.51462,0.465162,0.470455,-0.0558822,-0.0370929,-0.0139705,-7.67504e-05,245,-39,34.7681,0.1,7.90313,0.1,1.244
-1.53309,-1.51478,0.465106,0.470454,-0.0561907,-0.0379724,-0.0140477,-7.99578e-05,241,-39,34.8685,0.1,7.91814,0.1,1.248
-1.53331,-1.51493,0.465049,0.470453,-0.0564998,-0.038386,-0.014125,-0.000139678,241,-38,34.9646,0.1,7.93351,0.1,1.252
-1.53354,-1.5151,0.464993,0.470452,-0.0568094,-0.0392376,-0.0142024,-0.000150701,237,-38,35.0596,0.1,7.94925,0.1,1.256
-1.53377,-1.51526,0.464936,0.470451,-0.0571196,-0.039978,-0.0142799,-0.00018684,234,-37,35.1503,0.1,7.96536,0.1,1.26
-1.534,-1.51543,0.464878,0.47045,-0.0574302,-0.040558,-0.0143575,-0.000239724,232,-37,35.2375,0.1,7.98183,0.1,1.264
-1.53423,-1.5156,0.464821,0.470449,-0.0577413,-0.041175,-0.0144353,-0.000246188,230,-36,35.3226,0.1,7.99866,0.1,1.268
-1.53446,-1.51577,0.464763,0.470447,-0.058053,-0.0416727,-0.0145132,-0.00030808,229,-36,35.4052,0.1,8.01586,0.1,1.272
-1.53469,-1.51594,0.464705,0.470445,-0.0583651,-0.0420621,-0.0145913,-0.000406923,229,-36,35.4864,0.1,8.03337,0.1,1.276
-1.53493,-1.51611,0.464646,0.470443,-0.0586778,-0.0421778,-0.0146694,-0.000415237,231,-35,35.5672,0.1,8.05123,0.1,1.28
-1.53516,-1.51628,0.464587,0.470441,-0.058991,-0.0423124,-0.0147477,-0.000478361,232,-35,35.6495,0.1,8.06944,0.1,1.284
-1.5354,-1.51645,0.464528,0.470439,-0.0593046,-0.0422871,-0.0148261,-0.000462862,235,-34,35.7333,0.1,8.08803,0.1,1.288
-1.53564,-1.51662,0.464469,0.470437,-0.0596187,-0.042558,-0.0149047,-0.000452529,236,-34,35.8197,0.1,8.10704,0.1,1.292
-1.53588,-1.51679,0.464409,0.470436,-0.0599334,-0.0425084,-0.0149833,-0.000445641,239,-33,35.9066,0.1,8.12643,0.1,1.296
-1.53612,-1.51696,0.464349,0.470434,-0.0602485,-0.0427056,-0.0150621,-0.000441048,241,-33,35.9963,0.1,8.14623,0.1,1.3
-1.53636,-1.51714,0.464288,0.470432,-0.0605641,-0.0427507,-0.015141,-0.000409196,243,-32,36.087,0.1,8.16644,0.1,1.304
-1.5366,-1.51731,0.464228,0.470432,-0.0608802,-0.0429823,-0.01522,-0.000330379,244,-32,36.1798,0.1,8.1871,0.1,1.308
-1.53685,-1.51748,0.464167,0.470431,-0.0611967,-0.0429064,-0.0152992,-0.000277835,247,-31,36.2734,0.1,8.20821,0.1,1.312
-1.53709,-1.51766,0.464105,0.470431,-0.0615138,-0.0431725,-0.0153784,-0.000214014,248,-31,36.3699,0.1,8.22977,0.1,1.316
-1.53734,-1.51783,0.464044,0.470431,-0.0618313,-0.0430331,-0.0154578,-0.000142676,252,-30,36.4671,0.1,8.25179,0.1,1.32
-1.53759,-1.518,0.463982,0.47043,-0.0621493,-0.0430554,-0.0155373,-0.000123908,255,-30,36.5678,0.1,8.27425,0.1,1.324
-1.53783,-1.51817,0.463919,0.47043,-0.0624677,-0.0428112,-0.0156169,-0.000111396,260,-29,36.671,0.1,8.29713,0.1,1.328
-1.53809,-1.51834,0.463857,0.47043,-0.0627866,-0.0426483,-0.0156967,-7.42643e-05,264,-29,36.7787,0.1,8.32043,0.1,1.332
-1.53834,-1.51851,0.463794,0.47043,-0.063106,-0.0424822,-0.0157765,-7.83005e-05,268,-28,36.8902,0.1,8.34415,0.1,1.336
-1.53859,-1.51868,0.463731,0.470429,-0.0634258,-0.042573,-0.0158565,-8.09912e-05,270,-28,37.0054,0.1,8.36829,0.1,1.34
-1.53884,-1.51884,0.463667,0.470429,-0.0637461,-0.0423744,-0.0159365,-5.39942e-05,275,-27,37.1226,0.1,8.39284,0.1,1.344
-1.5391,-1.51901,0.463603,0.470429,-0.0640669,-0.0423859,-0.0160167,-6.4787e-05,278,-27,37.2437,0.1,8.41781,0.1,1.348
-1.53936,-1.51919,0.463539,0.470428,-0.0643881,-0.0425952,-0.016097,-0.000100773,279,-26,37.3672,0.1,8.44316,0.1,1.352
-1.53961,-1.51936,0.463474,0.470428,-0.0647098,-0.0431953,-0.0161774,-9.59731e-05,277,-26,37.4913,0.1,8.46893,0.1,1.356
-1.53987,-1.51954,0.463409,0.470427,-0.0650319,-0.0437106,-0.016258,-0.000121564,276,-25,37.6131,0.1,8.4951,0.1,1.36
-1.54014,-1.51972,0.463344,0.470427,-0.0653544,-0.0442268,-0.0163386,-0.000138624,275,-25,37.7333,0.1,8.52165,0.1,1.364
-1.5404,-1.51991,0.463279,0.470426,-0.0656774,-0.0449453,-0.0164194,-0.000178789,272,-24,37.8518,0.1,8.5486,0.1,1.368
-1.54066,-1.5201,0.463213,0.470424,-0.0660008,-0.0457697,-0.0165002,-0.000263147,269,-24,37.967,0.1,8.57589,0.1,1.372
-1.54093,-1.52029,0.463147,0.470422,-0.0663247,-0.046089,-0.0165812,-0.000319386,269,-23,38.0783,0.1,8.60353,0.1,1.376
-1.54119,-1.52048,0.46308,0.47042,-0.066649,-0.0466474,-0.0166622,-0.00038567,268,-23,38.1895,0.1,8.63153,0.1,1.38
-1.54146,-1.52067,0.463013,0.470417,-0.0669737,-0.0468181,-0.0167434,-0.000487441,270,-23,38.299,0.1,8.65984,0.1,1.384
-1.54173,-1.52086,0.462946,0.470414,-0.0672989,-0.047191,-0.0168247,-0.000555288,270,-22,38.4096,0.1,8.6885,0.1,1.388
-1.542,-1.52105,0.462879,0.470411,-0.0676245,-0.0471517,-0.0169061,-0.00062931,273,-22,38.52,0.1,8.71749,0.1,1.392
-1.54227,-1.52123,0.462811,0.470408,-0.0679505,-0.0470392,-0.0169876,-0.000678658,277,-21,38.6333,0.1,8.74683,0.1,1.396
-1.54254,-1.52142,0.462743,0.470405,-0.0682769,-0.046705,-0.0170692,-0.000711557,282,-21,38.7502,0.1,8.77653,0.1,1.4
-1.54281,-1.5216,0.462674,0.470402,-0.0686038,-0.0464247,-0.0171509,-0.00073349,288,-20,38.8723,0.1,8.80662,0.1,1.404
-1.54309,-1.52178,0.462606,0.470399,-0.068931,-0.0457483,-0.0172328,-0.000748112,296,-20,38.9995,0.1,8.83708,0.1,1.408
-1.54337,-1.52196,0.462537,0.470396,-0.0692587,-0.0452398,-0.0173147,-0.000729068,303,-19,39.1347,0.1,8.86796,0.1,1.412
-1.54364,-1.52213,0.462467,0.470393,-0.0695868,-0.0447569,-0.0173967,-0.000745164,310,-19,39.2764,0.1,8.89924,0.1,1.416
-1.54392,-1.52231,0.462397,0.47039,-0.0699153,-0.0445213,-0.0174788,-0.000755894,315,-18,39.4245,0.1,8.93091,0.1,1.42
-1.5442,-1.52248,0.462327,0.470387,-0.0702442,-0.0443354,-0.017561,-0.000763048,319,-18,39.5769,0.1,8.96299,0.1,1.424
-1.54448,-1.52266,0.462257,0.470383,-0.0705735,-0.0445858,-0.0176434,-0.000825399,320,-17,39.7332,0.1,8.99544,0.1,1.428
-1.54477,-1.52284,0.462186,0.470379,-0.0709032,-0.044724,-0.0177258,-0.000924548,322,-17,39.89,0.1,9.02821,0.1,1.432
-1.54505,-1.52302,0.462115,0.470373,-0.0712333,-0.0449888,-0.0178083,-0.00110581,323,-16,40.0482,0.1,9.06126,0.1,1.436
-1.54534,-1.52321,0.462044,0.470366,-0.0715638,-0.0453957,-0.017891,-0.00131303,323,-16,40.2067,0.1,9.09453,0.1,1.44
-1.54562,-1.5234,0.461972,0.470358,-0.0718947,-0.0459836,-0.0179737,-0.00153754,322,-16,40.3644,0.1,9.12802,0.1,1.444
-1.54591,-1.52359,0.4619,0.47035,-0.072226,-0.0466347,-0.0180565,-0.00168722,320,-15,40.5198,0.1,9.16174,0.1,1.448
-1.5462,-1.52379,0.461828,0.470344,-0.0725576,-0.0473279,-0.0181394,-0.00161426,318,-15,40.6725,0.1,9.19585,0.1,1.452
-1.54649,-1.52398,0.461755,0.470338,-0.0728897,-0.0479915,-0.0182224,-0.00159441,316,-14,40.8223,0.1,9.23038,0.1,1.456
-1.54678,-1.52418,0.461682,0.470333,-0.0732221,-0.0487219,-0.0183055,-0.0014948,313,-14,40.9692,0.1,9.26536,0.1,1.46
-1.54708,-1.52439,0.461608,0.470328,-0.0735549,-0.0494103,-0.0183887,-0.00134203,311,-13,41.1128,0.1,9.30086,0.1,1.464
-1.54737,-1.52459,0.461535,0.470324,-0.0738881,-0.0496965,-0.018472,-0.00129776,312,-12,41.2537,0.1,9.33681,0.1,1.468
-1.54767,-1.52479,0.461461,0.470319,-0.0742217,-0.0502328,-0.0185554,-0.00126824,311,-12,41.3948,0.1,9.37319,0.1,1.472
-1.54797,-1.525,0.461386,0.470314,-0.0745556,-0.0504464,-0.0186389,-0.00127736,312,-11,41.5343,0.1,9.40998,0.1,1.476
-1.54827,-1.5252,0.461311,0.470307,-0.0748899,-0.0506176,-0.0187225,-0.00136981,314,-11,41.6747,0.1,9.4471,0.1,1.48
-1.54857,-1.52541,0.461236,0.470301,-0.0752246,-0.0509332,-0.0188062,-0.00143144,315,-10,41.8163,0.1,9.48457,0.1,1.484
-1.54887,-1.52561,0.461161,0.470294,-0.0755597,-0.0509997,-0.0188899,-0.0015877,317,-10,41.9581,0.1,9.52231,0.1,1.488
-1.54917,-1.52582,0.461085,0.470285,-0.0758951,-0.0514183,-0.0189738,-0.00174945,317,-9,42.1017,0.1,9.56033,0.1,1.492
-1.54948,-1.52603,0.461009,0.470277,-0.0762308,-0.0518126,-0.0190577,-0.00185728,317,-9,42.2446,0.1,9.59863,0.1,1.496
-1.54978,-1.52624,0.460933,0.47027,-0.0765669,-0.0520754,-0.0191417,-0.001814,318,-8,42.387,0.1,9.6373,0.1,1.5
-1.55009,-1.52646,0.460856,0.470262,-0.0769034,-0.0527112,-0.0192259,-0.00187153,316,-8,42.5297,0.1,9.67636,0.1,1.504
-1.5504,-1.52667,0.460779,0.470254,-0.0772402,-0.0529912,-0.0193101,-0.00190988,317,-7,42.6701,0.1,9.71576,0.1,1.508
-1.55071,-1.52689,0.460702,0.470246,-0.0775774,-0.053293,-0.0193944,-0.00193544,318,-7,42.8109,0.1,9.75553,0.1,1.512
-1.55102,-1.5271,0.460624,0.470238,-0.0779149,-0.0533503,-0.0194787,-0.00195249,321,-6,42.952,0.1,9.79567,0.1,1.516
-1.55133,-1.52732,0.460546,0.47023,-0.0782528,-0.0536187,-0.0195632,-0.00199264,322,-6,43.0951,0.1,9.83617,0.1,1.52
-1.55164,-1.52753,0.460467,0.470222,-0.078591,-0.0537402,-0.0196477,-0.00196183,324,-5,43.2388,0.1,9.87707,0.1,1.524
-1.55196,-1.52775,0.460389,0.470216,-0.0789295,-0.0537923,-0.0197324,-0.00182612,327,-5,43.3843,0.1,9.91844,0.1,1.528
-1.55227,-1.52797,0.46031,0.470212,-0.0792684,-0.0540574,-0.0198171,-0.0015917,328,-4,43.5318,0.1,9.9604,0.1,1.532
-1.55259,-1.52818,0.46023,0.470208,-0.0796076,-0.0541766,-0.0199019,-0.00134904,330,-3,43.6798,0.1,10.003,0.1,1.536
-1.55291,-1.5284,0.46015,0.470204,-0.0799472,-0.0543999,-0.0199868,-0.00121606,332,-2,43.8295,0.1,10.0461,0.1,1.54
-1.55323,-1.52863,0.46007,0.470201,-0.080287,-0.0548368,-0.0200718,-0.00106983,331,-2,43.98,0.1,10.0898,0.1,1.544
-1.55355,-1.52885,0.45999,0.470199,-0.0806272,-0.054984,-0.0201568,-0.000943544,334,-1,44.1296,0.1,10.1339,0.1,1.548
-1.55388,-1.52907,0.459909,0.470195,-0.0809678,-0.0555141,-0.0202419,-0.000888148,333,0,44.2806,0.1,10.1786,0.1,1.552
-1.5542,-1.5293,0.459828,0.470192,-0.0813086,-0.0561266,-0.0203272,-0.000851217,331,0,44.4298,0.1,10.2238,0.1,1.556
-1.55453,-1.52953,0.459746,0.470189,-0.0816498,-0.0566788,-0.0204124,-0.000855387,330,0,44.5768,0.1,10.2694,0.1,1.56
-1.55485,-1.52977,0.459664,0.470185,-0.0819913,-0.0573925,-0.0204978,-0.000886958,328,1,44.7219,0.1,10.3154,0.1,1.564
-1.55518,-1.53001,0.459582,0.470181,-0.0823331,-0.0582138,-0.0205833,-0.000936797,324,1,44.8639,0.1,10.3618,0.1,1.568
-1.55551,-1.53025,0.4595,0.470176,-0.0826752,-0.0591068,-0.0206688,-0.0010276,321,2,45.0019,0.1,10.4085,0.1,1.572
-1.55584,-1.5305,0.459417,0.470171,-0.0830176,-0.0598749,-0.0207544,-0.00111693,318,2,45.1354,0.1,10.4556,0.1,1.576
-1.55618,-1.53075,0.459334,0.470165,-0.0833603,-0.0609627,-0.0208401,-0.00126286,313,3,45.2652,0.1,10.503,0.1,1.58
-1.55651,-1.531,0.45925,0.470157,-0.0837033,-0.0618032,-0.0209258,-0.00147531,309,3,45.3892,0.1,10.5507,0.1,1.584
-1.55685,-1.53126,0.459166,0.470151,-0.0840467,-0.0625074,-0.0210117,-0.00153057,307,4,45.5091,0.1,10.5987,0.1,1.588
-1.55718,-1.53152,0.459082,0.470145,-0.0843903,-0.0632072,-0.0210976,-0.00148103,304,4,45.6261,0.1,10.6471,0.1,1.592
-1.55752,-1.53178,0.458998,0.47014,-0.0847342,-0.0637313,-0.0211836,-0.00141922,304,5,45.7402,0.1,10.6959,0.1,1.596
-1.55786,-1.53204,0.458913,0.470136,-0.0850784,-0.0639368,-0.0212696,-0.00129164,305,6,45.8531,0.1,10.7453,0.1,1.6
-1.5582,-1.53229,0.458827,0.470132,-0.0854229,-0.063901,-0.0213557,-0.001149,308,6,45.9672,0.1,10.7952,0.1,1.604
-1.55854,-1.53254,0.458742,0.470129,-0.0857677,-0.0634453,-0.0214419,-0.000996328,315,7,46.0845,0.1,10.8456,0.1,1.608
-1.55889,-1.53279,0.458656,0.470128,-0.0861128,-0.0628824,-0.0215282,-0.000808173,323,8,46.2083,0.1,10.8967,0.1,1.612
-1.55923,-1.53303,0.45857,0.470127,-0.0864582,-0.0621616,-0.0216145,-0.000567573,331,9,46.3395,0.1,10.9483,0.1,1.616
-1.55958,-1.53327,0.458483,0.470127,-0.0868038,-0.0613932,-0.021701,-0.000407173,341,10,46.4792,0.1,11.0005,0.1,1.62
-1.55993,-1.5335,0.458396,0.470127,-0.0871498,-0.0604202,-0.0217874,-0.000271449,351,10,46.6279,0.1,11.0534,0.1,1.624
-1.56028,-1.53374,0.458309,0.470127,-0.087496,-0.0596277,-0.021874,-0.000180966,361,11,46.7871,0.1,11.1067,0.1,1.628
-1.56063,-1.53397,0.458221,0.470126,-0.0878425,-0.0590993,-0.0219606,-0.000178226,368,12,46.9551,0.1,11.1606,0.1,1.632
-1.56098,-1.53421,0.458133,0.470127,-0.0881892,-0.0594092,-0.0220473,-6.12353e-05,369,13,47.1296,0.1,11.215,0.1,1.636
-1.56133,-1.53446,0.458045,0.470127,-0.0885363,-0.0606523,-0.0221341,-6.96144e-05,363,13,47.3038,0.1,11.2699,0.1,1.64
-1.56169,-1.53473,0.457956,0.470127,-0.0888836,-0.0624887,-0.0222209,-4.64096e-05,352,14,47.4702,0.1,11.3253,0.1,1.644
-1.56204,-1.53501,0.457867,0.470126,-0.0892311,-0.0653829,-0.0223078,-5.97307e-05,333,15,47.6239,0.1,11.3812,0.1,1.648
-1.5624,-1.53531,0.457777,0.470126,-0.0895789,-0.0686655,-0.0223947,-9.74023e-05,310,15,47.7568,0.1,11.4375,0.1,1.652
-1.56276,-1.53563,0.457688,0.470125,-0.089927,-0.0724374,-0.0224818,-0.000122517,284,16,47.8657,0.1,11.4943,0.1,1.656
-1.56312,-1.53597,0.457598,0.470124,-0.0902754,-0.0763052,-0.0225688,-0.00013926,257,17,47.9469,0.1,11.5516,0.1,1.66
-1.56348,-1.53632,0.457507,0.470123,-0.0906239,-0.0802081,-0.022656,-0.000208003,230,17,47.9997,0.1,11.6092,0.1,1.664
-1.56385,-1.53669,0.457416,0.470122,-0.0909728,-0.0841344,-0.0227432,-0.000225042,202,18,48.024,0.1,11.6674,0.1,1.668
-1.56421,-1.53707,0.457325,0.47012,-0.0913219,-0.0877884,-0.0228305,-0.000293982,177,18,48.0197,0.1,11.7259,0.1,1.672
-1.56458,-1.53746,0.457234,0.470119,-0.0916712,-0.0910018,-0.0229178,-0.000311152,154,19,47.9892,0.1,11.7848,0.1,1.676
-1.56494,-1.53786,0.457142,0.470116,-0.0920208,-0.0939501,-0.0230052,-0.000408971,134,20,47.9359,0.1,11.8441,0.1,1.68
-1.56531,-1.53826,0.45705,0.470114,-0.0923707,-0.0965203,-0.0230927,-0.000474184,117,20,47.8621,0.1,11.9038,0.1,1.684
-1.56568,-1.53867,0.456957,0.470111,-0.0927207,-0.0984066,-0.0231802,-0.00054645,105,21,47.7711,0.1,11.9638,0.1,1.688
-1.56606,-1.53909,0.456864,0.470108,-0.093071,-0.100125,-0.0232678,-0.000623418,94,22,47.6681,0.1,12.0243,0.1,1.692
-1.56643,-1.5395,0.456771,0.470104,-0.0934216,-0.101587,-0.0233554,-0.000732312,85,22,47.5546,0.1,12.0851,0.1,1.696
-1.5668,-1.53992,0.456677,0.4701,-0.0937724,-0.102706,-0.0234431,-0.00086249,79,23,47.4326,0.1,12.1462,0.1,1.7
-1.56718,-1.54035,0.456583,0.470095,-0.0941234,-0.103624,-0.0235308,-0.00100686,75,23,47.3048,0.1,12.2076,0.1,1.704
-1.56756,-1.54077,0.456489,0.470089,-0.0944746,-0.104208,-0.0236187,-0.00116068,73,24,47.173,0.1,12.2693,0.1,1.708
-1.56793,-1.54119,0.456395,0.470082,-0.0948261,-0.104366,-0.0237065,-0.00134961,74,24,47.04,0.1,12.3313,0.1,1.712
-1.56831,-1.54161,0.456299,0.470075,-0.0951778,-0.104933,-0.0237944,-0.00147556,72,25,46.9086,0.1,12.3936,0.1,1.716
-1.5687,-1.54203,0.456204,0.470068,-0.0955297,-0.105051,-0.0238824,-0.00155952,73,26,46.776,0.1,12.4562,0.1,1.72
-1.56908,-1.54245,0.456108,0.47006,-0.0958818,-0.105188,-0.0239705,-0.00170187,75,26,46.6457,0.1,12.5191,0.1,1.724
-1.56946,-1.54288,0.456012,0.470051,-0.0962342,-0.10525,-0.0240585,-0.00191194,77,27,46.5175,0.1,12.5823,0.1,1.728
-1.56985,-1.5433,0.455916,0.470042,-0.0965868,-0.105234,-0.0241467,-0.00202319,80,27,46.392,0.1,12.6458,0.1,1.732
-1.57024,-1.54372,0.455819,0.470032,-0.0969395,-0.105367,-0.0242349,-0.00212615,81,28,46.2698,0.1,12.7097,0.1,1.736
-1.57062,-1.54414,0.455722,0.470022,-0.0972925,-0.105543,-0.0243231,-0.00225237,82,28,46.1496,0.1,12.7739,0.1,1.74
-1.57101,-1.54457,0.455625,0.470013,-0.0976457,-0.105688,-0.0244114,-0.00225014,84,29,46.0312,0.1,12.8384,0.1,1.744
-1.5714,-1.54499,0.455527,0.470004,-0.0979991,-0.105555,-0.0244998,-0.00224866,87,30,45.9149,0.1,12.9034,0.1,1.748
-1.5718,-1.54541,0.455429,0.469997,-0.0983527,-0.105927,-0.0245882,-0.00213251,87,31,45.8026,0.1,12.9688,0.1,1.752
-1.57219,-1.54584,0.45533,0.469989,-0.0987065,-0.106031,-0.0246766,-0.00208386,89,31,45.6906,0.1,13.0348,0.1,1.756
-1.57259,-1.54627,0.455231,0.469981,-0.0990605,-0.106532,-0.0247651,-0.00205143,87,32,45.5807,0.1,13.1012,0.1,1.76
-1.57298,-1.5467,0.455132,0.469972,-0.0994147,-0.106607,-0.0248537,-0.00211619,89,33,45.4701,0.1,13.168,0.1,1.764
-1.57338,-1.54713,0.455032,0.469962,-0.0997691,-0.106887,-0.0249423,-0.00224573,90,33,45.3619,0.1,13.2351,0.1,1.768
-1.57378,-1.54756,0.454932,0.469952,-0.100124,-0.107132,-0.0250309,-0.00233209,90,34,45.2547,0.1,13.3026,0.1,1.772
-1.57418,-1.54799,0.454832,0.469941,-0.100478,-0.107784,-0.0251196,-0.00244724,88,34,45.1484,0.1,13.3704,0.1,1.776
-1.57459,-1.54843,0.454731,0.469929,-0.100833,-0.107989,-0.0252084,-0.00261039,89,35,45.0403,0.1,13.4385,0.1,1.78
-1.57499,-1.54886,0.45463,0.469917,-0.101189,-0.108096,-0.0252971,-0.00277673,91,36,44.9337,0.1,13.5068,0.1,1.784
-1.5754,-1.5493,0.454529,0.469903,-0.101544,-0.108427,-0.025386,-0.00300279,91,36,44.8293,0.1,13.5754,0.1,1.788
-1.5758,-1.54973,0.454427,0.469889,-0.101899,-0.108763,-0.0254748,-0.00321108,91,37,44.7254,0.1,13.6442,0.1,1.792
-1.57621,-1.55018,0.454325,0.469873,-0.102255,-0.109332,-0.0255638,-0.00340752,89,37,44.6217,0.1,13.7133,0.1,1.796
-1.57662,-1.55061,0.454223,0.469859,-0.102611,-0.109366,-0.0256527,-0.00350969,91,38,44.517,0.1,13.7826,0.1,1.8
-1.57703,-1.55106,0.45412,0.469843,-0.102967,-0.109936,-0.0257417,-0.00366418,89,38,44.4148,0.1,13.8522,0.1,1.804
-1.57744,-1.5515,0.454017,0.469826,-0.103323,-0.110143,-0.0258308,-0.00385354,90,39,44.3114,0.1,13.922,0.1,1.808
-1.57786,-1.55194,0.453913,0.469808,-0.10368,-0.11054,-0.0259199,-0.00400857,90,39,44.2093,0.1,13.9921,0.1,1.812
-1.57827,-1.55239,0.45381,0.469791,-0.104036,-0.110575,-0.026009,-0.00411193,92,40,44.1074,0.1,14.0625,0.1,1.816
-1.57869,-1.55283,0.453705,0.469773,-0.104393,-0.110972,-0.0260982,-0.00423841,92,40,44.0082,0.1,14.1332,0.1,1.82
-1.57911,-1.55328,0.453601,0.469754,-0.10475,-0.111265,-0.0261874,-0.0044379,92,41,43.909,0.1,14.2041,0.1,1.824
-1.57953,-1.55373,0.453496,0.469735,-0.105107,-0.111922,-0.0262767,-0.00451331,90,41,43.8103,0.1,14.2752,0.1,1.828
-1.57995,-1.55418,0.453391,0.469717,-0.105464,-0.112014,-0.0263659,-0.00453479,91,42,43.7098,0.1,14.3467,0.1,1.832
-1.58037,-1.55463,0.453285,0.469698,-0.105821,-0.112277,-0.0264553,-0.0045779,92,43,43.6117,0.1,14.4186,0.1,1.836
-1.5808,-1.55509,0.453179,0.469679,-0.106179,-0.112654,-0.0265446,-0.00463544,92,43,43.5145,0.1,14.4908,0.1,1.84
-1.58122,-1.55554,0.453073,0.469659,-0.106536,-0.112963,-0.026634,-0.00476017,92,44,43.4174,0.1,14.5633,0.1,1.844
-1.58165,-1.556,0.452966,0.469641,-0.106894,-0.113197,-0.0267235,-0.00472815,93,45,43.3211,0.1,14.6361,0.1,1.848
-1.58208,-1.55645,0.452859,0.469621,-0.107252,-0.113498,-0.026813,-0.00479319,93,45,43.2259,0.1,14.7093,0.1,1.852
-1.58251,-1.55691,0.452751,0.469602,-0.10761,-0.113842,-0.0269025,-0.00477896,93,46,43.1315,0.1,14.7829,0.1,1.856
-1.58294,-1.55737,0.452644,0.469583,-0.107968,-0.113985,-0.026992,-0.00474068,95,47,43.0375,0.1,14.8568,0.1,1.86
-1.58337,-1.55783,0.452535,0.469564,-0.108326,-0.114282,-0.0270816,-0.00480154,95,47,42.9455,0.1,14.9312,0.1,1.864
-1.5838,-1.55829,0.452427,0.469542,-0.108685,-0.11471,-0.0271712,-0.00495727,94,48,42.8541,0.1,15.0058,0.1,1.868
-1.58424,-1.55875,0.452318,0.469522,-0.109044,-0.114765,-0.0272609,-0.00500351,96,48,42.7626,0.1,15.0806,0.1,1.872
-1.58468,-1.55921,0.452209,0.469502,-0.109402,-0.114716,-0.0273506,-0.00503434,99,49,42.6739,0.1,15.1559,0.1,1.876
-1.58512,-1.55967,0.452099,0.46948,-0.109761,-0.115259,-0.0274403,-0.00519885,98,50,42.5883,0.1,15.2314,0.1,1.88
-1.58555,-1.56014,0.451989,0.469457,-0.11012,-0.115505,-0.02753,-0.00533731,99,50,42.5017,0.1,15.3071,0.1,1.884
-1.586,-1.5606,0.451879,0.469434,-0.110479,-0.115583,-0.0276198,-0.00551599,101,51,42.4163,0.1,15.3831,0.1,1.888
-1.58644,-1.56107,0.451768,0.469409,-0.110839,-0.115895,-0.0277096,-0.00569269,101,51,42.3333,0.1,15.4593,0.1,1.892
-1.58688,-1.56153,0.451657,0.469386,-0.111198,-0.1159,-0.0277995,-0.00575291,103,52,42.2511,0.1,15.5358,0.1,1.896
-1.58733,-1.562,0.451546,0.469361,-0.111557,-0.116106,-0.0278893,-0.00590822,105,52,42.1719,0.1,15.6125,0.1,1.9
-1.58778,-1.56246,0.451434,0.469334,-0.111917,-0.115984,-0.0279792,-0.00615571,108,53,42.0943,0.1,15.6894,0.1,1.904
-1.58822,-1.56293,0.451322,0.469308,-0.112277,-0.116392,-0.0280692,-0.00632071,108,53,42.0205,0.1,15.7665,0.1,1.908
-1.58867,-1.56339,0.45121,0.46928,-0.112636,-0.116088,-0.0281591,-0.00654587,113,54,41.947,0.1,15.8437,0.1,1.912
-1.58912,-1.56385,0.451097,0.469251,-0.112996,-0.115742,-0.0282491,-0.00675356,118,54,41.879,0.1,15.9211,0.1,1.916
-1.58958,-1.56431,0.450984,0.46922,-0.113356,-0.115223,-0.0283391,-0.00706477,125,55,41.817,0.1,15.9986,0.1,1.92
-1.59003,-1.56475,0.45087,0.469189,-0.113717,-0.114013,-0.0284291,-0.00730103,137,55,41.7627,0.1,16.0762,0.1,1.924
-1.59049,-1.56519,0.450756,0.469157,-0.114077,-0.112285,-0.0285192,-0.00754491,153,56,41.7216,0.1,16.1538,0.1,1.928
-1.59094,-1.56561,0.450642,0.469124,-0.114437,-0.109924,-0.0286093,-0.00776508,174,56,41.6978,0.1,16.2316,0.1,1.932
-1.5914,-1.56601,0.450527,0.46909,-0.114798,-0.106536,-0.0286994,-0.00802702,204,56,41.6967,0.1,16.3094,0.1,1.936
-1.59186,-1.56639,0.450412,0.469055,-0.115158,-0.102953,-0.0287895,-0.00825923,235,57,41.7261,0.1,16.3873,0.1,1.94
-1.59232,-1.56675,0.450297,0.46902,-0.115519,-0.0987221,-0.0288797,-0.00847162,270,57,41.7877,0.1,16.4653,0.1,1.944
-1.59279,-1.5671,0.450181,0.468984,-0.115879,-0.0944041,-0.0289699,-0.008642,307,58,41.8863,0.1,16.5434,0.1,1.948
-1.59325,-1.56743,0.450065,0.46895,-0.11624,-0.0905466,-0.0290601,-0.00861164,341,58,42.0224,0.1,16.6219,0.1,1.952
-1.59372,-1.56775,0.449949,0.468918,-0.116601,-0.086852,-0.0291503,-0.00833227,373,59,42.1924,0.1,16.7009,0.1,1.956
-1.59418,-1.56805,0.449832,0.468891,-0.116962,-0.0833237,-0.0292405,-0.00782933,404,60,42.3948,0.1,16.7805,0.1,1.96
-1.59465,-1.56835,0.449715,0.468867,-0.117323,-0.0801942,-0.0293308,-0.00720613,431,62,42.6281,0.1,16.8611,0.1,1.964
-1.59512,-1.56863,0.449597,0.468848,-0.117684,-0.0775032,-0.0294211,-0.00638759,456,63,42.889,0.1,16.9426,0.1,1.968
-1.59559,-1.56892,0.44948,0.468834,-0.118046,-0.0752198,-0.0295114,-0.00543882,477,65,43.1741,0.1,17.0254,0.1,1.972
-1.59607,-1.56919,0.449361,0.468827,-0.118407,-0.0731217,-0.0296017,-0.00423049,497,66,43.48,0.1,17.1095,0.1,1.976
-1.59654,-1.56947,0.449243,0.468826,-0.118768,-0.0715502,-0.029692,-0.00293549,513,68,43.8051,0.1,17.1952,0.1,1.98
-1.59702,-1.56974,0.449124,0.468827,-0.11913,-0.0706177,-0.0297824,-0.00187062,525,70,44.1449,0.1,17.2823,0.1,1.984
-1.59749,-1.57002,0.449005,0.468828,-0.119491,-0.0699385,-0.0298728,-0.00116071,534,72,44.4946,0.1,17.3706,0.1,1.988
-1.59797,-1.57029,0.448885,0.468828,-0.119853,-0.0696296,-0.0299632,-0.000773805,540,73,44.8521,0.1,17.4599,0.1,1.992
-1.59845,-1.57057,0.448765,0.468828,-0.120214,-0.0695964,-0.0300536,-0.00051587,544,74,45.2143,0.1,17.55,0.1,1.996
-1.59893,-1.57085,0.448644,0.468828,-0.120576,-0.0700062,-0.030144,-0.000343913,545,75,45.5789,0.1,17.6408,0.1,2
-1.59942,-1.57113,0.448524,0.468828,-0.120938,-0.0693868,-0.0302344,-0.000229276,554,76,45.9433,0.1,17.7321,0.1,2.004
-1.5999,-1.5714,0.448403,0.468828,-0.1213,-0.0688875,-0.0303249,-0.00015285,561,77,46.315,0.1,17.8241,0.1,2.008
-1.60039,-1.57167,0.448281,0.468828,-0.121661,-0.0689002,-0.0304154,-0.0001019,565,78,46.6929,0.1,17.9167,0.1,2.012
-1.60088,-1.57195,0.448159,0.468828,-0.122023,-0.0688222,-0.0305058,-6.79335e-05,570,79,47.0732,0.1,18.0098,0.1,2.016
-1.60136,-1.57222,0.448037,0.468828,-0.122385,-0.0687991,-0.0305963,-4.5289e-05,574,80,47.4565,0.1,18.1035,0.1,2.02
-1.60185,-1.5725,0.447914,0.468828,-0.122747,-0.0689276,-0.0306868,-3.01927e-05,577,81,47.8423,0.1,18.1977,0.1,2.024
-1.60235,-1.57277,0.447792,0.468828,-0.123109,-0.0688693,-0.0307774,-2.01284e-05,581,82,48.2297,0.1,18.2925,0.1,2.028
-1.60284,-1.57305,0.447668,0.468828,-0.123472,-0.0688304,-0.0308679,-1.3419e-05,586,83,48.6198,0.1,18.3878,0.1,2.032
-1.60333,-1.57333,0.447545,0.468828,-0.123834,-0.0688621,-0.0309584,-8.94597e-06,589,84,49.0127,0.1,18.4837,0.1,2.036
-1.60383,-1.5736,0.447421,0.468828,-0.124196,-0.069056,-0.031049,-5.96398e-06,592,84,49.4077,0.1,18.5801,0.1,2.04
-1.60433,-1.57388,0.447296,0.468828,-0.124558,-0.0688109,-0.0311395,-3.97599e-06,598,85,49.8037,0.1,18.677,0.1,2.044
-1.60483,-1.57415,0.447171,0.468828,-0.12492,-0.0685324,-0.0312301,2.61403e-05,604,86,50.2041,0.1,18.7744,0.1,2.048
-1.60533,-1.57442,0.447046,0.468828,-0.125283,-0.0686346,-0.0313207,1.74268e-05,607,87,50.609,0.1,18.8724,0.1,2.052
-1.60583,-1.5747,0.446921,0.468828,-0.125645,-0.068818,-0.0314113,1.16179e-05,610,88,51.0154,0.1,18.971,0.1,2.056
-1.60633,-1.57498,0.446795,0.468827,-0.126007,-0.0689402,-0.0315019,-7.86275e-05,613,89,51.4228,0.1,19.07,0.1,2.06
-1.60684,-1.57526,0.446669,0.468828,-0.12637,-0.0693959,-0.0315925,5.16351e-06,614,90,51.8314,0.1,19.1696,0.1,2.064
-1.60734,-1.57554,0.446542,0.468827,-0.126732,-0.0696998,-0.0316831,-2.53486e-05,615,91,52.2388,0.1,19.2697,0.1,2.068
-1.60785,-1.57583,0.446415,0.468827,-0.127095,-0.070363,-0.0317737,-1.68991e-05,614,92,52.6459,0.1,19.3703,0.1,2.072
-1.60836,-1.57612,0.446288,0.468827,-0.127457,-0.0711794,-0.0318643,-1.1266e-05,612,93,53.05,0.1,19.4715,0.1,2.076
-1.60887,-1.57641,0.44616,0.468827,-0.12782,-0.0716085,-0.0319549,-7.51069e-06,612,94,53.4502,0.1,19.5733,0.1,2.08
-1.60938,-1.5767,0.446032,0.468827,-0.128182,-0.0720386,-0.0320456,-5.00713e-06,613,95,53.8493,0.1,19.6755,0.1,2.084
-1.6099,-1.57699,0.445904,0.468827,-0.128545,-0.0724404,-0.0321362,-3.33809e-06,614,96,54.2474,0.1,19.7783,0.1,2.088
-1.61041,-1.57728,0.445775,0.468827,-0.128907,-0.0725644,-0.0322268,-2.22539e-06,617,97,54.6448,0.1,19.8817,0.1,2.092
-1.61093,-1.57758,0.445646,0.468827,-0.12927,-0.0730788,-0.0323175,-1.48359e-06,617,98,55.0434,0.1,19.9855,0.1,2.096
-1.61144,-1.57787,0.445517,0.468827,-0.129632,-0.07299,-0.0324081,-9.89062e-07,622,99,55.4407,0.1,20.0899,0.1,2.1
-1.61196,-1.57817,0.445387,0.468827,-0.129995,-0.0731611,-0.0324988,-6.59375e-07,625,100,55.8409,0.1,20.1948,0.1,2.104
-1.61248,-1.57846,0.445257,0.468827,-0.130358,-0.0729296,-0.0325894,-4.39583e-07,631,101,56.2425,0.1,20.3003,0.1,2.108
-1.61301,-1.57874,0.445126,0.468827,-0.13072,-0.0725738,-0.03268,-2.93055e-07,637,102,56.6484,0.1,20.4063,0.1,2.112
-1.61353,-1.57903,0.444995,0.468827,-0.131083,-0.0724517,-0.0327707,-2.89863e-05,642,102,57.0594,0.1,20.5128,0.1,2.116
-1.61406,-1.57932,0.444864,0.468827,-0.131445,-0.0722552,-0.0328613,-1.93242e-05,648,103,57.4739,0.1,20.6198,0.1,2.12
-1.61458,-1.57961,0.444733,0.468827,-0.131808,-0.0724409,-0.032952,-1.28828e-05,651,104,57.8922,0.1,20.7274,0.1,2.124
-1.61511,-1.5799,0.444601,0.468827,-0.13217,-0.0726511,-0.0330426,-8.58853e-06,653,105,58.3114,0.1,20.8356,0.1,2.128
-1.61564,-1.5802,0.444468,0.468827,-0.132533,-0.0731942,-0.0331332,-5.72569e-06,653,106,58.7311,0.1,20.9443,0.1,2.132
-1.61617,-1.5805,0.444335,0.468827,-0.132896,-0.0741897,-0.0332239,-3.81713e-06,649,107,59.1485,0.1,21.0535,0.1,2.136
-1.6167,-1.58082,0.444202,0.468827,-0.133258,-0.0754868,-0.0333145,-3.13357e-05,643,108,59.5602,0.1,21.1633,0.1,2.14
-1.61724,-1.58113,0.444069,0.468827,-0.133621,-0.07615,-0.0334052,7.90047e-06,642,109,59.9642,0.1,21.2736,0.1,2.144
-1.61777,-1.58144,0.443935,0.468826,-0.133983,-0.0766497,-0.0334958,-5.23149e-05,642,110,60.3654,0.1,21.3844,0.1,2.148
-1.61831,-1.58174,0.443801,0.468827,-0.134346,-0.0765798,-0.0335864,-6.08565e-06,647,111,60.7653,0.1,21.4958,0.1,2.152
-1.61885,-1.58204,0.443666,0.468827,-0.134708,-0.0757846,-0.033677,-4.0571e-06,657,112,61.1686,0.1,21.6076,0.1,2.156
-1.61939,-1.58233,0.443532,0.468827,-0.135071,-0.0745059,-0.0337676,-2.70473e-06,671,113,61.5811,0.1,21.72,0.1,2.16
-1.61993,-1.58261,0.443396,0.468827,-0.135433,-0.0728761,-0.0338582,-1.80316e-06,688,114,62.0065,0.1,21.8329,0.1,2.164
-1.62047,-1.58288,0.443261,0.468827,-0.135795,-0.0715016,-0.0339488,-1.2021e-06,703,115,62.4473,0.1,21.9464,0.1,2.168
-1.62101,-1.58315,0.443125,0.468827,-0.136158,-0.0698943,-0.0340394,2.79895e-05,720,116,62.9017,0.1,22.0604,0.1,2.172
-1.62156,-1.58341,0.442988,0.468826,-0.13652,-0.0685061,-0.03413,-3.89222e-05,735,117,63.3713,0.1,22.175,0.1,2.176
-1.62211,-1.58367,0.442852,0.468826,-0.136882,-0.06712,-0.0342206,-2.59481e-05,750,118,63.8545,0.1,22.29,0.1,2.18
-1.62265,-1.58393,0.442715,0.468826,-0.137245,-0.0661671,-0.0343112,-4.60897e-05,762,119,64.3509,0.1,22.4056,0.1,2.184
-1.6232,-1.58418,0.442577,0.468826,-0.137607,-0.0652152,-0.0344017,-3.07264e-05,773,120,64.8573,0.1,22.5218,0.1,2.188
-1.62375,-1.58443,0.442439,0.468826,-0.137969,-0.0647533,-0.0344923,-2.04843e-05,781,121,65.3734,0.1,22.6385,0.1,2.192
-1.62431,-1.58469,0.442301,0.468826,-0.138331,-0.064359,-0.0345828,-4.24471e-05,789,122,65.8955,0.1,22.7557,0.1,2.196
-1.62486,-1.58494,0.442163,0.468826,-0.138693,-0.0643264,-0.0346733,-2.82981e-05,794,123,66.4228,0.1,22.8735,0.1,2.2
-1.62542,-1.58521,0.442024,0.468826,-0.139055,-0.0649957,-0.0347638,-1.88654e-05,793,124,66.9522,0.1,22.9919,0.1,2.204
-1.62597,-1.58548,0.441885,0.468825,-0.139417,-0.0654131,-0.0348543,-4.13678e-05,794,125,67.4786,0.1,23.1108,0.1,2.208
-1.62653,-1.58575,0.441745,0.468825,-0.139779,-0.0666703,-0.0349448,-2.75786e-05,789,126,68.0035,0.1,23.2303,0.1,2.212
-1.62709,-1.58604,0.441605,0.468825,-0.140141,-0.0683145,-0.0350353,-4.71766e-05,780,128,68.5202,0.1,23.3503,0.1,2.216
-1.62765,-1.58634,0.441465,0.468825,-0.140503,-0.070332,-0.0351258,-6.0242e-05,769,129,69.0258,0.1,23.4708,0.1,2.22
-1.62822,-1.58664,0.441324,0.468824,-0.140865,-0.0724543,-0.0352162,-6.89523e-05,757,130,69.5173,0.1,23.5919,0.1,2.224
-1.62878,-1.58696,0.441183,0.468824,-0.141227,-0.0745602,-0.0353067,-7.47591e-05,745,131,69.994,0.1,23.7135,0.1,2.228
-1.62935,-1.58728,0.441042,0.468823,-0.141588,-0.0767415,-0.0353971,-7.86303e-05,732,132,70.4561,0.1,23.8357,0.1,2.232
-1.62991,-1.58761,0.4409,0.468823,-0.14195,-0.0788579,-0.0354875,-0.000110002,720,133,70.9029,0.1,23.9584,0.1,2.236
-1.63048,-1.58795,0.440758,0.468822,-0.142312,-0.0806431,-0.0355779,-0.000159707,710,134,71.3353,0.1,24.0816,0.1,2.24
-1.63105,-1.5883,0.440615,0.468821,-0.142673,-0.082409,-0.0356683,-0.000192844,700,135,71.7557,0.1,24.2052,0.1,2.244
-1.63162,-1.58864,0.440472,0.46882,-0.143035,-0.0837303,-0.0357586,-0.000214936,694,136,72.1646,0.1,24.3294,0.1,2.248
-1.6322,-1.58899,0.440329,0.468819,-0.143396,-0.0846687,-0.035849,-0.000229663,691,137,72.5654,0.1,24.4541,0.1,2.252
-1.63277,-1.58933,0.440186,0.468818,-0.143757,-0.0852655,-0.0359393,-0.000210691,691,138,72.9614,0.1,24.5793,0.1,2.256
-1.63335,-1.58968,0.440042,0.468818,-0.144118,-0.0854331,-0.0360296,-0.000169251,693,139,73.3553,0.1,24.7051,0.1,2.26
-1.63392,-1.59001,0.439897,0.468817,-0.14448,-0.0851129,-0.0361199,-0.000170416,700,140,73.7506,0.1,24.8313,0.1,2.264
-1.6345,-1.59035,0.439753,0.468817,-0.144841,-0.084957,-0.0362102,-0.000142402,705,141,74.1509,0.1,24.9582,0.1,2.268
-1.63508,-1.59068,0.439608,0.468816,-0.145202,-0.0839606,-0.0363004,-0.000123725,717,142,74.5554,0.1,25.0856,0.1,2.272
-1.63566,-1.59101,0.439462,0.468816,-0.145563,-0.0831524,-0.0363907,-8.24836e-05,727,143,74.9703,0.1,25.2135,0.1,2.276
-1.63625,-1.59133,0.439317,0.468816,-0.145923,-0.0826999,-0.0364809,-8.378e-05,735,144,75.394,0.1,25.342,0.1,2.28
-1.63683,-1.59166,0.43917,0.468815,-0.146284,-0.082168,-0.0365711,-0.000113435,743,145,75.8238,0.1,25.4711,0.1,2.284
-1.63742,-1.59198,0.439024,0.468815,-0.146645,-0.0818133,-0.0366612,-0.000104414,750,146,76.2603,0.1,25.6007,0.1,2.288
-1.638,-1.59231,0.438877,0.468814,-0.147005,-0.0817496,-0.0367514,-0.000127191,755,147,76.7019,0.1,25.7308,0.1,2.292
-1.63859,-1.59264,0.43873,0.468813,-0.147366,-0.0821103,-0.0368415,-0.000142376,757,149,77.1461,0.1,25.8615,0.1,2.296
-1.63918,-1.59297,0.438582,0.468813,-0.147726,-0.082581,-0.0369316,-0.000123708,757,150,77.5898,0.1,25.9927,0.1,2.3
-1.63977,-1.59331,0.438434,0.468812,-0.148087,-0.0828372,-0.0370217,-0.000140054,759,151,78.0322,0.1,26.1244,0.1,2.304
-1.64037,-1.59364,0.438286,0.468812,-0.148447,-0.0833248,-0.0371117,-0.000150951,760,152,78.4749,0.1,26.2567,0.1,2.308
-1.64096,-1.59398,0.438138,0.46881,-0.148807,-0.0838513,-0.0372017,-0.000215798,760,153,78.916,0.1,26.3895,0.1,2.312
-1.64156,-1.59433,0.437989,0.468809,-0.149167,-0.0844327,-0.0372917,-0.000230238,760,154,79.3553,0.1,26.5228,0.1,2.316
-1.64215,-1.59467,0.437839,0.468808,-0.149527,-0.0850794,-0.0373817,-0.000297447,759,155,79.7922,0.1,26.6566,0.1,2.32
-1.64275,-1.59502,0.43769,0.468806,-0.149887,-0.0854241,-0.0374717,-0.000342252,760,156,80.2266,0.1,26.7909,0.1,2.324
-1.64335,-1.59536,0.437539,0.468803,-0.150246,-0.0854812,-0.0375616,-0.000458496,764,157,80.6607,0.1,26.9256,0.1,2.328
-1.64396,-1.5957,0.437389,0.4688,-0.150606,-0.0855769,-0.0376515,-0.000593573,768,158,81.0968,0.1,27.0608,0.1,2.332
-1.64456,-1.59604,0.437238,0.468796,-0.150965,-0.0854391,-0.0377414,-0.000712416,773,159,81.5348,0.1,27.1964,0.1,2.336
-1.64516,-1.59638,0.437087,0.468791,-0.151325,-0.0851457,-0.0378312,-0.000906808,779,160,81.9763,0.1,27.3323,0.1,2.34
-1.64577,-1.59672,0.436936,0.468784,-0.151684,-0.0851229,-0.037921,-0.00112278,784,161,82.4225,0.1,27.4686,0.1,2.344
-1.64638,-1.59707,0.436784,0.468776,-0.152043,-0.0855683,-0.0380108,-0.0014395,785,162,82.871,0.1,27.6052,0.1,2.348
-1.64699,-1.59741,0.436632,0.468767,-0.152402,-0.0858077,-0.0381006,-0.00170823,787,162,83.3184,0.1,27.742,0.1,2.352
-1.6476,-1.59777,0.436479,0.468757,-0.152761,-0.0867446,-0.0381903,-0.00200255,784,163,83.766,0.1,27.8791,0.1,2.356
-1.64821,-1.59813,0.436326,0.468746,-0.15312,-0.0878875,-0.03828,-0.00225634,779,164,84.2083,0.1,28.0165,0.1,2.36
-1.64882,-1.59849,0.436173,0.468734,-0.153479,-0.0889661,-0.0383696,-0.00245433,775,165,84.6438,0.1,28.1543,0.1,2.364
-1.64944,-1.59886,0.436019,0.468724,-0.153837,-0.0901746,-0.0384593,-0.00252874,770,166,85.0731,0.1,28.2924,0.1,2.368
-1.65005,-1.59924,0.435865,0.468713,-0.154195,-0.0914409,-0.0385489,-0.00254955,764,167,85.495,0.1,28.4309,0.1,2.372
-1.65067,-1.59962,0.435711,0.468704,-0.154554,-0.092717,-0.0386384,-0.00250585,758,168,85.9091,0.1,28.57,0.1,2.376
-1.65129,-1.6,0.435556,0.468695,-0.154912,-0.0938844,-0.038728,-0.00239034,753,169,86.3155,0.1,28.7096,0.1,2.38
-1.65191,-1.60039,0.435401,0.468687,-0.15527,-0.0947491,-0.0388175,-0.00222696,751,170,86.7151,0.1,28.8498,0.1,2.384
-1.65253,-1.60077,0.435245,0.46868,-0.155628,-0.0950088,-0.0389069,-0.00206046,753,172,87.1106,0.1,28.9907,0.1,2.388
-1.65315,-1.60115,0.43509,0.468674,-0.155986,-0.0951532,-0.0389964,-0.00189188,756,173,87.5066,0.1,29.1321,0.1,2.392
-1.65378,-1.60153,0.434933,0.468667,-0.156343,-0.0945009,-0.0390858,-0.00183707,765,174,87.9044,0.1,29.2742,0.1,2.396
-1.6544,-1.6019,0.434777,0.46866,-0.156701,-0.0940084,-0.0391751,-0.00185811,773,175,88.3099,0.1,29.4167,0.1,2.4
-1.65503,-1.60226,0.43462,0.468651,-0.157058,-0.0931331,-0.0392645,-0.00192972,784,176,88.722,0.1,29.5597,0.1,2.404
-1.65566,-1.60264,0.434463,0.468642,-0.157415,-0.093039,-0.0393538,-0.00203505,789,177,89.1432,0.1,29.7031,0.1,2.408
-1.65629,-1.60301,0.434305,0.468633,-0.157772,-0.0929474,-0.039443,-0.00213405,794,178,89.5677,0.1,29.847,0.1,2.412
-1.65692,-1.60338,0.434147,0.468624,-0.158129,-0.0932031,-0.0395322,-0.00220006,796,179,89.9951,0.1,29.9913,0.1,2.416
-1.65756,-1.60376,0.433989,0.468615,-0.158486,-0.0936327,-0.0396214,-0.00221527,797,180,90.4229,0.1,30.136,0.1,2.42
-1.65819,-1.60414,0.43383,0.468607,-0.158842,-0.0944085,-0.0397106,-0.00211025,795,181,90.8494,0.1,30.2814,0.1,2.424
-1.65883,-1.60453,0.433671,0.468601,-0.159199,-0.0955015,-0.0397997,-0.00195386,791,183,91.272,0.1,30.4274,0.1,2.428
-1.65946,-1.60493,0.433512,0.468595,-0.159555,-0.096806,-0.0398887,-0.00176323,785,184,91.6881,0.1,30.574,0.1,2.432
-1.6601,-1.60533,0.433352,0.468591,-0.159911,-0.0973014,-0.0399778,-0.00154977,785,185,92.0966,0.1,30.7213,0.1,2.436
-1.66074,-1.60573,0.433192,0.468587,-0.160267,-0.0985818,-0.0400668,-0.00134988,779,187,92.5031,0.1,30.8694,0.1,2.44
-1.66139,-1.60613,0.433032,0.468584,-0.160623,-0.0991475,-0.0401557,-0.00113025,779,188,92.9022,0.1,31.0181,0.1,2.444
-1.66203,-1.60654,0.432871,0.468582,-0.160978,-0.0999564,-0.0402446,-0.000926243,777,189,93.2991,0.1,31.1675,0.1,2.448
-1.66267,-1.60694,0.43271,0.46858,-0.161334,-0.100438,-0.0403335,-0.00076145,777,191,93.6922,0.1,31.3176,0.1,2.452
-1.66332,-1.60734,0.432548,0.468579,-0.161689,-0.100471,-0.0404223,-0.000622797,781,192,94.0841,0.1,31.4684,0.1,2.456
-1.66397,-1.60776,0.432386,0.468578,-0.162044,-0.101242,-0.0405111,-0.000501571,779,193,94.4778,0.1,31.6198,0.1,2.46
-1.66462,-1.60816,0.432224,0.468577,-0.162399,-0.101526,-0.0405998,-0.000420753,781,194,94.8681,0.1,31.7718,0.1,2.464
-1.66527,-1.60858,0.432061,0.468576,-0.162754,-0.102262,-0.0406885,-0.000366875,779,196,95.2584,0.1,31.9244,0.1,2.468
-1.66592,-1.609,0.431899,0.468575,-0.163109,-0.103357,-0.0407772,-0.000302165,775,197,95.645,0.1,32.0777,0.1,2.472
-1.66657,-1.60942,0.431735,0.468574,-0.163463,-0.10403,-0.0408658,-0.000259025,774,198,96.0256,0.1,32.2315,0.1,2.476
-1.66723,-1.60985,0.431572,0.468573,-0.163817,-0.105054,-0.0409543,-0.000259056,770,199,96.403,0.1,32.386,0.1,2.48
-1.66788,-1.61029,0.431408,0.468572,-0.164171,-0.1066,-0.0410429,-0.000259077,762,200,96.7744,0.1,32.5409,0.1,2.484
-1.66854,-1.61073,0.431243,0.468571,-0.164525,-0.107516,-0.0411313,-0.000287882,758,202,97.1362,0.1,32.6964,0.1,2.488
-1.6692,-1.61117,0.431079,0.468569,-0.164879,-0.108386,-0.0412198,-0.000335876,756,203,97.4932,0.1,32.8524,0.1,2.492
-1.66986,-1.61162,0.430914,0.468567,-0.165233,-0.10957,-0.0413081,-0.000425454,750,204,97.8455,0.1,33.0089,0.1,2.496
-1.67052,-1.61206,0.430748,0.468564,-0.165586,-0.110158,-0.0413965,-0.000542754,750,205,98.1912,0.1,33.1658,0.1,2.5
-1.67118,-1.6125,0.430582,0.46856,-0.165939,-0.11009,-0.0414848,-0.000678536,754,206,98.5352,0.1,33.3231,0.1,2.504
-1.67185,-1.61294,0.430416,0.468555,-0.166292,-0.1099,-0.041573,-0.00085543,760,207,98.8823,0.1,33.4808,0.1,2.508
-1.67251,-1.61338,0.43025,0.468549,-0.166645,-0.109774,-0.0416612,-0.00103094,765,208,99.2334,0.1,33.6389,0.1,2.512
-1.67318,-1.61382,0.430083,0.468542,-0.166997,-0.109747,-0.0417494,-0.0012919,769,209,99.5881,0.1,33.7973,0.1,2.516
-1.67385,-1.61425,0.429916,0.468533,-0.16735,-0.109758,-0.0418374,-0.00160983,773,210,99.9456,0.1,33.956,0.1,2.52
-1.67452,-1.61469,0.429748,0.468523,-0.167702,-0.109189,-0.0419255,-0.00190816,781,211,100.306,0.1,34.1149,0.1,2.524
-1.67519,-1.61512,0.42958,0.468511,-0.168054,-0.108954,-0.0420135,-0.002251,787,212,100.673,0.1,34.274,0.1,2.528
-1.67586,-1.61556,0.429412,0.468499,-0.168406,-0.108884,-0.0421014,-0.00256593,792,213,101.045,0.1,34.4334,0.1,2.532
-1.67654,-1.61599,0.429244,0.468487,-0.168757,-0.109096,-0.0421893,-0.0027183,794,214,101.419,0.1,34.593,0.1,2.536
-1.67721,-1.61643,0.429075,0.468473,-0.169109,-0.109353,-0.0422772,-0.00290626,796,215,101.794,0.1,34.7531,0.1,2.54
-1.67789,-1.61688,0.428905,0.468461,-0.16946,-0.109985,-0.042365,-0.00297398,795,216,102.17,0.1,34.9135,0.1,2.544
-1.67857,-1.61733,0.428736,0.468448,-0.169811,-0.110751,-0.0424527,-0.00307671,793,217,102.543,0.1,35.0744,0.1,2.548
-1.67925,-1.61778,0.428566,0.468434,-0.170162,-0.111781,-0.0425404,-0.00320277,789,218,102.912,0.1,35.2356,0.1,2.552
-1.67993,-1.61824,0.428395,0.468419,-0.170512,-0.112352,-0.042628,-0.00340198,789,219,103.276,0.1,35.3972,0.1,2.556
-1.68061,-1.6187,0.428225,0.468403,-0.170862,-0.11351,-0.0427156,-0.00359237,784,220,103.637,0.1,35.5591,0.1,2.56
-1.6813,-1.61917,0.428054,0.468386,-0.171213,-0.114714,-0.0428031,-0.00383446,778,221,103.991,0.1,35.7212,0.1,2.564
-1.68198,-1.61964,0.427882,0.468367,-0.171562,-0.115919,-0.0428906,-0.00413981,773,221,104.338,0.1,35.8836,0.1,2.568
-1.68267,-1.62012,0.427711,0.468347,-0.171912,-0.117328,-0.042978,-0.00442975,766,222,104.678,0.1,36.0462,0.1,2.572
-1.68336,-1.62061,0.427538,0.468326,-0.172262,-0.119044,-0.0430654,-0.00470941,757,223,105.009,0.1,36.209,0.1,2.576
-1.68405,-1.6211,0.427366,0.468303,-0.172611,-0.119929,-0.0431527,-0.00501102,754,224,105.329,0.1,36.372,0.1,2.58
-1.68474,-1.62159,0.427193,0.468279,-0.17296,-0.121124,-0.04324,-0.00532725,748,225,105.645,0.1,36.5351,0.1,2.584
-1.68543,-1.62209,0.42702,0.468253,-0.173309,-0.122381,-0.0433272,-0.00571082,742,226,105.953,0.1,36.6984,0.1,2.588
-1.68613,-1.6226,0.426847,0.468226,-0.173657,-0.123507,-0.0434143,-0.00611049,737,226,106.254,0.1,36.8617,0.1,2.592
-1.68682,-1.6231,0.426673,0.468197,-0.174006,-0.124517,-0.0435014,-0.00646331,733,227,106.549,0.1,37.0252,0.1,2.596
-1.68752,-1.62361,0.426499,0.468169,-0.174354,-0.125593,-0.0435884,-0.00666973,729,228,106.838,0.1,37.1888,0.1,2.6
-1.68822,-1.62413,0.426324,0.468141,-0.174702,-0.126512,-0.0436754,-0.00672097,725,229,107.121,0.1,37.3527,0.1,2.604
-1.68892,-1.62464,0.426149,0.468117,-0.175049,-0.126894,-0.0437623,-0.0065248,726,230,107.4,0.1,37.517,0.1,2.608
-1.68962,-1.62516,0.425974,0.468098,-0.175397,-0.128301,-0.0438491,-0.00596216,719,232,107.678,0.1,37.6823,0.1,2.612
-1.69032,-1.62568,0.425798,0.468083,-0.175744,-0.128807,-0.0439359,-0.00518399,719,234,107.947,0.1,37.8485,0.1,2.616
-1.69102,-1.62621,0.425622,0.468073,-0.176091,-0.129691,-0.0440227,-0.00426214,716,236,108.215,0.1,38.0159,0.1,2.62
-1.69173,-1.62674,0.425446,0.468068,-0.176437,-0.130712,-0.0441093,-0.00327329,711,238,108.479,0.1,38.1846,0.1,2.624
-1.69243,-1.62727,0.42527,0.468067,-0.176784,-0.131796,-0.0441959,-0.00226857,707,240,108.736,0.1,38.3547,0.1,2.628
-1.69314,-1.62781,0.425093,0.468067,-0.17713,-0.132145,-0.0442825,-0.00151238,708,242,108.989,0.1,38.526,0.1,2.632
-1.69385,-1.62835,0.424915,0.468067,-0.177476,-0.133097,-0.044369,-0.00103704,704,243,109.24,0.1,38.6984,0.1,2.636
-1.69456,-1.62889,0.424738,0.468067,-0.177822,-0.133818,-0.0444554,-0.000691362,702,245,109.487,0.1,38.8716,0.1,2.64
-1.69527,-1.62943,0.42456,0.468067,-0.178167,-0.134759,-0.0445417,-0.000460908,698,247,109.731,0.1,39.0456,0.1,2.644
-1.69599,-1.62998,0.424381,0.468067,-0.178512,-0.135444,-0.044628,-0.000307272,696,248,109.969,0.1,39.2203,0.1,2.648
-1.6967,-1.63053,0.424203,0.468067,-0.178857,-0.136074,-0.0447143,-0.000204848,695,249,110.205,0.1,39.3957,0.1,2.652
-1.69742,-1.63108,0.424024,0.468067,-0.179202,-0.13658,-0.0448005,-0.000136565,695,251,110.439,0.1,39.5716,0.1,2.656
-1.69813,-1.63164,0.423844,0.468067,-0.179546,-0.137378,-0.0448866,-6.22526e-05,692,252,110.671,0.1,39.7483,0.1,2.66
-1.69885,-1.63219,0.423665,0.468067,-0.17989,-0.138054,-0.0449726,-7.02927e-05,691,253,110.9,0.1,39.9255,0.1,2.664
-1.69957,-1.63275,0.423484,0.468067,-0.180234,-0.13885,-0.0450586,-4.68618e-05,688,255,111.125,0.1,40.1033,0.1,2.668
-1.7003,-1.63332,0.423304,0.468067,-0.180578,-0.139784,-0.0451445,-3.12412e-05,684,256,111.347,0.1,40.2816,0.1,2.672
-1.70102,-1.63389,0.423123,0.468067,-0.180921,-0.140521,-0.0452303,-4.96184e-05,682,257,111.565,0.1,40.4606,0.1,2.676
-1.70174,-1.63447,0.422942,0.468067,-0.181264,-0.141992,-0.0453161,-3.30789e-05,674,259,111.778,0.1,40.6401,0.1,2.68
-1.70247,-1.63505,0.422761,0.468067,-0.181607,-0.142944,-0.0454018,-2.20526e-05,670,260,111.983,0.1,40.8202,0.1,2.684
-1.7032,-1.63563,0.422579,0.468066,-0.18195,-0.144068,-0.0454875,-4.34927e-05,665,261,112.182,0.1,41.0009,0.1,2.688
-1.70392,-1.63623,0.422397,0.468066,-0.182292,-0.145738,-0.0455731,-2.89951e-05,655,263,112.375,0.1,41.1821,0.1,2.692
-1.70465,-1.63683,0.422214,0.468066,-0.182634,-0.147111,-0.0456586,-4.8121e-05,648,264,112.558,0.1,41.3639,0.1,2.696
-1.70539,-1.63744,0.422032,0.468065,-0.182976,-0.148573,-0.045744,-6.08716e-05,640,265,112.732,0.1,41.5463,0.1,2.7
-1.70612,-1.63805,0.421848,0.468065,-0.183318,-0.149922,-0.0458294,-4.05811e-05,633,266,112.897,0.1,41.7292,0.1,2.704
-1.70685,-1.63866,0.421665,0.468065,-0.183659,-0.15111,-0.0459147,-5.5845e-05,627,268,113.054,0.1,41.9127,0.1,2.708
-1.70759,-1.63928,0.421481,0.468065,-0.184,-0.152189,-0.0459999,-3.723e-05,622,269,113.204,0.1,42.0967,0.1,2.712
-1.70832,-1.6399,0.421297,0.468065,-0.18434,-0.153254,-0.0460851,-5.36109e-05,617,270,113.349,0.1,42.2813,0.1,2.716
-1.70906,-1.64053,0.421113,0.468064,-0.184681,-0.154483,-0.0461702,-6.45315e-05,611,272,113.487,0.1,42.4665,0.1,2.72
-1.7098,-1.64115,0.420928,0.468064,-0.185021,-0.155273,-0.0462552,-7.18119e-05,608,273,113.619,0.1,42.6522,0.1,2.724
-1.71054,-1.64179,0.420742,0.468063,-0.185361,-0.156231,-0.0463401,-0.000105456,604,274,113.747,0.1,42.8384,0.1,2.728
-1.71128,-1.64242,0.420557,0.468062,-0.1857,-0.156957,-0.046425,-0.000156677,602,276,113.871,0.1,43.0251,0.1,2.732
-1.71203,-1.64306,0.420371,0.468061,-0.186039,-0.157959,-0.0465098,-0.000190824,597,277,113.991,0.1,43.2124,0.1,2.736
-1.71277,-1.64369,0.420185,0.46806,-0.186378,-0.158108,-0.0465946,-0.00024238,599,278,114.106,0.1,43.4002,0.1,2.74
-1.71352,-1.64434,0.419998,0.468058,-0.186717,-0.15887,-0.0466792,-0.000305541,596,280,114.223,0.1,43.5885,0.1,2.744
-1.71427,-1.64498,0.419811,0.468056,-0.187055,-0.159349,-0.0467638,-0.000347649,596,281,114.336,0.1,43.7772,0.1,2.748
-1.71502,-1.64563,0.419624,0.468055,-0.187393,-0.160389,-0.0468483,-0.00037572,591,282,114.449,0.1,43.9666,0.1,2.752
-1.71577,-1.64626,0.419437,0.468053,-0.187731,-0.160103,-0.0469328,-0.000394435,597,284,114.556,0.1,44.1564,0.1,2.756
-1.71652,-1.64692,0.419249,0.468051,-0.188069,-0.161236,-0.0470171,-0.000406911,591,285,114.668,0.1,44.3468,0.1,2.76
-1.71727,-1.64757,0.41906,0.46805,-0.188406,-0.162165,-0.0471014,-0.000386438,587,286,114.773,0.1,44.5378,0.1,2.764
-1.71802,-1.64823,0.418872,0.468048,-0.188743,-0.162381,-0.0471856,-0.00040158,588,288,114.875,0.1,44.7293,0.1,2.768
-1.71878,-1.64888,0.418683,0.468047,-0.189079,-0.163101,-0.0472698,-0.000382884,586,289,114.977,0.1,44.9214,0.1,2.772
-1.71954,-1.64955,0.418494,0.468045,-0.189415,-0.163983,-0.0473539,-0.000428001,582,290,115.076,0.1,45.114,0.1,2.776
-1.7203,-1.6502,0.418304,0.468043,-0.189751,-0.164054,-0.0474378,-0.000400498,585,292,115.171,0.1,45.3071,0.1,2.78
-1.72105,-1.65087,0.418114,0.468042,-0.190087,-0.164619,-0.0475218,-0.000410953,584,293,115.269,0.1,45.5008,0.1,2.784
-1.72182,-1.65153,0.417924,0.46804,-0.190422,-0.165313,-0.0476056,-0.000389133,581,294,115.364,0.1,45.6951,0.1,2.788
-1.72258,-1.6522,0.417733,0.468039,-0.190757,-0.16612,-0.0476893,-0.000345794,578,296,115.457,0.1,45.89,0.1,2.792
-1.72334,-1.65288,0.417542,0.468038,-0.191092,-0.166774,-0.047773,-0.000316902,576,297,115.546,0.1,46.0855,0.1,2.796
-1.72411,-1.65355,0.417351,0.468037,-0.191426,-0.167555,-0.0478566,-0.00026885,573,299,115.633,0.1,46.2815,0.1,2.8
-1.72487,-1.65423,0.41716,0.468037,-0.191761,-0.167875,-0.0479401,-0.000236815,574,300,115.716,0.1,46.4781,0.1,2.804
-1.72564,-1.6549,0.416968,0.468036,-0.192094,-0.167828,-0.0480236,-0.000215459,577,301,115.8,0.1,46.6752,0.1,2.808
-1.72641,-1.65557,0.416775,0.468035,-0.192428,-0.168229,-0.0481069,-0.000201221,577,303,115.887,0.1,46.873,0.1,2.812
-1.72718,-1.65626,0.416583,0.468035,-0.192761,-0.16913,-0.0481902,-0.000191729,574,304,115.973,0.1,47.0714,0.1,2.816
-1.72795,-1.65693,0.41639,0.468034,-0.193094,-0.169126,-0.0482734,-0.000185401,577,306,116.055,0.1,47.2702,0.1,2.82
-1.72873,-1.65762,0.416197,0.468033,-0.193426,-0.169526,-0.0483565,-0.000181183,577,307,116.14,0.1,47.4697,0.1,2.824
-1.7295,-1.6583,0.416003,0.468032,-0.193758,-0.169765,-0.0484396,-0.000207161,578,308,116.225,0.1,47.6696,0.1,2.828
-1.73028,-1.65898,0.415809,0.468031,-0.19409,-0.170038,-0.0485225,-0.00022448,579,310,116.31,0.1,47.8702,0.1,2.832
-1.73105,-1.65966,0.415615,0.46803,-0.194422,-0.170221,-0.0486054,-0.000264817,581,311,116.397,0.1,48.0712,0.1,2.836
-1.73183,-1.66035,0.41542,0.468028,-0.194753,-0.170458,-0.0486882,-0.000320499,582,312,116.484,0.1,48.2727,0.1,2.84
-1.73261,-1.66104,0.415225,0.468027,-0.195084,-0.171134,-0.0487709,-0.00032883,580,314,116.572,0.1,48.4749,0.1,2.844
-1.73339,-1.66172,0.41503,0.468025,-0.195414,-0.170808,-0.0488535,-0.000334384,585,315,116.658,0.1,48.6774,0.1,2.848
-1.73417,-1.66241,0.414835,0.468024,-0.195744,-0.171367,-0.0489361,-0.000366877,584,317,116.75,0.1,48.8806,0.1,2.852
-1.73496,-1.6631,0.414639,0.468022,-0.196074,-0.172115,-0.0490185,-0.000359748,581,318,116.839,0.1,49.0844,0.1,2.856
-1.73574,-1.66379,0.414442,0.468021,-0.196404,-0.172238,-0.0491009,-0.000383787,583,319,116.925,0.1,49.2886,0.1,2.86
-1.73653,-1.66448,0.414246,0.468019,-0.196733,-0.172695,-0.0491832,-0.000399813,583,321,117.013,0.1,49.4934,0.1,2.864
-1.73732,-1.66518,0.414049,0.468017,-0.197062,-0.172655,-0.0492654,-0.000410496,586,322,117.1,0.1,49.6987,0.1,2.868
-1.73811,-1.66587,0.413852,0.468015,-0.19739,-0.173059,-0.0493475,-0.000417619,586,324,117.191,0.1,49.9046,0.1,2.872
-1.7389,-1.66656,0.413654,0.468014,-0.197718,-0.172926,-0.0494295,-0.000422367,590,325,117.281,0.1,50.111,0.1,2.876
-1.73969,-1.66726,0.413456,0.468012,-0.198046,-0.173816,-0.0495115,-0.000396742,586,326,117.374,0.1,50.318,0.1,2.88
-1.74048,-1.66796,0.413258,0.468011,-0.198373,-0.174035,-0.0495933,-0.000379658,588,328,117.464,0.1,50.5255,0.1,2.884
-1.74127,-1.66866,0.41306,0.468009,-0.1987,-0.17421,-0.0496751,-0.000368269,590,329,117.554,0.1,50.7336,0.1,2.888
-1.74207,-1.66936,0.412861,0.468008,-0.199027,-0.174557,-0.0497568,-0.000331886,590,331,117.646,0.1,50.9423,0.1,2.892
-1.74287,-1.67007,0.412661,0.468007,-0.199354,-0.175105,-0.0498384,-0.000336421,589,332,117.737,0.1,51.1516,0.1,2.896
-1.74366,-1.67077,0.412462,0.468006,-0.19968,-0.17547,-0.0499199,-0.000310653,589,334,117.827,0.1,51.3614,0.1,2.9
-1.74446,-1.67147,0.412262,0.468005,-0.200005,-0.175598,-0.0500013,-0.000293475,591,335,117.917,0.1,51.5717,0.1,2.904
-1.74526,-1.67218,0.412062,0.468004,-0.200331,-0.176231,-0.0500826,-0.000310814,589,336,118.008,0.1,51.7826,0.1,2.908
-1.74607,-1.6729,0.411861,0.468002,-0.200655,-0.177315,-0.0501639,-0.000351164,584,338,118.097,0.1,51.9941,0.1,2.912
-1.74687,-1.67362,0.411661,0.468001,-0.20098,-0.177778,-0.050245,-0.000349273,583,339,118.18,0.1,52.2061,0.1,2.916
-1.74767,-1.67434,0.41146,0.467999,-0.201304,-0.17849,-0.0503261,-0.000376803,581,341,118.262,0.1,52.4187,0.1,2.92
-1.74848,-1.67506,0.411258,0.467997,-0.201628,-0.179368,-0.0504071,-0.000423948,577,342,118.341,0.1,52.6317,0.1,2.924
-1.74929,-1.67579,0.411056,0.467994,-0.201952,-0.180299,-0.0504879,-0.000484168,572,343,118.416,0.1,52.8453,0.1,2.928
-1.7501,-1.67652,0.410854,0.467992,-0.202275,-0.181121,-0.0505687,-0.000553106,569,345,118.486,0.1,53.0594,0.1,2.932
-1.75091,-1.67725,0.410652,0.467988,-0.202598,-0.181928,-0.0506494,-0.000627856,566,346,118.552,0.1,53.2739,0.1,2.936
-1.75172,-1.67799,0.410449,0.467984,-0.20292,-0.182696,-0.05073,-0.000792853,563,347,118.614,0.1,53.4888,0.1,2.94
-1.75253,-1.67873,0.410246,0.46798,-0.203242,-0.183583,-0.0508105,-0.000874059,559,349,118.673,0.1,53.7042,0.1,2.944
-1.75334,-1.67947,0.410042,0.467976,-0.203564,-0.183656,-0.0508909,-0.000899406,561,350,118.728,0.1,53.92,0.1,2.948
-1.75416,-1.68021,0.409839,0.467971,-0.203885,-0.183935,-0.0509713,-0.00100268,562,352,118.785,0.1,54.1363,0.1,2.952
-1.75497,-1.68095,0.409635,0.467966,-0.204206,-0.184639,-0.0510515,-0.00110032,559,353,118.842,0.1,54.3531,0.1,2.956
-1.75579,-1.68169,0.40943,0.467959,-0.204527,-0.184705,-0.0511316,-0.00130936,562,354,118.897,0.1,54.5702,0.1,2.96
-1.75661,-1.68243,0.409226,0.467951,-0.204847,-0.184893,-0.0512117,-0.00156389,563,355,118.954,0.1,54.7877,0.1,2.964
-1.75743,-1.68317,0.409021,0.467942,-0.205166,-0.185019,-0.0512916,-0.00173358,565,357,119.012,0.1,55.0054,0.1,2.968
-1.75825,-1.68391,0.408815,0.467933,-0.205486,-0.18493,-0.0513715,-0.00190428,569,358,119.072,0.1,55.2236,0.1,2.972
-1.75907,-1.68466,0.40861,0.467924,-0.205805,-0.185302,-0.0514512,-0.00207567,569,359,119.136,0.1,55.4421,0.1,2.976
-1.7599,-1.68539,0.408404,0.467915,-0.206124,-0.184629,-0.0515309,-0.00213234,577,361,119.2,0.1,55.6609,0.1,2.98
-1.76072,-1.68613,0.408197,0.467907,-0.206442,-0.18467,-0.0516105,-0.00211254,579,362,119.271,0.1,55.8803,0.1,2.984
-1.76155,-1.68687,0.407991,0.4679,-0.20676,-0.184812,-0.0516899,-0.0019266,581,364,119.345,0.1,56.1004,0.1,2.988
-1.76238,-1.68761,0.407784,0.467895,-0.207077,-0.185166,-0.0517693,-0.00168747,582,365,119.42,0.1,56.3211,0.1,2.992
-1.76321,-1.68836,0.407577,0.467893,-0.207394,-0.185949,-0.0518486,-0.00135531,578,367,119.495,0.1,56.5427,0.1,2.996
-1.76404,-1.68911,0.407369,0.467893,-0.207711,-0.186327,-0.0519278,-0.000903539,578,369,119.567,0.1,56.7651,0.1,3
-1.76487,-1.68986,0.407161,0.467893,-0.208027,-0.186435,-0.0520068,-0.00060236,580,371,119.638,0.1,56.9883,0.1,3.004
-1.7657,-1.69061,0.406953,0.467893,-0.208343,-0.186939,-0.0520858,-0.000401573,579,372,119.711,0.1,57.2123,0.1,3.008
-1.76653,-1.69136,0.406745,0.467893,-0.208659,-0.187477,-0.0521647,-0.000238924,578,374,119.782,0.1,57.437,0.1,3.012
-1.76737,-1.69212,0.406536,0.467892,-0.208974,-0.187921,-0.0522435,-0.000216865,578,375,119.852,0.1,57.6623,0.1,3.016
-1.76821,-1.69287,0.406327,0.467892,-0.209289,-0.188045,-0.0523222,-0.000144577,580,377,119.922,0.1,57.8882,0.1,3.02
-1.76904,-1.69362,0.406117,0.467892,-0.209603,-0.187984,-0.0524007,-0.000125175,583,378,119.993,0.1,58.1146,0.1,3.024
-1.76988,-1.69438,0.405907,0.467892,-0.209917,-0.188202,-0.0524792,-8.34502e-05,584,380,120.067,0.1,58.3417,0.1,3.028
-1.77072,-1.69513,0.405697,0.467892,-0.21023,-0.188635,-0.0525576,-8.44244e-05,584,381,120.142,0.1,58.5693,0.1,3.032
-1.77156,-1.69589,0.405487,0.467892,-0.210544,-0.189039,-0.0526359,-5.62829e-05,583,383,120.216,0.1,58.7975,0.1,3.036
-1.77241,-1.69666,0.405276,0.467891,-0.210856,-0.189625,-0.0527141,-6.63129e-05,582,384,120.289,0.1,59.0262,0.1,3.04
-1.77325,-1.69742,0.405065,0.467891,-0.211169,-0.189814,-0.0527922,-7.29995e-05,583,386,120.361,0.1,59.2555,0.1,3.044
-1.7741,-1.69818,0.404854,0.46789,-0.211481,-0.190315,-0.0528701,-0.000135039,582,387,120.433,0.1,59.4853,0.1,3.048
-1.77494,-1.69895,0.404642,0.46789,-0.211792,-0.190879,-0.052948,-9.00261e-05,581,389,120.504,0.1,59.7157,0.1,3.052
-1.77579,-1.69973,0.40443,0.467889,-0.212103,-0.192003,-0.0530258,-0.000117599,575,390,120.573,0.1,59.9466,0.1,3.056
-1.77664,-1.70049,0.404218,0.467889,-0.212414,-0.191803,-0.0531034,-0.000135981,579,392,120.636,0.1,60.178,0.1,3.06
-1.77749,-1.70126,0.404005,0.467887,-0.212724,-0.191669,-0.053181,-0.000205818,583,393,120.704,0.1,60.4099,0.1,3.064
-1.77834,-1.70203,0.403793,0.467887,-0.213034,-0.191983,-0.0532585,-0.000166003,583,395,120.775,0.1,60.6423,0.1,3.068
-1.77919,-1.70279,0.403579,0.467886,-0.213343,-0.19153,-0.0533358,-0.000197041,590,396,120.846,0.1,60.8752,0.1,3.072
-1.78005,-1.70356,0.403366,0.467884,-0.213652,-0.192035,-0.0534131,-0.000275316,589,398,120.924,0.1,61.1088,0.1,3.076
-1.7809,-1.70433,0.403152,0.467883,-0.213961,-0.191968,-0.0534902,-0.000241126,592,399,121,0.1,61.3428,0.1,3.08
-1.78176,-1.7051,0.402938,0.467881,-0.214269,-0.192153,-0.0535673,-0.000333496,594,401,121.079,0.1,61.5773,0.1,3.084
-1.78262,-1.70588,0.402724,0.46788,-0.214577,-0.192623,-0.0536442,-0.000308703,593,402,121.159,0.1,61.8124,0.1,3.088
-1.78348,-1.70666,0.402509,0.467879,-0.214884,-0.193368,-0.0537211,-0.000349757,590,404,121.238,0.1,62.048,0.1,3.092
-1.78434,-1.70743,0.402294,0.467877,-0.215191,-0.193778,-0.0537978,-0.000377126,589,405,121.314,0.1,62.2841,0.1,3.096
-1.7852,-1.70821,0.402078,0.467874,-0.215498,-0.194253,-0.0538744,-0.000481745,589,407,121.389,0.1,62.5207,0.1,3.1
-1.78606,-1.709,0.401863,0.467872,-0.215804,-0.194771,-0.0539509,-0.0005227,587,408,121.462,0.1,62.7577,0.1,3.104
-1.78692,-1.70978,0.401647,0.46787,-0.216109,-0.195289,-0.0540273,-0.000521212,586,410,121.534,0.1,62.9953,0.1,3.108
-1.78779,-1.71057,0.401431,0.467866,-0.216415,-0.195519,-0.0541036,-0.000606593,587,411,121.605,0.1,63.2334,0.1,3.112
-1.78866,-1.71135,0.401214,0.467863,-0.216719,-0.195961,-0.0541798,-0.000663514,587,413,121.677,0.1,63.4719,0.1,3.116
-1.78952,-1.71214,0.400997,0.467859,-0.217024,-0.195794,-0.0542559,-0.000787834,591,414,121.747,0.1,63.7108,0.1,3.12
-1.79039,-1.71293,0.40078,0.467854,-0.217328,-0.196346,-0.0543319,-0.000957086,589,416,121.821,0.1,63.9502,0.1,3.124
-1.79126,-1.71371,0.400562,0.467846,-0.217631,-0.196569,-0.0544077,-0.00130025,590,417,121.894,0.1,64.1898,0.1,3.128
-1.79213,-1.71449,0.400345,0.467837,-0.217934,-0.19597,-0.0544835,-0.00164419,598,418,121.968,0.1,64.4296,0.1,3.132
-1.79301,-1.71528,0.400127,0.467825,-0.218237,-0.196203,-0.0545591,-0.00207502,599,419,122.049,0.1,64.6696,0.1,3.136
-1.79388,-1.71607,0.399908,0.467811,-0.218539,-0.196244,-0.0546347,-0.00256377,601,420,122.13,0.1,64.9097,0.1,3.14
-1.79475,-1.71686,0.39969,0.467795,-0.21884,-0.197048,-0.0547101,-0.00300477,598,421,122.214,0.1,65.1499,0.1,3.144
-1.79563,-1.71764,0.399471,0.46778,-0.219142,-0.196663,-0.0547854,-0.00329877,604,423,122.294,0.1,65.3902,0.1,3.148
-1.79651,-1.71843,0.399251,0.467765,-0.219443,-0.196608,-0.0548606,-0.0034084,607,424,122.379,0.1,65.6308,0.1,3.152
-1.79739,-1.71922,0.399032,0.467753,-0.219743,-0.197205,-0.0549357,-0.00330874,605,425,122.468,0.1,65.872,0.1,3.156
-1.79826,-1.72002,0.398812,0.467743,-0.220043,-0.197747,-0.0550107,-0.00298318,604,427,122.554,0.1,66.1138,0.1,3.16
-1.79915,-1.72082,0.398592,0.467737,-0.220342,-0.198338,-0.0550856,-0.00250702,602,429,122.638,0.1,66.3565,0.1,3.164
-1.80003,-1.72162,0.398371,0.467733,-0.220641,-0.19928,-0.0551603,-0.00204563,597,431,122.72,0.1,66.6002,0.1,3.168
-1.80091,-1.72242,0.39815,0.46773,-0.22094,-0.199562,-0.055235,-0.00159408,598,433,122.797,0.1,66.8446,0.1,3.172
-1.8018,-1.72322,0.397929,0.467729,-0.221238,-0.199865,-0.0553095,-0.0011203,598,435,122.874,0.1,67.09,0.1,3.176
-1.80268,-1.72403,0.397708,0.467729,-0.221536,-0.200614,-0.0553839,-0.000746869,595,437,122.952,0.1,67.3363,0.1,3.18
-1.80357,-1.72484,0.397486,0.467729,-0.221833,-0.20071,-0.0554583,-0.000526703,597,439,123.026,0.1,67.5833,0.1,3.184
-1.80446,-1.72565,0.397264,0.467728,-0.22213,-0.201264,-0.0555324,-0.000408717,596,440,123.101,0.1,67.8309,0.1,3.188
-1.80534,-1.72645,0.397042,0.467729,-0.222426,-0.201576,-0.0556065,-0.000243687,596,442,123.175,0.1,68.0793,0.1,3.192
-1.80623,-1.72727,0.396819,0.467728,-0.222722,-0.202071,-0.0556805,-0.00022004,595,444,123.248,0.1,68.3282,0.1,3.196
-1.80713,-1.72808,0.396596,0.467727,-0.223017,-0.202229,-0.0557543,-0.000204275,597,445,123.321,0.1,68.5777,0.1,3.2
-1.80802,-1.72889,0.396373,0.467726,-0.223312,-0.20291,-0.0558281,-0.000280138,594,447,123.394,0.1,68.8277,0.1,3.204
-1.80891,-1.7297,0.39615,0.467724,-0.223607,-0.202442,-0.0559017,-0.000330713,600,448,123.465,0.1,69.0781,0.1,3.208
-1.80981,-1.73051,0.395926,0.467722,-0.223901,-0.202534,-0.0559752,-0.000393221,602,450,123.542,0.1,69.329,0.1,3.212
-1.8107,-1.73132,0.395702,0.467719,-0.224194,-0.202566,-0.0560486,-0.000521266,605,451,123.621,0.1,69.5803,0.1,3.216
-1.8116,-1.73213,0.395478,0.467713,-0.224487,-0.202674,-0.0561219,-0.000808165,607,453,123.702,0.1,69.832,0.1,3.22
-1.8125,-1.73295,0.395253,0.467708,-0.22478,-0.203149,-0.056195,-0.000999432,606,454,123.784,0.1,70.084,0.1,3.224
-1.8134,-1.73378,0.395028,0.467702,-0.225072,-0.204704,-0.0562681,-0.00112694,596,455,123.864,0.1,70.3366,0.1,3.228
-1.8143,-1.7346,0.394803,0.467697,-0.225364,-0.204905,-0.056341,-0.00115437,598,457,123.935,0.1,70.5894,0.1,3.232
-1.8152,-1.73544,0.394577,0.467692,-0.225655,-0.206306,-0.0564138,-0.00117265,589,459,124.006,0.1,70.8429,0.1,3.236
-1.81611,-1.73628,0.394352,0.467687,-0.225946,-0.207499,-0.0564865,-0.00121363,583,460,124.069,0.1,71.0969,0.1,3.24
-1.81701,-1.73712,0.394125,0.467682,-0.226236,-0.208525,-0.056559,-0.00124095,577,462,124.124,0.1,71.3513,0.1,3.244
-1.81792,-1.73797,0.393899,0.467677,-0.226526,-0.210102,-0.0566315,-0.00123037,568,463,124.174,0.1,71.6062,0.1,3.248
-1.81882,-1.73883,0.393672,0.467673,-0.226815,-0.211584,-0.0567038,-0.00113695,559,465,124.213,0.1,71.8618,0.1,3.252
-1.81973,-1.73969,0.393445,0.467671,-0.227104,-0.212659,-0.056776,-0.000988294,553,467,124.243,0.1,72.1179,0.1,3.256
-1.82064,-1.74054,0.393218,0.467668,-0.227392,-0.212944,-0.0568481,-0.000831608,553,468,124.267,0.1,72.3746,0.1,3.26
-1.82155,-1.74139,0.392991,0.467667,-0.22768,-0.212299,-0.0569201,-0.000669569,561,470,124.293,0.1,72.6318,0.1,3.264
-1.82246,-1.74223,0.392763,0.467666,-0.227968,-0.211926,-0.0569919,-0.000532752,566,472,124.325,0.1,72.8897,0.1,3.268
-1.82337,-1.74305,0.392535,0.467665,-0.228255,-0.20972,-0.0570636,-0.000441541,586,473,124.365,0.1,73.148,0.1,3.272
-1.82429,-1.74387,0.392306,0.467665,-0.228541,-0.207731,-0.0571352,-0.000323152,604,475,124.424,0.1,73.407,0.1,3.276
-1.8252,-1.74468,0.392078,0.467663,-0.228827,-0.206002,-0.0572067,-0.000330598,620,477,124.502,0.1,73.6665,0.1,3.28
-1.82612,-1.74548,0.391849,0.467663,-0.229112,-0.203698,-0.0572781,-0.00024919,641,478,124.596,0.1,73.9266,0.1,3.284
-1.82703,-1.74627,0.391619,0.467662,-0.229397,-0.20196,-0.0573493,-0.000223708,657,480,124.712,0.1,74.1873,0.1,3.288
-1.82795,-1.74706,0.39139,0.467661,-0.229682,-0.200485,-0.0574205,-0.000235512,672,482,124.843,0.1,74.4485,0.1,3.292
-1.82887,-1.74786,0.39116,0.46766,-0.229966,-0.200192,-0.0574915,-0.000243381,677,483,124.988,0.1,74.7104,0.1,3.296
-1.82979,-1.74865,0.39093,0.467658,-0.230249,-0.199738,-0.0575623,-0.000306208,683,485,125.138,0.1,74.9728,0.1,3.3
-1.83071,-1.74946,0.3907,0.467658,-0.230532,-0.200213,-0.0576331,-0.000261721,682,487,125.293,0.1,75.2358,0.1,3.304
-1.83164,-1.75028,0.390469,0.467656,-0.230815,-0.20171,-0.0577037,-0.000347226,674,488,125.446,0.1,75.4994,0.1,3.308
-1.83256,-1.75109,0.390238,0.467654,-0.231097,-0.202506,-0.0577742,-0.00040423,670,490,125.59,0.1,75.7634,0.1,3.312
-1.83349,-1.75193,0.390007,0.467652,-0.231378,-0.204592,-0.0578446,-0.000413441,657,491,125.729,0.1,76.028,0.1,3.316
-1.83441,-1.75276,0.389775,0.46765,-0.231659,-0.205464,-0.0579149,-0.000448373,653,493,125.854,0.1,76.293,0.1,3.32
-1.83534,-1.75361,0.389543,0.467647,-0.23194,-0.207802,-0.057985,-0.000529243,637,495,125.973,0.1,76.5586,0.1,3.324
-1.83627,-1.75445,0.389311,0.467645,-0.23222,-0.208496,-0.058055,-0.000496783,635,496,126.077,0.1,76.8246,0.1,3.328
-1.8372,-1.7553,0.389079,0.467644,-0.2325,-0.210341,-0.0581249,-0.000417561,623,498,126.176,0.1,77.0913,0.1,3.332
-1.83813,-1.75615,0.388846,0.467643,-0.232779,-0.210765,-0.0581946,-0.000393538,622,500,126.265,0.1,77.3583,0.1,3.336
-1.83906,-1.757,0.388613,0.467643,-0.233057,-0.211278,-0.0582643,-0.000233568,621,501,126.352,0.1,77.626,0.1,3.34
-1.83999,-1.75785,0.38838,0.467642,-0.233335,-0.211966,-0.0583338,-0.000242085,618,503,126.437,0.1,77.8943,0.1,3.344
-1.84093,-1.75872,0.388147,0.467642,-0.233613,-0.213806,-0.0584032,-0.000190181,606,505,126.518,0.1,78.1632,0.1,3.348
-1.84186,-1.75955,0.387913,0.467641,-0.23389,-0.211578,-0.0584724,-0.000184369,626,506,126.589,0.1,78.4323,0.1,3.352
-1.8428,-1.76041,0.387679,0.46764,-0.234166,-0.213029,-0.0585415,-0.000209285,618,508,126.678,0.1,78.7022,0.1,3.356
-1.84373,-1.76124,0.387445,0.467639,-0.234442,-0.210484,-0.0586105,-0.000225896,640,510,126.76,0.1,78.9723,0.1,3.36
-1.84467,-1.76207,0.38721,0.467637,-0.234718,-0.210112,-0.0586794,-0.000323343,646,511,126.864,0.1,79.243,0.1,3.364
