peachynonah/Fire_monitor_/csv_datas/trial12/cdsl_data_t12_1.csv
joint1_pos_desired, joint1_pos, joint2_pos_desired, joint2_pos, joint1_vel_desired, joint1_vel_filtered, joint2_vel_desired, joint2_vel_filtered, target_torque_joint1, target_torque_joint2, estimated_disturbance_joint1, saturated_DOB_joint1, estimated_disturbance_joint2, saturated_DOB_joint2, current_time
1.4778,1.47637,0.658399,0.656386,0,0,-1.88345e-07,0,-6,-49,0,0,18.2652,10,0.004
1.4778,1.47637,0.658399,0.656275,0,0,-7.52776e-07,-0.00924189,-6,-57,-0.0064828,-0.0064828,18.2093,10,0.008
1.4778,1.47637,0.658399,0.656191,0,0,-1.69239e-06,-0.0131575,-6,-61,-0.0129667,-0.0129667,18.1484,10,0.012
1.4778,1.47637,0.658399,0.656117,0,0,-3.00629e-06,-0.0149329,-6,-63,-0.0194514,-0.0194514,18.0853,10,0.016
1.4778,1.47637,0.658399,0.656053,0,5.75818e-05,-4.69356e-06,-0.0152816,-6,-63,-0.0259103,-0.0259103,18.0212,10,0.02
1.4778,1.47637,0.658399,0.656003,0,9.59697e-06,-6.75331e-06,-0.0143912,-6,-63,-0.0320509,-0.0320509,17.9573,10,0.024
1.4778,1.47637,0.658399,0.655967,0,6.39798e-06,-9.18463e-06,-0.0126172,-6,-62,-0.0384767,-0.0384767,17.8946,10,0.028
1.4778,1.47637,0.658399,0.655946,0,4.26532e-06,-1.19866e-05,-0.0101677,-6,-60,-0.0449225,-0.0449225,17.8337,10,0.032
1.4778,1.47637,0.658399,0.65594,0,2.84355e-06,-1.51584e-05,-0.00721033,-6,-58,-0.0513817,-0.0513817,17.7751,10,0.036
1.4778,1.47637,0.658399,0.655945,0,1.8957e-06,-1.86991e-05,-0.00440381,-6,-55,-0.0578498,-0.0578498,17.719,10,0.04
1.4778,1.47637,0.658399,0.655957,0,1.2638e-06,-2.26077e-05,-0.00192819,-6,-53,-0.0643237,-0.0643237,17.6653,10,0.044
1.4778,1.47637,0.658399,0.655976,0,8.42533e-07,-2.68834e-05,0.000269248,-6,-51,-0.0708013,-0.0708013,17.6137,10,0.048
1.4778,1.47637,0.658398,0.655998,0,5.61689e-07,-3.15253e-05,0.00205091,-6,-50,-0.0772814,-0.0772814,17.564,10,0.052
1.4778,1.47637,0.658398,0.656024,0,3.74459e-07,-3.65325e-05,0.0034978,-6,-48,-0.083763,-0.083763,17.5159,10,0.056
1.4778,1.47637,0.658398,0.656052,0,2.49639e-07,-4.19041e-05,0.00463514,-6,-47,-0.0902455,-0.0902455,17.4692,10,0.06
1.4778,1.47637,0.658398,0.656081,0,1.66426e-07,-4.76392e-05,0.00553732,-6,-46,-0.0967285,-0.0967285,17.4237,10,0.064
1.4778,1.47637,0.658398,0.656111,0,1.10951e-07,-5.37369e-05,0.00622515,-6,-45,-0.103212,-0.103212,17.3792,10,0.068
1.4778,1.47637,0.658398,0.656144,0,7.39672e-08,-6.01963e-05,0.00685645,-6,-45,-0.109695,-0.109695,17.3357,10,0.072
1.4778,1.47637,0.658397,0.656178,0,4.93115e-08,-6.70165e-05,0.00742127,-6,-44,-0.116178,-0.116178,17.293,10,0.076
1.4778,1.47637,0.658397,0.656213,0,3.28743e-08,-7.41967e-05,0.00788419,-6,-43,-0.122661,-0.122661,17.2512,10,0.08
1.4778,1.47637,0.658397,0.656251,0,2.19162e-08,-8.17359e-05,0.00839433,-6,-42,-0.129144,-0.129144,17.2102,10,0.084
1.4778,1.47637,0.658396,0.656289,0,1.46108e-08,-8.96332e-05,0.00879202,-6,-42,-0.135626,-0.135626,17.17,10,0.088
1.4778,1.47637,0.658396,0.656328,0,9.74054e-09,-9.78879e-05,0.00908593,-6,-41,-0.142108,-0.142108,17.1306,10,0.092
1.4778,1.47637,0.658396,0.656369,0,6.49369e-09,-0.000106499,0.00945461,-6,-41,-0.14859,-0.14859,17.0919,10,0.096
1.4778,1.47637,0.658395,0.65641,0,4.32913e-09,-0.000115465,0.00970041,-6,-40,-0.155071,-0.155071,17.0538,10,0.1
1.4778,1.47637,0.658395,0.656451,0,2.88609e-09,-0.000124786,0.00992185,-6,-40,-0.161552,-0.161552,17.0165,10,0.104
1.4778,1.47637,0.658394,0.656493,0,1.92406e-09,-0.000134461,0.0101271,-6,-39,-0.168033,-0.168033,16.9797,10,0.108
1.4778,1.47637,0.658394,0.656535,0,1.2827e-09,-0.000144489,0.0102351,-6,-39,-0.174513,-0.174513,16.9436,10,0.112
1.4778,1.47637,0.658393,0.656577,0,8.55136e-10,-0.000154868,0.0103359,-7,-39,-0.180993,-0.180993,16.908,10,0.116
1.4778,1.47637,0.658392,0.656619,0,5.70091e-10,-0.000165599,0.0104031,-7,-38,-0.187472,-0.187472,16.8729,10,0.12
1.4778,1.47637,0.658392,0.656661,0,3.80061e-10,-0.00017668,0.0104479,-7,-38,-0.193951,-0.193951,16.8384,10,0.124
1.4778,1.47637,0.658391,0.656705,0,2.53374e-10,-0.00018811,0.0105641,-7,-37,-0.20043,-0.20043,16.8044,10,0.128
1.4778,1.47637,0.65839,0.656747,0,1.68916e-10,-0.000199888,0.010584,-7,-37,-0.206908,-0.206908,16.7709,10,0.132
1.4778,1.47637,0.658389,0.656788,0,1.12611e-10,-0.000212014,0.0104533,-7,-37,-0.213385,-0.213385,16.7378,10,0.136
1.4778,1.47637,0.658388,0.656829,0,7.50737e-11,-0.000224487,0.0103662,-7,-37,-0.219863,-0.219863,16.705,10,0.14
1.4778,1.47637,0.658388,0.656869,0,5.00491e-11,-0.000237305,0.0103081,-7,-36,-0.22634,-0.22634,16.6727,10,0.144
1.4778,1.47637,0.658387,0.656909,0,3.33661e-11,-0.000250469,0.0101543,-7,-36,-0.232816,-0.232816,16.6407,10,0.148
1.4778,1.47637,0.658386,0.656948,0,2.22441e-11,-0.000263976,0.0100229,-7,-36,-0.239292,-0.239292,16.6091,10,0.152
1.4778,1.47637,0.658384,0.656987,0,1.48294e-11,-0.000277826,0.0099353,-7,-36,-0.245768,-0.245768,16.5778,10,0.156
1.4778,1.47637,0.658383,0.657024,0,9.88625e-12,-0.000292019,0.00973295,-7,-36,-0.252243,-0.252243,16.5468,10,0.16
1.4778,1.47637,0.658382,0.65706,0,6.59083e-12,-0.000306553,0.00948289,-7,-36,-0.258718,-0.258718,16.5161,10,0.164
1.4778,1.47637,0.658381,0.657092,0,4.39389e-12,-0.000321428,0.00897069,-7,-36,-0.265193,-0.265193,16.4854,10,0.168
1.4778,1.47637,0.65838,0.657119,0,2.92926e-12,-0.000336642,0.00822615,-7,-36,-0.271667,-0.271667,16.4546,10,0.172
1.4778,1.47637,0.658378,0.657141,0,1.95284e-12,-0.000352195,0.00735551,-7,-37,-0.278141,-0.278141,16.4234,10,0.176
1.4778,1.47637,0.658377,0.657159,0,1.30189e-12,-0.000368086,0.00634322,-7,-38,-0.284615,-0.284615,16.3918,10,0.18
1.4778,1.47637,0.658375,0.65717,0,8.67929e-13,-0.000384314,0.00520771,-7,-38,-0.291088,-0.291088,16.3596,10,0.184
1.4778,1.47637,0.658374,0.657176,0,5.78619e-13,-0.000400878,0.00393246,-7,-39,-0.297562,-0.297562,16.3267,10,0.188
1.4778,1.47637,0.658372,0.657176,0,3.85746e-13,-0.000417777,0.00259285,-7,-40,-0.304035,-0.304035,16.293,10,0.192
1.4778,1.47637,0.65837,0.657173,0,2.57164e-13,-0.000435011,0.00152703,-7,-41,-0.310509,-0.310509,16.2585,10,0.196
1.4778,1.47637,0.658369,0.65717,0,1.71443e-13,-0.000452578,0.00073011,-7,-42,-0.316982,-0.316982,16.2235,10,0.2
1.4778,1.47637,0.658367,0.657168,0,1.14295e-13,-0.000470478,0.000313994,-7,-42,-0.323456,-0.323456,16.1882,10,0.204
1.4778,1.47637,0.658365,0.657167,0,7.61967e-14,-0.000488709,0.000151748,-7,-42,-0.329929,-0.329929,16.1528,10,0.208
1.4778,1.47637,0.658363,0.657167,0,5.07978e-14,-0.000507272,0.000101165,-7,-42,-0.336403,-0.336403,16.1176,10,0.212
1.4778,1.47637,0.658361,0.657167,0,3.38652e-14,-0.000526164,6.74435e-05,-7,-42,-0.342876,-0.342876,16.0826,10,0.216
1.4778,1.47637,0.658359,0.657167,0,2.25768e-14,-0.000545386,7.37532e-05,-7,-42,-0.34935,-0.34935,16.0477,10,0.22
1.4778,1.47637,0.658356,0.657167,0,1.50512e-14,-0.000564936,2.03779e-05,-7,-42,-0.355823,-0.355823,16.013,10,0.224
1.4778,1.47637,0.658354,0.657167,0,1.00341e-14,-0.000584814,4.23762e-05,-7,-42,-0.362297,-0.362297,15.9784,10,0.228
1.4778,1.47637,0.658352,0.657167,0,6.68943e-15,-0.000605018,-5.40131e-07,-7,-42,-0.368771,-0.368771,15.9441,10,0.232
1.4778,1.47637,0.658349,0.657167,0,4.45962e-15,-0.000625548,2.84308e-05,-7,-42,-0.375244,-0.375244,15.9099,10,0.236
1.4778,1.47637,0.658347,0.657167,0,2.97308e-15,-0.000646403,1.89539e-05,-7,-42,-0.381718,-0.381718,15.8759,10,0.24
1.4778,1.47637,0.658344,0.657167,0,1.98205e-15,-0.000667582,1.26359e-05,-7,-42,-0.388191,-0.388191,15.8421,10,0.244
1.4778,1.47637,0.658341,0.657167,0,1.32137e-15,-0.000689084,8.42395e-06,-7,-42,-0.394665,-0.394665,15.8085,10,0.248
1.4778,1.47637,0.658339,0.657167,0,8.80912e-16,-0.000710908,5.61597e-06,-7,-42,-0.401138,-0.401138,15.775,10,0.252
1.4778,1.47637,0.658336,0.657167,0,5.87275e-16,-0.000733053,3.74398e-06,-7,-42,-0.407612,-0.407612,15.7418,10,0.256
1.4778,1.47637,0.658333,0.657167,0,3.91517e-16,-0.00075552,2.49599e-06,-8,-42,-0.414085,-0.414085,15.7087,10,0.26
1.4778,1.47637,0.65833,0.657167,0,2.61011e-16,-0.000778306,1.66399e-06,-8,-42,-0.420559,-0.420559,15.6758,10,0.264
1.4778,1.47637,0.658326,0.657167,0,1.74007e-16,-0.00080141,1.10933e-06,-8,-42,-0.427032,-0.427032,15.6431,10,0.268
1.4778,1.47637,0.658323,0.657167,0,1.16005e-16,-0.000824833,7.39551e-07,-8,-42,-0.433506,-0.433506,15.6106,10,0.272
1.4778,1.47637,0.65832,0.657167,0,7.73366e-17,-0.000848573,4.93034e-07,-8,-42,-0.439979,-0.439979,15.5783,10,0.276
1.4778,1.47637,0.658316,0.657167,0,5.15577e-17,-0.000872629,3.28689e-07,-8,-42,-0.446453,-0.446453,15.5462,10,0.28
1.4778,1.47637,0.658313,0.657167,0,3.43718e-17,-0.000897001,2.19126e-07,-8,-42,-0.452926,-0.452926,15.5142,10,0.284
1.4778,1.47637,0.658309,0.657167,0,2.29145e-17,-0.000921687,1.46084e-07,-8,-42,-0.4594,-0.4594,15.4825,10,0.288
1.4778,1.47637,0.658305,0.657167,0,1.52764e-17,-0.000946687,9.73895e-08,-8,-42,-0.465874,-0.465874,15.4509,10,0.292
1.4778,1.47637,0.658302,0.657167,0,1.01842e-17,-0.000972,6.49263e-08,-8,-42,-0.472347,-0.472347,15.4195,10,0.296
1.4778,1.47637,0.658298,0.657167,0,6.7895e-18,-0.000997625,4.32842e-08,-8,-42,-0.478821,-0.478821,15.3883,10,0.3
1.4778,1.47637,0.658294,0.657167,0,4.52633e-18,-0.00102356,2.88561e-08,-8,-42,-0.485294,-0.485294,15.3573,10,0.304
1.4778,1.47637,0.658289,0.657167,0,3.01755e-18,-0.00104981,1.92374e-08,-8,-42,-0.491768,-0.491768,15.3265,10,0.308
1.4778,1.47637,0.658285,0.657167,0,2.0117e-18,-0.00107636,1.2825e-08,-8,-41,-0.498241,-0.498241,15.2959,10,0.312
1.4778,1.47637,0.658281,0.657167,0,1.34113e-18,-0.00110323,8.54997e-09,-8,-41,-0.504715,-0.504715,15.2654,10,0.316
1.4778,1.47637,0.658276,0.657167,0,8.9409e-19,-0.0011304,5.69998e-09,-8,-41,-0.511188,-0.511188,15.2352,10,0.32
1.4778,1.47637,0.658272,0.657167,0,5.9606e-19,-0.00115788,3.79999e-09,-8,-41,-0.517662,-0.517662,15.2051,10,0.324
1.4778,1.47637,0.658267,0.657167,0,3.97373e-19,-0.00118566,2.53332e-09,-8,-41,-0.524135,-0.524135,15.1752,10,0.328
1.4778,1.47637,0.658262,0.657167,0,2.64916e-19,-0.00121375,1.68888e-09,-8,-41,-0.530609,-0.530609,15.1456,10,0.332
1.4778,1.47637,0.658257,0.657167,0,1.7661e-19,-0.00124215,1.12592e-09,-8,-41,-0.537082,-0.537082,15.1161,10,0.336
1.4778,1.47637,0.658252,0.657167,0,1.1774e-19,-0.00127085,7.50614e-10,-8,-41,-0.543556,-0.543556,15.0868,10,0.34
1.4778,1.47637,0.658247,0.657167,0,7.84935e-20,-0.00129985,5.0041e-10,-8,-41,-0.550029,-0.550029,15.0576,10,0.344
1.4778,1.47637,0.658242,0.657167,0,5.2329e-20,-0.00132915,3.33606e-10,-8,-41,-0.556503,-0.556503,15.0287,10,0.348
1.4778,1.47637,0.658237,0.657167,0,3.4886e-20,-0.00135875,2.22404e-10,-8,-41,-0.562977,-0.562977,15,10,0.352
1.4778,1.47637,0.658231,0.657167,0,2.32573e-20,-0.00138866,1.4827e-10,-8,-41,-0.56945,-0.56945,14.9714,10,0.356
1.4778,1.47637,0.658226,0.657167,0,1.55049e-20,-0.00141886,9.88463e-11,-8,-41,-0.575924,-0.575924,14.9431,10,0.36
1.4778,1.47637,0.65822,0.657167,0,1.03366e-20,-0.00144936,6.58976e-11,-8,-41,-0.582397,-0.582397,14.9149,10,0.364
1.4778,1.47637,0.658214,0.657167,0,6.89106e-21,-0.00148016,4.39317e-11,-8,-41,-0.588871,-0.588871,14.8869,10,0.368
1.4778,1.47637,0.658208,0.657167,0,4.59404e-21,-0.00151126,2.92878e-11,-8,-41,-0.595344,-0.595344,14.8592,10,0.372
1.4778,1.47637,0.658202,0.657167,0,3.06269e-21,-0.00154265,1.95252e-11,-8,-41,-0.601818,-0.601818,14.8316,10,0.376
1.4778,1.47637,0.658196,0.657167,0,2.0418e-21,-0.00157434,1.30168e-11,-8,-40,-0.608291,-0.608291,14.8042,10,0.38
1.4778,1.47637,0.658189,0.657167,0,1.3612e-21,-0.00160632,8.67787e-12,-8,-40,-0.614765,-0.614765,14.777,10,0.384
1.4778,1.47637,0.658183,0.657167,0,9.07465e-22,-0.0016386,5.78525e-12,-8,-40,-0.621238,-0.621238,14.75,10,0.388
1.4778,1.47637,0.658176,0.657167,0,6.04977e-22,-0.00167116,3.85683e-12,-8,-40,-0.627712,-0.627712,14.7232,10,0.392
1.4778,1.47637,0.658169,0.657167,0,4.03318e-22,-0.00170402,2.57122e-12,-8,-40,-0.634185,-0.634185,14.6965,10,0.396
1.4778,1.47637,0.658163,0.657167,0,2.68878e-22,-0.00173718,1.71415e-12,-8,-40,-0.640659,-0.640659,14.6701,10,0.4
1.4778,1.47637,0.658155,0.657167,0,1.79252e-22,-0.00177062,1.14276e-12,-9,-40,-0.647132,-0.647132,14.6439,10,0.404
1.4778,1.47637,0.658148,0.657167,0,1.19502e-22,-0.00180435,7.61843e-13,-9,-40,-0.653606,-0.653606,14.6178,10,0.408
1.4778,1.47637,0.658141,0.657167,0,7.96677e-23,-0.00183836,5.07895e-13,-9,-40,-0.66008,-0.66008,14.592,10,0.412
1.4778,1.47637,0.658134,0.657167,0,5.31118e-23,-0.00187267,3.38597e-13,-9,-40,-0.666553,-0.666553,14.5664,10,0.416
1.4778,1.47637,0.658126,0.657167,0,3.54079e-23,-0.00190726,2.25731e-13,-9,-40,-0.673027,-0.673027,14.5409,10,0.42
1.4778,1.47637,0.658118,0.657167,0,2.36052e-23,-0.00194214,1.50488e-13,-9,-40,-0.6795,-0.6795,14.5156,10,0.424
1.4778,1.47637,0.658111,0.657167,0,1.57368e-23,-0.00197731,1.00325e-13,-9,-40,-0.685974,-0.685974,14.4906,10,0.428
1.4778,1.47637,0.658103,0.657167,0,1.04912e-23,-0.00201276,6.68833e-14,-9,-39,-0.692447,-0.692447,14.4657,10,0.432
1.4778,1.47637,0.658094,0.657167,0,6.99415e-24,-0.00204849,4.45889e-14,-9,-39,-0.698921,-0.698921,14.4411,10,0.436
1.4778,1.47637,0.658086,0.657167,0,4.66276e-24,-0.0020845,2.97259e-14,-9,-39,-0.705394,-0.705394,14.4166,10,0.44
1.4778,1.47637,0.658078,0.657167,0,3.10851e-24,-0.0021208,1.98173e-14,-9,-39,-0.711868,-0.711868,14.3923,10,0.444
1.4778,1.47637,0.658069,0.657167,0,2.07234e-24,-0.00215738,1.32115e-14,-9,-39,-0.718341,-0.718341,14.3683,10,0.448
1.4778,1.47637,0.658061,0.657167,0,1.38156e-24,-0.00219423,8.80768e-15,-9,-39,-0.724815,-0.724815,14.3444,10,0.452
1.4778,1.47637,0.658052,0.657167,0,9.2104e-25,-0.00223137,5.87179e-15,-9,-39,-0.731288,-0.731288,14.3207,10,0.456
1.4778,1.47637,0.658043,0.657167,0,6.14027e-25,-0.00226879,3.91453e-15,-9,-39,-0.737762,-0.737762,14.2972,10,0.46
1.4778,1.47637,0.658034,0.657167,0,4.09351e-25,-0.00230648,2.60968e-15,-9,-39,-0.744235,-0.744235,14.274,10,0.464
1.4778,1.47637,0.658024,0.657167,0,2.72901e-25,-0.00234445,1.73979e-15,-9,-39,-0.750709,-0.750709,14.2509,10,0.468
1.4778,1.47637,0.658015,0.657167,0,1.81934e-25,-0.0023827,1.15986e-15,-9,-39,-0.757183,-0.757183,14.228,10,0.472
1.4778,1.47637,0.658005,0.657167,0,1.21289e-25,-0.00242122,7.7324e-16,-9,-38,-0.763656,-0.763656,14.2053,10,0.476
1.4778,1.47637,0.657995,0.657167,0,8.08595e-26,-0.00246001,5.15493e-16,-9,-38,-0.77013,-0.77013,14.1829,10,0.48
1.4778,1.47637,0.657985,0.657167,0,5.39063e-26,-0.00249908,3.43662e-16,-9,-38,-0.776603,-0.776603,14.1606,10,0.484
1.4778,1.47637,0.657975,0.657167,0,3.59375e-26,-0.00253843,2.29108e-16,-9,-38,-0.783077,-0.783077,14.1385,10,0.488
1.4778,1.47637,0.657965,0.657167,0,2.39584e-26,-0.00257804,1.52739e-16,-9,-38,-0.78955,-0.78955,14.1167,10,0.492
1.4778,1.47637,0.657955,0.657167,0,1.59722e-26,-0.00261793,1.01826e-16,-9,-38,-0.796024,-0.796024,14.095,10,0.496
1.4778,1.47637,0.657944,0.657167,0,1.06482e-26,-0.00265808,6.78839e-17,-9,-38,-0.802497,-0.802497,14.0736,10,0.5
1.4778,1.47637,0.657933,0.657167,0,7.09877e-27,-0.00269851,4.52559e-17,-9,-38,-0.808971,-0.808971,14.0523,10,0.504
1.4778,1.47637,0.657923,0.657167,0,4.73252e-27,-0.0027392,3.01706e-17,-9,-38,-0.815444,-0.815444,14.0313,10,0.508
1.4778,1.47637,0.657912,0.657167,0,3.15501e-27,-0.00278016,2.01137e-17,-9,-37,-0.821918,-0.821918,14.0104,10,0.512
1.4778,1.47637,0.6579,0.657167,0,2.10334e-27,-0.00282139,1.34092e-17,-9,-37,-0.828391,-0.828391,13.9898,10,0.516
1.4778,1.47637,0.657889,0.657167,0,1.40223e-27,-0.00286289,8.93944e-18,-9,-37,-0.834865,-0.834865,13.9694,10,0.52
1.4778,1.47637,0.657877,0.657167,0,9.34818e-28,-0.00290465,5.95963e-18,-9,-37,-0.841338,-0.841338,13.9491,10,0.524
1.4778,1.47637,0.657866,0.657167,0,6.23212e-28,-0.00294668,3.97308e-18,-9,-37,-0.847812,-0.847812,13.9291,10,0.528
1.4778,1.47637,0.657854,0.657167,0,4.15475e-28,-0.00298897,2.64872e-18,-9,-37,-0.854285,-0.854285,13.9093,10,0.532
1.4778,1.47637,0.657842,0.657167,0,2.76983e-28,-0.00303152,1.76582e-18,-9,-37,-0.860759,-0.860759,13.8897,10,0.536
1.4778,1.47637,0.65783,0.657167,0,1.84655e-28,-0.00307433,1.17721e-18,-9,-37,-0.867233,-0.867233,13.8703,10,0.54
1.4778,1.47637,0.657817,0.657167,0,1.23104e-28,-0.00311741,7.84807e-19,-9,-37,-0.873706,-0.873706,13.8511,10,0.544
1.4778,1.47637,0.657805,0.657167,0,8.20691e-29,-0.00316075,5.23204e-19,-9,-36,-0.88018,-0.88018,13.8322,10,0.548
1.4778,1.47637,0.657792,0.657167,0,5.47127e-29,-0.00320434,3.48803e-19,-10,-36,-0.886653,-0.886653,13.8134,10,0.552
1.4778,1.47637,0.657779,0.657167,0,3.64751e-29,-0.0032482,2.32535e-19,-10,-36,-0.893127,-0.893127,13.7949,10,0.556
1.4778,1.47637,0.657766,0.657167,0,2.43168e-29,-0.00329231,1.55024e-19,-10,-36,-0.8996,-0.8996,13.7765,10,0.56
1.4778,1.47637,0.657753,0.657167,0,1.62112e-29,-0.00333669,1.03349e-19,-10,-36,-0.906074,-0.906074,13.7584,10,0.564
1.4778,1.47637,0.657739,0.657167,0,1.08074e-29,-0.00338131,-2.87909e-05,-10,-36,-0.912547,-0.912547,13.7405,10,0.568
1.4778,1.47637,0.657726,0.657167,0,7.20496e-30,-0.0034262,9.59697e-06,-10,-36,-0.919021,-0.919021,13.7228,10,0.572
1.4778,1.47637,0.657712,0.657167,0,4.80331e-30,-0.00347134,6.39798e-06,-10,-36,-0.925494,-0.925494,13.7053,10,0.576
1.4778,1.47637,0.657698,0.657167,0,3.20221e-30,-0.00351673,4.26532e-06,-10,-35,-0.931968,-0.931968,13.688,10,0.58
1.4778,1.47637,0.657684,0.657167,0,2.1348e-30,-0.00356238,-2.59474e-05,-10,-35,-0.938441,-0.938441,13.6709,10,0.584
1.4778,1.47637,0.657669,0.657167,0,1.4232e-30,-0.00360828,1.14927e-05,-10,-35,-0.944915,-0.944915,13.6541,10,0.588
1.4778,1.47637,0.657655,0.657167,0,9.48802e-31,-0.00365443,7.66178e-06,-10,-35,-0.951388,-0.951388,13.6375,10,0.592
1.4778,1.47637,0.65764,0.657167,0,6.32535e-31,-0.00370083,5.10785e-06,-10,-35,-0.957862,-0.957862,13.6211,10,0.596
1.4778,1.47637,0.657625,0.657167,0,4.2169e-31,-0.00374748,3.40524e-06,-10,-35,-0.964336,-0.964336,13.6049,10,0.6
1.4778,1.47637,0.65761,0.657167,0,2.81127e-31,-0.00379438,2.27016e-06,-10,-35,-0.970809,-0.970809,13.5889,10,0.604
1.4778,1.47637,0.657595,0.657167,0,1.87418e-31,-0.00384153,1.51344e-06,-10,-34,-0.977283,-0.977283,13.5731,10,0.608
1.4778,1.47637,0.657579,0.657167,0,1.24945e-31,-0.00388893,1.00896e-06,-10,-34,-0.983756,-0.983756,13.5576,10,0.612
1.4778,1.47637,0.657564,0.657167,0,8.32967e-32,-0.00393658,6.72639e-07,-10,-34,-0.99023,-0.99023,13.5423,10,0.616
1.4778,1.47637,0.657548,0.657167,0,5.55312e-32,-0.00398447,4.48426e-07,-10,-34,-0.996703,-0.996703,13.5272,10,0.62
1.4778,1.47637,0.657532,0.657167,0,3.70208e-32,-0.0040326,2.98951e-07,-10,-34,-1.00318,-1.00318,13.5123,10,0.624
1.4778,1.47637,0.657516,0.657167,0,2.46805e-32,-0.00408098,1.99301e-07,-10,-34,-1.00965,-1.00965,13.4976,10,0.628
1.4778,1.47637,0.657499,0.657167,0,1.64537e-32,-0.00412961,1.32867e-07,-10,-34,-1.01612,-1.01612,13.4832,10,0.632
1.4778,1.47637,0.657483,0.657167,0,1.09691e-32,-0.00417848,8.8578e-08,-10,-33,-1.0226,-1.0226,13.469,10,0.636
1.4778,1.47637,0.657466,0.657167,0,7.31275e-33,-0.00422759,-2.87319e-05,-10,-33,-1.02907,-1.02907,13.455,10,0.64
1.4778,1.47637,0.657449,0.657167,0,4.87516e-33,-0.00427694,-1.91546e-05,-10,-33,-1.03554,-1.03554,13.4412,10,0.644
1.4778,1.47637,0.657432,0.657167,0,3.25011e-33,-0.00432653,-1.27697e-05,-10,-33,-1.04202,-1.04202,13.4276,10,0.648
1.4778,1.47637,0.657414,0.657167,0,2.16674e-33,-0.00437637,-8.51315e-06,-10,-33,-1.04849,-1.04849,13.4143,10,0.652
1.4778,1.47637,0.657397,0.657167,0,1.44449e-33,-0.00442644,-5.67543e-06,-10,-33,-1.05497,-1.05497,13.4012,10,0.656
1.4778,1.47637,0.657379,0.657167,0,9.62995e-34,-0.00447675,-3.78362e-06,-10,-32,-1.06144,-1.06144,13.3883,10,0.66
1.4778,1.47637,0.657361,0.657167,0,6.41997e-34,-0.0045273,2.62685e-05,-10,-32,-1.06791,-1.06791,13.3757,10,0.664
1.4778,1.47637,0.657343,0.657167,0,4.27998e-34,-0.00457808,-1.12786e-05,-10,-32,-1.07439,-1.07439,13.3633,10,0.668
1.4778,1.47637,0.657324,0.657167,0,2.85332e-34,-0.0046291,-7.51906e-06,-10,-32,-1.08086,-1.08086,13.3511,10,0.672
1.4778,1.47637,0.657306,0.657167,0,1.90221e-34,-0.00468036,-5.0127e-06,-10,-32,-1.08733,-1.08733,13.3391,10,0.676
1.4778,1.47637,0.657287,0.657167,0,1.26814e-34,-0.00473185,-3.3418e-06,-10,-32,-1.09381,-1.09381,13.3274,10,0.68
1.4778,1.47637,0.657268,0.657167,0,8.45428e-35,-0.00478357,-2.22787e-06,-10,-31,-1.10028,-1.10028,13.3159,10,0.684
1.4778,1.47637,0.657248,0.657167,0,5.63619e-35,-0.00483553,-1.48525e-06,-10,-31,-1.10675,-1.10675,13.3046,10,0.688
1.4778,1.47637,0.657229,0.657167,0,3.75746e-35,-0.00488772,-9.90164e-07,-10,-31,-1.11323,-1.11323,13.2936,10,0.692
1.4778,1.47637,0.657209,0.657167,0,2.50497e-35,-0.00494014,-6.60109e-07,-11,-31,-1.1197,-1.1197,13.2828,10,0.696
1.4778,1.47637,0.65719,0.657167,0,1.66998e-35,-0.00499279,2.83509e-05,-11,-31,-1.12617,-1.12617,13.2722,10,0.7
1.4778,1.47637,0.657169,0.657167,0,1.11332e-35,-0.00504567,-9.89036e-06,-11,-31,-1.13265,-1.13265,13.2619,10,0.704
1.4778,1.47637,0.657149,0.657167,0,7.42214e-36,-0.00509878,-6.59357e-06,-11,-30,-1.13912,-1.13912,13.2517,10,0.708
1.4778,1.47637,0.657129,0.657167,0,4.94809e-36,-0.00515211,-4.39571e-06,-11,-30,-1.14559,-1.14559,13.2419,10,0.712
1.4778,1.47637,0.657108,0.657167,0,3.29873e-36,-0.00520568,-2.93048e-06,-11,-30,-1.15207,-1.15207,13.2322,10,0.716
1.4778,1.47637,0.657087,0.657167,0,2.19915e-36,-0.00525947,-1.95365e-06,-11,-30,-1.15854,-1.15854,13.2228,10,0.72
1.4778,1.47637,0.657066,0.657167,0,1.4661e-36,-0.00531349,-1.30243e-06,-11,-30,-1.16502,-1.16502,13.2136,10,0.724
1.4778,1.47637,0.657044,0.657167,0,9.77401e-37,-0.00536773,-8.68289e-07,-11,-29,-1.17149,-1.17149,13.2047,10,0.728
1.4778,1.47637,0.657023,0.657167,0,6.51601e-37,-0.0054222,-5.78859e-07,-11,-29,-1.17796,-1.17796,13.196,10,0.732
1.4778,1.47637,0.657001,0.657167,0,4.344e-37,-0.00547689,-3.85906e-07,-11,-29,-1.18444,-1.18444,13.1876,10,0.736
1.4778,1.47637,0.656979,0.657167,0,2.896e-37,-0.0055318,-2.57271e-07,-11,-29,-1.19091,-1.19091,13.1793,10,0.74
1.4778,1.47637,0.656957,0.657167,0,1.93067e-37,-0.00558694,-1.71514e-07,-11,-29,-1.19738,-1.19738,13.1714,10,0.744
1.4778,1.47637,0.656934,0.657167,0,1.28711e-37,-0.00564229,-1.14343e-07,-11,-28,-1.20386,-1.20386,13.1636,10,0.748
1.4778,1.47637,0.656912,0.657167,0,8.58075e-38,-0.00569787,-7.62284e-08,-11,-28,-1.21033,-1.21033,13.1561,10,0.752
1.4778,1.47637,0.656889,0.657167,0,5.7205e-38,-0.00575367,-5.08189e-08,-11,-28,-1.2168,-1.2168,13.1489,10,0.756
1.4778,1.47637,0.656866,0.657167,0,3.81367e-38,-0.00580968,-3.38793e-08,-11,-28,-1.22328,-1.22328,13.1419,10,0.76
1.4778,1.47637,0.656842,0.657167,0,2.54244e-38,-0.00586591,-2.25862e-08,-11,-28,-1.22975,-1.22975,13.1351,10,0.764
1.4778,1.47637,0.656819,0.657167,0,1.69496e-38,-0.00592237,-1.50575e-08,-11,-27,-1.23622,-1.23622,13.1286,10,0.768
1.4778,1.47637,0.656795,0.657167,0,1.12998e-38,-0.00597903,-1.00383e-08,-11,-27,-1.2427,-1.2427,13.1223,10,0.772
1.4778,1.47637,0.656771,0.657167,0,7.53317e-39,-0.00603592,-6.69221e-09,-11,-27,-1.24917,-1.24917,13.1163,10,0.776
1.4778,1.47637,0.656747,0.657167,0,5.02211e-39,-0.00609301,-4.46147e-09,-11,-27,-1.25564,-1.25564,13.1105,10,0.78
1.4778,1.47637,0.656722,0.657167,0,3.34807e-39,-0.00615033,-2.97431e-09,-11,-27,-1.26212,-1.26212,13.1049,10,0.784
1.4778,1.47637,0.656697,0.657167,0,2.23205e-39,-0.00620785,-1.98288e-09,-11,-26,-1.26859,-1.26859,13.0997,10,0.788
1.4778,1.47637,0.656673,0.657167,0,1.48803e-39,-0.00626559,-2.87922e-05,-11,-26,-1.27507,-1.27507,13.0946,10,0.792
1.4778,1.47637,0.656647,0.657167,0,9.92022e-40,-0.00632354,9.59609e-06,-11,-26,-1.28154,-1.28154,13.0898,10,0.796
1.4778,1.47637,0.656622,0.657167,0,6.61348e-40,-0.00638171,6.3974e-06,-11,-26,-1.28801,-1.28801,13.0853,10,0.8
1.4778,1.47637,0.656596,0.657167,0,4.40899e-40,-0.00644008,-2.4526e-05,-11,-25,-1.29449,-1.29449,13.081,10,0.804
1.4778,1.47637,0.65657,0.657167,0,2.93932e-40,-0.00649866,-1.63507e-05,-11,-25,-1.30096,-1.30096,13.0769,10,0.808
1.4778,1.47637,0.656544,0.657167,0,1.95955e-40,-0.00655745,-1.09004e-05,-11,-25,-1.30743,-1.30743,13.0731,10,0.812
1.4778,1.47637,0.656518,0.657167,0,1.30637e-40,-0.00661645,-7.26696e-06,-11,-25,-1.31391,-1.31391,13.0695,10,0.816
1.4778,1.47637,0.656491,0.657167,0,8.70911e-41,-0.00667566,-4.84464e-06,-11,-25,-1.32038,-1.32038,13.0662,10,0.82
1.4778,1.47637,0.656465,0.657167,0,5.80607e-41,-0.00673507,-3.22976e-06,-11,-24,-1.32685,-1.32685,13.0632,10,0.824
1.4778,1.47637,0.656437,0.657167,0,3.87072e-41,-0.00679469,-2.15317e-06,-11,-24,-1.33333,-1.33333,13.0604,10,0.828
1.4778,1.47637,0.65641,0.657167,0,2.58048e-41,-0.00685452,-1.43545e-06,-11,-24,-1.3398,-1.3398,13.0579,10,0.832
1.4778,1.47637,0.656383,0.657166,0,1.72032e-41,-0.00691455,-2.97479e-05,-11,-24,-1.34627,-1.34627,13.0556,10,0.836
1.4778,1.47637,0.656355,0.657166,0,1.14688e-41,-0.00697478,-1.98319e-05,-12,-23,-1.35275,-1.35275,13.0536,10,0.84
1.4778,1.47637,0.656327,0.657166,0,7.64586e-42,-0.00703522,-1.32213e-05,-12,-23,-1.35922,-1.35922,13.0518,10,0.844
1.4778,1.47637,0.656299,0.657166,0,5.09724e-42,-0.00709586,-8.81419e-06,-12,-23,-1.36569,-1.36569,13.0503,10,0.848
1.4778,1.47637,0.65627,0.657166,0,3.39816e-42,-0.0071567,-5.87613e-06,-12,-23,-1.37217,-1.37217,13.0491,10,0.852
1.4778,1.47637,0.656241,0.657166,0,2.26544e-42,-0.00721774,-3.91742e-06,-12,-22,-1.37864,-1.37864,13.0481,10,0.856
1.4778,1.47637,0.656212,0.657166,0,1.51029e-42,-0.00727898,-3.14025e-05,-12,-22,-1.38512,-1.38512,13.0474,10,0.86
1.4778,1.47637,0.656183,0.657166,0,1.00686e-42,-0.00734042,7.8559e-06,-12,-22,-1.39159,-1.39159,13.0469,10,0.864
1.4778,1.47637,0.656154,0.657166,0,6.71241e-43,-0.00740206,-2.35537e-05,-12,-22,-1.39806,-1.39806,13.0467,10,0.868
1.4778,1.47637,0.656124,0.657166,0,4.47494e-43,-0.00746389,-1.57024e-05,-12,-21,-1.40454,-1.40454,13.0468,10,0.872
1.4778,1.47637,0.656094,0.657166,0,2.98329e-43,-0.00752593,-1.04683e-05,-12,-21,-1.41101,-1.41101,13.0471,10,0.876
1.4778,1.47637,0.656064,0.657166,0,1.98886e-43,-0.00758815,-6.97886e-06,-12,-21,-1.41748,-1.41748,13.0477,10,0.88
1.4778,1.47637,0.656033,0.657166,0,1.32591e-43,-0.00765058,-4.65257e-06,-12,-21,-1.42396,-1.42396,13.0485,10,0.884
1.4778,1.47637,0.656002,0.657166,0,8.83939e-44,-0.0077132,-3.10172e-06,-12,-20,-1.43043,-1.43043,13.0497,10,0.888
1.4778,1.47637,0.655971,0.657166,0,5.89293e-44,-0.00777601,-3.08587e-05,-12,-20,-1.4369,-1.4369,13.0511,10,0.892
1.4778,1.47637,0.65594,0.657166,0,3.92862e-44,-0.00783902,8.21843e-06,-12,-20,-1.44338,-1.44338,13.0527,10,0.896
1.4778,1.47637,0.655909,0.657166,0,2.61908e-44,-0.00790222,-2.3312e-05,-12,-20,-1.44985,-1.44985,13.0546,10,0.9
1.4778,1.47637,0.655877,0.657166,0,2.87909e-05,-0.00796561,-1.55413e-05,-12,-19,-1.45631,-1.45631,13.0568,10,0.904
1.4778,1.47637,0.655845,0.657166,0,-9.59697e-06,-0.00802919,-1.03609e-05,-12,-19,-1.46262,-1.46262,13.0593,10,0.908
1.4778,1.47637,0.655813,0.657166,0,-6.39798e-06,-0.00809296,-6.90725e-06,-12,-19,-1.46915,-1.46915,13.062,10,0.912
1.4778,1.47637,0.65578,0.657165,0,-4.26532e-06,-0.00815692,-3.33958e-05,-12,-18,-1.47566,-1.47566,13.065,10,0.916
1.4778,1.47637,0.655748,0.657165,0,2.59474e-05,-0.00822107,-2.22638e-05,-12,-18,-1.48215,-1.48215,13.0683,10,0.92
1.4778,1.47637,0.655715,0.657165,0,-1.14927e-05,-0.00828541,-1.48426e-05,-12,-18,-1.48848,-1.48848,13.0718,10,0.924
1.4778,1.47637,0.655681,0.657165,0,-7.66178e-06,-0.00834994,-9.89504e-06,-12,-18,-1.49502,-1.49502,13.0756,10,0.928
1.4778,1.47637,0.655648,0.657165,0,-5.10785e-06,-0.00841465,-6.59669e-06,-12,-17,-1.50154,-1.50154,13.0797,10,0.932
1.4778,1.47637,0.655614,0.657165,0,-3.40524e-06,-0.00847955,-4.3978e-06,-12,-17,-1.50805,-1.50805,13.0841,10,0.936
1.4778,1.47637,0.65558,0.657165,0,-2.27016e-06,-0.00854463,-2.93186e-06,-12,-17,-1.51454,-1.51454,13.0888,10,0.94
1.4778,1.47637,0.655546,0.657165,0,-1.51344e-06,-0.0086099,-3.07455e-05,-12,-17,-1.52103,-1.52103,13.0937,10,0.944
1.4778,1.47637,0.655511,0.657165,0,-1.00896e-06,-0.00867535,-2.0497e-05,-12,-16,-1.52751,-1.52751,13.0989,10,0.948
1.4778,1.47637,0.655476,0.657165,0,-6.72639e-07,-0.00874098,-1.36647e-05,-12,-16,-1.53399,-1.53399,13.1043,10,0.952
1.4778,1.47637,0.655441,0.657165,0,-4.48426e-07,-0.0088068,-9.10978e-06,-12,-16,-1.54047,-1.54047,13.1101,10,0.956
1.4778,1.47637,0.655406,0.657165,0,-2.90899e-05,-0.0088728,-6.07319e-06,-13,-15,-1.54696,-1.54696,13.1161,10,0.96
1.4778,1.47637,0.65537,0.657164,0,3.81886e-05,-0.00893897,-3.28397e-05,-12,-15,-1.55359,-1.55359,13.1225,10,0.964
1.4778,1.47637,0.655334,0.657164,0,2.54591e-05,-0.00900533,-2.18931e-05,-12,-15,-1.55982,-1.55982,13.129,10,0.968
1.4778,1.47637,0.655298,0.657164,0,-1.18182e-05,-0.00907187,-1.45954e-05,-12,-14,-1.56615,-1.56615,13.1359,10,0.972
1.4778,1.47637,0.655262,0.657164,0,2.09121e-05,-0.00913858,-9.73029e-06,-12,-14,-1.57268,-1.57268,13.1431,10,0.976
1.4778,1.47637,0.655225,0.657164,0,-1.48495e-05,-0.00920548,-6.40687e-05,-13,-14,-1.57904,-1.57904,13.1505,10,0.98
1.4778,1.47637,0.655188,0.657164,0,-9.89968e-06,-0.00927255,-1.39215e-05,-13,-14,-1.58561,-1.58561,13.1582,10,0.984
1.4778,1.47637,0.655151,0.657164,0,-6.59978e-06,-0.0093398,-9.28103e-06,-13,-13,-1.59214,-1.59214,13.1662,10,0.988
1.4778,1.47637,0.655113,0.657164,0,2.43911e-05,-0.00940722,-6.18735e-06,-12,-13,-1.59864,-1.59864,13.1745,10,0.992
1.4778,1.47637,0.655076,0.657164,0,-1.25302e-05,-0.00947482,-3.29158e-05,-13,-13,-1.60498,-1.60498,13.1831,10,0.996
1.4778,1.47637,0.655037,0.657164,0,-8.35347e-06,-0.00954259,-2.19439e-05,-13,-12,-1.61153,-1.61153,13.192,10,1
1.4778,1.47637,0.654999,0.657163,0,2.32219e-05,-0.00961053,-4.34202e-05,-12,-12,-1.61804,-1.61804,13.2011,10,1.004
1.4778,1.47637,0.654961,0.657163,0,1.54813e-05,-0.00967865,-5.77377e-05,-13,-12,-1.62437,-1.62437,13.2106,10,1.008
1.4778,1.47637,0.654922,0.657163,0,1.03209e-05,-0.00974694,-3.84918e-05,-13,-11,-1.63074,-1.63074,13.2203,10,1.012
1.4778,1.47637,0.654883,0.657163,0,6.88058e-06,-0.0098154,-5.44521e-05,-13,-11,-1.63715,-1.63715,13.2303,10,1.016
1.4778,1.47637,0.654843,0.657162,0,-2.42039e-05,-0.00988403,-9.38833e-05,-13,-11,-1.6436,-1.6436,13.2405,10,1.02
1.4778,1.47637,0.654804,0.657162,0,1.2655e-05,-0.00995283,-3.37979e-05,-13,-10,-1.65021,-1.65021,13.2511,10,1.024
1.4778,1.47637,0.654764,0.657162,0,8.43667e-06,-0.0100218,-8.01138e-05,-13,-10,-1.6566,-1.6566,13.262,10,1.028
1.4778,1.47637,0.654723,0.657162,0,5.62445e-06,-0.0100909,-2.46183e-05,-13,-10,-1.66302,-1.66302,13.2732,10,1.032
1.4778,1.47637,0.654683,0.657162,0,3.74963e-06,-0.0101602,-4.52031e-05,-13,-9,-1.66946,-1.66946,13.2846,10,1.036
1.4778,1.47637,0.654642,0.657161,0,2.49975e-06,-0.0102297,-5.89263e-05,-13,-9,-1.67591,-1.67591,13.2964,10,1.04
1.4778,1.47637,0.654601,0.657161,0,1.6665e-06,-0.0102994,-9.68661e-05,-13,-9,-1.68236,-1.68236,13.3084,10,1.044
1.4778,1.47637,0.65456,0.65716,0,1.111e-06,-0.0103692,-9.33683e-05,-13,-8,-1.68882,-1.68882,13.3207,10,1.048
1.4778,1.47637,0.654518,0.65716,0,7.40668e-07,-0.0104391,-9.10365e-05,-13,-8,-1.69529,-1.69529,13.3333,10,1.052
1.4778,1.47637,0.654476,0.65716,0,4.93779e-07,-0.0105093,-8.94819e-05,-13,-8,-1.70176,-1.70176,13.3462,10,1.056
1.4778,1.47637,0.654434,0.657159,0,3.29186e-07,-0.0105796,-0.000146027,-13,-7,-1.70823,-1.70823,13.3594,10,1.06
1.4778,1.47637,0.654392,0.657159,0,2.19457e-07,-0.01065,-9.73516e-05,-13,-7,-1.7147,-1.7147,13.3729,10,1.064
1.4778,1.47637,0.654349,0.657158,0,-5.74355e-05,-0.0107206,-9.3692e-05,-13,-7,-1.72119,-1.72119,13.3867,10,1.068
1.4778,1.47637,0.654306,0.657158,0,1.92915e-05,-0.0107914,-0.000120043,-13,-6,-1.728,-1.728,13.4008,10,1.072
1.4778,1.47637,0.654262,0.657157,0,1.2861e-05,-0.0108624,-0.000137611,-13,-6,-1.73435,-1.73435,13.4152,10,1.076
1.4778,1.47637,0.654219,0.657157,0,3.73649e-05,-0.0109335,-0.000120531,-13,-6,-1.74073,-1.74073,13.4298,10,1.08
1.4778,1.47637,0.654175,0.657156,0,-3.88098e-06,-0.0110047,-0.000166727,-13,-5,-1.74698,-1.74698,13.4448,10,1.084
1.4778,1.47637,0.654131,0.657156,0,-2.58732e-06,-0.0110762,-0.000111151,-13,-5,-1.75348,-1.75348,13.4601,10,1.088
1.4778,1.47637,0.654086,0.657154,0,-1.72488e-06,-0.0111477,-0.000160474,-13,-5,-1.75997,-1.75997,13.4756,10,1.092
1.4778,1.47637,0.654042,0.657154,0,-1.14992e-06,-0.0112195,-0.000164564,-13,-4,-1.76645,-1.76645,13.4915,10,1.096
1.4778,1.47637,0.653997,0.657154,0,-7.66613e-07,-0.0112914,-0.00010971,-13,-4,-1.77293,-1.77293,13.5077,10,1.1
1.4778,1.47637,0.653951,0.657153,0,-5.11075e-07,-0.0113634,-0.000159512,-13,-4,-1.7794,-1.7794,13.5242,10,1.104
1.4778,1.47637,0.653906,0.657153,0,-3.40717e-07,-0.0114356,-0.000106342,-13,-3,-1.78588,-1.78588,13.541,10,1.108
1.4778,1.47637,0.65386,0.657152,0,-2.27145e-07,-0.011508,-0.000128476,-13,-3,-1.79235,-1.79235,13.5581,10,1.112
1.4778,1.47637,0.653814,0.657152,0,-1.5143e-07,-0.0115805,-0.000114442,-13,-2,-1.79883,-1.79883,13.5755,10,1.116
1.4778,1.47637,0.653767,0.657151,0,-5.76828e-05,-0.0116531,-0.000105085,-14,-2,-1.80533,-1.80533,13.5933,10,1.12
1.4778,1.47637,0.65372,0.657151,0,1.91266e-05,-0.011726,-9.88479e-05,-13,-2,-1.81213,-1.81213,13.6113,10,1.124
1.4778,1.47637,0.653673,0.657151,0,1.27511e-05,-0.0117989,-9.46895e-05,-13,-1,-1.81849,-1.81849,13.6297,10,1.128
1.4778,1.47637,0.653626,0.65715,0,8.50073e-06,-0.011872,-9.19173e-05,-13,-1,-1.82488,-1.82488,13.6484,10,1.132
1.4778,1.47637,0.653578,0.65715,0,5.66715e-06,-0.0119453,-9.00691e-05,-14,0,-1.8313,-1.8313,13.6674,10,1.136
1.4778,1.47637,0.653531,0.65715,0,3.7781e-06,-0.0120187,-8.8837e-05,-14,0,-1.83774,-1.83774,13.6867,10,1.14
1.4778,1.47637,0.653482,0.657149,0,2.51874e-06,-0.0120923,-8.80156e-05,-14,0,-1.84419,-1.84419,13.7064,10,1.144
1.4778,1.47637,0.653434,0.657149,0,1.67916e-06,-0.012166,-0.000116259,-14,0,-1.85064,-1.85064,13.7263,10,1.148
1.4778,1.47637,0.653385,0.657149,0,1.11944e-06,-0.0122399,-1.99241e-05,-14,0,-1.8571,-1.8571,13.7466,10,1.152
1.4778,1.47637,0.653336,0.657149,0,7.46292e-07,-0.0123139,-7.08646e-05,-14,1,-1.86357,-1.86357,13.7672,10,1.156
1.4778,1.47637,0.653286,0.657148,0,4.97528e-07,-0.012388,-7.6034e-05,-14,1,-1.87004,-1.87004,13.7882,10,1.16
1.4778,1.47637,0.653237,0.657148,0,3.31685e-07,-0.0124623,-7.94802e-05,-14,1,-1.87651,-1.87651,13.8094,10,1.164
1.4778,1.47637,0.653187,0.657148,0,2.21124e-07,-0.0125367,-5.29868e-05,-14,2,-1.88298,-1.88298,13.831,10,1.168
1.4778,1.47637,0.653136,0.657148,0,1.47416e-07,-0.0126113,-6.41155e-05,-14,2,-1.88945,-1.88945,13.8529,10,1.172
1.4778,1.47637,0.653086,0.657148,0,9.82771e-08,-0.0126861,-4.27437e-05,-14,3,-1.89592,-1.89592,13.8751,10,1.176
1.4778,1.47637,0.653035,0.657147,0,6.55181e-08,-0.0127609,-5.72867e-05,-14,3,-1.90239,-1.90239,13.8977,10,1.18
1.4778,1.47637,0.652984,0.657147,0,4.36787e-08,-0.0128359,-3.81911e-05,-14,3,-1.90886,-1.90886,13.9205,10,1.184
1.4778,1.47637,0.652932,0.657148,0,2.91192e-08,-0.0129111,3.33017e-06,-14,4,-1.91533,-1.91533,13.9438,10,1.188
1.4778,1.47637,0.65288,0.657147,0,1.94128e-08,-0.0129864,-5.53617e-05,-14,4,-1.92181,-1.92181,13.9673,10,1.192
1.4778,1.47637,0.652828,0.657147,0,1.29418e-08,-0.0130618,-3.69078e-05,-14,5,-1.92828,-1.92828,13.9912,10,1.196
1.4778,1.47637,0.652776,0.657147,0,8.6279e-09,-0.0131374,-2.46052e-05,-14,5,-1.93475,-1.93475,14.0154,10,1.2
1.4778,1.47637,0.652723,0.657147,0,5.75193e-09,-0.0132131,-1.64035e-05,-14,6,-1.94122,-1.94122,14.0399,10,1.204
1.4778,1.47637,0.65267,0.657147,0,3.83462e-09,-0.0132889,-1.09357e-05,-14,6,-1.94769,-1.94769,14.0648,10,1.208
1.4778,1.47637,0.652617,0.657146,0,2.55641e-09,-0.0133649,-6.48723e-05,-14,6,-1.95417,-1.95417,14.09,10,1.212
1.4778,1.47637,0.652563,0.657146,0,1.70428e-09,-0.013441,-7.20391e-05,-14,7,-1.96064,-1.96064,14.1155,10,1.216
1.4778,1.47637,0.652509,0.657145,0,1.13618e-09,-0.0135173,-0.000134399,-14,7,-1.96711,-1.96711,14.1413,10,1.22
1.4778,1.47637,0.652455,0.657144,0,7.57456e-10,-0.0135937,-0.000175972,-14,7,-1.97358,-1.97358,14.1673,10,1.224
1.4778,1.47637,0.652401,0.657141,0,5.04971e-10,-0.0136702,-0.000318851,-14,8,-1.98005,-1.98005,14.1936,10,1.228
1.4778,1.47637,0.652346,0.657139,0,3.36647e-10,-0.0137469,-0.000385313,-14,8,-1.98653,-1.98653,14.2202,10,1.232
1.4778,1.47637,0.652291,0.657137,0,2.24431e-10,-0.0138237,-0.000487203,-14,9,-1.993,-1.993,14.247,10,1.236
1.4778,1.47637,0.652235,0.657133,0,1.49621e-10,-0.0139006,-0.00058392,-14,9,-1.99947,-1.99947,14.2741,10,1.24
1.4778,1.47637,0.65218,0.65713,0,9.97473e-11,-0.0139776,-0.000677189,-14,9,-2.00594,-2.00594,14.3014,10,1.244
1.4778,1.47637,0.652123,0.657126,0,6.64982e-11,-0.0140548,-0.000739369,-14,10,-2.01242,-2.01242,14.3289,10,1.248
1.4778,1.47637,0.652067,0.657123,0,4.43321e-11,-0.0141321,-0.000809613,-14,10,-2.01889,-2.01889,14.3567,10,1.252
1.4778,1.47637,0.65201,0.657119,0,2.95548e-11,-0.0142096,-0.000856442,-14,10,-2.02536,-2.02536,14.3848,10,1.256
1.4778,1.47637,0.651953,0.657114,0,1.97032e-11,-0.0142871,-0.000945243,-14,11,-2.03183,-2.03183,14.4132,10,1.26
1.4778,1.47637,0.651896,0.65711,0,1.31354e-11,-0.0143648,-0.00103324,-14,11,-2.03831,-2.03831,14.4418,10,1.264
1.4778,1.47637,0.651838,0.657104,0,8.75696e-12,-0.0144427,-0.00114948,-14,11,-2.04478,-2.04478,14.4706,10,1.268
1.4778,1.47637,0.651781,0.657098,0,5.83798e-12,-0.0145206,-0.00125576,-14,12,-2.05125,-2.05125,14.4996,10,1.272
1.4778,1.47637,0.651722,0.657091,0,3.89198e-12,-0.0145987,-0.00141299,-15,12,-2.05772,-2.05772,14.5289,10,1.276
1.4778,1.47637,0.651664,0.657084,0,2.59466e-12,-0.0146769,-0.0015754,-15,12,-2.0642,-2.0642,14.5583,10,1.28
1.4778,1.47637,0.651605,0.657076,0,1.72977e-12,-0.0147552,-0.00165487,-15,13,-2.07067,-2.07067,14.5879,10,1.284
1.4778,1.47637,0.651546,0.657069,0,1.15318e-12,-0.0148337,-0.00173665,-15,13,-2.07714,-2.07714,14.6178,10,1.288
1.4778,1.47637,0.651486,0.657061,0,7.68787e-13,-0.0149122,-0.00181996,-15,13,-2.08361,-2.08361,14.6479,10,1.292
1.4778,1.47637,0.651426,0.657054,0,5.12525e-13,-0.0149909,-0.00181791,-15,14,-2.09009,-2.09009,14.6783,10,1.296
1.4778,1.47637,0.651366,0.657047,0,3.41683e-13,-0.0150698,-0.00178776,-15,14,-2.09656,-2.09656,14.709,10,1.3
1.4778,1.47637,0.651306,0.657041,0,2.27789e-13,-0.0151487,-0.0016525,-15,15,-2.10303,-2.10303,14.74,10,1.304
1.4778,1.47637,0.651245,0.657036,0,1.51859e-13,-0.0152278,-0.00153353,-15,15,-2.10951,-2.10951,14.7716,10,1.308
1.4778,1.47637,0.651184,0.657031,0,1.01239e-13,-0.0153069,-0.00142542,-15,16,-2.11598,-2.11598,14.8035,10,1.312
1.4778,1.47637,0.651123,0.657027,0,6.7493e-14,-0.0153862,-0.00126698,-15,16,-2.12245,-2.12245,14.8358,10,1.316
1.4778,1.47637,0.651061,0.657025,0,4.49953e-14,-0.0154657,-0.00104619,-15,17,-2.12893,-2.12893,14.8687,10,1.32
1.4778,1.47637,0.650999,0.657023,0,2.99969e-14,-0.0155452,-0.000841416,-15,18,-2.1354,-2.1354,14.9021,10,1.324
1.4778,1.47637,0.650937,0.657022,0,1.99979e-14,-0.0156248,-0.000647317,-15,18,-2.14187,-2.14187,14.9359,10,1.328
1.4778,1.47637,0.650874,0.657024,0,1.33319e-14,-0.0157046,-0.000316381,-15,19,-2.14835,-2.14835,14.9704,10,1.332
1.4778,1.47637,0.650811,0.657024,0,5.75818e-05,-0.0157845,-0.00018213,-15,20,-2.15479,-2.15479,15.0054,10,1.336
1.4778,1.47637,0.650748,0.657023,0,-1.91939e-05,-0.0158645,-0.000179002,-15,20,-2.16094,-2.16094,15.0408,10,1.34
1.4778,1.47637,0.650684,0.657023,0,-1.2796e-05,-0.0159446,-0.000119334,-15,21,-2.16753,-2.16753,15.0766,10,1.344
1.4778,1.47637,0.65062,0.657023,0,-3.73216e-05,-0.0160248,-7.95563e-05,-15,21,-2.17409,-2.17409,15.1127,10,1.348
1.4778,1.47637,0.650556,0.657023,0,3.90988e-06,-0.0161052,-5.30375e-05,-15,22,-2.18078,-2.18078,15.1493,10,1.352
1.4778,1.47637,0.650491,0.657023,0,-2.61843e-05,-0.0161856,-3.53583e-05,-15,22,-2.18725,-2.18725,15.1862,10,1.356
1.4778,1.47637,0.650426,0.657023,0,1.13347e-05,-0.0162662,-5.23632e-05,-15,23,-2.19387,-2.19387,15.2235,10,1.36
1.4778,1.47637,0.650361,0.657023,0,3.63474e-05,-0.0163469,-3.49088e-05,-15,23,-2.20026,-2.20026,15.2612,10,1.364
1.4778,1.47637,0.650296,0.657023,0,-4.55933e-06,-0.0164277,-2.32725e-05,-15,24,-2.20652,-2.20652,15.2992,10,1.368
1.4778,1.47637,0.65023,0.657023,0,2.57514e-05,-0.0165086,-1.5515e-05,-15,24,-2.21301,-2.21301,15.3377,10,1.372
1.4778,1.47637,0.650164,0.657023,0,1.71676e-05,-0.0165896,-1.03433e-05,-15,25,-2.21932,-2.21932,15.3764,10,1.376
1.4778,1.47637,0.650097,0.657023,0,1.14451e-05,-0.0166707,-6.89556e-06,-15,25,-2.22569,-2.22569,15.4156,10,1.38
1.4778,1.47637,0.65003,0.657023,0,-4.99518e-05,-0.0167519,-4.59704e-06,-16,26,-2.23212,-2.23212,15.4551,10,1.384
1.4778,1.47637,0.649963,0.657022,0,2.42806e-05,-0.0168333,-3.18556e-05,-15,27,-2.23887,-2.23887,15.495,10,1.388
1.4778,1.47637,0.649895,0.657022,0,4.4978e-05,-0.0169147,-2.12371e-05,-15,27,-2.24518,-2.24518,15.5353,10,1.392
1.4778,1.47637,0.649828,0.657022,0,1.19442e-06,-0.0169962,-7.17399e-05,-15,28,-2.25139,-2.25139,15.5759,10,1.396
1.4778,1.47637,0.64976,0.657022,0,7.96281e-07,-0.0170779,-1.90357e-05,-15,28,-2.25785,-2.25785,15.6169,10,1.4
1.4778,1.47637,0.649691,0.657021,0,5.30854e-07,-0.0171596,-7.02723e-05,-15,29,-2.26432,-2.26432,15.6582,10,1.404
1.4778,1.47637,0.649622,0.657021,0,2.91448e-05,-0.0172415,-7.56391e-05,-15,29,-2.27078,-2.27078,15.6999,10,1.408
1.4778,1.47637,0.649553,0.65702,0,-9.36104e-06,-0.0173235,-0.000136799,-16,30,-2.27708,-2.27708,15.7419,10,1.412
1.4778,1.47637,0.649484,0.65702,0,-6.24069e-06,-0.0174055,-9.11992e-05,-16,30,-2.28361,-2.28361,15.7844,10,1.416
1.4778,1.47637,0.649414,0.657019,0,-4.16046e-06,-0.0174877,-0.000147172,-16,31,-2.29012,-2.29012,15.8271,10,1.42
1.4778,1.47637,0.649344,0.657019,0,-2.77364e-06,-0.01757,-9.81148e-05,-16,31,-2.29662,-2.29662,15.8703,10,1.424
1.4778,1.47637,0.649273,0.657018,0,-5.94309e-05,-0.0176523,-0.000122992,-16,32,-2.30313,-2.30313,15.9138,10,1.428
1.4778,1.47637,0.649203,0.657017,0,1.79612e-05,-0.0177348,-0.000168367,-15,32,-2.30995,-2.30995,15.9577,10,1.432
1.4778,1.47637,0.649131,0.657017,0,1.19741e-05,-0.0178174,-0.000169827,-16,33,-2.31631,-2.31631,16.0019,10,1.436
1.4778,1.47637,0.64906,0.657014,0,7.98276e-06,-0.0179,-0.000314754,-16,33,-2.32271,-2.32271,16.0464,10,1.44
1.4778,1.47637,0.648988,0.657012,0,5.32184e-06,-0.0179828,-0.000411373,-16,34,-2.32913,-2.32913,16.0912,10,1.444
1.4778,1.47637,0.648916,0.657009,0,3.5479e-06,-0.0180657,-0.000504576,-16,34,-2.33557,-2.33557,16.1363,10,1.448
1.4778,1.47637,0.648844,0.657006,0,2.36526e-06,-0.0181486,-0.000566711,-16,35,-2.34202,-2.34202,16.1817,10,1.452
1.4778,1.47637,0.648771,0.657003,0,1.57684e-06,-0.0182317,-0.000665717,-16,35,-2.34848,-2.34848,16.2274,10,1.456
1.4778,1.47637,0.648698,0.656998,0,1.05123e-06,-0.0183148,-0.000818093,-16,36,-2.35494,-2.35494,16.2734,10,1.46
1.4778,1.47637,0.648624,0.656994,0,7.00819e-07,-0.0183981,-0.000890887,-16,36,-2.3614,-2.3614,16.3196,10,1.464
1.4778,1.47637,0.648551,0.656989,0,4.67213e-07,-0.0184814,-0.00105458,-16,36,-2.36787,-2.36787,16.3661,10,1.468
1.4778,1.47637,0.648477,0.656981,0,3.11475e-07,-0.0185648,-0.00130766,-16,37,-2.37434,-2.37434,16.4127,10,1.472
1.4778,1.47637,0.648402,0.656974,0,2.0765e-07,-0.0186484,-0.00150518,-16,37,-2.38081,-2.38081,16.4595,10,1.476
1.4778,1.47637,0.648327,0.656965,0,1.38433e-07,-0.018732,-0.00175201,-16,37,-2.38728,-2.38728,16.5065,10,1.48
1.4778,1.47637,0.648252,0.656953,0,9.22889e-08,-0.0188157,-0.00211811,-16,38,-2.39375,-2.39375,16.5535,10,1.484
1.4778,1.47637,0.648177,0.656942,0,6.15259e-08,-0.0188995,-0.00239096,-16,38,-2.40023,-2.40023,16.6006,10,1.488
1.4778,1.47637,0.648101,0.656929,0,4.10173e-08,-0.0189834,-0.00263045,-16,38,-2.4067,-2.4067,16.6479,10,1.492
1.4778,1.47637,0.648025,0.656917,0,2.73449e-08,-0.0190674,-0.00279011,-16,39,-2.41317,-2.41317,16.6953,10,1.496
1.4778,1.47637,0.647949,0.656904,0,1.82299e-08,-0.0191514,-0.00295413,-16,39,-2.41964,-2.41964,16.7429,10,1.5
1.4778,1.47637,0.647872,0.656889,0,1.21533e-08,-0.0192356,-0.00317864,-16,39,-2.42612,-2.42612,16.7906,10,1.504
1.4778,1.47637,0.647795,0.656874,0,8.10218e-09,-0.0193199,-0.00338589,-16,40,-2.43259,-2.43259,16.8384,10,1.508
1.4778,1.47637,0.647717,0.656857,0,5.40145e-09,-0.0194042,-0.00369681,-16,40,-2.43906,-2.43906,16.8864,10,1.512
1.4778,1.47637,0.647639,0.656838,0,3.60097e-09,-0.0194886,-0.00401925,-16,40,-2.44554,-2.44554,16.9344,10,1.516
1.4778,1.47637,0.647561,0.656818,0,2.40065e-09,-0.0195731,-0.00432058,-16,40,-2.45201,-2.45201,16.9824,10,1.52
1.4778,1.47637,0.647483,0.656798,0,1.60043e-09,-0.0196577,-0.00455026,-16,41,-2.45848,-2.45848,17.0305,10,1.524
1.4778,1.47637,0.647404,0.656779,0,1.06695e-09,-0.0197424,-0.00467459,-16,41,-2.46496,-2.46496,17.0787,10,1.528
1.4778,1.47637,0.647325,0.656759,0,7.11303e-10,-0.0198272,-0.00478627,-16,41,-2.47143,-2.47143,17.1271,10,1.532
1.4778,1.47637,0.647245,0.656737,0,4.74202e-10,-0.019912,-0.00497588,-16,42,-2.47791,-2.47791,17.1757,10,1.536
1.4778,1.47637,0.647166,0.656716,0,3.16134e-10,-0.0199969,-0.00510229,-16,42,-2.48438,-2.48438,17.2244,10,1.54
1.4778,1.47637,0.647085,0.656693,0,2.10756e-10,-0.0200819,-0.00527294,-16,42,-2.49086,-2.49086,17.2733,10,1.544
1.4778,1.47637,0.647005,0.65667,0,1.40504e-10,-0.020167,-0.00544428,-16,43,-2.49733,-2.49733,17.3223,10,1.548
1.4778,1.47637,0.646924,0.656647,0,9.36695e-11,-0.0202522,-0.00558731,-16,43,-2.50381,-2.50381,17.3714,10,1.552
1.4778,1.47637,0.646843,0.656622,0,6.24463e-11,-0.0203375,-0.00574024,-16,43,-2.51028,-2.51028,17.4207,10,1.556
1.4778,1.47637,0.646761,0.656597,0,4.16309e-11,-0.0204228,-0.00592856,-16,44,-2.51676,-2.51676,17.4701,10,1.56
1.4778,1.47637,0.64668,0.656573,0,2.77539e-11,-0.0205082,-0.00596774,-17,44,-2.52323,-2.52323,17.5197,10,1.564
1.4778,1.47637,0.646597,0.656548,0,1.85026e-11,-0.0205937,-0.00602265,-17,44,-2.52971,-2.52971,17.5695,10,1.568
1.4778,1.47637,0.646515,0.656525,0,1.23351e-11,-0.0206793,-0.00600167,-17,45,-2.53619,-2.53619,17.6195,10,1.572
1.4778,1.47637,0.646432,0.656499,0,8.22338e-12,-0.0207649,-0.00613164,-17,45,-2.54266,-2.54266,17.6698,10,1.576
1.4778,1.47637,0.646349,0.656474,0,2.87909e-05,-0.0208506,-0.0061895,-16,46,-2.54913,-2.54913,17.7203,10,1.58
1.4778,1.47637,0.646265,0.656448,0,4.79849e-05,-0.0209364,-0.00628565,-16,46,-2.55541,-2.55541,17.771,10,1.584
1.4778,1.47637,0.646181,0.656421,0,-2.55919e-05,-0.0210223,-0.00640734,-17,46,-2.56162,-2.56162,17.8218,10,1.588
1.4778,1.47637,0.646097,0.656395,0,1.17296e-05,-0.0211083,-0.00648846,-17,47,-2.56824,-2.56824,17.8728,10,1.592
1.4778,1.47637,0.646012,0.656368,0,-2.09712e-05,-0.0211943,-0.00657133,-17,47,-2.57466,-2.57466,17.924,10,1.596
1.4778,1.47637,0.645927,0.65634,0,4.36011e-05,-0.0212804,-0.00668416,-16,48,-2.58124,-2.58124,17.9754,10,1.6
1.4778,1.47637,0.645842,0.656313,0,-2.85145e-05,-0.0213666,-0.00673059,-17,48,-2.58747,-2.58747,18.027,10,1.604
1.4778,1.47637,0.645756,0.656285,0,3.85722e-05,-0.0214528,-0.00684792,-17,48,-2.5941,-2.5941,18.0787,10,1.608
1.4778,1.47637,0.64567,0.656256,0,-6.0658e-05,-0.0215391,-0.00698372,-17,49,-2.60038,-2.60038,18.1306,10,1.612
1.4778,1.47637,0.645584,0.656226,0,1.71432e-05,-0.0216255,-0.00707425,-17,49,-2.6072,-2.6072,18.1827,10,1.616
1.4778,1.47637,0.645497,0.656197,0,1.14288e-05,-0.021712,-0.00719218,-17,50,-2.61358,-2.61358,18.2349,10,1.62
1.4778,1.47637,0.64541,0.656167,0,3.64101e-05,-0.0217985,-0.0072996,-17,50,-2.61997,-2.61997,18.2873,10,1.624
1.4778,1.47637,0.645323,0.656137,0,-4.51751e-06,-0.0218851,-0.00734242,-17,50,-2.62624,-2.62624,18.3399,10,1.628
1.4778,1.47637,0.645235,0.656105,0,-3.01167e-06,-0.0219718,-0.00754371,-17,51,-2.63274,-2.63274,18.3926,10,1.632
1.4778,1.47637,0.645147,0.656074,0,-5.95896e-05,-0.0220585,-0.00764912,-17,51,-2.63927,-2.63927,18.4455,10,1.636
1.4778,1.47637,0.645059,0.656041,0,4.66464e-05,-0.0221453,-0.00783455,-17,51,-2.64608,-2.64608,18.4985,10,1.64
1.4778,1.47637,0.64497,0.656007,0,2.30664e-06,-0.0222322,-0.00801575,-17,52,-2.65228,-2.65228,18.5515,10,1.644
1.4778,1.47637,0.644881,0.655975,0,1.53776e-06,-0.0223191,-0.00802139,-17,52,-2.65875,-2.65875,18.6048,10,1.648
1.4778,1.47637,0.644792,0.655946,0,2.98161e-05,-0.0224061,-0.00782361,-17,53,-2.66521,-2.66521,18.6584,10,1.652
1.4778,1.47637,0.644702,0.655922,0,-6.64954e-05,-0.0224932,-0.00720232,-18,54,-2.67154,-2.67154,18.7126,10,1.656
1.4778,1.47637,0.644612,0.655903,0,1.32516e-05,-0.0225803,-0.00635625,-17,55,-2.67841,-2.67841,18.7678,10,1.66
1.4778,1.47637,0.644521,0.65589,0,8.8344e-06,-0.0226675,-0.00533156,-17,56,-2.68481,-2.68481,18.824,10,1.664
1.4778,1.47637,0.64443,0.655882,0,5.8896e-06,-0.0227547,-0.00418777,-17,58,-2.69124,-2.69124,18.8815,10,1.668
1.4778,1.47637,0.644339,0.65588,0,3.9264e-06,-0.0228421,-0.00302218,-17,60,-2.69768,-2.69768,18.9404,10,1.672
1.4778,1.47637,0.644248,0.65588,0,2.6176e-06,-0.0229294,-0.0019572,-17,61,-2.70414,-2.70414,19.0006,10,1.676
1.4778,1.47637,0.644156,0.655882,0,1.74507e-06,-0.0230169,-0.00118964,-17,63,-2.7106,-2.7106,19.0619,10,1.68
1.4778,1.47637,0.644063,0.655881,0,2.99543e-05,-0.0231044,-0.000821883,-17,64,-2.71706,-2.71706,19.1241,10,1.684
1.4778,1.47637,0.643971,0.655881,0,-8.82139e-06,-0.0231919,-0.000547922,-17,64,-2.72337,-2.72337,19.187,10,1.688
1.4778,1.47637,0.643878,0.655881,0,-5.88093e-06,-0.0232796,-0.000365281,-17,65,-2.72991,-2.72991,19.2505,10,1.692
1.4778,1.47637,0.643785,0.655881,0,-3.92062e-06,-0.0233672,-0.000243521,-17,66,-2.73642,-2.73642,19.3146,10,1.696
1.4778,1.47637,0.643691,0.655881,0,2.61772e-05,-0.023455,-0.000162347,-17,67,-2.74292,-2.74292,19.3792,10,1.7
1.4778,1.47637,0.643597,0.655881,0,-1.13395e-05,-0.0235428,-0.000108231,-18,68,-2.74925,-2.74925,19.4443,10,1.704
1.4778,1.47637,0.643503,0.655881,0,-7.55965e-06,-0.0236306,-7.21543e-05,-18,68,-2.7558,-2.7558,19.5099,10,1.708
1.4778,1.47637,0.643408,0.655881,0,-5.03977e-06,-0.0237186,-4.81029e-05,-18,69,-2.76233,-2.76233,19.5759,10,1.712
1.4778,1.47637,0.643313,0.655881,0,-3.35984e-06,-0.0238065,-3.20686e-05,-18,70,-2.76884,-2.76884,19.6425,10,1.716
1.4778,1.47637,0.643217,0.655881,0,-2.2399e-06,-0.0238945,-2.13791e-05,-18,71,-2.77534,-2.77534,19.7095,10,1.72
1.4778,1.47637,0.643122,0.655881,0,-1.49326e-06,-0.0239826,-1.42527e-05,-18,71,-2.78184,-2.78184,19.7769,10,1.724
1.4778,1.47637,0.643026,0.655881,0,-9.95509e-07,-0.0240708,-9.5018e-06,-18,72,-2.78833,-2.78833,19.8449,10,1.728
1.4778,1.47637,0.642929,0.655881,0,-6.63673e-07,-0.0241589,-6.33453e-06,-18,73,-2.79482,-2.79482,19.9133,10,1.732
1.4778,1.47637,0.642832,0.655881,0,-4.42449e-07,-0.0242472,-4.22302e-06,-18,74,-2.8013,-2.8013,19.9821,10,1.736
1.4778,1.47637,0.642735,0.655881,0,2.8496e-05,-0.0243355,-2.81535e-06,-18,74,-2.80777,-2.80777,20.0514,10,1.74
1.4778,1.47637,0.642638,0.655881,0,-9.79362e-06,-0.0244238,-1.8769e-06,-18,75,-2.81409,-2.81409,20.1212,10,1.744
1.4778,1.47637,0.64254,0.655881,0,-6.52908e-06,-0.0245122,-1.25127e-06,-18,76,-2.82063,-2.82063,20.1914,10,1.748
1.4778,1.47637,0.642442,0.655881,0,-4.35272e-06,-0.0246007,-8.34177e-07,-18,77,-2.82715,-2.82715,20.2621,10,1.752
1.4778,1.47637,0.642343,0.655881,0,-2.90181e-06,-0.0246891,-5.56118e-07,-18,77,-2.83366,-2.83366,20.3333,10,1.756
1.4778,1.47637,0.642244,0.655881,0,-1.93454e-06,-0.0247777,-3.70745e-07,-18,78,-2.84016,-2.84016,20.4049,10,1.76
1.4778,1.47637,0.642145,0.655881,0,-1.28969e-06,-0.0248663,-2.47164e-07,-18,79,-2.84666,-2.84666,20.477,10,1.764
1.4778,1.47637,0.642045,0.655881,0,-8.59796e-07,-0.0249549,-1.64776e-07,-18,80,-2.85314,-2.85314,20.5495,10,1.768
1.4778,1.47637,0.641945,0.655881,0,-5.73198e-07,-0.0250436,-2.89008e-05,-18,80,-2.85963,-2.85963,20.6225,10,1.772
1.4778,1.47637,0.641845,0.655881,0,-3.82132e-07,-0.0251324,9.52374e-06,-18,81,-2.86612,-2.86612,20.696,10,1.776
1.4778,1.47637,0.641744,0.655881,0,-2.54754e-07,-0.0252211,-2.24418e-05,-18,82,-2.8726,-2.8726,20.7699,10,1.78
1.4778,1.47637,0.641643,0.655881,0,-1.69836e-07,-0.02531,1.38297e-05,-18,83,-2.87908,-2.87908,20.8443,10,1.784
1.4778,1.47637,0.641542,0.655881,0,-1.13224e-07,-0.0253988,-1.95711e-05,-18,83,-2.88557,-2.88557,20.9192,10,1.788
1.4778,1.47637,0.64144,0.655881,0,-7.54828e-08,-0.0254878,-1.30474e-05,-18,84,-2.89205,-2.89205,20.9945,10,1.792
1.4778,1.47637,0.641338,0.655881,0,-5.03219e-08,-0.0255767,-8.69826e-06,-18,85,-2.89853,-2.89853,21.0703,10,1.796
1.4778,1.47637,0.641235,0.655881,0,-3.35479e-08,-0.0256657,-5.79884e-06,-18,86,-2.90501,-2.90501,21.1465,10,1.8
1.4778,1.47637,0.641132,0.655881,0,-2.23653e-08,-0.0257548,-3.86589e-06,-18,86,-2.91149,-2.91149,21.2232,10,1.804
1.4778,1.47637,0.641029,0.655881,0,-1.49102e-08,-0.0258439,-2.57726e-06,-18,87,-2.91798,-2.91798,21.3004,10,1.808
1.4778,1.47637,0.640926,0.655881,0,-9.94012e-09,-0.025933,-1.71818e-06,-18,88,-2.92446,-2.92446,21.3781,10,1.812
1.4778,1.47637,0.640822,0.655881,0,-6.62675e-09,-0.0260222,-1.14545e-06,-18,89,-2.93094,-2.93094,21.4562,10,1.816
1.4778,1.47637,0.640717,0.655881,0,-4.41783e-09,-0.0261114,-7.63634e-07,-18,90,-2.93742,-2.93742,21.5348,10,1.82
1.4778,1.47637,0.640613,0.655881,0,-2.94522e-09,-0.0262007,-5.09089e-07,-18,90,-2.9439,-2.9439,21.6139,10,1.824
1.4778,1.47637,0.640508,0.655881,0,-1.96348e-09,-0.02629,-3.39393e-07,-18,91,-2.95038,-2.95038,21.6934,10,1.828
1.4778,1.47637,0.640402,0.655881,0,-1.30899e-09,-0.0263793,-2.26262e-07,-18,92,-2.95686,-2.95686,21.7734,10,1.832
1.4778,1.47637,0.640297,0.655881,0,-8.72658e-10,-0.0264687,-1.50841e-07,-18,93,-2.96335,-2.96335,21.8539,10,1.836
1.4778,1.47637,0.640191,0.655881,0,-5.81772e-10,-0.0265581,-1.00561e-07,-18,94,-2.96983,-2.96983,21.9348,10,1.84
1.4778,1.47637,0.640084,0.655881,0,-3.87848e-10,-0.0266476,-6.70405e-08,-18,94,-2.97631,-2.97631,22.0162,10,1.844
1.4778,1.47637,0.639978,0.655881,0,-2.58565e-10,-0.026737,-4.46937e-08,-18,95,-2.98279,-2.98279,22.0981,10,1.848
1.4778,1.47637,0.63987,0.655881,0,-1.72377e-10,-0.0268266,-2.88207e-05,-18,96,-2.98927,-2.98927,22.1805,10,1.852
1.4778,1.47637,0.639763,0.655881,0,-1.14918e-10,-0.0269161,-1.92138e-05,-19,97,-2.99575,-2.99575,22.2633,10,1.856
1.4778,1.47637,0.639655,0.655881,0,-7.6612e-11,-0.0270057,-1.28092e-05,-19,98,-3.00224,-3.00224,22.3466,10,1.86
1.4778,1.47637,0.639547,0.655881,0,-5.10747e-11,-0.0270954,-8.53947e-06,-19,98,-3.00872,-3.00872,22.4304,10,1.864
1.4778,1.47637,0.639438,0.655881,0,-3.40498e-11,-0.027185,-5.69298e-06,-19,99,-3.0152,-3.0152,22.5146,10,1.868
1.4778,1.47637,0.639329,0.655881,0,-2.26998e-11,-0.0272747,-3.79532e-06,-19,100,-3.02168,-3.02168,22.5994,10,1.872
1.4778,1.47637,0.63922,0.655881,0,-1.51332e-11,-0.0273644,-2.53021e-06,-19,101,-3.02816,-3.02816,22.6846,10,1.876
1.4778,1.47637,0.63911,0.655881,0,-1.00888e-11,-0.0274542,-1.68681e-06,-19,102,-3.03464,-3.03464,22.7703,10,1.88
1.4778,1.47637,0.639,0.655881,0,-6.72588e-12,-0.027544,-1.12454e-06,-19,103,-3.04112,-3.04112,22.8564,10,1.884
1.4778,1.47637,0.63889,0.65588,0,-4.48392e-12,-0.0276338,-2.95406e-05,-19,103,-3.04761,-3.04761,22.943,10,1.888
1.4778,1.47637,0.638779,0.65588,0,-2.98928e-12,-0.0277237,-1.96937e-05,-19,104,-3.05409,-3.05409,23.0301,10,1.892
1.4778,1.47637,0.638668,0.65588,0,-1.99285e-12,-0.0278136,-1.31292e-05,-19,105,-3.06057,-3.06057,23.1177,10,1.896
1.4778,1.47637,0.638557,0.65588,0,-1.32857e-12,-0.0279035,-8.75278e-06,-19,106,-3.06705,-3.06705,23.2058,10,1.9
1.4778,1.47637,0.638445,0.65588,0,-8.85713e-13,-0.0279934,-3.46261e-05,-19,107,-3.07353,-3.07353,23.2943,10,1.904
1.4778,1.47637,0.638333,0.65588,0,-5.90475e-13,-0.0280834,-2.30841e-05,-19,108,-3.08001,-3.08001,23.3833,10,1.908
1.4778,1.47637,0.63822,0.65588,0,-3.9365e-13,-0.0281734,-1.53894e-05,-19,108,-3.0865,-3.0865,23.4728,10,1.912
1.4778,1.47637,0.638108,0.65588,0,-2.62433e-13,-0.0282634,-3.90505e-05,-19,109,-3.09298,-3.09298,23.5628,10,1.916
1.4778,1.47637,0.637994,0.65588,0,-1.74956e-13,-0.0283535,-2.60337e-05,-19,110,-3.09946,-3.09946,23.6532,10,1.92
1.4778,1.47637,0.637881,0.655879,0,-1.16637e-13,-0.0284436,-4.61467e-05,-19,111,-3.10594,-3.10594,23.7441,10,1.924
1.4778,1.47637,0.637767,0.655879,0,-7.7758e-14,-0.0285337,-5.95554e-05,-19,112,-3.11242,-3.11242,23.8355,10,1.928
1.4778,1.47637,0.637652,0.655879,0,-5.18387e-14,-0.0286238,-6.84945e-05,-19,113,-3.1189,-3.1189,23.9274,10,1.932
1.4778,1.47637,0.637538,0.655878,0,-3.45591e-14,-0.0287139,-7.44539e-05,-19,113,-3.12538,-3.12538,24.0197,10,1.936
1.4778,1.47637,0.637423,0.655878,0,-2.30394e-14,-0.0288041,-0.000107218,-19,114,-3.13187,-3.13187,24.1125,10,1.94
1.4778,1.47637,0.637307,0.655877,0,-1.53596e-14,-0.0288943,-0.00012906,-19,115,-3.13835,-3.13835,24.2058,10,1.944
1.4778,1.47637,0.637192,0.655876,0,-1.02397e-14,-0.0289846,-0.000143622,-19,116,-3.14483,-3.14483,24.2995,10,1.948
1.4778,1.47637,0.637075,0.655875,0,-6.82649e-15,-0.0290748,-0.000182121,-19,117,-3.15131,-3.15131,24.3936,10,1.952
1.4778,1.47637,0.636959,0.655874,0,-4.551e-15,-0.0291651,-0.000236578,-19,118,-3.15779,-3.15779,24.4883,10,1.956
1.4778,1.47637,0.636842,0.655873,0,2.87909e-05,-0.0292554,-0.0002153,-19,119,-3.16426,-3.16426,24.5833,10,1.96
1.4778,1.47637,0.636725,0.655872,0,-9.59697e-06,-0.0293457,-0.000201115,-19,119,-3.17058,-3.17058,24.6789,10,1.964
1.4778,1.47637,0.636607,0.655872,0,2.23929e-05,-0.029436,-0.000162868,-19,120,-3.1771,-3.1771,24.775,10,1.968
1.4778,1.47637,0.636489,0.655872,0,1.49286e-05,-0.0295263,-0.000137369,-19,121,-3.18345,-3.18345,24.8716,10,1.972
1.4778,1.47637,0.636371,0.655872,0,-1.88385e-05,-0.0296167,-9.15796e-05,-19,122,-3.18985,-3.18985,24.9687,10,1.976
1.4778,1.47637,0.636253,0.655872,0,1.62319e-05,-0.0297071,-6.10531e-05,-19,123,-3.19643,-3.19643,25.0663,10,1.98
1.4778,1.47637,0.636134,0.655871,0,1.08213e-05,-0.0297975,-6.9493e-05,-19,124,-3.20281,-3.20281,25.1645,10,1.984
1.4778,1.47637,0.636014,0.655871,0,7.21419e-06,-0.0298879,-4.63287e-05,-19,125,-3.20922,-3.20922,25.2631,10,1.988
1.4778,1.47637,0.635894,0.655871,0,4.80946e-06,-0.0299784,-5.96767e-05,-19,126,-3.21566,-3.21566,25.3622,10,1.992
1.4778,1.47637,0.635774,0.655871,0,3.20631e-06,-0.0300688,-6.85754e-05,-19,127,-3.22211,-3.22211,25.4618,10,1.996
1.4778,1.47637,0.635654,0.65587,0,2.13754e-06,-0.0301593,-0.000103299,-20,127,-3.22857,-3.22857,25.5618,10,2
1.4778,1.47637,0.635533,0.65587,0,1.42502e-06,-0.0302498,-9.76568e-05,-20,128,-3.23504,-3.23504,25.6624,10,2.004
1.4778,1.47637,0.635412,0.655869,0,9.50016e-07,-0.0303403,-0.000122686,-20,129,-3.24151,-3.24151,25.7634,10,2.008
1.4778,1.47637,0.63529,0.655869,0,6.33344e-07,-0.0304308,-0.000110582,-20,130,-3.24798,-3.24798,25.8649,10,2.012
1.4778,1.47637,0.635168,0.655868,0,4.2223e-07,-0.0305213,-0.000131303,-20,131,-3.25446,-3.25446,25.9668,10,2.016
1.4778,1.47637,0.635046,0.655868,0,2.81486e-07,-0.0306119,-0.000116326,-20,132,-3.26094,-3.26094,26.0693,10,2.02
1.4778,1.47637,0.634924,0.655867,0,1.87658e-07,-0.0307024,-0.000135133,-20,133,-3.26741,-3.26741,26.1722,10,2.024
1.4778,1.47637,0.634801,0.655866,0,1.25105e-07,-0.030793,-0.000118879,-20,134,-3.27389,-3.27389,26.2757,10,2.028
1.4778,1.47637,0.634677,0.655866,0,8.34034e-08,-0.0308835,-0.000136835,-20,135,-3.28037,-3.28037,26.3796,10,2.032
1.4778,1.47637,0.634553,0.655865,0,2.88465e-05,-0.0309741,-0.000120014,-20,136,-3.28684,-3.28684,26.484,10,2.036
1.4778,1.47637,0.634429,0.655865,0,1.9231e-05,-0.0310647,-0.000137591,-20,137,-3.29314,-3.29314,26.5889,10,2.04
1.4778,1.47637,0.634305,0.655864,0,1.28207e-05,-0.0311553,-0.000149309,-20,137,-3.2995,-3.2995,26.6943,10,2.044
1.4778,1.47637,0.63418,0.655863,0,8.54712e-06,-0.031246,-0.000157121,-20,138,-3.3059,-3.3059,26.8002,10,2.048
1.4778,1.47637,0.634055,0.655863,0,5.69808e-06,-0.0313366,-0.000162329,-20,139,-3.31232,-3.31232,26.9065,10,2.052
1.4778,1.47637,0.633929,0.655861,0,3.25896e-05,-0.0314272,-0.000223383,-20,140,-3.31876,-3.31876,27.0134,10,2.056
1.4778,1.47637,0.633804,0.65586,0,2.17264e-05,-0.0315179,-0.000235295,-20,141,-3.32503,-3.32503,27.1206,10,2.06
1.4778,1.47637,0.633677,0.655859,0,4.32752e-05,-0.0316085,-0.000272027,-20,142,-3.33136,-3.33136,27.2284,10,2.064
1.4778,1.47637,0.633551,0.655858,0,2.88501e-05,-0.0316992,-0.000267724,-20,143,-3.33757,-3.33757,27.3366,10,2.068
1.4778,1.47637,0.633424,0.655857,0,4.80244e-05,-0.0317898,-0.000264856,-20,144,-3.34385,-3.34385,27.4453,10,2.072
1.4778,1.47637,0.633296,0.655856,0,8.95981e-05,-0.0318805,-0.000262943,-19,145,-3.35,-3.35,27.5545,10,2.076
1.4778,1.47637,0.633169,0.655854,0,0.000146105,-0.0319711,-0.000290459,-19,146,-3.35588,-3.35588,27.6642,10,2.08
1.4778,1.47637,0.633041,0.655853,0,0.000154985,-0.0320618,-0.000308803,-19,147,-3.36142,-3.36142,27.7744,10,2.084
1.4778,1.47637,0.632912,0.655852,0,0.000189696,-0.0321525,-0.000321032,-19,148,-3.36689,-3.36689,27.885,10,2.088
1.4778,1.47637,0.632783,0.65585,0,0.000241628,-0.0322432,-0.000357976,-19,149,-3.37212,-3.37212,27.9961,10,2.092
1.4778,1.47637,0.632654,0.655848,0,0.000276249,-0.0323339,-0.000382605,-18,149,-3.37703,-3.37703,28.1077,10,2.096
1.4778,1.47638,0.632525,0.655846,0,0.00029933,-0.0324245,-0.000399025,-18,150,-3.38171,-3.38171,28.2198,10,2.1
1.4778,1.47638,0.632395,0.655845,0,0.000314717,-0.0325152,-0.000409971,-18,151,-3.38625,-3.38625,28.3323,10,2.104
1.4778,1.47638,0.632265,0.655842,0,0.000296184,-0.0326059,-0.000474851,-18,152,-3.3907,-3.3907,28.4453,10,2.108
1.4778,1.47638,0.632134,0.65584,0,0.000283829,-0.0326966,-0.000518104,-18,153,-3.39526,-3.39526,28.5587,10,2.112
1.4778,1.47638,0.632003,0.655837,0,0.000246801,-0.0327873,-0.000604521,-19,154,-3.3999,-3.3999,28.6726,10,2.116
1.4778,1.47638,0.631872,0.655834,0,0.000222116,-0.032878,-0.000633341,-19,155,-3.40477,-3.40477,28.7869,10,2.12
1.4778,1.47638,0.63174,0.655831,0,0.000205659,-0.0329687,-0.000710137,-19,156,-3.40979,-3.40979,28.9016,10,2.124
1.4778,1.47638,0.631608,0.655827,0,0.000165897,-0.0330594,-0.000790125,-19,157,-3.41492,-3.41492,29.0168,10,2.128
1.4778,1.47638,0.631476,0.655823,0,0.000139389,-0.0331501,-0.000814659,-19,158,-3.4203,-3.4203,29.1324,10,2.132
1.4778,1.47638,0.631343,0.655819,0,0.000150508,-0.0332407,-0.000859806,-19,159,-3.42582,-3.42582,29.2484,10,2.136
1.4778,1.47638,0.63121,0.655815,0,0.000129129,-0.0333314,-0.000947486,-20,159,-3.43129,-3.43129,29.3649,10,2.14
1.4778,1.47638,0.631076,0.655811,0,0.000143668,-0.0334221,-0.000977149,-19,160,-3.43687,-3.43687,29.4818,10,2.144
1.4778,1.47638,0.630942,0.655806,0,0.00012457,-0.0335128,-0.00102571,-20,161,-3.44237,-3.44237,29.5992,10,2.148
1.4778,1.47639,0.630808,0.655802,0,0.000140628,-0.0336034,-0.00108688,-20,162,-3.44798,-3.44798,29.717,10,2.152
1.4778,1.47639,0.630673,0.655796,0,0.000122543,-0.0336941,-0.00115645,-20,163,-3.4535,-3.4535,29.8352,10,2.156
1.4778,1.47639,0.630538,0.65579,0,0.000139277,-0.0337848,-0.00126041,-20,164,-3.45911,-3.45911,29.9538,10,2.16
1.4778,1.47639,0.630403,0.655784,0,0.000150433,-0.0338754,-0.00135851,-20,165,-3.46462,-3.46462,30.0728,10,2.164
1.4778,1.47639,0.630267,0.655778,0,0.00012908,-0.0339661,-0.00139512,-20,166,-3.47007,-3.47007,30.1922,10,2.168
1.4778,1.47639,0.630131,0.655772,0,0.000114844,-0.0340567,-0.00144832,-20,167,-3.47565,-3.47565,30.3121,10,2.172
1.4778,1.47639,0.629995,0.655766,0,0.000134145,-0.0341473,-0.00145499,-20,168,-3.4813,-3.4813,30.4324,10,2.176
1.4778,1.47639,0.629858,0.655761,0,0.000118221,-0.0342379,-0.00143065,-20,169,-3.48684,-3.48684,30.5532,10,2.18
1.4778,1.47639,0.629721,0.655756,0,0.000136396,-0.0343286,-0.00135684,-20,170,-3.49247,-3.49247,30.6745,10,2.184
1.4778,1.47639,0.629584,0.655752,0,0.000119721,-0.0344192,-0.00122126,-20,171,-3.498,-3.498,30.7964,10,2.188
1.4778,1.47639,0.629446,0.655748,0,0.000137396,-0.0345098,-0.00113087,-20,172,-3.50361,-3.50361,30.9188,10,2.192
1.4778,1.47639,0.629308,0.655746,0,0.000149179,-0.0346003,-0.000984243,-20,173,-3.50911,-3.50911,31.0419,10,2.196
1.4778,1.47639,0.629169,0.655744,0,0.000157035,-0.0346909,-0.000800116,-20,174,-3.51454,-3.51454,31.1656,10,2.2
1.4778,1.47639,0.62903,0.655742,0,0.000162272,-0.0347815,-0.000648575,-20,175,-3.51991,-3.51991,31.2899,10,2.204
1.4778,1.47639,0.628891,0.655742,0,0.000165763,-0.034872,-0.000461174,-20,177,-3.52525,-3.52525,31.4149,10,2.208
1.4778,1.47639,0.628751,0.655742,0,0.00016809,-0.0349626,-0.00033624,-20,178,-3.53056,-3.53056,31.5405,10,2.212
1.4778,1.47639,0.628611,0.655741,0,0.000169642,-0.0350531,-0.000252951,-20,179,-3.53586,-3.53586,31.6666,10,2.216
1.4778,1.47639,0.628471,0.655741,0,0.000141886,-0.0351436,-0.000197425,-20,180,-3.54115,-3.54115,31.7934,10,2.22
1.4778,1.4764,0.62833,0.655741,0,0.000152172,-0.0352341,-0.000160408,-20,181,-3.54661,-3.54661,31.9207,10,2.224
1.4778,1.4764,0.628189,0.65574,0,0.000101448,-0.0353246,-0.000135729,-20,182,-3.55202,-3.55202,32.0485,10,2.228
1.4778,1.4764,0.628047,0.65574,0,9.64231e-05,-0.0354151,-0.000148068,-20,183,-3.55773,-3.55773,32.1768,10,2.232
1.4778,1.4764,0.627905,0.655739,0,6.4282e-05,-0.0355055,-0.000156294,-20,184,-3.56349,-3.56349,32.3057,10,2.236
1.4778,1.4764,0.627763,0.655738,0,4.28547e-05,-0.035596,-0.000161778,-21,185,-3.56944,-3.56944,32.435,10,2.24
1.4778,1.4764,0.627621,0.655737,0,2.85698e-05,-0.0356864,-0.000194225,-21,186,-3.57553,-3.57553,32.5648,10,2.244
1.4778,1.4764,0.627478,0.655736,0,1.90465e-05,-0.0357768,-0.000215856,-21,187,-3.5817,-3.5817,32.6951,10,2.248
1.4778,1.4764,0.627334,0.655735,0,1.26977e-05,-0.0358672,-0.000287859,-21,188,-3.58794,-3.58794,32.8259,10,2.252
1.4778,1.4764,0.627191,0.655732,0,8.46513e-06,-0.0359575,-0.000364651,-21,189,-3.59421,-3.59421,32.9572,10,2.256
1.4778,1.4764,0.627047,0.65573,0,5.64342e-06,-0.0360479,-0.000415846,-21,190,-3.60051,-3.60051,33.0888,10,2.26
1.4778,1.4764,0.626902,0.655728,0,3.76228e-06,-0.0361382,-0.000507558,-21,191,-3.60683,-3.60683,33.221,10,2.264
1.4778,1.4764,0.626758,0.655724,0,3.12991e-05,-0.0362285,-0.000597491,-21,192,-3.61314,-3.61314,33.3535,10,2.268
1.4778,1.4764,0.626613,0.655721,0,2.08661e-05,-0.0363188,-0.000686236,-21,193,-3.6193,-3.6193,33.4865,10,2.272
1.4778,1.4764,0.626467,0.655717,0,1.39107e-05,-0.0364091,-0.000831773,-21,194,-3.62552,-3.62552,33.6199,10,2.276
1.4778,1.4764,0.626321,0.655711,0,9.27381e-06,-0.0364994,-0.00104396,-21,195,-3.63178,-3.63178,33.7536,10,2.28
1.4778,1.4764,0.626175,0.655704,0,6.18254e-06,-0.0365896,-0.001243,-21,196,-3.63808,-3.63808,33.8876,10,2.284
1.4778,1.4764,0.626029,0.655696,0,4.12169e-06,-0.0366798,-0.00151965,-21,196,-3.64439,-3.64439,34.0219,10,2.288
1.4778,1.4764,0.625882,0.655686,0,2.7478e-06,-0.03677,-0.00184804,-21,197,-3.65071,-3.65071,34.1564,10,2.292
1.4778,1.4764,0.625734,0.655674,0,1.83186e-06,-0.0368602,-0.00223971,-21,198,-3.65705,-3.65705,34.2911,10,2.296
1.4778,1.4764,0.625587,0.655659,0,1.22124e-06,-0.0369503,-0.00270236,-21,198,-3.66339,-3.66339,34.4259,10,2.3
1.4778,1.4764,0.625439,0.655643,0,8.14162e-07,-0.0370404,-0.00318354,-21,199,-3.66973,-3.66973,34.5607,10,2.304
1.4778,1.4764,0.62529,0.655624,0,5.42774e-07,-0.0371305,-0.00367707,-21,200,-3.67608,-3.67608,34.6955,10,2.308
1.4778,1.4764,0.625142,0.655606,0,3.6185e-07,-0.0372206,-0.0039773,-21,200,-3.68242,-3.68242,34.8305,10,2.312
1.4778,1.4764,0.624993,0.655587,0,2.41233e-07,-0.0373107,-0.00420624,-21,201,-3.68877,-3.68877,34.9657,10,2.316
1.4778,1.4764,0.624843,0.655567,0,1.60822e-07,-0.0374007,-0.00444524,-21,202,-3.69512,-3.69512,35.101,10,2.32
1.4778,1.4764,0.624693,0.655547,0,1.07215e-07,-0.0374907,-0.00463337,-21,203,-3.70147,-3.70147,35.2367,10,2.324
1.4778,1.4764,0.624543,0.655527,0,2.88624e-05,-0.0375806,-0.00478758,-21,204,-3.70781,-3.70781,35.3725,10,2.328
1.4778,1.4764,0.624393,0.655507,0,-9.54932e-06,-0.0376706,-0.00486159,-22,204,-3.714,-3.714,35.5087,10,2.332
1.4778,1.4764,0.624242,0.655487,0,2.24247e-05,-0.0377605,-0.00485335,-21,205,-3.7204,-3.7204,35.6453,10,2.336
1.4778,1.4764,0.624091,0.655467,0,1.49498e-05,-0.0378504,-0.00490544,-21,206,-3.72661,-3.72661,35.7823,10,2.34
1.4778,1.4764,0.623939,0.655447,0,9.96654e-06,-0.0379403,-0.00496896,-21,207,-3.73287,-3.73287,35.9196,10,2.344
1.4778,1.4764,0.623787,0.655425,0,6.64436e-06,-0.0380301,-0.00518405,-22,208,-3.73916,-3.73916,36.0572,10,2.348
1.4778,1.4764,0.623635,0.655401,0,4.42957e-06,-0.0381199,-0.00544261,-22,209,-3.74547,-3.74547,36.195,10,2.352
1.4778,1.4764,0.623482,0.655376,0,2.95305e-06,-0.0382097,-0.00573014,-22,209,-3.75179,-3.75179,36.3329,10,2.356
1.4778,1.4764,0.623329,0.655349,0,3.07596e-05,-0.0382994,-0.00600821,-21,210,-3.75811,-3.75811,36.471,10,2.36
1.4778,1.4764,0.623176,0.655322,0,2.05064e-05,-0.0383891,-0.00630874,-22,211,-3.76427,-3.76427,36.6093,10,2.364
1.4778,1.4764,0.623022,0.655293,0,4.24619e-05,-0.0384788,-0.00659548,-21,212,-3.77048,-3.77048,36.7476,10,2.368
1.4778,1.4764,0.622868,0.655265,0,2.83079e-05,-0.0385684,-0.00675784,-22,212,-3.77657,-3.77657,36.8862,10,2.372
1.4778,1.4764,0.622714,0.655237,0,1.88719e-05,-0.038658,-0.00677971,-22,213,-3.78275,-3.78275,37.025,10,2.376
1.4778,1.4764,0.622559,0.655212,0,1.25813e-05,-0.0387476,-0.00659275,-22,214,-3.78898,-3.78898,37.1643,10,2.38
1.4778,1.4764,0.622404,0.655191,0,3.71785e-05,-0.0388372,-0.00618021,-22,216,-3.79524,-3.79524,37.3043,10,2.384
1.4778,1.4764,0.622248,0.655175,0,5.35766e-05,-0.0389267,-0.00541573,-22,217,-3.80135,-3.80135,37.4452,10,2.388
1.4778,1.4764,0.622092,0.655164,0,9.32996e-05,-0.0390162,-0.00456059,-21,219,-3.80734,-3.80734,37.5872,10,2.392
1.4778,1.4764,0.621936,0.655159,0,9.09906e-05,-0.0391056,-0.00344346,-21,221,-3.81309,-3.81309,37.7305,10,2.396
1.4778,1.4764,0.621779,0.655159,0,8.94513e-05,-0.039195,-0.00235322,-21,223,-3.81886,-3.81886,37.8751,10,2.4
1.4778,1.4764,0.621622,0.655159,0,8.84252e-05,-0.0392844,-0.00156882,-21,225,-3.82463,-3.82463,38.0211,10,2.404
1.4778,1.4764,0.621465,0.655159,0,5.89501e-05,-0.0393737,-0.00104588,-22,227,-3.83043,-3.83043,38.168,10,2.408
1.4778,1.4764,0.621307,0.655159,0,3.93001e-05,-0.039463,-0.000668461,-22,228,-3.8364,-3.8364,38.3159,10,2.412
1.4778,1.4764,0.621149,0.655159,0,5.4991e-05,-0.0395523,-0.000445641,-22,229,-3.84248,-3.84248,38.4645,10,2.416
1.4778,1.4764,0.620991,0.655159,0,3.66606e-05,-0.0396415,-0.000325885,-22,231,-3.84848,-3.84848,38.6138,10,2.42
1.4778,1.4764,0.620832,0.655159,0,2.44404e-05,-0.0397307,-0.000217256,-22,232,-3.85459,-3.85459,38.7637,10,2.424
1.4778,1.4764,0.620673,0.655159,0,1.62936e-05,-0.0398199,-0.000144838,-22,233,-3.86078,-3.86078,38.9142,10,2.428
1.4778,1.4764,0.620514,0.655159,0,1.08624e-05,-0.039909,-9.65584e-05,-22,234,-3.86702,-3.86702,39.0653,10,2.432
1.4778,1.4764,0.620354,0.655159,0,3.60325e-05,-0.039998,-6.43723e-05,-22,236,-3.87328,-3.87328,39.2169,10,2.436
1.4778,1.4764,0.620194,0.655159,0,2.40217e-05,-0.0400871,-4.29148e-05,-22,237,-3.87939,-3.87939,39.3692,10,2.44
1.4778,1.4764,0.620033,0.655159,0,1.60145e-05,-0.0401761,-2.86099e-05,-22,238,-3.88558,-3.88558,39.5219,10,2.444
1.4778,1.4764,0.619872,0.655158,0,1.06763e-05,-0.040265,-4.78642e-05,-22,239,-3.89182,-3.89182,39.6752,10,2.448
1.4778,1.4764,0.619711,0.655159,0,7.11754e-06,-0.0403539,-3.11853e-06,-22,240,-3.89809,-3.89809,39.8291,10,2.452
1.4778,1.4764,0.619549,0.655159,0,3.35359e-05,-0.0404428,-2.07902e-06,-22,241,-3.90437,-3.90437,39.9835,10,2.456
1.4778,1.4764,0.619388,0.655159,0,2.23573e-05,-0.0405316,-1.38602e-06,-22,243,-3.9105,-3.9105,40.1385,10,2.46
1.4778,1.4764,0.619225,0.655159,0,1.49049e-05,-0.0406204,-9.2401e-07,-22,244,-3.91669,-3.91669,40.294,10,2.464
1.4778,1.4764,0.619063,0.655159,0,9.93658e-06,-0.0407092,-6.16007e-07,-22,245,-3.92294,-3.92294,40.4501,10,2.468
1.4778,1.4764,0.6189,0.655159,0,6.62439e-06,-0.0407979,-4.10671e-07,-22,246,-3.92921,-3.92921,40.6067,10,2.472
1.4778,1.4764,0.618736,0.655159,0,4.41626e-06,-0.0408865,-2.73781e-07,-22,247,-3.9355,-3.9355,40.7638,10,2.476
1.4778,1.4764,0.618572,0.655159,0,2.94417e-06,-0.0409751,-1.82521e-07,-22,249,-3.94181,-3.94181,40.9215,10,2.48
1.4778,1.4764,0.618408,0.655159,0,1.96278e-06,-0.0410637,-1.2168e-07,-22,250,-3.94813,-3.94813,41.0797,10,2.484
1.4778,1.4764,0.618244,0.655159,0,1.30852e-06,-0.0411522,-8.11202e-08,-22,251,-3.95445,-3.95445,41.2384,10,2.488
1.4778,1.4764,0.618079,0.655158,0,2.96633e-05,-0.0412407,-2.8845e-05,-22,252,-3.96077,-3.96077,41.3977,10,2.492
1.4778,1.4764,0.617914,0.655158,0,1.97755e-05,-0.0413291,-1.923e-05,-22,253,-3.96692,-3.96692,41.5575,10,2.496
1.4778,1.4764,0.617749,0.655158,0,1.31837e-05,-0.0414175,-1.282e-05,-22,255,-3.97313,-3.97313,41.7179,10,2.5
1.4778,1.4764,0.617583,0.655158,0,8.78912e-06,-0.0415058,-8.54667e-06,-23,256,-3.97938,-3.97938,41.8788,10,2.504
1.4778,1.4764,0.617416,0.655158,0,5.85941e-06,-0.0415941,-5.69778e-06,-23,257,-3.98566,-3.98566,42.0403,10,2.508
1.4778,1.4764,0.61725,0.655158,0,3.90627e-06,-0.0416823,-3.79852e-06,-23,258,-3.99196,-3.99196,42.2023,10,2.512
1.4778,1.4764,0.617083,0.655158,0,2.60418e-06,-0.0417705,-2.53235e-06,-23,259,-3.99827,-3.99827,42.3648,10,2.516
1.4778,1.4764,0.616916,0.655158,0,3.0527e-05,-0.0418587,-3.04792e-05,-22,261,-4.00457,-4.00457,42.5279,10,2.52
1.4778,1.4764,0.616748,0.655158,0,2.03514e-05,-0.0419468,-2.03194e-05,-23,262,-4.01072,-4.01072,42.6915,10,2.524
1.4778,1.4764,0.61658,0.655158,0,1.35676e-05,-0.0420348,-1.35463e-05,-23,263,-4.01692,-4.01692,42.8557,10,2.528
1.4778,1.4764,0.616412,0.655158,0,9.04505e-06,-0.0421228,-3.78218e-05,-23,264,-4.02317,-4.02317,43.0204,10,2.532
1.4778,1.4764,0.616243,0.655157,0,6.03003e-06,-0.0422107,-5.40054e-05,-23,266,-4.02945,-4.02945,43.1856,10,2.536
1.4778,1.4764,0.616074,0.655157,0,3.28109e-05,-0.0422986,-3.60036e-05,-23,267,-4.03573,-4.03573,43.3513,10,2.54
1.4778,1.4764,0.615905,0.655157,0,2.1874e-05,-0.0423865,-5.27933e-05,-23,268,-4.04186,-4.04186,43.5176,10,2.544
1.4778,1.4764,0.615735,0.655156,0,4.33736e-05,-0.0424742,-6.39865e-05,-23,269,-4.04804,-4.04804,43.6845,10,2.548
1.4778,1.4764,0.615565,0.655156,0,1.24787e-07,-0.042562,-4.26577e-05,-23,270,-4.05411,-4.05411,43.8519,10,2.552
1.4778,1.4764,0.615395,0.655156,0,2.88741e-05,-0.0426497,-2.84384e-05,-23,272,-4.06043,-4.06043,44.0198,10,2.556
1.4778,1.4764,0.615224,0.655156,0,1.92494e-05,-0.0427373,-4.77499e-05,-23,273,-4.06658,-4.06658,44.1883,10,2.56
1.4778,1.4764,0.615053,0.655156,0,1.28329e-05,-0.0428249,-6.06242e-05,-23,274,-4.07279,-4.07279,44.3573,10,2.564
1.4778,1.4764,0.614881,0.655156,0,8.55529e-06,-0.0429124,-4.04161e-05,-23,275,-4.07904,-4.07904,44.5268,10,2.568
1.4778,1.4764,0.614709,0.655155,0,5.70353e-06,-0.0429998,-5.5735e-05,-23,277,-4.08532,-4.08532,44.6969,10,2.572
1.4778,1.4764,0.614537,0.655155,0,3.80235e-06,-0.0430873,-6.59476e-05,-23,278,-4.09161,-4.09161,44.8675,10,2.576
1.4778,1.4764,0.614365,0.655155,0,3.13258e-05,-0.0431746,-7.2756e-05,-23,279,-4.0979,-4.0979,45.0387,10,2.58
1.4778,1.4764,0.614192,0.655154,0,2.08839e-05,-0.0432619,-0.000106086,-23,280,-4.10404,-4.10404,45.2103,10,2.584
1.4778,1.4764,0.614019,0.655153,0,1.39226e-05,-0.0433491,-0.000157097,-23,282,-4.11023,-4.11023,45.3825,10,2.588
1.4778,1.4764,0.613845,0.655152,0,3.80727e-05,-0.0434363,-0.000191104,-23,283,-4.11646,-4.11646,45.5552,10,2.592
1.4778,1.4764,0.613671,0.655151,0,2.53818e-05,-0.0435235,-0.000242566,-23,284,-4.12255,-4.12255,45.7284,10,2.596
1.4778,1.4764,0.613497,0.655149,0,1.69212e-05,-0.0436105,-0.000305665,-23,285,-4.12872,-4.12872,45.9021,10,2.6
1.4778,1.4764,0.613322,0.655147,0,1.12808e-05,-0.0436975,-0.000347732,-23,286,-4.13494,-4.13494,46.0762,10,2.604
1.4778,1.4764,0.613147,0.655146,0,7.52052e-06,-0.0437845,-0.000346985,-23,288,-4.1412,-4.1412,46.2509,10,2.608
1.4778,1.4764,0.612972,0.655145,0,3.38046e-05,-0.0438714,-0.000288905,-23,289,-4.14747,-4.14747,46.4262,10,2.612
1.4778,1.4764,0.612796,0.655144,0,2.25364e-05,-0.0439582,-0.000307767,-23,290,-4.15358,-4.15358,46.602,10,2.616
1.4778,1.4764,0.61262,0.655143,0,1.50243e-05,-0.044045,-0.000233969,-23,292,-4.15977,-4.15977,46.7783,10,2.62
1.4778,1.4764,0.612444,0.655143,0,1.00162e-05,-0.0441317,-0.00018477,-23,293,-4.166,-4.166,46.9553,10,2.624
1.4778,1.4764,0.612267,0.655142,0,3.54684e-05,-0.0442183,-0.000180762,-23,294,-4.17225,-4.17225,47.1328,10,2.628
1.4778,1.4764,0.61209,0.655142,0,2.36456e-05,-0.0443049,-0.000149299,-23,296,-4.17835,-4.17835,47.3108,10,2.632
1.4778,1.4764,0.611913,0.655142,0,1.57637e-05,-0.0443915,-0.000128324,-23,297,-4.18453,-4.18453,47.4895,10,2.636
1.4778,1.4764,0.611735,0.655141,0,1.05091e-05,-0.0444779,-0.00011434,-23,298,-4.19075,-4.19075,47.6687,10,2.64
1.4778,1.4764,0.611557,0.655141,0,7.0061e-06,-0.0445643,-0.000105018,-23,299,-4.19701,-4.19701,47.8484,10,2.644
1.4778,1.4764,0.611379,0.65514,0,3.34617e-05,-0.0446507,-0.000127594,-23,301,-4.20328,-4.20328,48.0287,10,2.648
1.4778,1.4764,0.6112,0.65514,0,2.23078e-05,-0.044737,-0.000142644,-23,302,-4.20939,-4.20939,48.2094,10,2.652
1.4778,1.4764,0.611021,0.655139,0,1.48718e-05,-0.0448232,-0.000181469,-23,303,-4.21558,-4.21558,48.3907,10,2.656
1.4778,1.4764,0.610841,0.655137,0,9.91457e-06,-0.0449093,-0.000264934,-24,304,-4.22181,-4.22181,48.5725,10,2.66
1.4778,1.4764,0.610661,0.655135,0,6.60971e-06,-0.0449954,-0.000320577,-24,306,-4.22807,-4.22807,48.7548,10,2.664
1.4778,1.4764,0.610481,0.655134,0,4.40647e-06,-0.0450814,-0.000300091,-24,307,-4.23435,-4.23435,48.9376,10,2.668
1.4778,1.4764,0.610301,0.655133,0,2.93765e-06,-0.0451674,-0.000286433,-24,308,-4.24064,-4.24064,49.1209,10,2.672
1.4778,1.4764,0.61012,0.655131,0,-2.68325e-05,-0.0452533,-0.00033491,-24,310,-4.24696,-4.24696,49.3048,10,2.676
1.4778,1.4764,0.609939,0.65513,0,3.96935e-05,-0.0453391,-0.000309646,-23,311,-4.25342,-4.25342,49.4892,10,2.68
1.4778,1.4764,0.609757,0.655129,0,2.64623e-05,-0.0454249,-0.000292804,-24,312,-4.25949,-4.25949,49.6742,10,2.684
1.4778,1.4764,0.609575,0.655128,0,1.76416e-05,-0.0455105,-0.000281575,-24,314,-4.26565,-4.26565,49.8596,10,2.688
1.4778,1.4764,0.609393,0.655127,0,4.0552e-05,-0.0455962,-0.00027409,-24,315,-4.27185,-4.27185,50.0457,10,2.692
1.4778,1.4764,0.609211,0.655125,0,5.58256e-05,-0.0456817,-0.000384263,-23,316,-4.2779,-4.2779,50.2322,10,2.696
1.4778,1.47641,0.609028,0.655122,0,6.6008e-05,-0.0457672,-0.000457712,-23,317,-4.28386,-4.28386,50.4192,10,2.7
1.4778,1.47641,0.608844,0.655119,0,7.27962e-05,-0.0458526,-0.000564259,-23,319,-4.28976,-4.28976,50.6066,10,2.704
1.4778,1.47641,0.608661,0.655115,0,7.73218e-05,-0.045938,-0.000721664,-23,320,-4.29561,-4.29561,50.7945,10,2.708
1.4778,1.47641,0.608477,0.65511,0,5.15478e-05,-0.0460232,-0.000884182,-24,321,-4.30144,-4.30144,50.9827,10,2.712
1.4778,1.47641,0.608293,0.655104,0,3.43652e-05,-0.0461085,-0.00110769,-24,322,-4.30743,-4.30743,51.1713,10,2.716
1.4778,1.47641,0.608108,0.655096,0,2.29101e-05,-0.0461936,-0.00137186,-24,323,-4.31353,-4.31353,51.3602,10,2.72
1.4778,1.47641,0.607923,0.655087,0,1.52734e-05,-0.0462787,-0.00166314,-24,324,-4.3197,-4.3197,51.5493,10,2.724
1.4778,1.47641,0.607738,0.655079,0,1.01823e-05,-0.0463636,-0.00179974,-24,325,-4.32592,-4.32592,51.7388,10,2.728
1.4778,1.47641,0.607552,0.65507,0,3.55791e-05,-0.0464486,-0.00194839,-24,326,-4.33216,-4.33216,51.9287,10,2.732
1.4778,1.47641,0.607366,0.655061,0,5.25103e-05,-0.0465334,-0.0020187,-24,328,-4.33824,-4.33824,52.119,10,2.736
1.4778,1.47641,0.60718,0.655053,0,3.50069e-05,-0.0466182,-0.00209436,-24,329,-4.34422,-4.34422,52.3097,10,2.74
1.4778,1.47641,0.606993,0.655044,0,5.21289e-05,-0.0467029,-0.00214481,-24,330,-4.3503,-4.3503,52.5008,10,2.744
1.4778,1.47641,0.606806,0.655037,0,3.47526e-05,-0.0467875,-0.0019769,-24,332,-4.35629,-4.35629,52.6926,10,2.748
1.4778,1.47641,0.606619,0.655032,0,8.07502e-05,-0.0468721,-0.00172101,-24,333,-4.36235,-4.36235,52.885,10,2.752
1.4778,1.47641,0.606431,0.655031,0,-3.74836e-06,-0.0469566,-0.0012625,-24,335,-4.36819,-4.36819,53.0782,10,2.756
1.4778,1.47641,0.606243,0.65503,0,-2.49891e-06,-0.047041,-0.000870458,-24,336,-4.37452,-4.37452,53.2723,10,2.76
1.4778,1.47641,0.606055,0.65503,0,-1.66594e-06,-0.0471253,-0.000580305,-24,338,-4.38084,-4.38084,53.4672,10,2.764
1.4778,1.47641,0.605866,0.65503,0,5.64712e-05,-0.0472096,-0.00038687,-24,340,-4.38713,-4.38713,53.6629,10,2.768
1.4778,1.47641,0.605677,0.65503,0,8.85656e-06,-0.0472938,-0.000257914,-24,341,-4.3931,-4.3931,53.8592,10,2.772
1.4778,1.47641,0.605488,0.65503,0,5.90437e-06,-0.0473779,-0.000171942,-24,342,-4.39935,-4.39935,54.0561,10,2.776
1.4778,1.47641,0.605298,0.65503,0,6.15181e-05,-0.0474619,-0.000114628,-24,344,-4.4056,-4.4056,54.2537,10,2.78
1.4778,1.47641,0.605108,0.65503,0,1.22211e-05,-0.0475459,-7.64188e-05,-24,345,-4.41154,-4.41154,54.4518,10,2.784
1.4778,1.47641,0.604918,0.65503,0,6.57293e-05,-0.0476297,-7.97368e-05,-24,347,-4.41774,-4.41774,54.6504,10,2.788
1.4778,1.47641,0.604727,0.65503,0,1.50286e-05,-0.0477135,-5.31579e-05,-24,348,-4.42365,-4.42365,54.8497,10,2.792
1.4778,1.47641,0.604536,0.65503,0,-1.87719e-05,-0.0477972,-3.54386e-05,-25,349,-4.42987,-4.42987,55.0494,10,2.796
1.4778,1.47641,0.604345,0.65503,0,1.62763e-05,-0.0478809,-5.24166e-05,-24,351,-4.43628,-4.43628,55.2498,10,2.8
1.4778,1.47641,0.604153,0.65503,0,1.08509e-05,-0.0479644,-6.1535e-06,-24,352,-4.44248,-4.44248,55.4507,10,2.804
1.4778,1.47641,0.603961,0.655029,0,7.23393e-06,-0.0480479,-6.16842e-05,-25,354,-4.44872,-4.44872,55.6521,10,2.808
1.4778,1.47641,0.603769,0.655029,0,4.82262e-06,-0.0481313,-6.99137e-05,-25,355,-4.45498,-4.45498,55.854,10,2.812
1.4778,1.47641,0.603576,0.655029,0,3.2006e-05,-0.0482147,-7.54001e-05,-24,356,-4.46124,-4.46124,56.0565,10,2.816
1.4778,1.47641,0.603383,0.655028,0,2.13373e-05,-0.0482979,-7.90576e-05,-25,358,-4.46734,-4.46734,56.2595,10,2.82
1.4778,1.47641,0.60319,0.655028,0,1.42249e-05,-0.0483811,-0.000110287,-25,359,-4.47351,-4.47351,56.463,10,2.824
1.4778,1.47641,0.602996,0.655027,0,6.70651e-05,-0.0484641,-0.000159897,-24,360,-4.4797,-4.4797,56.6671,10,2.828
1.4778,1.47641,0.602802,0.655026,0,1.59191e-05,-0.0485471,-0.000192971,-25,362,-4.4856,-4.4856,56.8716,10,2.832
1.4778,1.47641,0.602608,0.655024,0,1.06128e-05,-0.0486301,-0.000243811,-25,363,-4.4918,-4.4918,57.0767,10,2.836
1.4778,1.47641,0.602413,0.655022,0,7.07518e-06,-0.0487129,-0.000306495,-25,364,-4.49804,-4.49804,57.2822,10,2.84
1.4778,1.47641,0.602218,0.65502,0,4.71678e-06,-0.0487956,-0.000377076,-25,366,-4.50429,-4.50429,57.4882,10,2.844
1.4778,1.47641,0.602023,0.655019,0,3.14452e-06,-0.0488783,-0.000395338,-25,367,-4.51056,-4.51056,57.6948,10,2.848
1.4778,1.47641,0.601827,0.655017,0,2.09635e-06,-0.0489609,-0.000436305,-25,369,-4.51685,-4.51685,57.9018,10,2.852
1.4778,1.47641,0.601631,0.655016,0,-2.73934e-05,-0.0490434,-0.000377242,-25,370,-4.52315,-4.52315,58.1094,10,2.856
1.4778,1.47641,0.601435,0.655014,0,1.05287e-05,-0.0491258,-0.000366659,-25,371,-4.5296,-4.5296,58.3175,10,2.86
1.4778,1.47641,0.601238,0.655013,0,-2.17718e-05,-0.0492081,-0.000359603,-25,373,-4.53585,-4.53585,58.5262,10,2.864
1.4778,1.47641,0.601041,0.655012,0,4.30673e-05,-0.0492904,-0.000326108,-25,374,-4.54226,-4.54226,58.7354,10,2.868
1.4778,1.47641,0.600844,0.655011,0,2.87115e-05,-0.0493725,-0.000303778,-25,376,-4.5483,-4.5483,58.9452,10,2.872
1.4778,1.47641,0.600646,0.655009,0,1.9141e-05,-0.0494546,-0.000317682,-25,377,-4.55442,-4.55442,59.1555,10,2.876
1.4778,1.47641,0.600448,0.655008,0,1.27607e-05,-0.0495366,-0.000298161,-25,379,-4.5606,-4.5606,59.3664,10,2.88
1.4778,1.47641,0.60025,0.655007,0,8.50712e-06,-0.0496185,-0.000313938,-25,380,-4.56682,-4.56682,59.5778,10,2.884
1.4778,1.47641,0.600051,0.655004,0,5.67142e-06,-0.0497003,-0.000439619,-25,381,-4.57307,-4.57307,59.7897,10,2.888
1.4778,1.47641,0.599852,0.655001,0,3.78094e-06,-0.049782,-0.000523407,-25,383,-4.57933,-4.57933,60.002,10,2.892
1.4778,1.47641,0.599653,0.654999,0,2.52063e-06,-0.0498637,-0.000579265,-25,384,-4.58561,-4.58561,60.2147,10,2.896
1.4778,1.47641,0.599453,0.654995,0,1.68042e-06,-0.0499452,-0.000674086,-25,385,-4.59189,-4.59189,60.428,10,2.9
1.4778,1.47641,0.599253,0.654992,0,1.12028e-06,-0.0500267,-0.0007373,-25,387,-4.59818,-4.59818,60.6417,10,2.904
1.4778,1.47641,0.599053,0.654988,0,7.46853e-07,-0.050108,-0.000808234,-25,388,-4.60447,-4.60447,60.8559,10,2.908
1.4778,1.47641,0.598852,0.654983,0,4.97902e-07,-0.0501893,-0.000913104,-25,389,-4.61077,-4.61077,61.0705,10,2.912
1.4778,1.47641,0.598651,0.654979,0,2.91229e-05,-0.0502705,-0.000983018,-25,391,-4.61705,-4.61705,61.2855,10,2.916
1.4778,1.47641,0.59845,0.654973,0,1.94152e-05,-0.0503516,-0.001116,-25,392,-4.62317,-4.62317,61.501,10,2.92
1.4778,1.47641,0.598249,0.654967,0,1.29435e-05,-0.0504326,-0.00126224,-25,393,-4.62935,-4.62935,61.7169,10,2.924
1.4778,1.47641,0.598047,0.65496,0,8.629e-06,-0.0505135,-0.00141731,-25,395,-4.63556,-4.63556,61.9331,10,2.928
1.4778,1.47641,0.597844,0.654953,0,5.75266e-06,-0.0505944,-0.00152069,-25,396,-4.64181,-4.64181,62.1498,10,2.932
1.4778,1.47641,0.597642,0.654946,0,3.83511e-06,-0.0506751,-0.00158961,-25,397,-4.64807,-4.64807,62.3669,10,2.936
1.4778,1.47641,0.597439,0.65494,0,2.55674e-06,-0.0507557,-0.00160677,-25,399,-4.65435,-4.65435,62.5845,10,2.94
1.4778,1.47641,0.597236,0.654934,0,1.70449e-06,-0.0508363,-0.00156063,-25,400,-4.66063,-4.66063,62.8026,10,2.944
1.4778,1.47641,0.597032,0.654929,0,1.13633e-06,-0.0509168,-0.00147228,-25,402,-4.66692,-4.66692,63.0212,10,2.948
1.4778,1.47641,0.596829,0.654925,0,7.57552e-07,-0.0509971,-0.00132701,-26,403,-4.67321,-4.67321,63.2405,10,2.952
1.4778,1.47641,0.596624,0.654922,0,5.80869e-05,-0.0510774,-0.00108621,-25,405,-4.67947,-4.67947,63.4604,10,2.956
1.4778,1.47641,0.59642,0.65492,0,9.93366e-06,-0.0511576,-0.000925677,-25,406,-4.68542,-4.68542,63.6811,10,2.96
1.4778,1.47641,0.596215,0.654919,0,6.62244e-06,-0.0512376,-0.000645909,-26,408,-4.69166,-4.69166,63.9024,10,2.964
1.4778,1.47641,0.59601,0.654919,0,4.41496e-06,-0.0513176,-0.000430606,-26,410,-4.69792,-4.69792,64.1245,10,2.968
1.4778,1.47641,0.595805,0.654919,0,3.17342e-05,-0.0513975,-0.000287071,-25,411,-4.70417,-4.70417,64.3472,10,2.972
1.4778,1.47641,0.595599,0.654919,0,2.11562e-05,-0.0514773,-0.000220171,-26,413,-4.71027,-4.71027,64.5706,10,2.976
1.4778,1.47641,0.595393,0.654919,0,4.2895e-05,-0.051557,-0.000146781,-25,414,-4.71642,-4.71642,64.7946,10,2.98
1.4778,1.47641,0.595186,0.654919,0,2.85967e-05,-0.0516366,-9.78539e-05,-26,416,-4.72245,-4.72245,65.0191,10,2.984
1.4778,1.47641,0.59498,0.654919,0,1.90645e-05,-0.0517161,-9.40269e-05,-26,417,-4.72857,-4.72857,65.2442,10,2.988
1.4778,1.47641,0.594773,0.654918,0,7.02915e-05,-0.0517956,-9.14755e-05,-25,419,-4.73472,-4.73472,65.4699,10,2.992
1.4778,1.47641,0.594565,0.654918,0,1.80701e-05,-0.0518749,-8.97746e-05,-26,420,-4.74059,-4.74059,65.6961,10,2.996
1.4778,1.47641,0.594358,0.654918,0,1.20467e-05,-0.0519541,-8.86407e-05,-26,422,-4.74677,-4.74677,65.9228,10,3
1.4778,1.47641,0.59415,0.654917,0,8.03114e-06,-0.0520332,-8.78847e-05,-26,423,-4.75298,-4.75298,66.1501,10,3.004
1.4778,1.47641,0.593941,0.654917,0,3.4145e-05,-0.0521122,-8.73807e-05,-26,425,-4.75921,-4.75921,66.3779,10,3.008
1.4778,1.47641,0.593733,0.654916,0,2.27633e-05,-0.0521912,-0.000115836,-26,426,-4.76529,-4.76529,66.6062,10,3.012
1.4778,1.47641,0.593524,0.654915,0,1.51756e-05,-0.05227,-0.000192387,-26,428,-4.77144,-4.77144,66.835,10,3.016
1.4778,1.47641,0.593315,0.654914,0,3.8908e-05,-0.0523487,-0.00018584,-26,429,-4.77763,-4.77763,67.0643,10,3.02
1.4778,1.47641,0.593105,0.654913,0,2.59386e-05,-0.0524273,-0.000210266,-26,431,-4.78368,-4.78368,67.2942,10,3.024
1.4778,1.47641,0.592895,0.654912,0,1.72924e-05,-0.0525058,-0.000284132,-26,432,-4.7898,-4.7898,67.5245,10,3.028
1.4778,1.47641,0.592685,0.654911,0,6.91101e-05,-0.0525843,-0.000275794,-26,434,-4.79596,-4.79596,67.7554,10,3.032
1.4778,1.47641,0.592475,0.65491,0,1.72825e-05,-0.0526626,-0.000212654,-26,435,-4.80183,-4.80183,67.9868,10,3.036
1.4778,1.47641,0.592264,0.654909,0,1.15217e-05,-0.0527408,-0.000199351,-26,437,-4.80801,-4.80801,68.2188,10,3.04
1.4778,1.47641,0.592053,0.654909,0,7.68111e-06,-0.0528189,-0.000190483,-26,438,-4.81423,-4.81423,68.4513,10,3.044
1.4778,1.47641,0.591841,0.654908,0,5.12074e-06,-0.0528969,-0.000213361,-26,440,-4.82047,-4.82047,68.6843,10,3.048
1.4778,1.47641,0.591629,0.654908,0,3.22048e-05,-0.0529749,-0.000142241,-26,441,-4.82671,-4.82671,68.9179,10,3.052
1.4778,1.47641,0.591417,0.654907,0,2.14698e-05,-0.0530527,-0.000152409,-26,443,-4.8328,-4.8328,69.1521,10,3.056
1.4778,1.47641,0.591205,0.654906,0,-1.44777e-05,-0.0531304,-0.000187979,-26,444,-4.83896,-4.83896,69.3867,10,3.06
1.4778,1.47641,0.590992,0.654905,0,4.793e-05,-0.053208,-0.000240483,-26,446,-4.84532,-4.84532,69.6219,10,3.064
1.4778,1.47641,0.590779,0.654904,0,3.19534e-05,-0.0532855,-0.000246695,-26,447,-4.8513,-4.8513,69.8576,10,3.068
1.4778,1.47641,0.590566,0.654902,0,5.00932e-05,-0.0533629,-0.000279627,-26,449,-4.85738,-4.85738,70.0937,10,3.072
1.4778,1.47641,0.590352,0.654901,0,6.21864e-05,-0.0534402,-0.000272791,-26,450,-4.86334,-4.86334,70.3304,10,3.076
1.4778,1.47641,0.590139,0.654899,0,7.02485e-05,-0.0535174,-0.000354606,-26,452,-4.86922,-4.86922,70.5676,10,3.08
1.4778,1.47641,0.589924,0.654897,0,4.68323e-05,-0.0535945,-0.00043794,-26,453,-4.87507,-4.87507,70.8053,10,3.084
1.4778,1.47641,0.58971,0.654893,0,6.00125e-05,-0.0536714,-0.00057987,-26,454,-4.88104,-4.88104,71.0433,10,3.088
1.4778,1.47641,0.589495,0.65489,0,9.75902e-05,-0.0537483,-0.000674489,-26,456,-4.88692,-4.88692,71.2818,10,3.092
1.4778,1.47641,0.58928,0.654885,0,3.62692e-05,-0.0538251,-0.000823941,-26,457,-4.89261,-4.89261,71.5207,10,3.096
1.4778,1.47641,0.589064,0.65488,0,2.41795e-05,-0.0539017,-0.000981158,-26,459,-4.89866,-4.89866,71.76,10,3.1
1.4778,1.47641,0.588849,0.654874,0,4.49106e-05,-0.0539783,-0.00117234,-26,460,-4.90478,-4.90478,71.9996,10,3.104
1.4778,1.47641,0.588632,0.654867,0,1.14945e-06,-0.0540547,-0.00135738,-26,461,-4.91079,-4.91079,72.2396,10,3.108
1.4778,1.47641,0.588416,0.654858,0,5.83482e-05,-0.0541311,-0.00165348,-26,463,-4.91703,-4.91703,72.4799,10,3.112
1.4778,1.47641,0.588199,0.654846,0,3.88988e-05,-0.0542073,-0.00211,-26,464,-4.92294,-4.92294,72.7203,10,3.116
1.4778,1.47641,0.587982,0.654831,0,2.59325e-05,-0.0542834,-0.00261589,-26,465,-4.92898,-4.92898,72.9608,10,3.12
1.4778,1.47641,0.587765,0.654815,0,1.72883e-05,-0.0543594,-0.00312589,-26,466,-4.93509,-4.93509,73.2013,10,3.124
1.4778,1.47641,0.587548,0.6548,0,1.15256e-05,-0.0544353,-0.00329315,-27,467,-4.94126,-4.94126,73.442,10,3.128
1.4778,1.47642,0.58733,0.654788,0,3.64746e-05,-0.0545111,-0.0032319,-26,469,-4.94745,-4.94745,73.6831,10,3.132
1.4778,1.47642,0.587111,0.654779,0,5.31073e-05,-0.0545868,-0.00290317,-26,470,-4.95348,-4.95348,73.925,10,3.136
1.4778,1.47642,0.586893,0.654774,0,9.29867e-05,-0.0546624,-0.00236731,-26,472,-4.9594,-4.9594,74.1676,10,3.14
1.4778,1.47642,0.586674,0.654772,0,3.32002e-05,-0.0547379,-0.00175095,-27,474,-4.96511,-4.96511,74.4113,10,3.144
1.4778,1.47642,0.586455,0.654773,0,2.21335e-05,-0.0548132,-0.00108093,-27,476,-4.97117,-4.97117,74.6559,10,3.148
1.4778,1.47642,0.586236,0.654773,0,7.23375e-05,-0.0548885,-0.000720619,-26,478,-4.97728,-4.97728,74.9015,10,3.152
1.4778,1.47642,0.586016,0.654772,0,1.94341e-05,-0.0549636,-0.000537994,-27,480,-4.98311,-4.98311,75.1479,10,3.156
1.4778,1.47642,0.585796,0.654772,0,4.1747e-05,-0.0550386,-0.000358663,-27,482,-4.98924,-4.98924,75.3949,10,3.16
1.4778,1.47642,0.585576,0.654772,0,5.66222e-05,-0.0551135,-0.000239109,-27,483,-4.99524,-4.99524,75.6425,10,3.164
1.4778,1.47642,0.585355,0.654772,0,6.65391e-05,-0.0551883,-0.000159406,-26,485,-5.00114,-5.00114,75.8908,10,3.168
1.4778,1.47642,0.585134,0.654772,0,7.31503e-05,-0.055263,-7.74795e-05,-26,487,-5.00698,-5.00698,76.1396,10,3.172
1.4778,1.47642,0.584913,0.654772,0,7.75578e-05,-0.0553376,-0.000109235,-26,488,-5.01278,-5.01278,76.389,10,3.176
1.4778,1.47642,0.584691,0.654771,0,5.17052e-05,-0.055412,-0.000101614,-27,490,-5.01856,-5.01856,76.6389,10,3.18
1.4778,1.47642,0.58447,0.654771,0,3.44701e-05,-0.0554864,-6.77428e-05,-27,491,-5.0245,-5.0245,76.8894,10,3.184
1.4778,1.47642,0.584248,0.654771,0,2.29801e-05,-0.0555606,-7.39528e-05,-27,493,-5.03055,-5.03055,77.1404,10,3.188
1.4778,1.47642,0.584025,0.654771,0,4.4111e-05,-0.0556347,-4.93019e-05,-27,495,-5.03665,-5.03665,77.3919,10,3.192
1.4778,1.47642,0.583802,0.654771,0,2.94073e-05,-0.0557087,-6.16588e-05,-27,496,-5.04264,-5.04264,77.644,10,3.196
1.4778,1.47642,0.58358,0.65477,0,1.96049e-05,-0.0557826,-9.86877e-05,-27,498,-5.04872,-5.04872,77.8966,10,3.2
1.4778,1.47642,0.583356,0.65477,0,1.30699e-05,-0.0558564,-9.45827e-05,-27,499,-5.05485,-5.05485,78.1496,10,3.204
1.4778,1.47642,0.583133,0.654769,0,8.71328e-06,-0.0559301,-0.000149428,-27,501,-5.06103,-5.06103,78.4032,10,3.208
1.4778,1.47642,0.582909,0.654767,0,5.80885e-06,-0.0560036,-0.000214782,-27,502,-5.06724,-5.06724,78.6573,10,3.212
1.4778,1.47642,0.582685,0.654766,0,-2.49184e-05,-0.056077,-0.000258352,-27,504,-5.07347,-5.07347,78.9118,10,3.216
1.4778,1.47642,0.58246,0.654764,0,4.09696e-05,-0.0561503,-0.000316189,-27,506,-5.07986,-5.07986,79.1669,10,3.22
1.4778,1.47642,0.582235,0.654762,0,2.73131e-05,-0.0562235,-0.000354747,-27,507,-5.08587,-5.08587,79.4224,10,3.224
1.4778,1.47642,0.58201,0.654761,0,1.82087e-05,-0.0562966,-0.000322871,-27,509,-5.09196,-5.09196,79.6784,10,3.228
1.4778,1.47642,0.581785,0.65476,0,1.21391e-05,-0.0563695,-0.000359202,-27,510,-5.0981,-5.0981,79.9349,10,3.232
1.4778,1.47642,0.581559,0.654758,0,8.09276e-06,-0.0564424,-0.000383423,-27,512,-5.10428,-5.10428,80.192,10,3.236
1.4778,1.47642,0.581334,0.654755,0,5.39518e-06,-0.0565151,-0.000457152,-27,513,-5.11049,-5.11049,80.4495,10,3.24
1.4778,1.47642,0.581107,0.654753,0,3.59678e-06,-0.0565877,-0.000506304,-27,515,-5.11672,-5.11672,80.7074,10,3.244
1.4778,1.47642,0.580881,0.654751,0,2.39786e-06,-0.0566602,-0.000510282,-27,516,-5.12295,-5.12295,80.9659,10,3.248
1.4778,1.47642,0.580654,0.654749,0,1.59857e-06,-0.0567326,-0.000512933,-27,518,-5.12919,-5.12919,81.2249,10,3.252
1.4778,1.47642,0.580427,0.654746,0,1.06571e-06,-0.0568048,-0.000572283,-27,520,-5.13544,-5.13544,81.4843,10,3.256
1.4778,1.47642,0.5802,0.654742,0,7.10476e-07,-0.0568769,-0.000727013,-27,521,-5.14169,-5.14169,81.7442,10,3.26
1.4778,1.47642,0.579972,0.654737,0,-2.83173e-05,-0.0569489,-0.000916539,-28,523,-5.14796,-5.14796,82.0044,10,3.264
1.4778,1.47642,0.579744,0.654729,0,3.87037e-05,-0.0570208,-0.00121564,-27,524,-5.15437,-5.15437,82.2649,10,3.268
1.4778,1.47642,0.579516,0.654721,0,2.58024e-05,-0.0570926,-0.0015302,-27,525,-5.16039,-5.16039,82.5256,10,3.272
1.4778,1.47642,0.579287,0.654713,0,1.72016e-05,-0.0571642,-0.00171111,-27,527,-5.16648,-5.16648,82.7866,10,3.276
1.4778,1.47642,0.579058,0.654704,0,1.14678e-05,-0.0572357,-0.00186052,-28,528,-5.17263,-5.17263,83.048,10,3.28
1.4778,1.47642,0.578829,0.654697,0,7.64517e-06,-0.0573072,-0.00181616,-28,530,-5.17882,-5.17882,83.3098,10,3.284
1.4778,1.47642,0.5786,0.654691,0,3.38877e-05,-0.0573784,-0.00172901,-27,531,-5.18501,-5.18501,83.5722,10,3.288
1.4778,1.47642,0.57837,0.654686,0,2.25918e-05,-0.0574496,-0.00152696,-28,533,-5.19106,-5.19106,83.8351,10,3.292
1.4778,1.47642,0.57814,0.654682,0,1.50612e-05,-0.0575206,-0.00133467,-28,535,-5.19718,-5.19718,84.0988,10,3.296
1.4778,1.47642,0.57791,0.654679,0,1.00408e-05,-0.0575915,-0.00117769,-28,537,-5.20334,-5.20334,84.363,10,3.3
1.4778,1.47642,0.57768,0.654675,0,3.54848e-05,-0.0576623,-0.00110183,-28,538,-5.20952,-5.20952,84.6279,10,3.304
1.4778,1.47642,0.577449,0.65467,0,2.36565e-05,-0.057733,-0.00113762,-28,540,-5.21555,-5.21555,84.8932,10,3.308
1.4778,1.47642,0.577218,0.654665,0,4.45619e-05,-0.0578035,-0.00121907,-28,541,-5.22165,-5.22165,85.159,10,3.312
1.4778,1.47642,0.576986,0.654658,0,2.9708e-05,-0.0578739,-0.00141732,-28,543,-5.22762,-5.22762,85.4252,10,3.316
1.4778,1.47642,0.576755,0.654647,0,1.98053e-05,-0.0579442,-0.0018374,-28,544,-5.23369,-5.23369,85.6915,10,3.32
1.4778,1.47642,0.576523,0.654631,0,1.32035e-05,-0.0580144,-0.00252053,-28,545,-5.23982,-5.23982,85.9578,10,3.324
1.4778,1.47642,0.576291,0.654609,0,3.75933e-05,-0.0580844,-0.00358055,-28,546,-5.24598,-5.24598,86.2238,10,3.328
1.4778,1.47642,0.576058,0.654576,0,2.50622e-05,-0.0581544,-0.00512217,-28,546,-5.252,-5.252,86.489,10,3.332
1.4778,1.47642,0.575825,0.654532,0,1.67081e-05,-0.0582242,-0.00710002,-28,545,-5.25809,-5.25809,86.7531,10,3.336
1.4778,1.47642,0.575592,0.654472,0,1.11388e-05,-0.0582938,-0.00965659,-28,545,-5.26424,-5.26424,87.0156,10,3.34
1.4778,1.47642,0.575359,0.654397,0,7.42583e-06,-0.0583634,-0.0127142,-28,543,-5.27043,-5.27043,87.2758,10,3.344
1.4778,1.47642,0.575126,0.654302,0,4.95056e-06,-0.0584328,-0.0163648,-28,541,-5.27663,-5.27663,87.5334,10,3.348
1.4778,1.47642,0.574892,0.654182,0,3.20913e-05,-0.0585021,-0.0209291,-28,538,-5.28285,-5.28285,87.7874,10,3.352
1.4778,1.47642,0.574658,0.654036,0,2.13942e-05,-0.0585712,-0.0261025,-28,535,-5.2889,-5.2889,88.0372,10,3.356
1.4778,1.47642,0.574423,0.653861,0,7.18446e-05,-0.0586403,-0.0320275,-28,530,-5.295,-5.295,88.2821,10,3.36
1.4778,1.47642,0.574188,0.653651,0,1.91055e-05,-0.0587092,-0.0388277,-28,525,-5.30082,-5.30082,88.5211,10,3.364
1.4778,1.47642,0.573953,0.653412,0,1.2737e-05,-0.0587779,-0.0458373,-28,519,-5.30696,-5.30696,88.7538,10,3.368
1.4778,1.47642,0.573718,0.653143,0,8.49134e-06,-0.0588466,-0.0529575,-28,513,-5.31314,-5.31314,88.9799,10,3.372
1.4778,1.47642,0.573483,0.652841,0,5.66089e-06,-0.0589151,-0.0604971,-28,507,-5.31935,-5.31935,89.1988,10,3.376
1.4778,1.47642,0.573247,0.65251,0,3.25649e-05,-0.0589835,-0.0679131,-28,500,-5.32556,-5.32556,89.4105,10,3.38
1.4778,1.47642,0.573011,0.652148,0,7.92918e-05,-0.0590518,-0.0754483,-28,493,-5.3316,-5.3316,89.6146,10,3.384
1.4778,1.47642,0.572774,0.651759,0,5.28612e-05,-0.0591199,-0.0827174,-28,486,-5.33737,-5.33737,89.8111,10,3.388
1.4778,1.47642,0.572538,0.651339,0,6.40317e-05,-0.0591879,-0.0901259,-28,478,-5.3433,-5.3433,89.9998,10,3.392
1.4778,1.47642,0.572301,0.650888,0,0.00010027,-0.0592558,-0.0976561,-28,471,-5.34915,-5.34915,90.1805,10,3.396
1.4778,1.47642,0.572064,0.650412,0,0.000124428,-0.0593235,-0.104807,-28,463,-5.35477,-5.35477,90.3532,10,3.4
1.4778,1.47642,0.571826,0.649903,0,0.000169325,-0.0593911,-0.11228,-27,455,-5.36023,-5.36023,90.5175,10,3.404
1.4778,1.47643,0.571589,0.649367,0,0.000170465,-0.0594586,-0.119451,-27,447,-5.36542,-5.36542,90.6734,10,3.408
1.4778,1.47643,0.571351,0.648806,0,0.000171225,-0.059526,-0.126448,-27,440,-5.3706,-5.3706,90.821,10,3.412
1.4778,1.47643,0.571112,0.64822,0,0.000142941,-0.0595932,-0.133099,-28,432,-5.3758,-5.3758,90.9603,10,3.416
1.4778,1.47643,0.570874,0.647606,0,0.000152876,-0.0596603,-0.139865,-28,424,-5.38116,-5.38116,91.0912,10,3.42
1.4778,1.47643,0.570635,0.646968,0,0.000159499,-0.0597272,-0.14642,-28,415,-5.38647,-5.38647,91.2136,10,3.424
1.4778,1.47643,0.570396,0.646307,0,0.000135124,-0.059794,-0.152691,-28,407,-5.39174,-5.39174,91.3276,10,3.428
1.4778,1.47643,0.570157,0.645624,0,0.000118873,-0.0598607,-0.158771,-28,399,-5.39718,-5.39718,91.4332,10,3.432
1.4778,1.47643,0.569917,0.644925,0,0.000136831,-0.0599273,-0.164091,-28,392,-5.4027,-5.4027,91.5309,10,3.436
1.4778,1.47643,0.569677,0.644207,0,0.000120011,-0.0599937,-0.169193,-28,384,-5.40813,-5.40813,91.6207,10,3.44
1.4778,1.47643,0.569437,0.643478,0,8.00076e-05,-0.06006,-0.173573,-28,377,-5.41369,-5.41369,91.7032,10,3.444
1.4778,1.47643,0.569197,0.642725,0,8.21293e-05,-0.0601262,-0.17848,-28,370,-5.41948,-5.41948,91.778,10,3.448
1.4778,1.47643,0.568956,0.641963,0,8.35438e-05,-0.0601922,-0.182499,-28,363,-5.42527,-5.42527,91.8455,10,3.452
1.4778,1.47643,0.568715,0.641182,0,5.56959e-05,-0.0602581,-0.186705,-28,356,-5.43107,-5.43107,91.9058,10,3.456
1.4778,1.47643,0.568474,0.640387,0,3.71306e-05,-0.0603238,-0.190718,-29,349,-5.43705,-5.43705,91.9587,10,3.46
1.4778,1.47643,0.568233,0.639586,0,5.35446e-05,-0.0603894,-0.193883,-29,342,-5.44314,-5.44314,92.0048,10,3.464
1.4778,1.47643,0.567991,0.63877,0,6.44874e-05,-0.0604549,-0.197317,-28,336,-5.44913,-5.44913,92.044,10,3.468
1.4778,1.47643,0.567749,0.63799,0,7.17825e-05,-0.0605203,-0.196468,-28,333,-5.45506,-5.45506,92.0787,10,3.472
1.4778,1.47643,0.567507,0.637199,0,7.66459e-05,-0.0605855,-0.19691,-28,329,-5.46095,-5.46095,92.1094,10,3.476
1.4778,1.47643,0.567264,0.636419,0,5.10973e-05,-0.0606506,-0.196312,-29,325,-5.46683,-5.46683,92.1363,10,3.48
1.4778,1.47643,0.567022,0.635655,0,6.28558e-05,-0.0607155,-0.19456,-29,323,-5.47286,-5.47286,92.1604,10,3.484
1.4778,1.47643,0.566779,0.634907,0,7.06948e-05,-0.0607803,-0.192039,-29,322,-5.47882,-5.47882,92.1826,10,3.488
1.4778,1.47643,0.566535,0.634174,0,7.59208e-05,-0.060845,-0.189092,-29,321,-5.48473,-5.48473,92.2033,10,3.492
1.4778,1.47643,0.566292,0.633434,0,0.000108196,-0.0609095,-0.187702,-28,319,-5.4906,-5.4906,92.2221,10,3.496
1.4778,1.47643,0.566048,0.63274,0,0.000129712,-0.0609739,-0.183005,-28,320,-5.49627,-5.49627,92.2402,10,3.5
1.4778,1.47644,0.565804,0.632035,0,0.000172848,-0.0610382,-0.180708,-28,318,-5.50179,-5.50179,92.2575,10,3.504
1.4778,1.47644,0.56556,0.631334,0,0.000172814,-0.0611023,-0.178889,-28,317,-5.50705,-5.50705,92.2731,10,3.508
1.4778,1.47644,0.565315,0.630634,0,0.000201582,-0.0611662,-0.177647,-28,315,-5.5123,-5.5123,92.2865,10,3.512
1.4778,1.47644,0.565071,0.629939,0,0.000220761,-0.0612301,-0.176272,-28,313,-5.51736,-5.51736,92.2977,10,3.516
1.4778,1.47644,0.564826,0.629246,0,0.000262337,-0.0612938,-0.175298,-28,310,-5.52229,-5.52229,92.3067,10,3.52
1.4778,1.47644,0.56458,0.628555,0,0.000318846,-0.0613574,-0.174447,-27,308,-5.52693,-5.52693,92.3131,10,3.524
1.4778,1.47644,0.564335,0.627869,0,0.000327728,-0.0614208,-0.173477,-27,306,-5.53122,-5.53122,92.3172,10,3.528
1.4778,1.47644,0.564089,0.62719,0,0.00036244,-0.0614841,-0.172197,-27,304,-5.53543,-5.53543,92.3191,10,3.532
1.4778,1.47645,0.563843,0.62652,0,0.000414372,-0.0615472,-0.170623,-27,302,-5.53941,-5.53941,92.3191,10,3.536
