peachynonah/Fire_monitor_/csv_datas/trial12/cdsl_data_debug.csv
joint1_pos_desired, joint1_pos, joint2_pos_desired, joint2_pos, joint1_vel_desired, joint1_vel_filtered, joint2_vel_desired, joint2_vel_filtered, target_torque_joint1, target_torque_joint2, estimated_disturbance_joint1, saturated_DOB_joint1, estimated_disturbance_joint2, saturated_DOB_joint2, current_time
-1.0042e-09,-0.000187256,0.3929,0.00012334,-7.52997e-07,0,0.0999999,0,0,0,0,0,23.0563,0.1,0.004
-8.02876e-09,-0.000187256,0.3933,0.00012334,-3.00958e-06,0,0.0999996,0,0,0,-0.00133315,-0.00133315,20.0778,0.1,0.008
-2.70808e-08,-0.000187256,0.3937,0.00012334,-6.76613e-06,0,0.0999991,0,0,0,-0.00264254,-0.00264254,17.1097,0.1,0.012
-6.4153e-08,-0.000187256,0.3941,0.00012334,-1.2019e-05,0,0.0999984,0,0,0,-0.00391303,-0.00391303,14.1519,0.1,0.016
-1.25224e-07,-0.000187256,0.3945,0.00012334,-1.87647e-05,0,0.0999975,0,0,0,-0.00512949,-0.00512949,11.2044,0.1,0.02
-2.16256e-07,-0.000187256,0.3949,0.00012334,-2.69995e-05,0,0.0999964,0,0,0,-0.00627677,-0.00627677,8.26704,0.1,0.024
-3.43201e-07,-0.000187256,0.3953,0.00012334,-3.67199e-05,0,0.0999951,0,0,0,-0.00733973,-0.00733973,5.33984,0.1,0.028
-5.11991e-07,-0.000187256,0.3957,0.00012334,-4.79222e-05,0,0.0999937,0,0,0,-0.0083032,-0.0083032,2.42275,0.1,0.032
-7.28549e-07,-0.000187256,0.3961,0.00012334,-6.06029e-05,0,0.099992,0,0,0,-0.00915202,-0.00915202,-0.484267,-0.1,0.036
-9.98781e-07,-0.000187256,0.3965,0.00012334,-7.47583e-05,0,0.0999901,0,0,0,-0.00987102,-0.00987102,-3.38215,-0.1,0.04
-1.32858e-06,-0.000187256,0.3969,0.00012334,-9.03849e-05,0,0.099988,0,0,0,-0.010445,-0.010445,-6.27005,-0.1,0.044
-1.72382e-06,-0.000187256,0.3973,0.00012334,-0.000107479,0,0.0999858,0,0,0,-0.0108589,-0.0108589,-9.14802,-0.1,0.048
-2.19036e-06,-0.000187256,0.3977,0.00012334,-0.000126037,0,0.0999833,0,0,0,-0.0110973,-0.0110973,-12.0161,-0.1,0.052
-2.73406e-06,-0.000187256,0.3981,0.000123686,-0.000146056,0,0.0999806,2.87909e-05,0,0,-0.0111452,-0.0111452,-14.8743,-0.1,0.056
-3.36075e-06,-0.000187256,0.3985,0.00012334,-0.000167531,0,0.0999778,-9.59697e-06,0,0,-0.0109873,-0.0109873,-17.7227,-0.1,0.06
-4.07625e-06,-0.000187256,0.398899,0.00012334,-0.00019046,0,0.0999747,-6.39798e-06,0,0,-0.0106085,-0.0106085,-20.5614,-0.1,0.064
-4.88637e-06,-0.000187256,0.399299,0.00012334,-0.000214839,0,0.0999715,-4.26532e-06,0,0,-0.0099935,-0.0099935,-23.3903,-0.1,0.068
-5.79689e-06,-0.000187256,0.399699,0.00012334,-0.000240663,0,0.099968,-2.84355e-06,0,0,-0.00912709,-0.00912709,-26.2095,-0.1,0.072
-6.81359e-06,-0.000187256,0.400099,0.00012334,-0.00026793,0,0.0999644,-1.8957e-06,0,0,-0.00799405,-0.00799405,-29.0192,-0.1,0.076
-7.94225e-06,-0.000187256,0.400499,0.00012334,-0.000296636,0,0.0999606,-1.2638e-06,0,0,-0.00657915,-0.00657915,-31.8192,-0.1,0.08
-9.1886e-06,-0.000187256,0.400899,0.00012334,-0.000326778,0,0.0999566,-8.42533e-07,0,0,-0.00486717,-0.00486717,-34.6096,-0.1,0.084
-1.05584e-05,-0.000187256,0.401299,0.000123686,-0.000358351,0,0.0999524,2.82292e-05,0,0,-0.00284285,-0.00284285,-37.3906,-0.1,0.088
-1.20573e-05,-0.000187256,0.401698,0.00012334,-0.000391353,0,0.099948,-9.97143e-06,0,0,-0.000490963,-0.000490963,-40.1621,-0.1,0.092
-1.36911e-05,-0.000187256,0.402098,0.00012334,-0.000425779,0,0.0999434,-6.64762e-06,0,0,0.00220376,0.00220376,-42.9242,-0.1,0.096
-1.54654e-05,-0.000187256,0.402498,0.00012334,-0.000461627,0,0.0999386,-4.43175e-06,0,0,0.00525656,0.00525656,-45.6768,-0.1,0.1
-1.7386e-05,-0.000187602,0.402898,0.00012334,-0.000498892,-2.87909e-05,0.0999336,-2.9545e-06,0,0,0.00866208,0.00866208,-48.4202,-0.1,0.104
-1.94585e-05,-0.000187256,0.403297,0.00012334,-0.000537572,9.59697e-06,0.0999285,-1.96967e-06,0,0,0.012213,0.012213,-51.1542,-0.1,0.108
-2.16885e-05,-0.000187256,0.403697,0.000123686,-0.000577662,6.39798e-06,0.0999231,2.74778e-05,0,0,0.0165257,0.0165257,-53.879,-0.1,0.112
-2.40816e-05,-0.000187256,0.404097,0.00012334,-0.000619159,4.26532e-06,0.0999175,-1.04724e-05,0,0,0.0212261,0.0212261,-56.5945,-0.1,0.116
-2.66436e-05,-0.000187256,0.404496,0.00012334,-0.00066206,2.84355e-06,0.0999118,-6.98159e-06,0,0,0.0263402,0.0263402,-59.3009,-0.1,0.12
-2.938e-05,-0.000187256,0.404896,0.00012334,-0.000706361,1.8957e-06,0.0999059,-4.65439e-06,0,0,0.03189,0.03189,-61.9982,-0.1,0.124
-3.22964e-05,-0.000187256,0.405296,0.00012334,-0.000752058,1.2638e-06,0.0998998,-3.10293e-06,0,0,0.0378956,0.0378956,-64.6863,-0.1,0.128
-3.53983e-05,-0.000187256,0.405695,0.00012334,-0.000799148,8.42533e-07,0.0998935,-2.06862e-06,0,0,0.0443753,0.0443753,-67.3654,-0.1,0.132
-3.86914e-05,-0.000187602,0.406095,0.00012334,-0.000847627,-2.82292e-05,0.099887,-1.37908e-06,0,0,0.0513258,0.0513258,-70.0355,-0.1,0.136
-4.21812e-05,-0.000187256,0.406494,0.00012334,-0.000897492,9.97143e-06,0.0998803,-9.19386e-07,0,0,0.0585414,0.0585414,-72.6965,-0.1,0.14
-4.58732e-05,-0.000187256,0.406894,0.00012334,-0.00094874,6.64762e-06,0.0998734,-6.12924e-07,0,0,0.0666392,0.0666392,-75.3487,-0.1,0.144
-4.97729e-05,-0.000187256,0.407293,0.000123686,-0.00100137,4.43175e-06,0.0998664,2.83823e-05,0,0,0.0752459,0.0752459,-77.9919,-0.1,0.148
-5.38859e-05,-0.000187256,0.407693,0.00012334,-0.00105537,2.9545e-06,0.0998591,-9.86939e-06,0,0,0.0843878,0.0843878,-80.6263,-0.1,0.152
-5.82177e-05,-0.000187256,0.408092,0.00012334,-0.00111074,1.96967e-06,0.0998517,-6.57959e-06,0,0,0.0940875,0.0940875,-83.2518,-0.1,0.156
-6.27737e-05,-0.000187602,0.408492,0.00012334,-0.00116748,-2.74778e-05,0.0998441,-4.38639e-06,0,0,0.104344,0.1,-85.8686,-0.1,0.16
-6.75594e-05,-0.000187256,0.408891,0.00012334,-0.00122559,1.04724e-05,0.0998363,-2.92426e-06,0,0,0.114935,0.1,-88.4766,-0.1,0.164
-7.25802e-05,-0.000187256,0.40929,0.00012334,-0.00128506,6.98159e-06,0.0998283,-1.94951e-06,0,0,0.126451,0.1,-91.0759,-0.1,0.168
-7.78417e-05,-0.000187256,0.40969,0.00012334,-0.00134589,4.65439e-06,0.0998201,-1.29967e-06,0,0,0.138515,0.1,-93.6666,-0.1,0.172
-8.33491e-05,-0.000187256,0.410089,0.00012334,-0.00140807,3.10293e-06,0.0998118,-8.66448e-07,0,0,0.151152,0.1,-96.2486,-0.1,0.176
-8.9108e-05,-0.000187256,0.410488,0.00012334,-0.0014716,2.06862e-06,0.0998032,-5.77632e-07,0,0,0.164382,0.1,-98.822,-0.1,0.18
-9.51237e-05,-0.000187256,0.410887,0.00012334,-0.00153648,1.37908e-06,0.0997945,-3.85088e-07,0,0,0.178223,0.1,-101.387,-0.1,0.184
-0.000101402,-0.000187256,0.411286,0.00012334,-0.0016027,9.19386e-07,0.0997856,-2.56725e-07,0,0,0.19269,0.1,-103.943,-0.1,0.188
-0.000107947,-0.000187256,0.411686,0.00012334,-0.00167026,6.12924e-07,0.0997765,-1.7115e-07,0,0,0.2078,0.1,-106.491,-0.1,0.192
-0.000114765,-0.000187256,0.412085,0.00012334,-0.00173916,4.08616e-07,0.0997672,-1.141e-07,0,0,0.223565,0.1,-109.03,-0.1,0.196
-0.000121862,-0.000187256,0.412484,0.00012334,-0.00180939,2.72411e-07,0.0997577,-7.60668e-08,0,0,0.24,0.1,-111.561,-0.1,0.2
-0.000129242,-0.000187256,0.412883,0.00012334,-0.00188096,1.81607e-07,0.0997481,-5.07112e-08,0,0,0.257116,0.1,-114.084,-0.1,0.204
-0.000136912,-0.000187256,0.413282,0.00012334,-0.00195385,1.21071e-07,0.0997382,-3.38075e-08,0,0,0.274928,0.1,-116.598,-0.1,0.208
-0.000144875,-0.000187256,0.413681,0.00012334,-0.00202806,8.07143e-08,0.0997282,-2.25383e-08,0,0,0.293448,0.1,-119.104,-0.1,0.212
-0.000153138,-0.000187256,0.41408,0.00012334,-0.00210359,5.38095e-08,0.099718,-1.50255e-08,0,0,0.312688,0.1,-121.602,-0.1,0.216
-0.000161705,-0.000187256,0.414478,0.00012334,-0.00218044,3.5873e-08,0.0997076,-1.0017e-08,0,0,0.33266,0.1,-124.092,-0.1,0.22
-0.000170583,-0.000187256,0.414877,0.00012334,-0.0022586,2.39153e-08,0.0996971,-6.67802e-09,0,0,0.353377,0.1,-126.573,-0.1,0.224
-0.000179776,-0.000187256,0.415276,0.00012334,-0.00233807,1.59436e-08,0.0996863,-4.45201e-09,0,0,0.374851,0.1,-129.046,-0.1,0.228
-0.000189289,-0.000187256,0.415675,0.00012334,-0.00241885,1.0629e-08,0.0996754,-2.96801e-09,0,0,0.397093,0.1,-131.511,-0.1,0.232
-0.000199128,-0.000187256,0.416073,0.00012334,-0.00250092,7.08603e-09,0.0996643,-1.97867e-09,0,0,0.420117,0.1,-133.968,-0.1,0.236
-0.000209298,-0.000187256,0.416472,0.00012334,-0.0025843,4.72402e-09,0.099653,-1.31911e-09,0,0,0.443934,0.1,-136.417,-0.1,0.24
-0.000219805,-0.000187602,0.416871,0.00012334,-0.00266897,-2.87878e-05,0.0996415,-8.7941e-10,0,0,0.468534,0.1,-138.858,-0.1,0.244
-0.000230652,-0.000187256,0.417269,0.00012334,-0.00275494,9.59907e-06,0.0996299,-5.86273e-10,0,0,0.493709,0.1,-141.291,-0.1,0.248
-0.000241846,-0.000187256,0.417668,0.00012334,-0.00284219,6.39938e-06,0.0996181,-3.90849e-10,0,0,0.520071,0.1,-143.716,-0.1,0.252
-0.000253391,-0.000187256,0.418066,0.00012334,-0.00293073,4.26626e-06,0.0996061,-2.60566e-10,0,0,0.547241,0.1,-146.133,-0.1,0.256
-0.000265293,-0.000187256,0.418464,0.00012334,-0.00302055,2.84417e-06,0.0995939,-1.73711e-10,0,0,0.575242,0.1,-148.542,-0.1,0.26
-0.000277557,-0.000187256,0.418863,0.00012334,-0.00311164,1.89611e-06,0.0995815,-1.15807e-10,0,0,0.604092,0.1,-150.943,-0.1,0.264
-0.000290188,-0.000187256,0.419261,0.00012334,-0.00320402,1.26408e-06,0.099569,-7.72047e-11,0,0,0.633808,0.1,-153.337,-0.1,0.268
-0.000303191,-0.000187256,0.419659,0.00012334,-0.00329766,8.42717e-07,0.0995563,-5.14698e-11,0,0,0.664405,0.1,-155.723,-0.1,0.272
-0.000316571,-0.000187256,0.420058,0.00012334,-0.00339257,5.61811e-07,0.0995434,-3.43132e-11,0,0,0.695895,0.1,-158.101,-0.1,0.276
-0.000330333,-0.000187256,0.420456,0.00012334,-0.00348875,3.74541e-07,0.0995303,-2.28755e-11,0,0,0.728292,0.1,-160.471,-0.1,0.28
-0.000344483,-0.000187256,0.420854,0.00012334,-0.00358618,2.49694e-07,0.0995171,-1.52503e-11,0,0,0.761609,0.1,-162.834,-0.1,0.284
-0.000359025,-0.000187256,0.421252,0.00012334,-0.00368488,1.66463e-07,0.0995036,-1.01669e-11,0,0,0.795856,0.1,-165.189,-0.1,0.288
-0.000373964,-0.000187256,0.42165,0.00012334,-0.00378483,1.10975e-07,0.09949,-6.77791e-12,0,0,0.831047,0.1,-167.536,-0.1,0.292
-0.000389305,-0.000187256,0.422048,0.00012334,-0.00388603,7.39834e-08,0.0994763,-4.51861e-12,0,0,0.867191,0.1,-169.876,-0.1,0.296
-0.000405053,-0.000187256,0.422446,0.00012334,-0.00398848,4.93223e-08,0.0994623,-3.01241e-12,0,0,0.904302,0.1,-172.209,-0.1,0.3
-0.000421214,-0.000187256,0.422843,0.00012334,-0.00409217,3.28815e-08,0.0994482,-2.00827e-12,0,0,0.942389,0.1,-174.533,-0.1,0.304
-0.000437792,-0.000187256,0.423241,0.00012334,-0.0041971,2.1921e-08,0.0994339,-1.33885e-12,0,0,0.981465,0.1,-176.851,-0.1,0.308
-0.000454793,-0.000187602,0.423639,0.000123686,-0.00430327,-2.87763e-05,0.0994194,2.87909e-05,0,0,1.02152,0.1,-179.161,-0.1,0.312
-0.00047222,-0.000187256,0.424037,0.00012334,-0.00441067,9.60672e-06,0.0994047,-9.59698e-06,0,0,1.06234,0.1,-181.463,-0.1,0.316
-0.00049008,-0.000187256,0.424434,0.00012334,-0.0045193,6.40448e-06,0.0993899,-6.39798e-06,0,0,1.10454,0.1,-183.758,-0.1,0.32
-0.000508376,-0.000187602,0.424832,0.00012334,-0.00462916,-2.45213e-05,0.0993749,-4.26532e-06,0,0,1.14773,0.1,-186.046,-0.1,0.324
-0.000527115,-0.000187256,0.425229,0.00012334,-0.00474025,1.24434e-05,0.0993597,-2.84355e-06,0,0,1.19169,0.1,-188.327,-0.1,0.328
-0.0005463,-0.000187256,0.425627,0.00012334,-0.00485255,8.29561e-06,0.0993444,-1.8957e-06,0,0,1.23705,0.1,-190.6,-0.1,0.332
-0.000565937,-0.000187256,0.426024,0.00012334,-0.00496608,5.5304e-06,0.0993289,-1.2638e-06,0,0,1.28343,0.1,-192.866,-0.1,0.336
-0.00058603,-0.000187256,0.426421,0.00012334,-0.00508081,3.68694e-06,0.0993132,-8.42533e-07,0,0,1.33086,0.1,-195.124,-0.1,0.34
-0.000606585,-0.000187256,0.426818,0.00012334,-0.00519676,2.45796e-06,0.0992973,-5.61689e-07,0,0,1.37936,0.1,-197.376,-0.1,0.344
-0.000627606,-0.000187256,0.427216,0.00012334,-0.00531391,1.63864e-06,0.0992813,-3.74459e-07,0,0,1.42894,0.1,-199.62,-0.1,0.348
-0.000649098,-0.000187256,0.427613,0.00012334,-0.00543226,1.09243e-06,0.0992651,-2.49639e-07,0,0,1.47963,0.1,-201.858,-0.1,0.352
-0.000671065,-0.000187256,0.42801,0.00012334,-0.00555182,7.28284e-07,0.0992487,-1.66426e-07,0,0,1.53142,0.1,-204.088,-0.1,0.356
-0.000693514,-0.000187256,0.428407,0.00012334,-0.00567257,4.85522e-07,0.0992321,-1.10951e-07,0,0,1.58434,0.1,-206.311,-0.1,0.36
-0.000716448,-0.000187256,0.428804,0.00012334,-0.00579452,3.23682e-07,0.0992154,-7.39672e-08,0,0,1.6384,0.1,-208.527,-0.1,0.364
-0.000739872,-0.000187602,0.4292,0.00012334,-0.00591765,-2.85751e-05,0.0991985,-4.93115e-08,0,0,1.69358,0.1,-210.736,-0.1,0.368
-0.00076379,-0.000187256,0.429597,0.00012334,-0.00604198,9.74083e-06,0.0991814,-3.28743e-08,0,0,1.74968,0.1,-212.938,-0.1,0.372
-0.000788209,-0.000187602,0.429994,0.00012334,-0.00616748,-2.2297e-05,0.0991642,-2.19162e-08,0,0,1.80729,0.1,-215.134,-0.1,0.376
-0.000813132,-0.000187602,0.43039,0.00012334,-0.00629417,-1.48647e-05,0.0991468,-1.46108e-08,0,0,1.86578,0.1,-217.322,-0.1,0.38
-0.000838564,-0.000187256,0.430787,0.00012334,-0.00642203,1.88811e-05,0.0991292,-9.74054e-09,0,0,1.92556,0.1,-219.503,-0.1,0.384
-0.00086451,-0.000187256,0.431184,0.00012334,-0.00655106,1.25874e-05,0.0991115,-6.49369e-09,0,0,1.98685,0.1,-221.678,-0.1,0.388
-0.000890974,-0.000187256,0.43158,0.00012334,-0.00668127,8.39161e-06,0.0990936,-4.32913e-09,0,0,2.04929,0.1,-223.846,-0.1,0.392
-0.000917961,-0.000187256,0.431976,0.00012334,-0.00681264,5.59441e-06,0.0990755,-2.88609e-09,0,0,2.11291,0.1,-226.006,-0.1,0.396
-0.000945477,-0.000187256,0.432373,0.00012334,-0.00694518,3.72961e-06,0.0990573,-1.92406e-09,0,0,2.17773,0.1,-228.161,-0.1,0.4
-0.000973524,-0.000187256,0.432769,0.00012334,-0.00707887,2.4864e-06,0.0990388,-1.2827e-09,0,0,2.24377,0.1,-230.308,-0.1,0.404
-0.00100211,-0.000187602,0.433165,0.00012334,-0.00721372,-2.71333e-05,0.0990203,-8.55136e-10,0,0,2.31103,0.1,-232.449,-0.1,0.408
-0.00103124,-0.000187602,0.433561,0.00012334,-0.00734973,-1.80889e-05,0.0990015,-5.70091e-10,0,0,2.37929,0.1,-234.583,-0.1,0.412
-0.00106091,-0.000187256,0.433957,0.000123686,-0.00748689,1.67317e-05,0.0989826,2.87905e-05,0,0,2.44892,0.1,-236.71,-0.1,0.416
-0.00109113,-0.000187602,0.434353,0.00012334,-0.00762519,-1.76365e-05,0.0989635,-9.59723e-06,0,0,2.52013,0.1,-238.831,-0.1,0.42
-0.00112191,-0.000187256,0.434749,0.00012334,-0.00776463,1.70333e-05,0.0989443,-6.39815e-06,0,0,2.59234,0.1,-240.945,-0.1,0.424
-0.00115325,-0.000187602,0.435144,0.00012334,-0.00790522,-1.74354e-05,0.0989248,-4.26543e-06,0,0,2.66615,0.1,-243.053,-0.1,0.428
-0.00118515,-0.000187256,0.43554,0.00012334,-0.00804694,1.71673e-05,0.0989053,-2.84362e-06,0,0,2.74097,0.1,-245.154,-0.1,0.432
-0.00121763,-0.000187256,0.435936,0.00012334,-0.00818979,1.14449e-05,0.0988855,-1.89575e-06,0,0,2.81743,0.1,-247.249,-0.1,0.436
-0.00125067,-0.000187256,0.436331,0.00012334,-0.00833378,7.62992e-06,0.0988656,-1.26383e-06,0,0,2.89516,0.1,-249.337,-0.1,0.44
-0.0012843,-0.000187256,0.436726,0.00012334,-0.00847889,5.08661e-06,0.0988455,-8.42555e-07,0,0,2.97419,0.1,-251.419,-0.1,0.444
-0.00131851,-0.000187256,0.437122,0.00012334,-0.00862513,3.39108e-06,0.0988253,-5.61703e-07,0,0,3.05455,0.1,-253.494,-0.1,0.448
-0.0013533,-0.000187256,0.437517,0.00012334,-0.00877248,2.26072e-06,0.0988049,-3.74469e-07,0,0,3.13624,0.1,-255.563,-0.1,0.452
-0.00138869,-0.000187256,0.437912,0.000123686,-0.00892096,1.50714e-06,0.0987843,2.85413e-05,0,0,3.2193,0.1,-257.626,-0.1,0.456
-0.00142467,-0.000187256,0.438307,0.00012334,-0.00907054,1.00476e-06,0.0987636,-9.76341e-06,0,0,3.30372,0.1,-259.682,-0.1,0.46
-0.00146125,-0.000187256,0.438702,0.00012334,-0.00922124,6.69842e-07,0.0987427,-6.50894e-06,0,0,3.38952,0.1,-261.732,-0.1,0.464
-0.00149844,-0.000187256,0.439097,0.00012334,-0.00937304,4.46561e-07,0.0987216,-4.33929e-06,0,0,3.47671,0.1,-263.775,-0.1,0.468
-0.00153624,-0.000187256,0.439492,0.00012334,-0.00952595,2.97708e-07,0.0987004,-2.89286e-06,0,0,3.56531,0.1,-265.813,-0.1,0.472
-0.00157465,-0.000187256,0.439887,0.00012334,-0.00967996,1.98472e-07,0.098679,-1.92857e-06,0,0,3.65532,0.1,-267.844,-0.1,0.476
-0.00161368,-0.000187256,0.440282,0.00012334,-0.00983507,1.32314e-07,0.0986575,-1.28572e-06,0,0,3.74674,0.1,-269.869,-0.1,0.48
-0.00165333,-0.000187256,0.440676,0.000123686,-0.00999127,8.82096e-08,0.0986358,2.79338e-05,0,0,3.83961,0.1,-271.888,-0.1,0.484
-0.00169361,-0.000187602,0.441071,0.00012334,-0.0101486,-2.87321e-05,0.0986139,-1.01684e-05,0,0,3.93389,0.1,-273.9,-0.1,0.488
-0.00173452,-0.000187256,0.441465,0.00012334,-0.0103069,9.63618e-06,0.0985919,-6.77894e-06,0,0,4.02937,0.1,-275.907,-0.1,0.492
-0.00177607,-0.000187256,0.441859,0.00012334,-0.0104664,6.42412e-06,0.0985697,-4.51929e-06,0,0,4.12668,0.1,-277.907,-0.1,0.496
-0.00181826,-0.000187256,0.442254,0.00012334,-0.0106269,4.28275e-06,0.0985474,-3.01286e-06,0,0,4.22542,0.1,-279.901,-0.1,0.5
-0.00186109,-0.000187256,0.442648,0.00012334,-0.0107886,2.85516e-06,0.0985248,-2.00857e-06,0,0,4.32562,0.1,-281.89,-0.1,0.504
-0.00190457,-0.000187602,0.443042,0.00012334,-0.0109513,-2.68875e-05,0.0985022,-1.33905e-06,0,0,4.42727,0.1,-283.872,-0.1,0.508
-0.0019487,-0.000187256,0.443436,0.000123686,-0.011115,1.08659e-05,0.0984794,2.78982e-05,0,0,4.53016,0.1,-285.848,-0.1,0.512
-0.00199349,-0.000187602,0.44383,0.00012334,-0.0112799,-2.1547e-05,0.0984564,-1.01921e-05,0,0,4.63488,0.1,-287.819,-0.1,0.516
-0.00203894,-0.000187256,0.444223,0.00012334,-0.0114458,1.44263e-05,0.0984332,-6.79474e-06,0,0,4.74084,0.1,-289.783,-0.1,0.52
-0.00208506,-0.000187256,0.444617,0.00012334,-0.0116127,9.61752e-06,0.0984099,-4.52983e-06,0,0,4.84866,0.1,-291.742,-0.1,0.524
-0.00213184,-0.000187256,0.445011,0.00012334,-0.0117807,6.41168e-06,0.0983864,-3.01988e-06,0,0,4.95795,0.1,-293.694,-0.1,0.528
-0.0021793,-0.000187256,0.445404,0.00012334,-0.0119498,4.27445e-06,0.0983628,-2.01326e-06,0,0,5.06876,0.1,-295.641,-0.1,0.532
-0.00222744,-0.000187256,0.445798,0.00012334,-0.0121199,2.84964e-06,0.098339,-1.34217e-06,0,0,5.18108,0.1,-297.582,-0.1,0.536
-0.00227626,-0.000187256,0.446191,0.00012334,-0.0122911,1.89976e-06,0.0983151,-8.9478e-07,0,0,5.29496,0.1,-299.517,-0.1,0.54
-0.00232577,-0.000187602,0.446584,0.00012334,-0.0124633,-2.75244e-05,0.098291,-5.9652e-07,0,0,5.41036,0.1,-301.446,-0.1,0.544
-0.00237597,-0.000187256,0.446977,0.00012334,-0.0126366,1.04413e-05,0.0982668,-3.9768e-07,0,0,5.52709,0.1,-303.37,-0.1,0.548
-0.00242687,-0.000187256,0.44737,0.00012334,-0.0128109,6.96087e-06,0.0982423,-2.6512e-07,0,0,5.64575,0.1,-305.287,-0.1,0.552
-0.00247846,-0.000187256,0.447763,0.000123686,-0.0129862,4.64058e-06,0.0982178,2.86142e-05,0,0,5.76597,0.1,-307.2,-0.1,0.556
-0.00253076,-0.000187256,0.448156,0.000123686,-0.0131626,3.09372e-06,0.0981931,1.90761e-05,0,0,5.88776,0.1,-309.106,-0.1,0.56
-0.00258376,-0.000187256,0.448549,0.00012334,-0.01334,2.06248e-06,0.0981682,-1.60735e-05,0,0,6.01115,0.1,-311.007,-0.1,0.564
-0.00263748,-0.000187256,0.448941,0.00012334,-0.0135184,1.37499e-06,0.0981432,-1.07157e-05,0,0,6.13613,0.1,-312.902,-0.1,0.568
-0.00269191,-0.000187602,0.449334,0.00012334,-0.0136978,-2.78743e-05,0.098118,-7.14378e-06,0,0,6.26272,0.1,-314.791,-0.1,0.572
-0.00274706,-0.000187256,0.449726,0.00012334,-0.0138783,1.02081e-05,0.0980926,-4.76252e-06,0,0,6.39068,0.1,-316.675,-0.1,0.576
-0.00280294,-0.000187256,0.450119,0.000123686,-0.0140598,6.80539e-06,0.0980671,2.56159e-05,0,0,6.52064,0.1,-318.553,-0.1,0.58
-0.00285954,-0.000187256,0.450511,0.00012334,-0.0142423,4.53692e-06,0.0980415,-1.17137e-05,0,0,6.65222,0.1,-320.426,-0.1,0.584
-0.00291688,-0.000187602,0.450903,0.00012334,-0.0144258,-2.57663e-05,0.0980157,-7.8091e-06,0,0,6.7854,0.1,-322.293,-0.1,0.588
-0.00297495,-0.000187256,0.451295,0.000123686,-0.0146103,1.16134e-05,0.0979897,2.35849e-05,0,0,6.91999,0.1,-324.155,-0.1,0.592
-0.00303376,-0.000187256,0.451687,0.00012334,-0.0147958,7.74226e-06,0.0979636,-1.30677e-05,0,0,7.05661,0.1,-326.011,-0.1,0.596
-0.00309332,-0.000187256,0.452079,0.00012334,-0.0149823,5.1615e-06,0.0979373,-8.71179e-06,0,0,7.19486,0.1,-327.862,-0.1,0.6
-0.00315362,-0.000187256,0.45247,0.00012334,-0.0151698,3.441e-06,0.0979109,-5.80786e-06,0,0,7.33477,0.1,-329.708,-0.1,0.604
-0.00321468,-0.000187256,0.452862,0.00012334,-0.0153583,2.294e-06,0.0978844,-3.87191e-06,0,0,7.47636,0.1,-331.548,-0.1,0.608
-0.00327649,-0.000187256,0.453253,0.00012334,-0.0155478,1.52933e-06,0.0978576,-2.58127e-06,0,0,7.61965,0.1,-333.382,-0.1,0.612
-0.00333906,-0.000187256,0.453645,0.00012334,-0.0157383,1.01956e-06,0.0978308,-1.72085e-06,0,0,7.76463,0.1,-335.211,-0.1,0.616
-0.0034024,-0.000187256,0.454036,0.00012334,-0.0159298,6.79704e-07,0.0978037,-1.14723e-06,0,0,7.91133,0.1,-337.035,-0.1,0.62
-0.0034665,-0.000187256,0.454427,0.00012334,-0.0161222,4.53136e-07,0.0977766,-7.64821e-07,0,0,8.05975,0.1,-338.854,-0.1,0.624
-0.00353138,-0.000187256,0.454818,0.000123686,-0.0163157,3.02091e-07,0.0977492,2.8281e-05,0,0,8.20991,0.1,-340.667,-0.1,0.628
-0.00359703,-0.000187256,0.455209,0.00012334,-0.0165101,2.01394e-07,0.0977217,-9.9369e-06,0,0,8.3618,0.1,-342.475,-0.1,0.632
-0.00366346,-0.000187256,0.4556,0.00012334,-0.0167054,1.34263e-07,0.0976941,-6.6246e-06,0,0,8.51545,0.1,-344.278,-0.1,0.636
-0.00373067,-0.000187256,0.455991,0.00012334,-0.0169018,8.95084e-08,0.0976663,-4.4164e-06,0,0,8.67084,0.1,-346.076,-0.1,0.64
-0.00379867,-0.000187256,0.456381,0.00012334,-0.0170991,5.96723e-08,0.0976384,-2.94427e-06,0,0,8.82801,0.1,-347.868,-0.1,0.644
-0.00386747,-0.000187256,0.456772,0.00012334,-0.0172974,3.97815e-08,0.0976103,-1.96284e-06,0,0,8.98694,0.1,-349.655,-0.1,0.648
-0.00393705,-0.000187602,0.457162,0.00012334,-0.0174966,-2.87644e-05,0.0975821,-1.30856e-06,0,0,9.14763,0.1,-351.437,-0.1,0.652
-0.00400744,-0.000187256,0.457553,0.00012334,-0.0176968,9.61466e-06,0.0975537,-8.72375e-07,0,0,9.30987,0.1,-353.214,-0.1,0.656
-0.00407863,-0.000187602,0.457943,0.00012334,-0.0178979,-2.23812e-05,0.0975252,-5.81583e-07,0,0,9.47424,0.1,-354.986,-0.1,0.66
-0.00415062,-0.000187602,0.458333,0.00012334,-0.0181,-1.49208e-05,0.0974965,-3.87722e-07,0,0,9.64011,0.1,-356.753,-0.1,0.664
-0.00422343,-0.000187256,0.458723,0.00012334,-0.018303,1.88437e-05,0.0974677,-2.58481e-07,0,0,9.80789,0.1,-358.514,-0.1,0.668
-0.00429705,-0.000187602,0.459113,0.00012334,-0.018507,-1.62284e-05,0.0974387,-1.72321e-07,0,0,9.97778,0.1,-360.271,-0.1,0.672
-0.00437149,-0.000187256,0.459502,0.00012334,-0.0187119,1.7972e-05,0.0974096,-1.14881e-07,0,0,10.1492,0.1,-362.023,-0.1,0.676
-0.00444675,-0.000187256,0.459892,0.00012334,-0.0189178,1.19813e-05,0.0973804,-7.65871e-08,0,0,10.3227,0.1,-363.769,-0.1,0.68
-0.00452283,-0.000187256,0.460281,0.00012334,-0.0191246,7.98754e-06,0.0973509,-5.10581e-08,0,0,10.4981,0.1,-365.511,-0.1,0.684
-0.00459974,-0.000187256,0.460671,0.00012334,-0.0193323,5.32503e-06,0.0973214,-3.40387e-08,0,0,10.6752,0.1,-367.247,-0.1,0.688
-0.00467749,-0.000187256,0.46106,0.00012334,-0.019541,3.55002e-06,0.0972917,-2.26925e-08,0,0,10.8542,0.1,-368.979,-0.1,0.692
-0.00475607,-0.000187256,0.461449,0.00012334,-0.0197505,2.36668e-06,0.0972618,-1.51283e-08,0,0,11.035,0.1,-370.706,-0.1,0.696
-0.0048355,-0.000187256,0.461838,0.00012334,-0.019961,1.57779e-06,0.0972318,-1.00855e-08,0,0,11.2176,0.1,-372.427,-0.1,0.7
-0.00491576,-0.000187256,0.462227,0.00012334,-0.0201724,1.05186e-06,0.0972017,-6.7237e-09,0,0,11.4022,0.1,-374.144,-0.1,0.704
-0.00499688,-0.000187602,0.462616,0.00012334,-0.0203848,-2.80897e-05,0.0971714,-4.48246e-09,0,0,11.5885,0.1,-375.857,-0.1,0.708
-0.00507884,-0.000187602,0.463004,0.00012334,-0.020598,-1.87265e-05,0.097141,-2.98831e-09,0,0,11.7765,0.1,-377.564,-0.1,0.712
-0.00516166,-0.000187256,0.463393,0.000123686,-0.0208122,1.63066e-05,0.0971104,2.87889e-05,0,0,11.9665,0.1,-379.266,-0.1,0.716
-0.00524534,-0.000187602,0.463781,0.00012334,-0.0210272,-1.79198e-05,0.0970797,-9.5983e-06,0,0,12.1588,0.1,-380.964,-0.1,0.72
-0.00532988,-0.000187256,0.464169,0.00012334,-0.0212432,1.68444e-05,0.0970488,-6.39887e-06,0,0,12.3526,0.1,-382.657,-0.1,0.724
-0.00541529,-0.000187256,0.464557,0.00012334,-0.02146,1.12296e-05,0.0970178,-4.26591e-06,0,0,12.5486,0.1,-384.345,-0.1,0.728
-0.00550156,-0.000187256,0.464945,0.00012334,-0.0216778,7.48638e-06,0.0969867,-2.84394e-06,0,0,12.7466,0.1,-386.028,-0.1,0.732
-0.00558871,-0.000187256,0.465333,0.00012334,-0.0218964,4.99092e-06,0.0969554,-1.89596e-06,0,0,12.9464,0.1,-387.707,-0.1,0.736
-0.00567674,-0.000187256,0.465721,0.00012334,-0.022116,3.32728e-06,0.0969239,-1.26397e-06,0,0,13.1481,0.1,-389.381,-0.1,0.74
-0.00576564,-0.000187256,0.466109,0.00012334,-0.0223364,2.21819e-06,0.0968924,-8.42649e-07,0,0,13.3518,0.1,-391.05,-0.1,0.744
-0.00585543,-0.000187256,0.466496,0.00012334,-0.0225577,1.47879e-06,0.0968606,-5.61766e-07,0,0,13.5574,0.1,-392.715,-0.1,0.748
-0.0059461,-0.000187256,0.466884,0.00012334,-0.0227799,9.85861e-07,0.0968288,-3.74511e-07,0,0,13.7649,0.1,-394.375,-0.1,0.752
-0.00603767,-0.000187256,0.467271,0.00012334,-0.023003,6.57241e-07,0.0967968,-2.49674e-07,0,0,13.9744,0.1,-396.03,-0.1,0.756
-0.00613013,-0.000187256,0.467658,0.00012334,-0.0232269,4.3816e-07,0.0967646,-1.66449e-07,0,0,14.1858,0.1,-397.681,-0.1,0.76
-0.00622349,-0.000187256,0.468045,0.00012334,-0.0234518,2.92107e-07,0.0967323,-1.10966e-07,0,0,14.3993,0.1,-399.327,-0.1,0.764
-0.00631774,-0.000187256,0.468432,0.00012334,-0.0236775,1.94738e-07,0.0966999,-7.39774e-08,0,0,14.6147,0.1,-400.969,-0.1,0.768
-0.00641291,-0.000187256,0.468819,0.00012334,-0.023904,1.29825e-07,0.0966673,-4.93183e-08,0,0,14.8321,0.1,-402.606,-0.1,0.772
-0.00650898,-0.000187256,0.469205,0.00012334,-0.0241314,8.65502e-08,0.0966346,-3.28789e-08,0,0,15.0515,0.1,-404.238,-0.1,0.776
-0.00660596,-0.000187256,0.469592,0.00012334,-0.0243597,5.77001e-08,0.0966018,-2.19192e-08,0,0,15.2728,0.1,-405.866,-0.1,0.78
-0.00670386,-0.000187256,0.469978,0.00012334,-0.0245888,3.84668e-08,0.0965688,-1.46128e-08,0,0,15.4962,0.1,-407.49,-0.1,0.784
-0.00680267,-0.000187256,0.470364,0.00012334,-0.0248188,2.56445e-08,0.0965357,-9.74189e-09,0,0,15.7216,0.1,-409.109,-0.1,0.788
-0.00690241,-0.000187602,0.47075,0.00012334,-0.0250497,-2.87738e-05,0.0965024,-6.49459e-09,0,0,15.949,0.1,-410.724,-0.1,0.792
-0.00700307,-0.000187256,0.471136,0.00012334,-0.0252814,9.60837e-06,0.096469,-4.32973e-09,0,0,16.1782,0.1,-412.334,-0.1,0.796
-0.00710466,-0.000187602,0.471522,0.00012334,-0.0255139,-2.23853e-05,0.0964354,-2.88648e-09,0,0,16.4098,0.1,-413.94,-0.1,0.8
-0.00720718,-0.000187256,0.471908,0.00012334,-0.0257473,1.38674e-05,0.0964017,-1.92432e-09,0,0,16.6431,0.1,-415.541,-0.1,0.804
-0.00731064,-0.000187256,0.472293,0.00012334,-0.0259815,9.24491e-06,0.0963679,-1.28288e-09,0,0,16.8788,0.1,-417.138,-0.1,0.808
-0.00741503,-0.000187256,0.472679,0.00012334,-0.0262165,6.16327e-06,0.096334,-8.55255e-10,0,0,17.1165,0.1,-418.731,-0.1,0.812
-0.00752037,-0.000187256,0.473064,0.00012334,-0.0264524,4.10885e-06,0.0962999,-5.7017e-10,0,0,17.3562,0.1,-420.319,-0.1,0.816
-0.00762665,-0.000187256,0.473449,0.00012334,-0.0266891,2.73923e-06,0.0962656,-3.80113e-10,0,0,17.598,0.1,-421.903,-0.1,0.82
-0.00773389,-0.000187256,0.473834,0.00012334,-0.0269266,1.82615e-06,0.0962313,-2.53409e-10,0,0,17.8418,0.1,-423.483,-0.1,0.824
-0.00784207,-0.000187256,0.474219,0.00012334,-0.027165,1.21744e-06,0.0961968,-1.68939e-10,0,0,18.0877,0.1,-425.058,-0.1,0.828
-0.00795121,-0.000187602,0.474604,0.00012334,-0.0274042,-2.79793e-05,0.0961621,-1.12626e-10,0,0,18.3356,0.1,-426.63,-0.1,0.832
-0.0080613,-0.000187256,0.474988,0.000123686,-0.0276442,1.01381e-05,0.0961273,2.87908e-05,0,0,18.5854,0.1,-428.197,-0.1,0.836
-0.00817236,-0.000187256,0.475373,0.00012334,-0.027885,6.75871e-06,0.0960924,-9.59702e-06,0,0,18.8376,0.1,-429.759,-0.1,0.84
-0.00828438,-0.000187256,0.475757,0.00012334,-0.0281266,4.5058e-06,0.0960574,-6.39802e-06,0,0,19.0919,0.1,-431.318,-0.1,0.844
-0.00839738,-0.000187256,0.476141,0.00012334,-0.028369,3.00387e-06,0.0960222,-4.26534e-06,0,0,19.3482,0.1,-432.872,-0.1,0.848
-0.00851134,-0.000187256,0.476525,0.00012334,-0.0286123,2.00258e-06,0.0959869,-2.84356e-06,0,0,19.6067,0.1,-434.422,-0.1,0.852
-0.00862627,-0.000187256,0.476909,0.00012334,-0.0288563,1.33505e-06,0.0959514,-1.89571e-06,0,0,19.8673,0.1,-435.968,-0.1,0.856
-0.00874219,-0.000187256,0.477293,0.00012334,-0.0291012,8.90035e-07,0.0959158,-1.26381e-06,0,0,20.1299,0.1,-437.51,-0.1,0.86
-0.00885908,-0.000187256,0.477676,0.00012334,-0.0293468,5.93357e-07,0.0958801,-8.42537e-07,0,0,20.3947,0.1,-439.048,-0.1,0.864
-0.00897696,-0.000187256,0.47806,0.000123686,-0.0295932,3.95571e-07,0.0958442,2.82292e-05,0,0,20.6616,0.1,-440.581,-0.1,0.868
-0.00909583,-0.000187256,0.478443,0.00012334,-0.0298404,2.63714e-07,0.0958082,-9.97144e-06,0,0,20.9307,0.1,-442.111,-0.1,0.872
-0.00921569,-0.000187256,0.478826,0.00012334,-0.0300884,1.75809e-07,0.0957721,-6.64762e-06,0,0,21.2019,0.1,-443.636,-0.1,0.876
-0.00933654,-0.000187256,0.479209,0.00012334,-0.0303372,1.17206e-07,0.0957359,-4.43175e-06,0,0,21.4752,0.1,-445.158,-0.1,0.88
-0.00945839,-0.000187256,0.479592,0.00012334,-0.0305868,7.81375e-08,0.0956995,-2.9545e-06,0,0,21.7507,0.1,-446.675,-0.1,0.884
-0.00958124,-0.000187256,0.479975,0.00012334,-0.0308372,5.20917e-08,0.095663,-1.96967e-06,0,0,22.0284,0.1,-448.188,-0.1,0.888
-0.00970509,-0.000187256,0.480357,0.00012334,-0.0310883,3.47278e-08,0.0956263,-1.31311e-06,0,0,22.3082,0.1,-449.698,-0.1,0.892
-0.00982994,-0.000187256,0.48074,0.00012334,-0.0313402,2.31519e-08,0.0955895,-8.75407e-07,0,0,22.5902,0.1,-451.203,-0.1,0.896
-0.00995581,-0.000187256,0.481122,0.00012334,-0.0315928,1.54346e-08,0.0955526,-5.83605e-07,0,0,22.8743,0.1,-452.704,-0.1,0.9
-0.0100827,-0.000187256,0.481504,0.00012334,-0.0318463,1.02897e-08,0.0955155,-3.8907e-07,0,0,23.1607,0.1,-454.202,-0.1,0.904
-0.0102106,-0.000186911,0.481886,0.000122995,-0.0321005,2.87978e-05,0.0954784,-2.90503e-05,0,0,23.4492,0.1,-455.695,-0.1,0.908
-0.0103395,-0.000187256,0.482268,0.00012334,-0.0323554,-9.5924e-06,0.0954411,9.42405e-06,0,0,23.7402,0.1,-457.184,-0.1,0.912
-0.0104694,-0.000187602,0.48265,0.00012334,-0.0326111,-3.51859e-05,0.0954036,6.2827e-06,0,0,24.033,0.1,-458.67,-0.1,0.916
-0.0106004,-0.000187256,0.483031,0.00012334,-0.0328676,5.33369e-06,0.095366,4.18847e-06,0,0,24.3278,0.1,-460.152,-0.1,0.92
-0.0107324,-0.000187256,0.483413,0.00012334,-0.0331248,3.55579e-06,0.0953283,2.79231e-06,0,0,24.6251,0.1,-461.63,-0.1,0.924
-0.0108654,-0.000187256,0.483794,0.00012334,-0.0333828,2.37053e-06,0.0952905,1.86154e-06,0,0,24.9247,0.1,-463.104,-0.1,0.928
-0.0109994,-0.000187256,0.484175,0.00012334,-0.0336415,1.58035e-06,0.0952526,1.24103e-06,0,0,25.2265,0.1,-464.574,-0.1,0.932
-0.0111345,-0.000187256,0.484556,0.00012334,-0.033901,1.05357e-06,0.0952145,8.27352e-07,0,0,25.5304,0.1,-466.04,-0.1,0.936
-0.0112706,-0.000187256,0.484937,0.000122995,-0.0341612,7.02378e-07,0.0951763,-2.82394e-05,0,0,25.8367,0.1,-467.502,-0.1,0.94
-0.0114078,-0.000187256,0.485317,0.000123686,-0.0344221,4.68252e-07,0.0951379,3.87556e-05,0,0,26.1451,0.1,-468.961,-0.1,0.944
-0.011546,-0.000186911,0.485698,0.000124031,-0.0346838,2.91031e-05,0.0950994,5.4628e-05,0,0,26.4558,0.1,-470.416,-0.1,0.948
-0.0116853,-0.000187256,0.486078,0.00012334,-0.0349462,-9.38886e-06,0.0950608,-2.11632e-05,0,0,26.7689,0.1,-471.867,-0.1,0.952
-0.0118256,-0.000187256,0.486458,0.00012334,-0.0352093,-6.25924e-06,0.0950221,-1.41088e-05,0,0,27.084,0.1,-473.315,-0.1,0.956
-0.011967,-0.000187256,0.486838,0.00012334,-0.0354732,-4.17283e-06,0.0949833,-9.40586e-06,0,0,27.4013,0.1,-474.758,-0.1,0.96
-0.0121094,-0.000187256,0.487218,0.00012334,-0.0357378,-2.78189e-06,0.0949443,-6.27057e-06,0,0,27.7209,0.1,-476.198,-0.1,0.964
-0.0122529,-0.000187256,0.487598,0.00012334,-0.0360031,-1.85459e-06,0.0949052,-4.18038e-06,0,0,28.0428,0.1,-477.634,-0.1,0.968
-0.0123974,-0.000187256,0.487977,0.00012334,-0.0362691,-1.23639e-06,0.0948659,-2.78692e-06,0,0,28.367,0.1,-479.067,-0.1,0.972
-0.012543,-0.000187947,0.488357,0.00012334,-0.0365358,-5.84061e-05,0.0948266,-1.85795e-06,0,0,28.6934,0.1,-480.496,-0.1,0.976
-0.0126897,-0.000187602,0.488736,0.00012334,-0.0368032,-1.01465e-05,0.0947871,-1.23863e-06,0,0,29.0215,0.1,-481.921,-0.1,0.98
-0.0128374,-0.000187256,0.489115,0.00012334,-0.0370714,2.20266e-05,0.0947475,-8.25754e-07,0,0,29.3525,0.1,-483.343,-0.1,0.984
-0.0129863,-0.000187947,0.489494,0.00012334,-0.0373402,-4.28974e-05,0.0947077,-5.50503e-07,0,0,29.6859,0.1,-484.76,-0.1,0.988
-0.0131362,-0.000187947,0.489873,0.00012334,-0.0376098,-2.85983e-05,0.0946679,-3.67002e-07,0,0,30.0211,0.1,-486.175,-0.1,0.992
-0.0132871,-0.000186911,0.490251,0.00012334,-0.0378801,6.73072e-05,0.0946279,-2.44668e-07,0,0,30.3587,0.1,-487.585,-0.1,0.996
-0.0134392,-0.000187256,0.49063,0.00012334,-0.038151,1.60806e-05,0.0945877,-1.63112e-07,0,0,30.6996,0.1,-488.993,-0.1,1
-0.0135923,-0.000187256,0.491008,0.00012334,-0.0384226,1.07204e-05,0.0945475,-1.08741e-07,0,0,31.0422,0.1,-490.396,-0.1,1.004
-0.0137466,-0.000187256,0.491386,0.00012334,-0.038695,7.14692e-06,0.0945071,-7.24942e-08,0,0,31.3871,0.1,-491.796,-0.1,1.008
-0.0139019,-0.000187256,0.491764,0.00012334,-0.038968,4.76461e-06,0.0944667,-4.83295e-08,0,0,31.7343,0.1,-493.193,-0.1,1.012
-0.0140583,-0.000187256,0.492142,0.00012334,-0.0392417,3.17641e-06,0.0944261,-3.22197e-08,0,0,32.0837,0.1,-494.586,-0.1,1.016
-0.0142158,-0.000186911,0.49252,0.000123686,-0.0395161,3.09085e-05,0.0943853,2.87694e-05,0,0,32.4355,0.1,-495.975,-0.1,1.02
-0.0143745,-0.000187947,0.492897,0.00012334,-0.0397912,-6.57671e-05,0.0943445,-9.61129e-06,0,0,32.7898,0.1,-497.361,-0.1,1.024
-0.0145342,-0.000187256,0.493274,0.00012334,-0.0400669,1.37371e-05,0.0943035,-6.40753e-06,0,0,33.1456,0.1,-498.743,-0.1,1.028
-0.014695,-0.000187256,0.493651,0.00012334,-0.0403433,9.15808e-06,0.0942624,-4.27169e-06,0,0,33.5044,0.1,-500.122,-0.1,1.032
-0.0148569,-0.000187256,0.494028,0.000122995,-0.0406204,6.10539e-06,0.0942212,-3.16387e-05,0,0,33.8656,0.1,-501.498,-0.1,1.036
-0.01502,-0.000187256,0.494405,0.00012334,-0.0408981,4.07026e-06,0.0941798,7.69845e-06,0,0,34.229,0.1,-502.87,-0.1,1.04
-0.0151841,-0.000187256,0.494782,0.00012334,-0.0411766,2.71351e-06,0.0941384,5.1323e-06,0,0,34.5948,0.1,-504.238,-0.1,1.044
-0.0153494,-0.000187256,0.495158,0.00012334,-0.0414556,1.809e-06,0.0940968,3.42153e-06,0,0,34.963,0.1,-505.604,-0.1,1.048
-0.0155158,-0.000187256,0.495535,0.00012334,-0.0417354,1.206e-06,0.0940551,2.28102e-06,0,0,35.3334,0.1,-506.965,-0.1,1.052
-0.0156833,-0.000187256,0.495911,0.00012334,-0.0420158,8.04002e-07,0.0940132,1.52068e-06,0,0,35.7063,0.1,-508.324,-0.1,1.056
-0.0158519,-0.000186911,0.496287,0.000122995,-0.0422968,2.93269e-05,0.0939713,-2.77771e-05,0,0,36.0815,0.1,-509.679,-0.1,1.06
-0.0160216,-0.000187256,0.496663,0.00012334,-0.0425785,-9.23964e-06,0.0939292,1.02728e-05,0,0,36.4593,0.1,-511.031,-0.1,1.064
-0.0161925,-0.000187256,0.497038,0.00012334,-0.0428609,-6.15976e-06,0.093887,6.84856e-06,0,0,36.8391,0.1,-512.379,-0.1,1.068
-0.0163645,-0.000187256,0.497414,0.00012334,-0.0431438,-4.10651e-06,0.0938447,4.5657e-06,0,0,37.2214,0.1,-513.724,-0.1,1.072
-0.0165377,-0.000187256,0.497789,0.00012334,-0.0434275,-2.73767e-06,0.0938023,3.0438e-06,0,0,37.606,0.1,-515.066,-0.1,1.076
-0.0167119,-0.000187256,0.498164,0.00012334,-0.0437117,-1.82511e-06,0.0937597,2.0292e-06,0,0,37.993,0.1,-516.404,-0.1,1.08
-0.0168874,-0.000187256,0.498539,0.00012334,-0.0439966,-1.21674e-06,0.0937171,1.3528e-06,0,0,38.3825,0.1,-517.739,-0.1,1.084
-0.0170639,-0.000187256,0.498914,0.00012334,-0.0442822,-8.11162e-07,0.0936743,9.01867e-07,0,0,38.7743,0.1,-519.071,-0.1,1.088
-0.0172416,-0.000187256,0.499288,0.00012334,-0.0445684,-5.40775e-07,0.0936314,6.01245e-07,0,0,39.1685,0.1,-520.4,-0.1,1.092
-0.0174205,-0.000187256,0.499663,0.00012334,-0.0448552,-3.60516e-07,0.0935884,4.0083e-07,0,0,39.5651,0.1,-521.725,-0.1,1.096
-0.0176005,-0.000187602,0.500037,0.00012334,-0.0451426,-2.90313e-05,0.0935452,2.6722e-07,0,0,39.9642,0.1,-523.047,-0.1,1.1
-0.0177816,-0.000186911,0.500411,0.00012334,-0.0454306,3.82277e-05,0.093502,1.78147e-07,0,0,40.3654,0.1,-524.366,-0.1,1.104
-0.0179639,-0.000187256,0.500785,0.00012334,-0.0457193,-3.30581e-06,0.0934586,1.18764e-07,0,0,40.7696,0.1,-525.681,-0.1,1.108
-0.0181474,-0.000187256,0.501159,0.00012334,-0.0460086,-2.20387e-06,0.0934151,7.91763e-08,0,0,41.1758,0.1,-526.994,-0.1,1.112
-0.018332,-0.000186911,0.501532,0.00012334,-0.0462984,2.73217e-05,0.0933715,5.27842e-08,0,0,41.5845,0.1,-528.303,-0.1,1.116
-0.0185177,-0.000187256,0.501906,0.00012334,-0.0465889,-1.05765e-05,0.0933278,3.51895e-08,0,0,41.9959,0.1,-529.609,-0.1,1.12
-0.0187047,-0.000187256,0.502279,0.00012334,-0.0468801,-7.05098e-06,0.0932839,2.34596e-08,0,0,42.4093,0.1,-530.912,-0.1,1.124
-0.0188928,-0.000187256,0.502652,0.00012334,-0.0471718,-4.70066e-06,0.09324,1.56398e-08,0,0,42.8252,0.1,-532.212,-0.1,1.128
-0.0190821,-0.000187256,0.503025,0.00012334,-0.0474641,-3.13377e-06,0.0931959,1.04265e-08,0,0,43.2436,0.1,-533.508,-0.1,1.132
-0.0192725,-0.000187947,0.503398,0.00012334,-0.047757,-5.9671e-05,0.0931517,6.951e-09,0,0,43.6644,0.1,-534.802,-0.1,1.136
-0.0194641,-0.000187256,0.50377,0.00012334,-0.0480505,1.78012e-05,0.0931074,4.634e-09,0,0,44.0871,0.1,-536.092,-0.1,1.14
-0.0196569,-0.000186911,0.504143,0.00012334,-0.0483446,4.06584e-05,0.093063,3.08934e-09,0,0,44.5131,0.1,-537.38,-0.1,1.144
-0.0198509,-0.000186911,0.504515,0.00012334,-0.0486393,2.71056e-05,0.0930185,2.05956e-09,0,0,44.9416,0.1,-538.664,-0.1,1.148
-0.020046,-0.000187256,0.504887,0.00012334,-0.0489346,-1.07205e-05,0.0929738,1.37304e-09,0,0,45.3725,0.1,-539.945,-0.1,1.152
-0.0202423,-0.000187947,0.505258,0.00012334,-0.0492305,-6.47289e-05,0.0929291,9.15359e-10,0,0,45.8055,0.1,-541.223,-0.1,1.156
-0.0204399,-0.000187256,0.50563,0.00012334,-0.0495269,1.44293e-05,0.0928842,6.10239e-10,0,0,46.2404,0.1,-542.498,-0.1,1.16
-0.0206386,-0.000187256,0.506002,0.00012334,-0.049824,9.61951e-06,0.0928392,4.06826e-10,0,0,46.6786,0.1,-543.77,-0.1,1.164
-0.0208385,-0.000187256,0.506373,0.00012334,-0.0501216,6.41301e-06,0.0927941,2.71217e-10,0,0,47.1191,0.1,-545.039,-0.1,1.168
-0.0210395,-0.000187256,0.506744,0.00012334,-0.0504198,4.27534e-06,0.0927489,1.80812e-10,0,0,47.5622,0.1,-546.305,-0.1,1.172
-0.0212418,-0.000187947,0.507115,0.00012334,-0.0507185,-5.47316e-05,0.0927036,1.20541e-10,0,0,48.0076,0.1,-547.568,-0.1,1.176
-0.0214453,-0.000187256,0.507486,0.000122995,-0.0510178,2.10941e-05,0.0926581,-2.87908e-05,0,0,48.455,0.1,-548.828,-0.1,1.18
-0.02165,-0.000187256,0.507856,0.00012334,-0.0513177,1.40627e-05,0.0926126,9.59703e-06,0,0,48.9056,0.1,-550.085,-0.1,1.184
-0.0218558,-0.000187256,0.508226,0.00012334,-0.0516182,9.37516e-06,0.0925669,6.39802e-06,0,0,49.3586,0.1,-551.338,-0.1,1.188
-0.0220629,-0.000187256,0.508597,0.00012334,-0.0519192,6.2501e-06,0.0925212,4.26535e-06,0,0,49.814,0.1,-552.59,-0.1,1.192
-0.0222712,-0.000187256,0.508967,0.00012334,-0.0522208,4.16674e-06,0.0924753,2.84356e-06,0,0,50.2719,0.1,-553.838,-0.1,1.196
-0.0224807,-0.000187256,0.509336,0.00012334,-0.0525229,2.77782e-06,0.0924293,1.89571e-06,0,0,50.7322,0.1,-555.083,-0.1,1.2
-0.0226914,-0.000187256,0.509706,0.00012334,-0.0528256,1.85188e-06,0.0923832,1.26381e-06,0,0,51.1951,0.1,-556.325,-0.1,1.204
-0.0229033,-0.000187256,0.510075,0.000124031,-0.0531288,1.23459e-06,0.092337,5.84244e-05,0,0,51.6604,0.1,-557.564,-0.1,1.208
-0.0231164,-0.000187256,0.510445,0.00012334,-0.0534326,8.23059e-07,0.0922906,-1.86323e-05,0,0,52.1283,0.1,-558.801,-0.1,1.212
-0.0233307,-0.000187947,0.510814,0.00012334,-0.0537369,-5.70331e-05,0.0922442,-1.24215e-05,0,0,52.5986,0.1,-560.034,-0.1,1.216
-0.0235463,-0.000187256,0.511183,0.00012334,-0.0540418,1.95598e-05,0.0921977,-8.281e-06,0,0,53.0709,0.1,-561.265,-0.1,1.22
-0.0237631,-0.000187256,0.511551,0.00012334,-0.0543472,1.30398e-05,0.092151,-5.52067e-06,0,0,53.5464,0.1,-562.493,-0.1,1.224
-0.0239811,-0.000187256,0.51192,0.00012334,-0.0546531,8.69322e-06,0.0921042,-3.68045e-06,0,0,54.0244,0.1,-563.718,-0.1,1.228
-0.0242003,-0.000187256,0.512288,0.00012334,-0.0549596,5.79548e-06,0.0920574,-2.45363e-06,0,0,54.5049,0.1,-564.94,-0.1,1.232
-0.0244208,-0.000186911,0.512656,0.00012334,-0.0552666,3.26546e-05,0.0920104,-1.63575e-06,0,0,54.9878,0.1,-566.159,-0.1,1.236
-0.0246424,-0.000187947,0.513024,0.00012334,-0.0555741,-6.46031e-05,0.0919633,-1.0905e-06,0,0,55.4735,0.1,-567.375,-0.1,1.24
-0.0248653,-0.000186911,0.513392,0.000124031,-0.0558822,4.33041e-05,0.0919161,5.68548e-05,0,0,55.9609,0.1,-568.589,-0.1,1.244
-0.0250895,-0.000187256,0.51376,0.00012334,-0.0561907,7.84561e-08,0.0918688,-1.96786e-05,0,0,56.4518,0.1,-569.8,-0.1,1.248
-0.0253149,-0.000186911,0.514127,0.00012334,-0.0564998,2.88432e-05,0.0918214,-1.31191e-05,0,0,56.9448,0.1,-571.008,-0.1,1.252
-0.0255415,-0.000187256,0.514494,0.000124031,-0.0568094,-9.56211e-06,0.0917739,4.88358e-05,0,0,57.4406,0.1,-572.213,-0.1,1.256
-0.0257693,-0.000187256,0.514861,0.00012334,-0.0571196,-6.37474e-06,0.0917262,-2.50247e-05,0,0,57.9386,0.1,-573.416,-0.1,1.26
-0.0259984,-0.000187256,0.515228,0.00012334,-0.0574302,-4.24982e-06,0.0916785,-1.66831e-05,0,0,58.4391,0.1,-574.616,-0.1,1.264
-0.0262288,-0.000187947,0.515595,0.00012334,-0.0577413,-6.04151e-05,0.0916306,-1.11221e-05,0,0,58.9422,0.1,-575.813,-0.1,1.268
-0.0264604,-0.000187256,0.515961,0.00012334,-0.058053,1.73051e-05,0.0915827,-7.41471e-06,0,0,59.4474,0.1,-577.007,-0.1,1.272
-0.0266932,-0.000187256,0.516327,0.000124031,-0.0583651,1.15368e-05,0.0915346,5.26387e-05,0,0,59.9558,0.1,-578.198,-0.1,1.276
-0.0269273,-0.000186911,0.516693,0.00012334,-0.0586778,3.64821e-05,0.0914865,-2.24894e-05,0,0,60.4667,0.1,-579.387,-0.1,1.28
-0.0271626,-0.000187947,0.517059,0.00012334,-0.058991,-6.20514e-05,0.0914382,-1.49929e-05,0,0,60.9804,0.1,-580.573,-0.1,1.284
-0.0273992,-0.000187256,0.517425,0.00012334,-0.0593046,1.62143e-05,0.0913898,-9.99528e-06,0,0,61.4957,0.1,-581.757,-0.1,1.288
-0.0276371,-0.000186911,0.51779,0.00012334,-0.0596187,3.96004e-05,0.0913414,-6.66352e-06,0,0,62.0144,0.1,-582.938,-0.1,1.292
-0.0278762,-0.000187256,0.518156,0.00012334,-0.0599334,-2.39063e-06,0.0912928,-4.44235e-06,0,0,62.5358,0.1,-584.116,-0.1,1.296
-0.0281165,-0.000187256,0.518521,0.00012334,-0.0602485,-1.59376e-06,0.0912441,-2.96156e-06,0,0,63.0594,0.1,-585.291,-0.1,1.3
-0.0283582,-0.000187947,0.518886,0.00012334,-0.0605641,-5.86444e-05,0.0911953,-1.97438e-06,0,0,63.5855,0.1,-586.464,-0.1,1.304
-0.0286011,-0.000187256,0.51925,0.00012334,-0.0608802,1.84856e-05,0.0911464,-1.31625e-06,0,0,64.1137,0.1,-587.634,-0.1,1.308
-0.0288452,-0.000187256,0.519615,0.00012334,-0.0611967,1.23237e-05,0.0910974,-8.775e-07,0,0,64.6452,0.1,-588.802,-0.1,1.312
-0.0290906,-0.000187256,0.519979,0.00012334,-0.0615138,8.21583e-06,0.0910483,-5.85e-07,0,0,65.1792,0.1,-589.967,-0.1,1.316
-0.0293373,-0.000187256,0.520343,0.00012334,-0.0618313,5.47722e-06,0.0909991,-3.9e-07,0,0,65.7158,0.1,-591.129,-0.1,1.32
-0.0295853,-0.000187947,0.520707,0.00012334,-0.0621493,-5.39304e-05,0.0909498,-2.6e-07,0,0,66.2548,0.1,-592.289,-0.1,1.324
-0.0298345,-0.000187256,0.521071,0.00012334,-0.0624677,2.16283e-05,0.0909004,-1.73333e-07,0,0,66.796,0.1,-593.446,-0.1,1.328
-0.030085,-0.000187256,0.521434,0.00012334,-0.0627866,1.44188e-05,0.0908509,-1.15556e-07,0,0,67.3404,0.1,-594.601,-0.1,1.332
-0.0303368,-0.000187256,0.521797,0.00012334,-0.063106,9.61256e-06,0.0908013,-7.70371e-08,0,0,67.8873,0.1,-595.753,-0.1,1.336
-0.0305899,-0.000187256,0.522161,0.00012334,-0.0634258,6.40838e-06,0.0907516,-5.13581e-08,0,0,68.4368,0.1,-596.902,-0.1,1.34
-0.0308442,-0.000187256,0.522523,0.00012334,-0.0637461,4.27225e-06,0.0907018,-3.42387e-08,0,0,68.9888,0.1,-598.049,-0.1,1.344
-0.0310998,-0.000187256,0.522886,0.00012334,-0.0640669,2.84817e-06,0.0906518,-2.28258e-08,0,0,69.5434,0.1,-599.193,-0.1,1.348
-0.0313568,-0.000187256,0.523249,0.00012334,-0.0643881,1.89878e-06,0.0906018,-1.52172e-08,0,0,70.1006,0.1,-600.335,-0.1,1.352
-0.0316149,-0.000187256,0.523611,0.00012334,-0.0647098,1.26585e-06,0.0905517,-1.01448e-08,0,0,70.6604,0.1,-601.475,-0.1,1.356
-0.0318744,-0.000187256,0.523973,0.00012334,-0.0650319,8.43901e-07,0.0905015,-6.7632e-09,0,0,71.2228,0.1,-602.611,-0.1,1.36
-0.0321352,-0.000187602,0.524335,0.00012334,-0.0653544,-2.82283e-05,0.0904512,-4.5088e-09,0,0,71.7878,0.1,-603.746,-0.1,1.364
-0.0323973,-0.000187256,0.524697,0.00012334,-0.0656774,9.97204e-06,0.0904007,-3.00587e-09,0,0,72.3551,0.1,-604.877,-0.1,1.368
-0.0326606,-0.000187256,0.525058,0.00012334,-0.0660008,6.64803e-06,0.0903502,-2.00391e-09,0,0,72.9253,0.1,-606.007,-0.1,1.372
-0.0329253,-0.000187256,0.52542,0.00012334,-0.0663247,4.43202e-06,0.0902996,-1.33594e-09,0,0,73.4982,0.1,-607.134,-0.1,1.376
-0.0331912,-0.000187256,0.525781,0.00012334,-0.066649,2.95468e-06,0.0902489,-8.90627e-10,0,0,74.0736,0.1,-608.258,-0.1,1.38
-0.0334585,-0.000187256,0.526142,0.00012334,-0.0669737,1.96979e-06,0.090198,-5.93751e-10,0,0,74.6517,0.1,-609.38,-0.1,1.384
-0.033727,-0.000187602,0.526502,0.00012334,-0.0672989,-2.74777e-05,0.0901471,-3.95834e-10,0,0,75.2323,0.1,-610.499,-0.1,1.388
-0.0339969,-0.000187256,0.526863,0.00012334,-0.0676245,1.04724e-05,0.0900961,-2.6389e-10,0,0,75.8153,0.1,-611.617,-0.1,1.392
-0.034268,-0.000187256,0.527223,0.00012334,-0.0679505,6.98162e-06,0.090045,-1.75926e-10,0,0,76.4013,0.1,-612.731,-0.1,1.396
-0.0345405,-0.000187947,0.527583,0.00012334,-0.0682769,-5.29274e-05,0.0899938,-1.17284e-10,0,0,76.9898,0.1,-613.843,-0.1,1.4
-0.0348142,-0.000187256,0.527943,0.00012334,-0.0686038,2.22969e-05,0.0899425,-7.81895e-11,0,0,77.5804,0.1,-614.953,-0.1,1.404
-0.0350893,-0.000186911,0.528303,0.00012334,-0.068931,4.36555e-05,0.0898911,-5.21263e-11,0,0,78.1744,0.1,-616.061,-0.1,1.408
-0.0353657,-0.000187256,0.528662,0.00012334,-0.0692587,3.12756e-07,0.0898396,-3.47509e-11,0,0,78.7712,0.1,-617.166,-0.1,1.412
-0.0356434,-0.000187256,0.529021,0.000123686,-0.0695868,2.08504e-07,0.089788,2.87909e-05,0,0,79.3702,0.1,-618.268,-0.1,1.416
-0.0359224,-0.000187256,0.52938,0.00012334,-0.0699153,1.39002e-07,0.0897363,-9.59699e-06,0,0,79.9718,0.1,-619.369,-0.1,1.42
-0.0362027,-0.000187256,0.529739,0.00012334,-0.0702442,9.26683e-08,0.0896845,-6.39799e-06,0,0,80.576,0.1,-620.467,-0.1,1.424
-0.0364843,-0.000187256,0.530098,0.00012334,-0.0705735,6.17789e-08,0.0896326,-4.26533e-06,0,0,81.1829,0.1,-621.562,-0.1,1.428
-0.0367673,-0.000187256,0.530456,0.00012334,-0.0709032,4.11859e-08,0.0895806,-2.84355e-06,0,0,81.7924,0.1,-622.655,-0.1,1.432
-0.0370515,-0.000187256,0.530814,0.00012334,-0.0712333,2.74573e-08,0.0895285,-1.8957e-06,0,0,82.4046,0.1,-623.746,-0.1,1.436
-0.0373371,-0.000187256,0.531172,0.00012334,-0.0715638,1.83049e-08,0.0894763,-1.2638e-06,0,0,83.0194,0.1,-624.835,-0.1,1.44
-0.0376241,-0.000187256,0.53153,0.000124031,-0.0718947,1.22032e-08,0.0894241,5.67393e-05,0,0,83.6369,0.1,-625.921,-0.1,1.444
-0.0379123,-0.000187256,0.531888,0.000124031,-0.072226,8.13549e-09,0.0893717,3.78262e-05,0,0,84.257,0.1,-627.005,-0.1,1.448
-0.0382019,-0.000187947,0.532245,0.00012334,-0.0725576,-5.75764e-05,0.0893192,-3.23644e-05,0,0,84.8796,0.1,-628.087,-0.1,1.452
-0.0384928,-0.000187256,0.532602,0.00012334,-0.0728897,1.91976e-05,0.0892667,-2.15763e-05,0,0,85.5045,0.1,-629.166,-0.1,1.456
-0.038785,-0.000187256,0.532959,0.00012334,-0.0732221,1.27984e-05,0.089214,-1.43842e-05,0,0,86.1327,0.1,-630.243,-0.1,1.46
-0.0390785,-0.000187256,0.533316,0.00012334,-0.0735549,8.53225e-06,0.0891613,-9.58944e-06,0,0,86.7635,0.1,-631.318,-0.1,1.464
-0.0393734,-0.000187256,0.533673,0.000122995,-0.0738881,5.68817e-06,0.0891084,-3.51839e-05,0,0,87.3969,0.1,-632.391,-0.1,1.468
-0.0396696,-0.000187947,0.534029,0.00012334,-0.0742217,-5.37897e-05,0.0890555,5.335e-06,0,0,88.0329,0.1,-633.461,-0.1,1.472
-0.0399672,-0.000187256,0.534385,0.00012334,-0.0745556,2.1722e-05,0.0890025,3.55667e-06,0,0,88.6711,0.1,-634.529,-0.1,1.476
-0.0402661,-0.000187256,0.534741,0.00012334,-0.0748899,1.44813e-05,0.0889493,2.37111e-06,0,0,89.3126,0.1,-635.595,-0.1,1.48
-0.0405663,-0.000187256,0.535097,0.00012334,-0.0752246,9.65423e-06,0.0888961,1.58074e-06,0,0,89.9567,0.1,-636.658,-0.1,1.484
-0.0408679,-0.000187256,0.535452,0.00012334,-0.0755597,6.43616e-06,0.0888428,1.05383e-06,0,0,90.6034,0.1,-637.72,-0.1,1.488
-0.0411708,-0.000187256,0.535807,0.00012334,-0.0758951,4.29077e-06,0.0887894,7.02551e-07,0,0,91.2528,0.1,-638.779,-0.1,1.492
-0.041475,-0.000187256,0.536163,0.00012334,-0.0762308,2.86051e-06,0.0887359,4.68368e-07,0,0,91.9047,0.1,-639.836,-0.1,1.496
-0.0417806,-0.000187947,0.536517,0.00012334,-0.0765669,-5.56748e-05,0.0886824,3.12245e-07,0,0,92.5593,0.1,-640.89,-0.1,1.5
-0.0420876,-0.000187256,0.536872,0.00012334,-0.0769034,2.04653e-05,0.0886287,2.08163e-07,0,0,93.2161,0.1,-641.943,-0.1,1.504
-0.0423959,-0.000187256,0.537226,0.00012334,-0.0772402,1.36435e-05,0.0885749,1.38776e-07,0,0,93.8762,0.1,-642.993,-0.1,1.508
-0.0427055,-0.000187256,0.537581,0.00012334,-0.0775774,9.09568e-06,0.0885211,9.25171e-08,0,0,94.539,0.1,-644.041,-0.1,1.512
-0.0430165,-0.000187256,0.537935,0.000122995,-0.0779149,6.06379e-06,0.0884671,-2.87292e-05,0,0,95.2043,0.1,-645.087,-0.1,1.516
-0.0433288,-0.000187256,0.538288,0.00012334,-0.0782528,4.04253e-06,0.0884131,9.63809e-06,0,0,95.8723,0.1,-646.131,-0.1,1.52
-0.0436425,-0.000187256,0.538642,0.00012334,-0.078591,2.69502e-06,0.088359,6.4254e-06,0,0,96.543,0.1,-647.173,-0.1,1.524
-0.0439576,-0.000187602,0.538995,0.00012334,-0.0789295,-2.69942e-05,0.0883047,4.2836e-06,0,0,97.2163,0.1,-648.212,-0.1,1.528
-0.044274,-0.000187256,0.539348,0.00012334,-0.0792684,1.07948e-05,0.0882504,2.85573e-06,0,0,97.892,0.1,-649.25,-0.1,1.532
-0.0445917,-0.000186911,0.539701,0.00012334,-0.0796076,3.59874e-05,0.088196,1.90382e-06,0,0,98.5708,0.1,-650.285,-0.1,1.536
-0.0449108,-0.000186911,0.540054,0.00012334,-0.0799472,2.39916e-05,0.0881416,1.26921e-06,0,0,99.2524,0.1,-651.318,-0.1,1.54
-0.0452313,-0.000187256,0.540406,0.00012334,-0.080287,-1.27965e-05,0.088087,8.46143e-07,0,0,99.9366,0.1,-652.349,-0.1,1.544
-0.0455531,-0.000187256,0.540759,0.00012334,-0.0806272,-8.53101e-06,0.0880323,5.64095e-07,0,0,100.623,0.1,-653.378,-0.1,1.548
-0.0458763,-0.000187256,0.541111,0.00012334,-0.0809678,-5.68734e-06,0.0879776,3.76063e-07,0,0,101.312,0.1,-654.405,-0.1,1.552
-0.0462009,-0.000187256,0.541462,0.00012334,-0.0813086,-3.79156e-06,0.0879227,2.50709e-07,0,0,102.004,0.1,-655.43,-0.1,1.556
-0.0465268,-0.000187256,0.541814,0.00012334,-0.0816498,-2.52771e-06,0.0878678,1.67139e-07,0,0,102.699,0.1,-656.453,-0.1,1.56
-0.046854,-0.000187256,0.542165,0.00012334,-0.0819913,-1.68514e-06,0.0878128,1.11426e-07,0,0,103.396,0.1,-657.473,-0.1,1.564
-0.0471827,-0.000187256,0.542516,0.00012334,-0.0823331,-1.12342e-06,0.0877577,7.42841e-08,0,0,104.097,0.1,-658.492,-0.1,1.568
-0.0475127,-0.000187256,0.542867,0.00012334,-0.0826752,-7.4895e-07,0.0877025,4.95228e-08,0,0,104.799,0.1,-659.508,-0.1,1.572
-0.0478441,-0.000187256,0.543218,0.00012334,-0.0830176,-4.993e-07,0.0876472,3.30152e-08,0,0,105.505,0.1,-660.523,-0.1,1.576
-0.0481769,-0.000187256,0.543569,0.00012334,-0.0833603,-3.32867e-07,0.0875919,2.20101e-08,0,0,106.213,0.1,-661.535,-0.1,1.58
-0.048511,-0.000187256,0.543919,0.000124031,-0.0837033,-2.21911e-07,0.0875364,5.75965e-05,0,0,106.924,0.1,-662.545,-0.1,1.584
-0.0488465,-0.000187256,0.544269,0.00012334,-0.0840467,-1.47941e-07,0.0874809,-1.91842e-05,0,0,107.637,0.1,-663.554,-0.1,1.588
-0.0491834,-0.000187947,0.544619,0.00012334,-0.0843903,-5.76805e-05,0.0874253,-1.27894e-05,0,0,108.353,0.1,-664.56,-0.1,1.592
-0.0495216,-0.000186911,0.544968,0.00012334,-0.0847342,4.79191e-05,0.0873696,-8.5263e-06,0,0,109.072,0.1,-665.564,-0.1,1.596
-0.0498612,-0.000187256,0.545318,0.00012334,-0.0850784,3.15516e-06,0.0873138,-5.6842e-06,0,0,109.794,0.1,-666.567,-0.1,1.6
-0.0502022,-0.000186911,0.545667,0.00012334,-0.0854229,3.08944e-05,0.0872579,-3.78947e-06,0,0,110.518,0.1,-667.567,-0.1,1.604
-0.0505446,-0.000186911,0.546016,0.00012334,-0.0857677,2.05962e-05,0.0872019,-2.52631e-06,0,0,111.246,0.1,-668.565,-0.1,1.608
-0.0508884,-0.000187947,0.546364,0.00012334,-0.0861128,-7.26419e-05,0.0871459,-1.68421e-06,0,0,111.975,0.1,-669.562,-0.1,1.612
-0.0512335,-0.000187947,0.546713,0.00012334,-0.0864582,-4.8428e-05,0.0870897,-1.1228e-06,0,0,112.707,0.1,-670.556,-0.1,1.616
-0.05158,-0.000186911,0.547061,0.00012334,-0.0868038,5.40875e-05,0.0870335,-7.48536e-07,0,0,113.442,0.1,-671.548,-0.1,1.62
-0.0519279,-0.000187947,0.547409,0.00012334,-0.0871498,-5.03145e-05,0.0869772,-4.99024e-07,0,0,114.18,0.1,-672.539,-0.1,1.624
-0.0522772,-0.000187256,0.547757,0.00012334,-0.087496,2.40389e-05,0.0869208,-3.32683e-07,0,0,114.92,0.1,-673.527,-0.1,1.628
-0.0526279,-0.000186911,0.548104,0.00012334,-0.0878425,4.48168e-05,0.0868644,-2.21789e-07,0,0,115.663,0.1,-674.514,-0.1,1.632
-0.05298,-0.000187256,0.548452,0.00012334,-0.0881892,1.08697e-06,0.0868078,-1.47859e-07,0,0,116.41,0.1,-675.498,-0.1,1.636
-0.0533334,-0.000187256,0.548799,0.00012334,-0.0885363,7.24646e-07,0.0867512,-9.85727e-08,0,0,117.158,0.1,-676.481,-0.1,1.64
-0.0536883,-0.000187256,0.549146,0.00012334,-0.0888836,4.83097e-07,0.0866945,-6.57151e-08,0,0,117.91,0.1,-677.462,-0.1,1.644
-0.0540445,-0.000187256,0.549492,0.00012334,-0.0892311,3.22065e-07,0.0866377,-4.38101e-08,0,0,118.664,0.1,-678.44,-0.1,1.648
-0.0544021,-0.000187256,0.549839,0.00012334,-0.0895789,2.1471e-07,0.0865808,-2.92067e-08,0,0,119.42,0.1,-679.417,-0.1,1.652
-0.0547611,-0.000186911,0.550185,0.00012334,-0.089927,2.89341e-05,0.0865238,-1.94711e-08,0,0,120.18,0.1,-680.392,-0.1,1.656
-0.0551215,-0.000187256,0.550531,0.000124031,-0.0902754,-9.50155e-06,0.0864668,5.75689e-05,0,0,120.942,0.1,-681.365,-0.1,1.66
-0.0554833,-0.000187256,0.550877,0.00012334,-0.0906239,-6.33437e-06,0.0864097,-1.92026e-05,0,0,121.707,0.1,-682.336,-0.1,1.664
-0.0558465,-0.000187947,0.551222,0.00012334,-0.0909728,-6.18048e-05,0.0863524,-1.28017e-05,0,0,122.474,0.1,-683.306,-0.1,1.668
-0.0562111,-0.000186911,0.551568,0.00012334,-0.0913219,4.51696e-05,0.0862952,-8.53449e-06,0,0,123.244,0.1,-684.273,-0.1,1.672
-0.0565771,-0.000187256,0.551913,0.00012334,-0.0916712,1.32214e-06,0.0862378,-5.68966e-06,0,0,124.017,0.1,-685.238,-0.1,1.676
-0.0569445,-0.000187256,0.552258,0.00012334,-0.0920208,8.81428e-07,0.0861803,-3.79311e-06,0,0,124.793,0.1,-686.202,-0.1,1.68
-0.0573133,-0.000187256,0.552602,0.00012334,-0.0923707,5.87619e-07,0.0861228,-2.52874e-06,0,0,125.571,0.1,-687.164,-0.1,1.684
-0.0576835,-0.000187256,0.552947,0.00012334,-0.0927207,3.91746e-07,0.0860652,-1.68583e-06,0,0,126.352,0.1,-688.124,-0.1,1.688
-0.058055,-0.000187256,0.553291,0.00012334,-0.093071,2.61164e-07,0.0860075,-1.12388e-06,0,0,127.136,0.1,-689.082,-0.1,1.692
-0.058428,-0.000187602,0.553635,0.000122995,-0.0934216,-2.86168e-05,0.0859497,-2.95402e-05,0,0,127.923,0.1,-690.038,-0.1,1.696
-0.0588024,-0.000187256,0.553978,0.00012334,-0.0937724,9.71305e-06,0.0858919,9.09747e-06,0,0,128.711,0.1,-690.992,-0.1,1.7
-0.0591782,-0.000187256,0.554322,0.00012334,-0.0941234,6.47537e-06,0.0858339,6.06498e-06,0,0,129.503,0.1,-691.945,-0.1,1.704
-0.0595554,-0.000187256,0.554665,0.00012334,-0.0944746,4.31691e-06,0.0857759,4.04332e-06,0,0,130.298,0.1,-692.896,-0.1,1.708
-0.059934,-0.000187256,0.555008,0.00012334,-0.0948261,2.87794e-06,0.0857179,2.69555e-06,0,0,131.095,0.1,-693.845,-0.1,1.712
-0.060314,-0.000186911,0.555351,0.00012334,-0.0951778,3.07096e-05,0.0856597,1.79703e-06,0,0,131.895,0.1,-694.792,-0.1,1.716
-0.0606954,-0.000187256,0.555693,0.00012334,-0.0955297,-8.31789e-06,0.0856014,1.19802e-06,0,0,132.698,0.1,-695.737,-0.1,1.72
-0.0610782,-0.000187256,0.556036,0.00012334,-0.0958818,-5.54526e-06,0.0855431,7.98681e-07,0,0,133.504,0.1,-696.68,-0.1,1.724
-0.0614625,-0.000187256,0.556378,0.00012334,-0.0962342,-3.69684e-06,0.0854847,5.32454e-07,0,0,134.312,0.1,-697.622,-0.1,1.728
-0.0618481,-0.000187256,0.556719,0.00012334,-0.0965868,-2.46456e-06,0.0854262,3.54969e-07,0,0,135.123,0.1,-698.562,-0.1,1.732
-0.0622352,-0.000187256,0.557061,0.00012334,-0.0969395,-1.64304e-06,0.0853677,2.36646e-07,0,0,135.936,0.1,-699.5,-0.1,1.736
-0.0626236,-0.000187256,0.557402,0.00012334,-0.0972925,-1.09536e-06,0.0853091,1.57764e-07,0,0,136.753,0.1,-700.437,-0.1,1.74
-0.0630135,-0.000187256,0.557743,0.00012334,-0.0976457,-7.3024e-07,0.0852503,1.05176e-07,0,0,137.572,0.1,-701.371,-0.1,1.744
-0.0634048,-0.000187256,0.558084,0.00012334,-0.0979991,-4.86827e-07,0.0851916,7.01174e-08,0,0,138.393,0.1,-702.304,-0.1,1.748
-0.0637975,-0.000187602,0.558425,0.00012334,-0.0983527,-2.91155e-05,0.0851327,4.67449e-08,0,0,139.218,0.1,-703.235,-0.1,1.752
-0.0641916,-0.000187256,0.558765,0.00012334,-0.0987065,9.38061e-06,0.0850738,3.11633e-08,0,0,140.045,0.1,-704.165,-0.1,1.756
-0.0645872,-0.000187256,0.559106,0.00012334,-0.0990605,6.25374e-06,0.0850147,2.07755e-08,0,0,140.874,0.1,-705.092,-0.1,1.76
-0.0649841,-0.000187256,0.559446,0.00012334,-0.0994147,4.16916e-06,0.0849557,1.38503e-08,0,0,141.707,0.1,-706.018,-0.1,1.764
-0.0653825,-0.000187256,0.559785,0.000123686,-0.0997691,2.77944e-06,0.0848965,2.88002e-05,0,0,142.542,0.1,-706.942,-0.1,1.768
-0.0657823,-0.000187256,0.560125,0.00012334,-0.100124,1.85296e-06,0.0848373,-9.59082e-06,0,0,143.38,0.1,-707.864,-0.1,1.772
-0.0661835,-0.000187256,0.560464,0.00012334,-0.100478,1.23531e-06,0.0847779,-6.39388e-06,0,0,144.221,0.1,-708.785,-0.1,1.776
-0.0665861,-0.000187256,0.560803,0.00012334,-0.100833,8.23538e-07,0.0847186,-4.26259e-06,0,0,145.065,0.1,-709.704,-0.1,1.78
-0.0669901,-0.000187256,0.561142,0.00012334,-0.101189,5.49025e-07,0.0846591,-2.84172e-06,0,0,145.911,0.1,-710.621,-0.1,1.784
-0.0673956,-0.000187256,0.56148,0.00012334,-0.101544,3.66017e-07,0.0845995,-1.89448e-06,0,0,146.76,0.1,-711.537,-0.1,1.788
-0.0678025,-0.000187256,0.561818,0.00012334,-0.101899,2.44011e-07,0.0845399,-1.26299e-06,0,0,147.611,0.1,-712.451,-0.1,1.792
-0.0682108,-0.000187256,0.562157,0.00012334,-0.102255,1.62674e-07,0.0844803,-8.41992e-07,0,0,148.465,0.1,-713.363,-0.1,1.796
-0.0686205,-0.000187256,0.562494,0.00012334,-0.102611,1.08449e-07,0.0844205,-5.61328e-07,0,0,149.322,0.1,-714.273,-0.1,1.8
-0.0690317,-0.000187256,0.562832,0.00012334,-0.102967,7.22996e-08,0.0843607,-3.74219e-07,0,0,150.182,0.1,-715.182,-0.1,1.804
-0.0694443,-0.000187256,0.563169,0.00012334,-0.103323,4.81997e-08,0.0843008,-2.49479e-07,0,0,151.045,0.1,-716.089,-0.1,1.808
-0.0698583,-0.000187256,0.563506,0.00012334,-0.10368,3.21332e-08,0.0842408,-1.66319e-07,0,0,151.91,0.1,-716.995,-0.1,1.812
-0.0702737,-0.000187256,0.563843,0.00012334,-0.104036,2.14221e-08,0.0841807,-1.1088e-07,0,0,152.778,0.1,-717.899,-0.1,1.816
-0.0706906,-0.000187256,0.56418,0.00012334,-0.104393,1.42814e-08,0.0841206,-7.39198e-08,0,0,153.648,0.1,-718.801,-0.1,1.82
-0.0711088,-0.000187256,0.564516,0.00012334,-0.10475,9.52093e-09,0.0840604,-4.92798e-08,0,0,154.521,0.1,-719.701,-0.1,1.824
-0.0715286,-0.000187256,0.564852,0.00012334,-0.105107,6.34729e-09,0.0840001,-3.28532e-08,0,0,155.397,0.1,-720.6,-0.1,1.828
-0.0719497,-0.000187602,0.565188,0.00012334,-0.105464,-2.87867e-05,0.0839398,-2.19022e-08,0,0,156.276,0.1,-721.497,-0.1,1.832
-0.0723723,-0.000187256,0.565524,0.00012334,-0.105821,9.5998e-06,0.0838794,-1.46014e-08,0,0,157.157,0.1,-722.393,-0.1,1.836
-0.0727963,-0.000187256,0.565859,0.00012334,-0.106179,6.39986e-06,0.0838189,-9.73429e-09,0,0,158.041,0.1,-723.287,-0.1,1.84
-0.0732217,-0.000187256,0.566194,0.00012334,-0.106536,4.26658e-06,0.0837584,-6.48953e-09,0,0,158.928,0.1,-724.179,-0.1,1.844
-0.0736486,-0.000187256,0.566529,0.000123686,-0.106894,2.84438e-06,0.0836977,2.87866e-05,0,0,159.818,0.1,-725.07,-0.1,1.848
-0.0740768,-0.000187256,0.566864,0.00012334,-0.107252,1.89626e-06,0.083637,-9.59986e-06,0,0,160.71,0.1,-725.959,-0.1,1.852
-0.0745066,-0.000187256,0.567198,0.00012334,-0.10761,1.26417e-06,0.0835763,-6.39991e-06,0,0,161.605,0.1,-726.847,-0.1,1.856
-0.0749377,-0.000187256,0.567532,0.00012334,-0.107968,8.4278e-07,0.0835154,-4.2666e-06,0,0,162.503,0.1,-727.732,-0.1,1.86
-0.0753703,-0.000187602,0.567866,0.00012334,-0.108326,-2.82291e-05,0.0834545,-2.8444e-06,0,0,163.403,0.1,-728.617,-0.1,1.864
-0.0758043,-0.000187602,0.5682,0.00012334,-0.108685,-1.88194e-05,0.0833936,-1.89627e-06,0,0,164.306,0.1,-729.499,-0.1,1.868
-0.0762398,-0.000187602,0.568534,0.00012334,-0.109044,-1.25463e-05,0.0833325,-1.26418e-06,0,0,165.212,0.1,-730.381,-0.1,1.872
-0.0766767,-0.000187256,0.568867,0.000123686,-0.109402,2.04268e-05,0.0832714,2.79481e-05,0,0,166.12,0.1,-731.26,-0.1,1.876
-0.077115,-0.000187256,0.5692,0.00012334,-0.109761,1.36178e-05,0.0832102,-1.01588e-05,0,0,167.032,0.1,-732.138,-0.1,1.88
-0.0775548,-0.000187256,0.569532,0.00012334,-0.11012,9.07856e-06,0.083149,-6.77255e-06,0,0,167.946,0.1,-733.014,-0.1,1.884
-0.077996,-0.000187256,0.569865,0.00012334,-0.110479,6.05237e-06,0.0830877,-4.51504e-06,0,0,168.862,0.1,-733.889,-0.1,1.888
-0.0784386,-0.000187256,0.570197,0.00012334,-0.110839,4.03491e-06,0.0830263,-3.01002e-06,0,0,169.782,0.1,-734.763,-0.1,1.892
-0.0788827,-0.000187256,0.570529,0.00012334,-0.111198,2.68994e-06,0.0829648,-2.00668e-06,0,0,170.704,0.1,-735.634,-0.1,1.896
-0.0793282,-0.000187256,0.570861,0.00012334,-0.111557,1.7933e-06,0.0829033,-1.33779e-06,0,0,171.629,0.1,-736.504,-0.1,1.9
-0.0797751,-0.000187256,0.571192,0.00012334,-0.111917,1.19553e-06,0.0828417,-8.91859e-07,0,0,172.556,0.1,-737.373,-0.1,1.904
-0.0802235,-0.000187256,0.571524,0.00012334,-0.112277,7.9702e-07,0.0827801,-5.94573e-07,0,0,173.486,0.1,-738.24,-0.1,1.908
-0.0806734,-0.000187256,0.571855,0.00012334,-0.112636,5.31347e-07,0.0827184,-3.96382e-07,0,0,174.419,0.1,-739.106,-0.1,1.912
-0.0811246,-0.000187602,0.572185,0.00012334,-0.112996,-2.84367e-05,0.0826566,-2.64255e-07,0,0,175.355,0.1,-739.97,-0.1,1.916
-0.0815773,-0.000187256,0.572516,0.00012334,-0.113356,9.83313e-06,0.0825947,-1.7617e-07,0,0,176.293,0.1,-740.832,-0.1,1.92
-0.0820315,-0.000187256,0.572846,0.00012334,-0.113717,6.55542e-06,0.0825328,-1.17446e-07,0,0,177.234,0.1,-741.693,-0.1,1.924
-0.0824871,-0.000187256,0.573176,0.00012334,-0.114077,4.37028e-06,0.0824708,-7.82976e-08,0,0,178.178,0.1,-742.552,-0.1,1.928
-0.0829441,-0.000187256,0.573506,0.00012334,-0.114437,2.91352e-06,0.0824088,-5.21984e-08,0,0,179.124,0.1,-743.41,-0.1,1.932
-0.0834026,-0.000187256,0.573835,0.00012334,-0.114798,1.94235e-06,0.0823466,-3.4799e-08,0,0,180.073,0.1,-744.267,-0.1,1.936
-0.0838625,-0.000187256,0.574165,0.00012334,-0.115158,1.2949e-06,0.0822844,-2.31993e-08,0,0,181.025,0.1,-745.122,-0.1,1.94
-0.0843238,-0.000187256,0.574494,0.00012334,-0.115519,8.63265e-07,0.0822222,-1.54662e-08,0,0,181.98,0.1,-745.975,-0.1,1.944
-0.0847866,-0.000187602,0.574822,0.00012334,-0.115879,-2.82154e-05,0.0821599,-1.03108e-08,0,0,182.937,0.1,-746.827,-0.1,1.948
-0.0852509,-0.000187256,0.575151,0.00012334,-0.11624,9.98065e-06,0.0820975,-6.87387e-09,0,0,183.897,0.1,-747.678,-0.1,1.952
-0.0857165,-0.000187256,0.575479,0.00012334,-0.116601,6.65377e-06,0.0820351,-4.58258e-09,0,0,184.859,0.1,-748.527,-0.1,1.956
-0.0861837,-0.000187256,0.575807,0.00012334,-0.116962,4.43584e-06,0.0819726,-3.05505e-09,0,0,185.825,0.1,-749.374,-0.1,1.96
-0.0866522,-0.000187602,0.576135,0.00012334,-0.117323,-2.58337e-05,0.08191,-2.0367e-09,0,0,186.793,0.1,-750.22,-0.1,1.964
-0.0871222,-0.000187256,0.576463,0.00012334,-0.117684,1.15685e-05,0.0818473,-1.3578e-09,0,0,187.763,0.1,-751.065,-0.1,1.968
-0.0875937,-0.000187256,0.57679,0.00012334,-0.118046,7.71231e-06,0.0817847,-9.05201e-10,0,0,188.737,0.1,-751.908,-0.1,1.972
-0.0880666,-0.000187256,0.577117,0.00012334,-0.118407,5.14154e-06,0.0817219,-6.03467e-10,0,0,189.713,0.1,-752.749,-0.1,1.976
-0.088541,-0.000187256,0.577444,0.00012334,-0.118768,3.42769e-06,0.0816591,-4.02311e-10,0,0,190.692,0.1,-753.59,-0.1,1.98
-0.0890168,-0.000187256,0.57777,0.00012334,-0.11913,2.28513e-06,0.0815962,-2.68208e-10,0,0,191.673,0.1,-754.428,-0.1,1.984
-0.089494,-0.000187256,0.578096,0.00012334,-0.119491,1.52342e-06,0.0815332,-1.78805e-10,0,0,192.658,0.1,-755.266,-0.1,1.988
-0.0899727,-0.000187256,0.578422,0.00012334,-0.119853,1.01561e-06,0.0814702,-1.19203e-10,0,0,193.644,0.1,-756.101,-0.1,1.992
-0.0904528,-0.000187256,0.578748,0.000123686,-0.120214,6.77075e-07,0.0814071,2.87908e-05,0,0,194.634,0.1,-756.936,-0.1,1.996
-0.0909344,-0.000187256,0.579074,0.00012334,-0.120576,4.51383e-07,0.081344,-9.59703e-06,0,0,195.626,0.1,-757.769,-0.1,2
-0.0914174,-0.000187256,0.579399,0.00012334,-0.120938,3.00922e-07,0.0812808,-6.39802e-06,0,0,196.621,0.1,-758.6,-0.1,2.004
-0.0919019,-0.000187256,0.579724,0.00012334,-0.1213,2.00615e-07,0.0812175,-4.26535e-06,0,0,197.619,0.1,-759.431,-0.1,2.008
-0.0923878,-0.000187256,0.580049,0.00012334,-0.121661,1.33743e-07,0.0811542,-2.84356e-06,0,0,198.619,0.1,-760.259,-0.1,2.012
-0.0928752,-0.000187256,0.580373,0.00012334,-0.122023,8.91621e-08,0.0810908,-1.89571e-06,0,0,199.622,0.1,-761.087,-0.1,2.016
-0.093364,-0.000187602,0.580697,0.00012334,-0.122385,-2.87315e-05,0.0810274,-1.26381e-06,0,0,200.628,0.1,-761.912,-0.1,2.02
-0.0938543,-0.000187256,0.581021,0.00012334,-0.122747,9.6366e-06,0.0809639,-8.42537e-07,0,0,201.636,0.1,-762.737,-0.1,2.024
-0.094346,-0.000187256,0.581345,0.00012334,-0.123109,6.4244e-06,0.0809003,-5.61692e-07,0,0,202.647,0.1,-763.56,-0.1,2.028
-0.0948392,-0.000187256,0.581669,0.00012334,-0.123472,4.28293e-06,0.0808367,-3.74461e-07,0,0,203.661,0.1,-764.382,-0.1,2.032
-0.0953338,-0.000187256,0.581992,0.00012334,-0.123834,2.85529e-06,0.080773,-2.49641e-07,0,0,204.677,0.1,-765.202,-0.1,2.036
-0.0958298,-0.000187256,0.582315,0.00012334,-0.124196,1.90353e-06,0.0807093,-1.66427e-07,0,0,205.696,0.1,-766.021,-0.1,2.04
-0.0963273,-0.000187256,0.582637,0.00012334,-0.124558,1.26902e-06,0.0806455,-1.10951e-07,0,0,206.718,0.1,-766.839,-0.1,2.044
-0.0968263,-0.000187256,0.58296,0.00012334,-0.12492,8.46012e-07,0.0805816,-7.39676e-08,0,0,207.743,0.1,-767.655,-0.1,2.048
-0.0973267,-0.000187256,0.583282,0.00012334,-0.125283,5.64008e-07,0.0805177,-4.93117e-08,0,0,208.77,0.1,-768.469,-0.1,2.052
-0.0978285,-0.000187256,0.583604,0.00012334,-0.125645,3.76005e-07,0.0804537,-3.28745e-08,0,0,209.8,0.1,-769.283,-0.1,2.056
-0.0983319,-0.000187256,0.583926,0.00012334,-0.126007,2.5067e-07,0.0803897,-2.19163e-08,0,0,210.832,0.1,-770.095,-0.1,2.06
-0.0988366,-0.000187602,0.584247,0.00012334,-0.12637,-2.86238e-05,0.0803256,-1.46109e-08,0,0,211.867,0.1,-770.906,-0.1,2.064
-0.0993428,-0.000187256,0.584568,0.00012334,-0.126732,9.70838e-06,0.0802614,-9.74059e-09,0,0,212.905,0.1,-771.715,-0.1,2.068
-0.0998505,-0.000187256,0.584889,0.00012334,-0.127095,6.47226e-06,0.0801972,-6.49373e-09,0,0,213.945,0.1,-772.523,-0.1,2.072
-0.10036,-0.000187256,0.58521,0.000123686,-0.127457,4.31484e-06,0.0801329,2.87866e-05,0,0,214.989,0.1,-773.33,-0.1,2.076
-0.10087,-0.000187256,0.58553,0.00012334,-0.12782,2.87656e-06,0.0800686,-9.59986e-06,0,0,216.035,0.1,-774.135,-0.1,2.08
-0.101382,-0.000187256,0.58585,0.00012334,-0.128182,1.91771e-06,0.0800042,-6.39991e-06,0,0,217.083,0.1,-774.939,-0.1,2.084
-0.101896,-0.000187256,0.58617,0.00012334,-0.128545,1.27847e-06,0.0799398,-4.2666e-06,0,0,218.134,0.1,-775.741,-0.1,2.088
-0.10241,-0.000187256,0.58649,0.00012334,-0.128907,8.52314e-07,0.0798753,-2.8444e-06,0,0,219.188,0.1,-776.543,-0.1,2.092
-0.102927,-0.000187256,0.586809,0.00012334,-0.12927,5.68209e-07,0.0798107,-1.89627e-06,0,0,220.245,0.1,-777.343,-0.1,2.096
-0.103445,-0.000187256,0.587128,0.00012334,-0.129632,3.78806e-07,0.0797461,-1.26418e-06,0,0,221.304,0.1,-778.141,-0.1,2.1
-0.103964,-0.000187256,0.587447,0.00012334,-0.129995,2.52537e-07,0.0796814,-8.42786e-07,0,0,222.366,0.1,-778.939,-0.1,2.104
-0.104485,-0.000187256,0.587766,0.00012334,-0.130358,1.68358e-07,0.0796167,-5.61857e-07,0,0,223.43,0.1,-779.735,-0.1,2.108
-0.105007,-0.000187256,0.588084,0.00012334,-0.13072,1.12239e-07,0.0795519,-3.74572e-07,0,0,224.497,0.1,-780.529,-0.1,2.112
-0.10553,-0.000187256,0.588402,0.00012334,-0.131083,7.48259e-08,0.0794871,-2.49714e-07,0,0,225.567,0.1,-781.323,-0.1,2.116
-0.106055,-0.000187256,0.58872,0.00012334,-0.131445,4.98839e-08,0.0794222,-1.66476e-07,0,0,226.639,0.1,-782.115,-0.1,2.12
-0.106582,-0.000187256,0.589038,0.00012334,-0.131808,3.32559e-08,0.0793572,-1.10984e-07,0,0,227.715,0.1,-782.905,-0.1,2.124
-0.10711,-0.000187256,0.589355,0.00012334,-0.13217,2.21706e-08,0.0792922,-7.39895e-08,0,0,228.792,0.1,-783.695,-0.1,2.128
-0.107639,-0.000187256,0.589672,0.00012334,-0.132533,1.47804e-08,0.0792272,-4.93263e-08,0,0,229.873,0.1,-784.483,-0.1,2.132
-0.10817,-0.000187256,0.589989,0.00012334,-0.132896,9.85361e-09,0.0791621,-3.28842e-08,0,0,230.956,0.1,-785.27,-0.1,2.136
-0.108702,-0.000187256,0.590305,0.00012334,-0.133258,6.56908e-09,0.0790969,-2.19228e-08,0,0,232.041,0.1,-786.055,-0.1,2.14
-0.109236,-0.000187256,0.590622,0.00012334,-0.133621,4.37938e-09,0.0790317,-1.46152e-08,0,0,233.13,0.1,-786.84,-0.1,2.144
-0.109771,-0.000187256,0.590938,0.00012334,-0.133983,2.91959e-09,0.0789664,-9.74347e-09,0,0,234.221,0.1,-787.623,-0.1,2.148
-0.110308,-0.000187256,0.591253,0.00012334,-0.134346,1.94639e-09,0.0789011,-6.49565e-09,0,0,235.314,0.1,-788.405,-0.1,2.152
-0.110846,-0.000187256,0.591569,0.00012334,-0.134708,1.2976e-09,0.0788357,-4.33043e-09,0,0,236.411,0.1,-789.185,-0.1,2.156
-0.111386,-0.000187256,0.591884,0.00012334,-0.135071,8.65063e-10,0.0787703,-2.88695e-09,0,0,237.51,0.1,-789.964,-0.1,2.16
-0.111927,-0.000187602,0.592199,0.00012334,-0.135433,-2.87903e-05,0.0787048,-1.92464e-09,0,0,238.611,0.1,-790.742,-0.1,2.164
-0.112469,-0.000187602,0.592514,0.00012334,-0.135795,-1.91936e-05,0.0786393,-1.28309e-09,0,0,239.715,0.1,-791.519,-0.1,2.168
-0.113013,-0.000187602,0.592828,0.00012334,-0.136158,-1.27957e-05,0.0785737,-8.55394e-10,0,0,240.822,0.1,-792.294,-0.1,2.172
-0.113558,-0.000187256,0.593142,0.00012334,-0.13652,2.02605e-05,0.078508,-5.70262e-10,0,0,241.931,0.1,-793.068,-0.1,2.176
-0.114105,-0.000187256,0.593456,0.00012334,-0.136882,1.3507e-05,0.0784423,-3.80175e-10,0,0,243.043,0.1,-793.841,-0.1,2.18
-0.114654,-0.000187256,0.59377,0.00012334,-0.137245,9.00464e-06,0.0783766,-2.5345e-10,0,0,244.158,0.1,-794.613,-0.1,2.184
-0.115203,-0.000187256,0.594083,0.00012334,-0.137607,6.0031e-06,0.0783108,-1.68967e-10,0,0,245.276,0.1,-795.384,-0.1,2.188
-0.115754,-0.000187256,0.594396,0.00012334,-0.137969,4.00206e-06,0.0782449,-1.12644e-10,0,0,246.396,0.1,-796.153,-0.1,2.192
-0.116307,-0.000187256,0.594709,0.00012334,-0.138331,2.66804e-06,0.078179,-7.50963e-11,0,0,247.518,0.1,-796.921,-0.1,2.196
-0.116861,-0.000187256,0.595022,0.00012334,-0.138693,1.7787e-06,0.0781131,-5.00642e-11,0,0,248.644,0.1,-797.687,-0.1,2.2
-0.117417,-0.000187256,0.595334,0.00012334,-0.139055,1.1858e-06,0.0780471,-3.33761e-11,0,0,249.772,0.1,-798.453,-0.1,2.204
-0.117973,-0.000187602,0.595646,0.00012334,-0.139417,-2.80004e-05,0.077981,-2.22508e-11,0,0,250.902,0.1,-799.217,-0.1,2.208
-0.118532,-0.000186911,0.595958,0.00012334,-0.139779,3.89149e-05,0.0779149,-1.48338e-11,0,0,252.035,0.1,-799.98,-0.1,2.212
-0.119092,-0.000187256,0.596269,0.00012334,-0.140141,-2.84764e-06,0.0778488,-9.88922e-12,0,0,253.171,0.1,-800.742,-0.1,2.216
-0.119653,-0.000187256,0.596581,0.00012334,-0.140503,-1.89843e-06,0.0777826,-6.59281e-12,0,0,254.309,0.1,-801.503,-0.1,2.22
-0.120216,-0.000187256,0.596892,0.00012334,-0.140865,-1.26562e-06,0.0777163,-4.39521e-12,0,0,255.45,0.1,-802.262,-0.1,2.224
-0.12078,-0.000187256,0.597202,0.00012334,-0.141227,-8.43746e-07,0.07765,-2.93014e-12,0,0,256.594,0.1,-803.021,-0.1,2.228
-0.121346,-0.000187256,0.597513,0.000123686,-0.141588,-5.62498e-07,0.0775837,2.87909e-05,0,0,257.74,0.1,-803.778,-0.1,2.232
-0.121913,-0.000187256,0.597823,0.00012334,-0.14195,-3.74998e-07,0.0775173,-9.59698e-06,0,0,258.889,0.1,-804.533,-0.1,2.236
-0.122481,-0.000187256,0.598133,0.00012334,-0.142312,-2.49999e-07,0.0774508,-6.39798e-06,0,0,260.04,0.1,-805.288,-0.1,2.24
-0.123051,-0.000187256,0.598443,0.00012334,-0.142673,-1.66666e-07,0.0773843,-4.26532e-06,0,0,261.194,0.1,-806.041,-0.1,2.244
-0.123623,-0.000187256,0.598752,0.00012334,-0.143035,-1.11111e-07,0.0773178,-2.84355e-06,0,0,262.351,0.1,-806.794,-0.1,2.248
-0.124195,-0.000187256,0.599061,0.00012334,-0.143396,-7.40738e-08,0.0772512,-1.8957e-06,0,0,263.51,0.1,-807.545,-0.1,2.252
-0.12477,-0.000187256,0.59937,0.00012334,-0.143757,-4.93825e-08,0.0771845,-1.2638e-06,0,0,264.672,0.1,-808.295,-0.1,2.256
-0.125345,-0.000187602,0.599679,0.00012334,-0.144118,-2.88238e-05,0.0771178,-8.42533e-07,0,0,265.836,0.1,-809.043,-0.1,2.26
-0.125923,-0.000187602,0.599987,0.00012334,-0.14448,-1.92159e-05,0.0770511,-5.61689e-07,0,0,267.003,0.1,-809.791,-0.1,2.264
-0.126501,-0.000187256,0.600295,0.00012334,-0.144841,1.59803e-05,0.0769843,-3.74459e-07,0,0,268.173,0.1,-810.537,-0.1,2.268
-0.127081,-0.000187256,0.600603,0.00012334,-0.145202,1.06536e-05,0.0769175,-2.49639e-07,0,0,269.345,0.1,-811.282,-0.1,2.272
-0.127663,-0.000187256,0.60091,0.00012334,-0.145563,7.10237e-06,0.0768506,-1.66426e-07,0,0,270.52,0.1,-812.026,-0.1,2.276
-0.128246,-0.000187256,0.601218,0.00012334,-0.145923,4.73491e-06,0.0767837,-1.10951e-07,0,0,271.697,0.1,-812.769,-0.1,2.28
-0.12883,-0.000187256,0.601525,0.00012334,-0.146284,3.15661e-06,0.0767167,-7.39672e-08,0,0,272.877,0.1,-813.511,-0.1,2.284
-0.129416,-0.000187256,0.601831,0.00012334,-0.146645,2.10441e-06,0.0766497,-4.93115e-08,0,0,274.06,0.1,-814.251,-0.1,2.288
-0.130003,-0.000187256,0.602138,0.00012334,-0.147005,1.40294e-06,0.0765826,-3.28743e-08,0,0,275.245,0.1,-814.991,-0.1,2.292
-0.130592,-0.000187947,0.602444,0.000124031,-0.147366,-5.66466e-05,0.0765155,5.75599e-05,0,0,276.433,0.1,-815.729,-0.1,2.296
-0.131182,-0.000187256,0.60275,0.000123686,-0.147726,1.98175e-05,0.0764484,9.58236e-06,0,0,277.623,0.1,-816.466,-0.1,2.3
-0.131774,-0.000187256,0.603056,0.00012334,-0.148087,1.32117e-05,0.0763812,-2.24027e-05,0,0,278.816,0.1,-817.202,-0.1,2.304
-0.132367,-0.000187256,0.603361,0.00012334,-0.148447,8.80777e-06,0.0763139,-1.49351e-05,0,0,280.011,0.1,-817.937,-0.1,2.308
-0.132962,-0.000187256,0.603666,0.00012334,-0.148807,5.87185e-06,0.0762466,-9.95675e-06,0,0,281.209,0.1,-818.67,-0.1,2.312
-0.133558,-0.000187256,0.603971,0.00012334,-0.149167,3.91456e-06,0.0761793,-6.63783e-06,0,0,282.41,0.1,-819.403,-0.1,2.316
-0.134155,-0.000187256,0.604276,0.00012334,-0.149527,2.60971e-06,0.0761119,-4.42522e-06,0,0,283.613,0.1,-820.134,-0.1,2.32
-0.134754,-0.000187256,0.60458,0.00012334,-0.149887,1.73981e-06,0.0760445,-2.95015e-06,0,0,284.819,0.1,-820.865,-0.1,2.324
-0.135354,-0.000187256,0.604884,0.00012334,-0.150246,1.15987e-06,0.075977,-1.96676e-06,0,0,286.027,0.1,-821.594,-0.1,2.328
-0.135956,-0.000187256,0.605188,0.00012334,-0.150606,7.73247e-07,0.0759095,-1.31118e-06,0,0,287.238,0.1,-822.322,-0.1,2.332
-0.136559,-0.000187256,0.605491,0.00012334,-0.150965,5.15498e-07,0.075842,-8.74118e-07,0,0,288.452,0.1,-823.049,-0.1,2.336
-0.137163,-0.000187256,0.605794,0.00012334,-0.151325,3.43665e-07,0.0757744,-5.82745e-07,0,0,289.668,0.1,-823.774,-0.1,2.34
-0.137769,-0.000187256,0.606097,0.00012334,-0.151684,2.2911e-07,0.0757067,-3.88497e-07,0,0,290.886,0.1,-824.499,-0.1,2.344
-0.138377,-0.000187256,0.6064,0.00012334,-0.152043,1.5274e-07,0.075639,-2.58998e-07,0,0,292.107,0.1,-825.223,-0.1,2.348
-0.138986,-0.000187256,0.606703,0.00012334,-0.152402,1.01827e-07,0.0755713,-1.72665e-07,0,0,293.331,0.1,-825.945,-0.1,2.352
-0.139596,-0.000187947,0.607005,0.00012334,-0.152761,-5.7514e-05,0.0755035,-1.1511e-07,0,0,294.557,0.1,-826.666,-0.1,2.356
-0.140208,-0.000187947,0.607307,0.00012334,-0.15312,-3.83426e-05,0.0754357,-7.67401e-08,0,0,295.785,0.1,-827.387,-0.1,2.36
-0.140821,-0.000187256,0.607608,0.00012334,-0.153479,3.20201e-05,0.0753679,-5.11601e-08,0,0,297.016,0.1,-828.106,-0.1,2.364
-0.141436,-0.000187947,0.607909,0.00012334,-0.153837,-3.62351e-05,0.0753,-3.41067e-08,0,0,298.25,0.1,-828.824,-0.1,2.368
-0.142052,-0.000187256,0.608211,0.00012334,-0.154195,3.34251e-05,0.075232,-2.27378e-08,0,0,299.486,0.1,-829.541,-0.1,2.372
-0.142669,-0.000186911,0.608511,0.00012334,-0.154554,5.10743e-05,0.0751641,-1.51585e-08,0,0,300.726,0.1,-830.257,-0.1,2.376
-0.143288,-0.000187256,0.608812,0.00012334,-0.154912,5.25862e-06,0.075096,-1.01057e-08,0,0,301.968,0.1,-830.971,-0.1,2.38
-0.143909,-0.000187256,0.609112,0.00012334,-0.15527,3.50575e-06,0.075028,-6.73713e-09,0,0,303.212,0.1,-831.685,-0.1,2.384
-0.14453,-0.000186911,0.609412,0.00012334,-0.155628,3.11281e-05,0.0749599,-4.49142e-09,0,0,304.458,0.1,-832.398,-0.1,2.388
-0.145154,-0.000187256,0.609712,0.00012334,-0.155986,-8.03886e-06,0.0748917,-2.99428e-09,0,0,305.708,0.1,-833.109,-0.1,2.392
-0.145778,-0.000187256,0.610011,0.00012334,-0.156343,-5.35924e-06,0.0748235,-1.99619e-09,0,0,306.959,0.1,-833.82,-0.1,2.396
-0.146404,-0.000187256,0.61031,0.00012334,-0.156701,-3.57283e-06,0.0747553,-1.33079e-09,0,0,308.213,0.1,-834.529,-0.1,2.4
-0.147032,-0.000186911,0.610609,0.00012334,-0.157058,2.6409e-05,0.074687,-8.87194e-10,0,0,309.47,0.1,-835.237,-0.1,2.404
-0.147661,-0.000187256,0.610908,0.00012334,-0.157415,-1.11849e-05,0.0746187,-5.91463e-10,0,0,310.729,0.1,-835.944,-0.1,2.408
-0.148291,-0.000187256,0.611206,0.00012334,-0.157772,-7.4566e-06,0.0745504,-3.94308e-10,0,0,311.991,0.1,-836.651,-0.1,2.412
-0.148923,-0.000187256,0.611504,0.000122995,-0.158129,-4.97107e-06,0.074482,-2.87912e-05,0,0,313.255,0.1,-837.356,-0.1,2.416
-0.149556,-0.000187256,0.611802,0.00012334,-0.158486,-3.31404e-06,0.0744136,9.5968e-06,0,0,314.521,0.1,-838.06,-0.1,2.42
-0.150191,-0.000187256,0.6121,0.00012334,-0.158842,-2.20936e-06,0.0743451,6.39787e-06,0,0,315.791,0.1,-838.763,-0.1,2.424
-0.150827,-0.000187256,0.612397,0.00012334,-0.159199,-1.47291e-06,0.0742766,4.26524e-06,0,0,317.062,0.1,-839.465,-0.1,2.428
-0.151464,-0.000187256,0.612694,0.000124031,-0.159555,-9.81939e-07,0.0742081,6.04253e-05,0,0,318.337,0.1,-840.166,-0.1,2.432
-0.152103,-0.000187256,0.61299,0.00012334,-0.159911,-6.54626e-07,0.0741395,-1.72983e-05,0,0,319.613,0.1,-840.865,-0.1,2.436
-0.152744,-0.000187256,0.613287,0.00012334,-0.160267,-4.36417e-07,0.0740709,-1.15322e-05,0,0,320.892,0.1,-841.564,-0.1,2.44
-0.153386,-0.000187256,0.613583,0.00012334,-0.160623,-2.90945e-07,0.0740022,-7.68813e-06,0,0,322.174,0.1,-842.262,-0.1,2.444
-0.154029,-0.000187947,0.613879,0.00012334,-0.160978,-5.77758e-05,0.0739335,-5.12542e-06,0,0,323.458,0.1,-842.959,-0.1,2.448
-0.154673,-0.000187256,0.614175,0.00012334,-0.161334,1.90646e-05,0.0738648,-3.41695e-06,0,0,324.745,0.1,-843.654,-0.1,2.452
-0.155319,-0.000187256,0.61447,0.00012334,-0.161689,1.27098e-05,0.073796,-2.27796e-06,0,0,326.034,0.1,-844.349,-0.1,2.456
-0.155967,-0.000187256,0.614765,0.00012334,-0.162044,8.47317e-06,0.0737272,-1.51864e-06,0,0,327.326,0.1,-845.042,-0.1,2.46
-0.156616,-0.000187256,0.61506,0.00012334,-0.162399,5.64878e-06,0.0736584,-1.01243e-06,0,0,328.62,0.1,-845.735,-0.1,2.464
-0.157266,-0.000187256,0.615354,0.00012334,-0.162754,3.76586e-06,0.0735895,-6.74952e-07,0,0,329.917,0.1,-846.427,-0.1,2.468
-0.157918,-0.000186911,0.615648,0.00012334,-0.163109,3.13015e-05,0.0735206,-4.49968e-07,0,0,331.216,0.1,-847.117,-0.1,2.472
-0.158571,-0.000187256,0.615942,0.00012334,-0.163463,-7.92326e-06,0.0734516,-2.99979e-07,0,0,332.518,0.1,-847.807,-0.1,2.476
-0.159225,-0.000187256,0.616236,0.00012334,-0.163817,-5.28217e-06,0.0733826,-1.99986e-07,0,0,333.822,0.1,-848.495,-0.1,2.48
-0.159881,-0.000187256,0.616529,0.00012334,-0.164171,-3.52145e-06,0.0733136,-1.33324e-07,0,0,335.128,0.1,-849.182,-0.1,2.484
-0.160539,-0.000187256,0.616823,0.00012334,-0.164525,-2.34763e-06,0.0732445,-8.88826e-08,0,0,336.437,0.1,-849.869,-0.1,2.488
-0.161198,-0.000187256,0.617115,0.00012334,-0.164879,-1.56509e-06,0.0731754,-5.92551e-08,0,0,337.749,0.1,-850.554,-0.1,2.492
-0.161858,-0.000187256,0.617408,0.000123686,-0.165233,-1.04339e-06,0.0731063,2.87514e-05,0,0,339.063,0.1,-851.239,-0.1,2.496
-0.16252,-0.000187256,0.6177,0.00012334,-0.165586,-6.95595e-07,0.0730371,-9.62331e-06,0,0,340.379,0.1,-851.922,-0.1,2.5
-0.163183,-0.000187256,0.617992,0.00012334,-0.165939,-4.6373e-07,0.0729679,-6.41554e-06,0,0,341.698,0.1,-852.604,-0.1,2.504
-0.163847,-0.000187256,0.618284,0.00012334,-0.166292,-3.09153e-07,0.0728987,-4.27703e-06,0,0,343.02,0.1,-853.286,-0.1,2.508
-0.164513,-0.000187256,0.618575,0.00012334,-0.166645,-2.06102e-07,0.0728294,-2.85135e-06,0,0,344.343,0.1,-853.966,-0.1,2.512
-0.16518,-0.000187256,0.618867,0.00012334,-0.166997,-1.37401e-07,0.0727601,-1.9009e-06,0,0,345.67,0.1,-854.646,-0.1,2.516
-0.165849,-0.000187256,0.619157,0.000123686,-0.16735,-9.1601e-08,0.0726907,2.75237e-05,0,0,346.998,0.1,-855.324,-0.1,2.52
-0.166519,-0.000187602,0.619448,0.00012334,-0.167702,-2.8852e-05,0.0726214,-1.04418e-05,0,0,348.33,0.1,-856.001,-0.1,2.524
-0.167191,-0.000187256,0.619738,0.00012334,-0.168054,9.55626e-06,0.0725519,-6.96121e-06,0,0,349.663,0.1,-856.678,-0.1,2.528
-0.167863,-0.000187256,0.620029,0.00012334,-0.168406,6.37084e-06,0.0724825,-4.64081e-06,0,0,350.999,0.1,-857.353,-0.1,2.532
-0.168538,-0.000187256,0.620318,0.00012334,-0.168757,4.24723e-06,0.072413,-3.09387e-06,0,0,352.338,0.1,-858.028,-0.1,2.536
-0.169213,-0.000187256,0.620608,0.00012334,-0.169109,2.83149e-06,0.0723435,-2.06258e-06,0,0,353.679,0.1,-858.701,-0.1,2.54
-0.169891,-0.000187256,0.620897,0.00012334,-0.16946,1.88766e-06,0.072274,-1.37505e-06,0,0,355.022,0.1,-859.374,-0.1,2.544
-0.170569,-0.000187256,0.621186,0.00012334,-0.169811,1.25844e-06,0.0722044,-9.16703e-07,0,0,356.368,0.1,-860.045,-0.1,2.548
-0.171249,-0.000187602,0.621475,0.00012334,-0.170162,-2.7952e-05,0.0721348,-6.11135e-07,0,0,357.716,0.1,-860.716,-0.1,2.552
-0.17193,-0.000187256,0.621763,0.00012334,-0.170512,1.01563e-05,0.0720651,-4.07424e-07,0,0,359.066,0.1,-861.385,-0.1,2.556
-0.172613,-0.000187256,0.622051,0.00012334,-0.170862,6.77085e-06,0.0719955,-2.71616e-07,0,0,360.42,0.1,-862.054,-0.1,2.56
-0.173297,-0.000187256,0.622339,0.000123686,-0.171213,4.5139e-06,0.0719258,2.86098e-05,0,0,361.775,0.1,-862.721,-0.1,2.564
-0.173983,-0.000187256,0.622627,0.00012334,-0.171562,3.00927e-06,0.071856,-9.71769e-06,0,0,363.133,0.1,-863.388,-0.1,2.568
-0.17467,-0.000187256,0.622914,0.00012334,-0.171912,2.00618e-06,0.0717862,-6.47846e-06,0,0,364.493,0.1,-864.054,-0.1,2.572
-0.175358,-0.000187602,0.623201,0.00012334,-0.172262,-2.74535e-05,0.0717164,-4.31897e-06,0,0,365.856,0.1,-864.718,-0.1,2.576
-0.176048,-0.000187256,0.623488,0.00012334,-0.172611,1.04886e-05,0.0716466,-2.87932e-06,0,0,367.221,0.1,-865.382,-0.1,2.58
-0.176739,-0.000187256,0.623774,0.00012334,-0.17296,6.99241e-06,0.0715767,-1.91954e-06,0,0,368.589,0.1,-866.045,-0.1,2.584
-0.177432,-0.000187602,0.62406,0.00012334,-0.173309,-2.41293e-05,0.0715068,-1.2797e-06,0,0,369.959,0.1,-866.707,-0.1,2.588
-0.178126,-0.000187256,0.624346,0.00012334,-0.173657,1.27047e-05,0.0714369,-8.53131e-07,0,0,371.331,0.1,-867.368,-0.1,2.592
-0.178821,-0.000187256,0.624632,0.00012334,-0.174006,8.46981e-06,0.071367,-5.68754e-07,0,0,372.706,0.1,-868.027,-0.1,2.596
-0.179518,-0.000187256,0.624917,0.00012334,-0.174354,5.64654e-06,0.071297,-3.79169e-07,0,0,374.083,0.1,-868.686,-0.1,2.6
-0.180216,-0.000187256,0.625202,0.00012334,-0.174702,3.76436e-06,0.071227,-2.52779e-07,0,0,375.462,0.1,-869.344,-0.1,2.604
-0.180915,-0.000187256,0.625487,0.00012334,-0.175049,2.50957e-06,0.0711569,-1.6852e-07,0,0,376.844,0.1,-870.001,-0.1,2.608
-0.181616,-0.000187256,0.625771,0.00012334,-0.175397,1.67305e-06,0.0710868,-1.12346e-07,0,0,378.229,0.1,-870.658,-0.1,2.612
-0.182318,-0.000187256,0.626056,0.00012334,-0.175744,1.11537e-06,0.0710167,-7.48976e-08,0,0,379.615,0.1,-871.313,-0.1,2.616
-0.183022,-0.000187602,0.62634,0.00012334,-0.176091,-2.80473e-05,0.0709466,-4.99318e-08,0,0,381.004,0.1,-871.967,-0.1,2.62
-0.183727,-0.000187256,0.626623,0.00012334,-0.176437,1.00927e-05,0.0708764,-3.32878e-08,0,0,382.396,0.1,-872.62,-0.1,2.624
-0.184434,-0.000187256,0.626907,0.00012334,-0.176784,6.72846e-06,0.0708062,-2.21919e-08,0,0,383.79,0.1,-873.273,-0.1,2.628
-0.185141,-0.000187256,0.62719,0.00012334,-0.17713,4.48564e-06,0.070736,-1.47946e-08,0,0,385.186,0.1,-873.924,-0.1,2.632
-0.185851,-0.000187256,0.627472,0.00012334,-0.177476,2.99043e-06,0.0706657,-9.86306e-09,0,0,386.584,0.1,-874.575,-0.1,2.636
-0.186561,-0.000187256,0.627755,0.00012334,-0.177822,1.99362e-06,0.0705955,-6.57537e-09,0,0,387.985,0.1,-875.224,-0.1,2.64
-0.187273,-0.000187256,0.628037,0.00012334,-0.178167,1.32908e-06,0.0705252,-4.38358e-09,0,0,389.389,0.1,-875.873,-0.1,2.644
-0.187987,-0.000187256,0.628319,0.00012334,-0.178512,8.86053e-07,0.0704548,-2.92239e-09,0,0,390.794,0.1,-876.521,-0.1,2.648
-0.188701,-0.000187256,0.628601,0.00012334,-0.178857,5.90702e-07,0.0703845,-1.94826e-09,0,0,392.202,0.1,-877.168,-0.1,2.652
-0.189417,-0.000187256,0.628882,0.00012334,-0.179202,3.93801e-07,0.0703141,-1.29884e-09,0,0,393.613,0.1,-877.813,-0.1,2.656
-0.190135,-0.000187256,0.629163,0.00012334,-0.179546,2.62534e-07,0.0702436,-8.65893e-10,0,0,395.025,0.1,-878.458,-0.1,2.66
-0.190854,-0.000187256,0.629444,0.00012334,-0.17989,1.75023e-07,0.0701732,-5.77262e-10,0,0,396.44,0.1,-879.102,-0.1,2.664
-0.191574,-0.000187256,0.629725,0.00012334,-0.180234,1.16682e-07,0.0701027,-3.84841e-10,0,0,397.858,0.1,-879.746,-0.1,2.668
-0.192296,-0.000187256,0.630005,0.00012334,-0.180578,7.77879e-08,0.0700322,-2.56561e-10,0,0,399.277,0.1,-880.388,-0.1,2.672
-0.193019,-0.000187256,0.630285,0.00012334,-0.180921,5.18586e-08,0.0699617,-1.71041e-10,0,0,400.699,0.1,-881.029,-0.1,2.676
-0.193743,-0.000187602,0.630565,0.00012334,-0.181264,-2.87564e-05,0.0698911,-1.14027e-10,0,0,402.124,0.1,-881.67,-0.1,2.68
-0.194469,-0.000187256,0.630844,0.00012334,-0.181607,9.62002e-06,0.0698206,-7.6018e-11,0,0,403.55,0.1,-882.309,-0.1,2.684
-0.195196,-0.000187256,0.631123,0.00012334,-0.18195,6.41335e-06,0.06975,-5.06787e-11,0,0,404.979,0.1,-882.948,-0.1,2.688
-0.195924,-0.000187947,0.631402,0.00012334,-0.182292,-5.33063e-05,0.0696793,-3.37858e-11,0,0,406.411,0.1,-883.585,-0.1,2.692
-0.196654,-0.000187256,0.631681,0.00012334,-0.182634,2.20443e-05,0.0696087,-2.25239e-11,0,0,407.844,0.1,-884.222,-0.1,2.696
-0.197385,-0.000187947,0.631959,0.00012334,-0.182976,-4.28856e-05,0.069538,-1.50159e-11,0,0,409.28,0.1,-884.858,-0.1,2.7
-0.198118,-0.000187256,0.632237,0.00012334,-0.183318,2.89914e-05,0.0694673,-1.00106e-11,0,0,410.718,0.1,-885.493,-0.1,2.704
-0.198852,-0.000186911,0.632515,0.00012334,-0.183659,4.81185e-05,0.0693965,-6.67374e-12,0,0,412.159,0.1,-886.127,-0.1,2.708
-0.199587,-0.000187256,0.632792,0.00012334,-0.184,3.2881e-06,0.0693258,-4.44916e-12,0,0,413.602,0.1,-886.76,-0.1,2.712
-0.200324,-0.000187256,0.633069,0.00012334,-0.18434,2.19207e-06,0.069255,-2.96611e-12,0,0,415.048,0.1,-887.393,-0.1,2.716
-0.201062,-0.000187256,0.633346,0.00012334,-0.184681,1.46138e-06,0.0691842,-1.9774e-12,0,0,416.495,0.1,-888.024,-0.1,2.72
-0.201801,-0.000187256,0.633623,0.000122995,-0.185021,9.74253e-07,0.0691134,-2.87909e-05,0,0,417.945,0.1,-888.655,-0.1,2.724
-0.202542,-0.000187256,0.633899,0.00012334,-0.185361,6.49502e-07,0.0690425,9.59697e-06,0,0,419.397,0.1,-889.285,-0.1,2.728
-0.203284,-0.000187256,0.634175,0.000122995,-0.1857,4.33001e-07,0.0689716,-2.23929e-05,0,0,420.852,0.1,-889.913,-0.1,2.732
-0.204028,-0.000187256,0.634451,0.00012334,-0.186039,2.88668e-07,0.0689007,1.38623e-05,0,0,422.308,0.1,-890.541,-0.1,2.736
-0.204773,-0.000187947,0.634726,0.00012334,-0.186378,-5.73894e-05,0.0688298,9.24153e-06,0,0,423.767,0.1,-891.168,-0.1,2.74
-0.205519,-0.000187256,0.635002,0.00012334,-0.186717,1.93222e-05,0.0687588,6.16102e-06,0,0,425.228,0.1,-891.794,-0.1,2.744
-0.206266,-0.000187256,0.635276,0.00012334,-0.187055,1.28815e-05,0.0686879,4.10735e-06,0,0,426.692,0.1,-892.42,-0.1,2.748
-0.207015,-0.000187256,0.635551,0.000124031,-0.187393,8.58767e-06,0.0686169,6.03201e-05,0,0,428.158,0.1,-893.044,-0.1,2.752
-0.207765,-0.000187256,0.635825,0.00012334,-0.187731,5.72511e-06,0.0685459,-1.73685e-05,0,0,429.626,0.1,-893.668,-0.1,2.756
-0.208517,-0.000187256,0.636099,0.00012334,-0.188069,3.81674e-06,0.0684748,-1.1579e-05,0,0,431.096,0.1,-894.29,-0.1,2.76
-0.20927,-0.000187256,0.636373,0.00012334,-0.188406,2.54449e-06,0.0684037,-7.71932e-06,0,0,432.569,0.1,-894.912,-0.1,2.764
-0.210024,-0.000187256,0.636647,0.00012334,-0.188743,1.69633e-06,0.0683327,-5.14621e-06,0,0,434.044,0.1,-895.533,-0.1,2.768
-0.21078,-0.000186911,0.63692,0.000123686,-0.189079,2.99218e-05,0.0682615,2.53601e-05,0,0,435.521,0.1,-896.153,-0.1,2.772
-0.211537,-0.000187256,0.637193,0.00012334,-0.189415,-8.84305e-06,0.0681904,-1.18842e-05,0,0,437.001,0.1,-896.772,-0.1,2.776
-0.212295,-0.000187256,0.637465,0.00012334,-0.189751,-5.89537e-06,0.0681193,-7.92279e-06,0,0,438.482,0.1,-897.391,-0.1,2.78
-0.213055,-0.000187256,0.637738,0.00012334,-0.190087,-3.93024e-06,0.0680481,-5.28186e-06,0,0,439.966,0.1,-898.008,-0.1,2.784
-0.213816,-0.000187256,0.63801,0.00012334,-0.190422,-2.62016e-06,0.0679769,-3.52124e-06,0,0,441.452,0.1,-898.625,-0.1,2.788
-0.214578,-0.000187256,0.638281,0.000124031,-0.190757,-1.74678e-06,0.0679057,5.52344e-05,0,0,442.941,0.1,-899.24,-0.1,2.792
-0.215342,-0.000187256,0.638553,0.000122995,-0.191092,-1.16452e-06,0.0678344,-4.95499e-05,0,0,444.431,0.1,-899.855,-0.1,2.796
-0.216107,-0.000187256,0.638824,0.00012334,-0.191426,-7.76345e-07,0.0677632,-4.24232e-06,0,0,445.924,0.1,-900.469,-0.1,2.8
-0.216873,-0.000187256,0.639095,0.00012334,-0.191761,-5.17563e-07,0.0676919,-2.82821e-06,0,0,447.419,0.1,-901.083,-0.1,2.804
-0.217641,-0.000187256,0.639366,0.00012334,-0.192094,-3.45042e-07,0.0676206,-1.88548e-06,0,0,448.916,0.1,-901.695,-0.1,2.808
-0.21841,-0.000187947,0.639636,0.00012334,-0.192428,-5.78119e-05,0.0675493,-1.25698e-06,0,0,450.416,0.1,-902.307,-0.1,2.812
-0.219181,-0.000187256,0.639906,0.00012334,-0.192761,1.90406e-05,0.0674779,-8.37989e-07,0,0,451.917,0.1,-902.917,-0.1,2.816
-0.219952,-0.000187256,0.640176,0.00012334,-0.193094,1.26937e-05,0.0674066,-5.5866e-07,0,0,453.421,0.1,-903.527,-0.1,2.82
-0.220725,-0.000187256,0.640445,0.00012334,-0.193426,8.46249e-06,0.0673352,-3.7244e-07,0,0,454.928,0.1,-904.136,-0.1,2.824
-0.2215,-0.000187256,0.640715,0.00012334,-0.193758,5.64166e-06,0.0672638,-2.48293e-07,0,0,456.436,0.1,-904.744,-0.1,2.828
-0.222275,-0.000187256,0.640983,0.00012334,-0.19409,3.76111e-06,0.0671924,-1.65529e-07,0,0,457.947,0.1,-905.352,-0.1,2.832
-0.223052,-0.000187256,0.641252,0.00012334,-0.194422,2.5074e-06,0.0671209,-1.10353e-07,0,0,459.46,0.1,-905.958,-0.1,2.836
-0.223831,-0.000187256,0.64152,0.00012334,-0.194753,1.6716e-06,0.0670495,-7.35683e-08,0,0,460.975,0.1,-906.564,-0.1,2.84
-0.22461,-0.000187256,0.641788,0.00012334,-0.195084,1.1144e-06,0.066978,-4.90456e-08,0,0,462.492,0.1,-907.168,-0.1,2.844
-0.225391,-0.000186911,0.642056,0.00012334,-0.195414,2.95339e-05,0.0669065,-3.2697e-08,0,0,464.011,0.1,-907.772,-0.1,2.848
-0.226174,-0.000186911,0.642324,0.00012334,-0.195744,1.96892e-05,0.066835,-2.1798e-08,0,0,465.533,0.1,-908.376,-0.1,2.852
-0.226957,-0.000187256,0.642591,0.00012334,-0.196074,-1.56648e-05,0.0667635,-1.4532e-08,0,0,467.057,0.1,-908.978,-0.1,2.856
-0.227742,-0.000187256,0.642858,0.00012334,-0.196404,-1.04432e-05,0.0666919,-9.68801e-09,0,0,468.583,0.1,-909.579,-0.1,2.86
-0.228529,-0.000186911,0.643124,0.00012334,-0.196733,2.18288e-05,0.0666203,-6.45868e-09,0,0,470.111,0.1,-910.18,-0.1,2.864
-0.229316,-0.000186911,0.643391,0.00012334,-0.197062,1.45525e-05,0.0665488,-4.30578e-09,0,0,471.642,0.1,-910.78,-0.1,2.868
-0.230105,-0.000187256,0.643657,0.00012334,-0.19739,-1.90892e-05,0.0664772,-2.87052e-09,0,0,473.174,0.1,-911.379,-0.1,2.872
-0.230895,-0.000187602,0.643923,0.00012334,-0.197718,-4.15171e-05,0.0664055,-1.91368e-09,0,0,474.709,0.1,-911.977,-0.1,2.876
-0.231687,-0.000187256,0.644188,0.00012334,-0.198046,1.11287e-06,0.0663339,-1.27579e-09,0,0,476.245,0.1,-912.574,-0.1,2.88
-0.23248,-0.000187256,0.644453,0.00012334,-0.198373,7.41914e-07,0.0662623,-8.50525e-10,0,0,477.784,0.1,-913.171,-0.1,2.884
-0.233274,-0.000187947,0.644718,0.00012334,-0.1987,-5.70872e-05,0.0661906,-5.67017e-10,0,0,479.325,0.1,-913.767,-0.1,2.888
-0.234069,-0.000187256,0.644983,0.00012334,-0.199027,1.95237e-05,0.0661189,-3.78011e-10,0,0,480.868,0.1,-914.362,-0.1,2.892
-0.234866,-0.000187256,0.645247,0.00012334,-0.199354,1.30158e-05,0.0660472,-2.52007e-10,0,0,482.413,0.1,-914.956,-0.1,2.896
-0.235664,-0.000186911,0.645511,0.00012334,-0.19968,3.74681e-05,0.0659755,-1.68005e-10,0,0,483.961,0.1,-915.549,-0.1,2.9
-0.236463,-0.000187256,0.645775,0.00012334,-0.200005,-3.81218e-06,0.0659037,-1.12003e-10,0,0,485.511,0.1,-916.142,-0.1,2.904
-0.237264,-0.000187256,0.646038,0.000124031,-0.200331,-2.54145e-06,0.065832,5.75818e-05,0,0,487.063,0.1,-916.733,-0.1,2.908
-0.238066,-0.000187256,0.646302,0.00012334,-0.200655,-1.6943e-06,0.0657602,-1.9194e-05,0,0,488.617,0.1,-917.324,-0.1,2.912
-0.238869,-0.000187256,0.646564,0.00012334,-0.20098,-1.12953e-06,0.0656884,-1.2796e-05,0,0,490.173,0.1,-917.914,-0.1,2.916
-0.239674,-0.000187256,0.646827,0.00012334,-0.201304,-7.53023e-07,0.0656166,-8.53067e-06,0,0,491.731,0.1,-918.503,-0.1,2.92
-0.24048,-0.000186911,0.647089,0.00012334,-0.201628,2.82889e-05,0.0655448,-5.68711e-06,0,0,493.292,0.1,-919.092,-0.1,2.924
-0.241287,-0.000187256,0.647351,0.00012334,-0.201952,-9.93165e-06,0.065473,-3.79141e-06,0,0,494.854,0.1,-919.68,-0.1,2.928
-0.242095,-0.000187256,0.647613,0.00012334,-0.202275,-6.6211e-06,0.0654012,-2.5276e-06,0,0,496.419,0.1,-920.266,-0.1,2.932
-0.242905,-0.000187256,0.647875,0.00012334,-0.202598,-4.41407e-06,0.0653293,-1.68507e-06,0,0,497.985,0.1,-920.852,-0.1,2.936
-0.243716,-0.000187256,0.648136,0.00012334,-0.20292,-2.94271e-06,0.0652574,-1.12338e-06,0,0,499.554,0.1,-921.438,-0.1,2.94
-0.244529,-0.000187256,0.648397,0.00012334,-0.203242,-1.96181e-06,0.0651855,-7.4892e-07,0,0,501.125,0.1,-922.022,-0.1,2.944
-0.245342,-0.000187256,0.648657,0.00012334,-0.203564,-1.30787e-06,0.0651136,-4.9928e-07,0,0,502.698,0.1,-922.606,-0.1,2.948
-0.246157,-0.000187256,0.648918,0.00012334,-0.203885,-8.71915e-07,0.0650417,-3.32853e-07,0,0,504.273,0.1,-923.189,-0.1,2.952
-0.246973,-0.000187256,0.649178,0.000122995,-0.204206,-5.81276e-07,0.0649698,-2.90128e-05,0,0,505.85,0.1,-923.771,-0.1,2.956
-0.247791,-0.000187256,0.649437,0.00012334,-0.204527,-3.87518e-07,0.0648979,9.44904e-06,0,0,507.43,0.1,-924.352,-0.1,2.96
-0.248609,-0.000187256,0.649697,0.00012334,-0.204847,-2.58345e-07,0.0648259,6.29936e-06,0,0,509.011,0.1,-924.933,-0.1,2.964
-0.249429,-0.000187256,0.649956,0.00012334,-0.205166,-1.7223e-07,0.0647539,4.19957e-06,0,0,510.595,0.1,-925.512,-0.1,2.968
-0.250251,-0.000187256,0.650215,0.00012334,-0.205486,-1.1482e-07,0.064682,2.79972e-06,0,0,512.18,0.1,-926.091,-0.1,2.972
-0.251073,-0.000186911,0.650473,0.00012334,-0.205805,2.87144e-05,0.06461,1.86648e-06,0,0,513.768,0.1,-926.67,-0.1,2.976
-0.251897,-0.000187256,0.650732,0.00012334,-0.206124,-9.64801e-06,0.064538,1.24432e-06,0,0,515.358,0.1,-927.247,-0.1,2.98
-0.252722,-0.000187256,0.65099,0.00012334,-0.206442,-6.432e-06,0.0644659,8.29545e-07,0,0,516.949,0.1,-927.824,-0.1,2.984
-0.253549,-0.000187256,0.651247,0.00012334,-0.20676,-4.288e-06,0.0643939,5.5303e-07,0,0,518.543,0.1,-928.399,-0.1,2.988
-0.254376,-0.000187256,0.651505,0.00012334,-0.207077,-2.85867e-06,0.0643219,3.68687e-07,0,0,520.139,0.1,-928.974,-0.1,2.992
-0.255205,-0.000187602,0.651762,0.00012334,-0.207394,-3.06967e-05,0.0642498,2.45791e-07,0,0,521.737,0.1,-929.549,-0.1,2.996
-0.256036,-0.000187256,0.652019,0.00012334,-0.207711,8.32646e-06,0.0641777,1.63861e-07,0,0,523.336,0.1,-930.122,-0.1,3
-0.256867,-0.000187256,0.652275,0.00012334,-0.208027,5.55097e-06,0.0641057,1.09241e-07,0,0,524.938,0.1,-930.695,-0.1,3.004
-0.2577,-0.000187256,0.652532,0.00012334,-0.208343,3.70065e-06,0.0640336,7.2827e-08,0,0,526.543,0.1,-931.267,-0.1,3.008
-0.258534,-0.000187947,0.652788,0.00012334,-0.208659,-5.51148e-05,0.0639615,4.85514e-08,0,0,528.149,0.1,-931.838,-0.1,3.012
-0.259369,-0.000187256,0.653043,0.00012334,-0.208974,2.08387e-05,0.0638894,3.23676e-08,0,0,529.756,0.1,-932.409,-0.1,3.016
-0.260206,-0.000187947,0.653299,0.00012334,-0.209289,-4.36894e-05,0.0638172,2.15784e-08,0,0,531.367,0.1,-932.978,-0.1,3.02
-0.261043,-0.000187256,0.653554,0.00012334,-0.209603,2.84556e-05,0.0637451,1.43856e-08,0,0,532.978,0.1,-933.547,-0.1,3.024
-0.261882,-0.000186911,0.653809,0.00012334,-0.209917,4.77613e-05,0.063673,9.59039e-09,0,0,534.593,0.1,-934.115,-0.1,3.028
-0.262723,-0.000187256,0.654063,0.00012334,-0.21023,3.04995e-06,0.0636008,6.39359e-09,0,0,536.21,0.1,-934.683,-0.1,3.032
-0.263564,-0.000187256,0.654318,0.00012334,-0.210544,2.0333e-06,0.0635287,4.2624e-09,0,0,537.828,0.1,-935.249,-0.1,3.036
-0.264407,-0.000186911,0.654572,0.00012334,-0.210856,3.01465e-05,0.0634565,2.8416e-09,0,0,539.448,0.1,-935.815,-0.1,3.04
-0.265251,-0.000187256,0.654825,0.00012334,-0.211169,-8.69329e-06,0.0633843,1.8944e-09,0,0,541.071,0.1,-936.38,-0.1,3.044
-0.266096,-0.000187256,0.655079,0.00012334,-0.211481,-5.79552e-06,0.0633121,1.26293e-09,0,0,542.695,0.1,-936.944,-0.1,3.048
-0.266943,-0.000187256,0.655332,0.00012334,-0.211792,-3.86368e-06,0.0632399,8.41955e-10,0,0,544.321,0.1,-937.508,-0.1,3.052
-0.267791,-0.000187256,0.655585,0.00012334,-0.212103,-2.57579e-06,0.0631677,5.61303e-10,0,0,545.949,0.1,-938.071,-0.1,3.056
-0.26864,-0.000187256,0.655837,0.00012334,-0.212414,-1.71719e-06,0.0630955,3.74202e-10,0,0,547.58,0.1,-938.633,-0.1,3.06
-0.26949,-0.000187947,0.656089,0.00012334,-0.212724,-5.87266e-05,0.0630232,2.49468e-10,0,0,549.212,0.1,-939.194,-0.1,3.064
-0.270342,-0.000187256,0.656341,0.00012334,-0.213034,1.84308e-05,0.062951,1.66312e-10,0,0,550.845,0.1,-939.754,-0.1,3.068
-0.271194,-0.000186911,0.656593,0.00012334,-0.213343,4.10781e-05,0.0628788,1.10875e-10,0,0,552.482,0.1,-940.314,-0.1,3.072
-0.272048,-0.000187256,0.656844,0.00012334,-0.213652,-1.40553e-06,0.0628065,7.39165e-11,0,0,554.12,0.1,-940.873,-0.1,3.076
-0.272904,-0.000187256,0.657095,0.00012334,-0.213961,-9.37019e-07,0.0627342,4.92776e-11,0,0,555.76,0.1,-941.432,-0.1,3.08
-0.27376,-0.000186911,0.657346,0.00012334,-0.214269,2.81662e-05,0.062662,3.28518e-11,0,0,557.403,0.1,-941.989,-0.1,3.084
-0.274618,-0.000187256,0.657597,0.00012334,-0.214577,-1.00134e-05,0.0625897,2.19012e-11,0,0,559.047,0.1,-942.546,-0.1,3.088
-0.275477,-0.000187256,0.657847,0.000122995,-0.214884,-6.67562e-06,0.0625174,-2.87909e-05,0,0,560.693,0.1,-943.102,-0.1,3.092
-0.276337,-0.000187256,0.658097,0.00012334,-0.215191,-4.45041e-06,0.0624451,9.59698e-06,0,0,562.341,0.1,-943.657,-0.1,3.096
-0.277198,-0.000187256,0.658346,0.00012334,-0.215498,-2.96694e-06,0.0623728,6.39799e-06,0,0,563.991,0.1,-944.212,-0.1,3.1
-0.278061,-0.000186911,0.658596,0.00012334,-0.215804,2.6813e-05,0.0623005,4.26533e-06,0,0,565.643,0.1,-944.766,-0.1,3.104
-0.278925,-0.000187256,0.658845,0.00012334,-0.216109,-1.09156e-05,0.0622282,2.84355e-06,0,0,567.297,0.1,-945.319,-0.1,3.108
-0.27979,-0.000187256,0.659094,0.00012334,-0.216415,-7.27708e-06,0.0621558,1.8957e-06,0,0,568.952,0.1,-945.871,-0.1,3.112
-0.280656,-0.000186911,0.659342,0.00012334,-0.216719,2.39395e-05,0.0620835,1.2638e-06,0,0,570.61,0.1,-946.423,-0.1,3.116
-0.281523,-0.000187256,0.65959,0.00012334,-0.217024,-1.28312e-05,0.0620112,8.42534e-07,0,0,572.27,0.1,-946.973,-0.1,3.12
-0.282392,-0.000186911,0.659838,0.00012334,-0.217328,2.02368e-05,0.0619388,5.61689e-07,0,0,573.931,0.1,-947.524,-0.1,3.124
-0.283262,-0.000187256,0.660086,0.00012334,-0.217631,-1.52997e-05,0.0618665,3.74459e-07,0,0,575.595,0.1,-948.073,-0.1,3.128
-0.284133,-0.000187256,0.660333,0.00012334,-0.217934,-1.01998e-05,0.0617941,2.4964e-07,0,0,577.26,0.1,-948.622,-0.1,3.132
-0.285005,-0.000187256,0.66058,0.00012334,-0.218237,-6.79989e-06,0.0617218,1.66426e-07,0,0,578.927,0.1,-949.17,-0.1,3.136
-0.285879,-0.000187256,0.660827,0.00012334,-0.218539,-4.53326e-06,0.0616494,1.10951e-07,0,0,580.596,0.1,-949.717,-0.1,3.14
-0.286754,-0.000187947,0.661073,0.00012334,-0.21884,-6.0604e-05,0.061577,7.39673e-08,0,0,582.267,0.1,-950.263,-0.1,3.144
-0.28763,-0.000186911,0.66132,0.00012334,-0.219142,4.59701e-05,0.0615046,4.93115e-08,0,0,583.94,0.1,-950.809,-0.1,3.148
-0.288507,-0.000187256,0.661565,0.00012334,-0.219443,1.8558e-06,0.0614323,3.28743e-08,0,0,585.615,0.1,-951.354,-0.1,3.152
-0.289385,-0.000187256,0.661811,0.00012334,-0.219743,1.2372e-06,0.0613599,2.19162e-08,0,0,587.292,0.1,-951.898,-0.1,3.156
-0.290265,-0.000187947,0.662056,0.00012334,-0.220043,-5.6757e-05,0.0612875,1.46108e-08,0,0,588.971,0.1,-952.442,-0.1,3.16
-0.291146,-0.000187256,0.662301,0.000124031,-0.220342,1.97438e-05,0.0612151,5.75916e-05,0,0,590.651,0.1,-952.985,-0.1,3.164
-0.292028,-0.000187256,0.662546,0.00012334,-0.220641,1.31625e-05,0.0611427,-1.91875e-05,0,0,592.333,0.1,-953.527,-0.1,3.168
-0.292911,-0.000187947,0.66279,0.00012334,-0.22094,-4.88068e-05,0.0610703,-1.27916e-05,0,0,594.018,0.1,-954.068,-0.1,3.172
-0.293795,-0.000187256,0.663035,0.00012334,-0.221238,2.5044e-05,0.0609979,-8.52776e-06,0,0,595.704,0.1,-954.609,-0.1,3.176
-0.294681,-0.000186911,0.663278,0.00012334,-0.221536,4.54869e-05,0.0609254,-5.68517e-06,0,0,597.392,0.1,-955.149,-0.1,3.18
-0.295567,-0.000187256,0.663522,0.00012334,-0.221833,1.53368e-06,0.060853,-3.79011e-06,0,0,599.082,0.1,-955.688,-0.1,3.184
-0.296455,-0.000187256,0.663765,0.00012334,-0.22213,1.02245e-06,0.0607806,-2.52674e-06,0,0,600.774,0.1,-956.227,-0.1,3.188
-0.297344,-0.000187256,0.664008,0.00012334,-0.222426,6.81635e-07,0.0607082,-1.6845e-06,0,0,602.468,0.1,-956.764,-0.1,3.192
