peachynonah/Fire_monitor_/csv_datas/trial12/cdsl_data_t12_4.csv
joint1_pos_desired, joint1_pos, joint2_pos_desired, joint2_pos, joint1_vel_desired, joint1_vel_filtered, joint2_vel_desired, joint2_vel_filtered, target_torque_joint1, target_torque_joint2, estimated_disturbance_joint1, saturated_DOB_joint1, estimated_disturbance_joint2, saturated_DOB_joint2, current_time
-2.933,-2.93186,0.256157,-0.136737,7.52997e-07,0,0.0999999,0,7,-2500,0,0,22.841,0.1,0.004
-2.933,-2.93186,0.256557,-0.136737,3.00958e-06,-0.000143955,0.0999996,2.87909e-05,6,-2500,0.00793828,0.00793828,19.8628,0.1,0.008
-2.933,-2.93186,0.256957,-0.136728,6.76613e-06,-0.000124761,0.0999991,0.000767758,6,-2500,0.0145383,0.0145383,16.8954,0.1,0.012
-2.933,-2.93186,0.257357,-0.136563,1.2019e-05,-5.43829e-05,0.0999984,0.0142739,7,-2500,0.0213226,0.0213226,13.9485,0.1,0.016
-2.933,-2.93186,0.257757,-0.136219,1.87647e-05,-9.38371e-05,0.0999975,0.0381917,6,-2500,0.0286721,0.0286721,11.0325,0.1,0.02
-2.933,-2.93186,0.258157,-0.135738,2.69995e-05,-6.25581e-05,0.0999964,0.0655381,7,-2500,0.0356111,0.0356111,8.15229,0.1,0.024
-2.933,-2.93186,0.258557,-0.135153,3.67199e-05,-9.92872e-05,0.0999951,0.0924351,6,-2500,0.0427276,0.0427276,5.3087,0.1,0.028
-2.933,-2.93186,0.258957,-0.134507,4.79222e-05,-0.000123773,0.0999937,0.115491,6,-2500,0.0493895,0.0493895,2.4994,0.1,0.032
-2.933,-2.93186,0.259357,-0.133815,6.06029e-05,-0.000140097,0.099992,0.134605,6,-2500,0.0556996,0.0556996,-0.278727,-0.1,0.036
-2.933,-2.93186,0.259757,-0.133117,7.47583e-05,-0.000179771,0.0999901,0.147923,5,-2500,0.0617007,0.0617007,-3.03118,-0.1,0.04
-2.933,-2.93186,0.260157,-0.132425,9.03849e-05,-0.000119847,0.099988,0.156284,5,-2500,0.0672349,0.0672349,-5.76153,-0.1,0.044
-2.933,-2.93186,0.260557,-0.13176,0.000107479,-7.98982e-05,0.0999858,0.159583,6,-2500,0.073189,0.073189,-8.47428,-0.1,0.048
-2.933,-2.93186,0.260957,-0.131125,0.000126037,-5.32655e-05,0.0999833,0.159364,6,-2500,0.0793561,0.0793561,-11.1729,-0.1,0.052
-2.933,-2.93186,0.261357,-0.130499,0.000146056,-3.55103e-05,0.0999806,0.158354,6,-2500,0.085593,0.085593,-13.8587,-0.1,0.056
-2.933,-2.93186,0.261757,-0.129885,0.000167531,-2.36736e-05,0.0999778,0.156731,6,-2500,0.0917994,0.0917994,-16.5324,-0.1,0.06
-2.933,-2.93186,0.262156,-0.129267,0.00019046,-1.57824e-05,0.0999747,0.156052,6,-2500,0.0979034,0.0979034,-19.1934,-0.1,0.064
-2.933,-2.93186,0.262556,-0.128658,0.000214839,-1.05216e-05,0.0999715,0.154735,5,-2500,0.103852,0.1,-21.8422,-0.1,0.068
-2.93299,-2.93186,0.262956,-0.128046,0.000240663,-7.01439e-06,0.099968,0.154174,5,-2500,0.109588,0.1,-24.4783,-0.1,0.072
-2.93299,-2.93186,0.263356,-0.127429,0.00026793,-4.67626e-06,0.0999644,0.154175,5,-2500,0.115071,0.1,-27.1014,-0.1,0.076
-2.93299,-2.93186,0.263756,-0.12681,0.000296636,-3.1175e-06,0.0999606,0.154405,5,-2500,0.120275,0.1,-29.7111,-0.1,0.08
-2.93299,-2.93186,0.264156,-0.126187,0.000326778,-2.07834e-06,0.0999566,0.154818,4,-2500,0.12518,0.1,-32.3074,-0.1,0.084
-2.93299,-2.93186,0.264556,-0.125566,0.000358351,-1.38556e-06,0.0999524,0.155007,4,-2500,0.129767,0.1,-34.8904,-0.1,0.088
-2.93299,-2.93186,0.264955,-0.124944,0.000391353,-9.23705e-07,0.099948,0.155162,4,-2500,0.134018,0.1,-37.4603,-0.1,0.092
-2.93299,-2.93186,0.265355,-0.124324,0.000425779,-6.15803e-07,0.0999434,0.155121,3,-2500,0.137918,0.1,-40.0172,-0.1,0.096
-2.93298,-2.93186,0.265755,-0.123708,0.000461627,-4.10536e-07,0.0999386,0.154748,3,-2500,0.141452,0.1,-42.5616,-0.1,0.1
-2.93298,-2.93186,0.266155,-0.123093,0.000498892,-2.7369e-07,0.0999336,0.154413,3,-2500,0.144605,0.1,-45.0935,-0.1,0.104
-2.93298,-2.93186,0.266554,-0.122492,0.000537572,-1.8246e-07,0.0999285,0.152981,2,-2500,0.147363,0.1,-47.6137,-0.1,0.108
-2.93298,-2.93186,0.266954,-0.121895,0.000577662,-1.2164e-07,0.0999231,0.151738,2,-2500,0.149712,0.1,-50.1225,-0.1,0.112
-2.93298,-2.93186,0.267354,-0.121302,0.000619159,-8.10935e-08,0.0999175,0.150564,2,-2500,0.151639,0.1,-52.6198,-0.1,0.116
-2.93297,-2.93186,0.267753,-0.120716,0.00066206,-5.40623e-08,0.0999118,0.149263,1,-2500,0.15313,0.1,-55.1058,-0.1,0.12
-2.93297,-2.93186,0.268153,-0.12013,0.000706361,-3.60415e-08,0.0999059,0.14828,1,-2500,0.154171,0.1,-57.5803,-0.1,0.124
-2.93297,-2.93186,0.268553,-0.11951,0.000752058,2.87669e-05,0.0998998,0.150533,1,-2500,0.154771,0.1,-60.041,-0.1,0.128
-2.93296,-2.93186,0.268952,-0.118927,0.000799148,1.91779e-05,0.0998935,0.148983,0,-2500,0.155154,0.1,-62.4902,-0.1,0.132
-2.93296,-2.93186,0.269352,-0.118328,0.000847627,1.27853e-05,0.099887,0.149246,0,-2500,0.154954,0.1,-64.9272,-0.1,0.136
-2.93296,-2.93186,0.269751,-0.117704,0.000897492,8.52353e-06,0.0998803,0.151494,0,-2500,0.15419,0.1,-67.3503,-0.1,0.14
-2.93295,-2.93186,0.270151,-0.117078,0.00094874,5.68235e-06,0.0998734,0.153165,-1,-2500,0.152869,0.1,-69.7595,-0.1,0.144
-2.93295,-2.93186,0.27055,-0.116443,0.00100137,3.78823e-06,0.0998664,0.155028,-1,-2500,0.150991,0.1,-72.155,-0.1,0.148
-2.93295,-2.93186,0.27095,-0.115801,0.00105537,2.52549e-06,0.0998591,0.156788,-2,-2500,0.148555,0.1,-74.5366,-0.1,0.152
-2.93294,-2.93186,0.271349,-0.11517,0.00111074,1.68366e-06,0.0998517,0.157126,-2,-2500,0.145551,0.1,-76.9055,-0.1,0.156
-2.93294,-2.93186,0.271749,-0.114541,0.00116748,1.12244e-06,0.0998441,0.15715,-3,-2500,0.141973,0.1,-79.2622,-0.1,0.16
-2.93293,-2.93186,0.272148,-0.113914,0.00122559,7.48293e-07,0.0998363,0.157022,-4,-2500,0.13781,0.1,-81.6069,-0.1,0.164
-2.93293,-2.93186,0.272547,-0.113285,0.00128506,4.98862e-07,0.0998283,0.157139,-4,-2500,0.13305,0.1,-83.9396,-0.1,0.168
-2.93292,-2.93186,0.272947,-0.112652,0.00134589,3.32575e-07,0.0998201,0.157504,-5,-2500,0.127683,0.1,-86.2601,-0.1,0.172
-2.93292,-2.93186,0.273346,-0.112012,0.00140807,2.21716e-07,0.0998118,0.158295,-5,-2500,0.121697,0.1,-88.5679,-0.1,0.176
-2.93291,-2.93186,0.273745,-0.111369,0.0014716,1.47811e-07,0.0998032,0.159139,-6,-2500,0.115079,0.1,-90.8632,-0.1,0.18
-2.9329,-2.93186,0.274144,-0.110723,0.00153648,9.85406e-08,0.0997945,0.159931,-7,-2500,0.107818,0.1,-93.1459,-0.1,0.184
-2.9329,-2.93186,0.274543,-0.110076,0.0016027,6.56938e-08,0.0997856,0.160518,-7,-2500,0.099901,0.099901,-95.4161,-0.1,0.188
-2.93289,-2.93186,0.274943,-0.109425,0.00167026,2.88347e-05,0.0997765,0.161254,-8,-2500,0.0913363,0.0913363,-97.674,-0.1,0.192
-2.93289,-2.93186,0.275342,-0.108777,0.00173916,7.6805e-05,0.0997672,0.161543,-8,-2500,0.082355,0.082355,-99.9198,-0.1,0.196
-2.93288,-2.93186,0.275741,-0.108124,0.00180939,5.12033e-05,0.0997577,0.162139,-9,-2500,0.0730668,0.0730668,-102.153,-0.1,0.2
-2.93287,-2.93186,0.27614,-0.107468,0.00188096,3.41356e-05,0.0997481,0.162709,-10,-2500,0.062782,0.062782,-104.375,-0.1,0.204
-2.93286,-2.93186,0.276539,-0.106809,0.00195385,2.2757e-05,0.0997382,0.163435,-11,-2500,0.0515678,0.0515678,-106.584,-0.1,0.208
-2.93286,-2.93186,0.276938,-0.10616,0.00202806,1.51714e-05,0.0997282,0.163026,-12,-2500,0.0394636,0.0394636,-108.782,-0.1,0.212
-2.93285,-2.93186,0.277337,-0.105506,0.00210359,1.01142e-05,0.099718,0.163127,-13,-2500,0.0264909,0.0264909,-110.968,-0.1,0.216
-2.93284,-2.93186,0.277735,-0.104853,0.00218044,3.55338e-05,0.0997076,0.163224,-13,-2500,0.0126795,0.0126795,-113.143,-0.1,0.22
-2.93283,-2.93186,0.278134,-0.104197,0.0022586,2.36892e-05,0.0996971,0.163461,-14,-2500,-0.00173043,-0.00173043,-115.306,-0.1,0.224
-2.93282,-2.93186,0.278533,-0.103545,0.00233807,4.45837e-05,0.0996863,0.163331,-15,-2500,-0.0170755,-0.0170755,-117.457,-0.1,0.228
-2.93281,-2.93186,0.278932,-0.102887,0.00241885,5.85134e-05,0.0996754,0.163677,-16,-2500,-0.0330728,-0.0330728,-119.597,-0.1,0.232
-2.9328,-2.93186,0.27933,-0.102226,0.00250092,6.77999e-05,0.0996643,0.164195,-17,-2500,-0.0498052,-0.0498052,-121.726,-0.1,0.236
-2.93279,-2.93186,0.279729,-0.101566,0.0025843,7.39908e-05,0.099653,0.164511,-17,-2500,-0.067333,-0.067333,-123.843,-0.1,0.24
-2.93278,-2.93186,0.280128,-0.100899,0.00266897,4.93272e-05,0.0996415,0.16527,-19,-2500,-0.0857227,-0.0857227,-125.948,-0.1,0.244
-2.93277,-2.93186,0.280526,-0.100237,0.00275494,3.28848e-05,0.0996299,0.165343,-20,-2500,-0.10527,-0.1,-128.041,-0.1,0.248
-2.93276,-2.93186,0.280925,-0.0995688,0.00284219,5.07141e-05,0.0996181,0.165882,-21,-2500,-0.125867,-0.1,-130.123,-0.1,0.252
-2.93275,-2.93186,0.281323,-0.0989096,0.00293073,3.38094e-05,0.0996061,0.165521,-22,-2500,-0.147168,-0.1,-132.195,-0.1,0.256
-2.93273,-2.93186,0.281721,-0.0982532,0.00302055,8.01215e-05,0.0995939,0.16505,-22,-2500,-0.169462,-0.1,-134.255,-0.1,0.26
-2.93272,-2.93186,0.28212,-0.0975992,0.00311164,0.000110996,0.0995815,0.164535,-23,-2500,-0.192184,-0.1,-136.305,-0.1,0.264
-2.93271,-2.93186,0.282518,-0.0969424,0.00320402,0.000131579,0.099569,0.164421,-24,-2500,-0.215497,-0.1,-138.344,-0.1,0.268
-2.9327,-2.93185,0.282916,-0.0962898,0.00329766,0.000174092,0.0995563,0.164,-24,-2500,-0.239494,-0.1,-140.373,-0.1,0.272
-2.93268,-2.93185,0.283315,-0.0956426,0.00339257,0.000173643,0.0995434,0.163259,-25,-2500,-0.264013,-0.1,-142.392,-0.1,0.276
-2.93267,-2.93185,0.283713,-0.0950025,0.00348875,0.000144553,0.0995303,0.162189,-26,-2500,-0.289486,-0.1,-144.401,-0.1,0.28
-2.93266,-2.93185,0.284111,-0.0943643,0.00358618,0.000153951,0.0995171,0.161303,-27,-2500,-0.316164,-0.1,-146.399,-0.1,0.284
-2.93264,-2.93185,0.284509,-0.0937283,0.00368488,0.000131425,0.0995036,0.160539,-29,-2500,-0.343722,-0.1,-148.388,-0.1,0.288
-2.93263,-2.93185,0.284907,-0.0930905,0.00378483,0.000145198,0.09949,0.160174,-30,-2500,-0.372442,-0.1,-150.367,-0.1,0.292
-2.93261,-2.93185,0.285305,-0.0924489,0.00388603,0.000183172,0.0994763,0.160248,-30,-2500,-0.40198,-0.1,-152.336,-0.1,0.296
-2.93259,-2.93185,0.285703,-0.091798,0.00398848,0.000237278,0.0994623,0.161074,-31,-2500,-0.43211,-0.1,-154.293,-0.1,0.3
-2.93258,-2.93185,0.2861,-0.0911437,0.00409217,0.000330931,0.0994482,0.161913,-31,-2500,-0.462666,-0.1,-156.239,-0.1,0.304
-2.93256,-2.93185,0.286498,-0.0904855,0.0041971,0.000393366,0.0994339,0.162788,-32,-2500,-0.493315,-0.1,-158.174,-0.1,0.308
-2.93255,-2.93184,0.286896,-0.0898277,0.00430327,0.000492572,0.0994194,0.163344,-32,-2500,-0.524331,-0.1,-160.098,-0.1,0.312
-2.93253,-2.93184,0.287294,-0.0891647,0.00441067,0.000558708,0.0994047,0.164145,-32,-2500,-0.55541,-0.1,-162.012,-0.1,0.316
-2.93251,-2.93184,0.287691,-0.0885017,0.0045193,0.000689172,0.0993899,0.16468,-32,-2500,-0.586824,-0.1,-163.914,-0.1,0.32
-2.93249,-2.93183,0.288089,-0.0878366,0.00462916,0.000747358,0.0993749,0.165209,-33,-2500,-0.618039,-0.1,-165.805,-0.1,0.324
-2.93247,-2.93183,0.288486,-0.0871709,0.00474025,0.00087252,0.0993597,0.16562,-33,-2500,-0.649692,-0.1,-167.686,-0.1,0.328
-2.93245,-2.93182,0.288884,-0.0865023,0.00485255,0.000955962,0.0993444,0.166124,-33,-2500,-0.681201,-0.1,-169.556,-0.1,0.332
-2.93243,-2.93182,0.289281,-0.0858293,0.00496608,0.00106917,0.0993289,0.166834,-33,-2500,-0.712946,-0.1,-171.415,-0.1,0.336
-2.93241,-2.93181,0.289678,-0.0851556,0.00508081,0.00123102,0.0993132,0.167365,-33,-2500,-0.744626,-0.1,-173.264,-0.1,0.34
-2.93239,-2.9318,0.290075,-0.0844843,0.00519676,0.00145408,0.0992973,0.167517,-32,-2500,-0.775755,-0.1,-175.102,-0.1,0.344
-2.93237,-2.9318,0.290473,-0.0838103,0.00531391,0.00163158,0.0992813,0.167849,-31,-2500,-0.80581,-0.1,-176.93,-0.1,0.348
-2.93235,-2.93179,0.29087,-0.0831393,0.00543226,0.00195145,0.0992651,0.167812,-30,-2500,-0.835124,-0.1,-178.748,-0.1,0.352
-2.93233,-2.93177,0.291267,-0.0824656,0.00555182,0.00225106,0.0992487,0.168017,-28,-2500,-0.862399,-0.1,-180.556,-0.1,0.356
-2.93231,-2.93176,0.291664,-0.0817978,0.00567257,0.00259476,0.0992321,0.167664,-26,-2500,-0.887807,-0.1,-182.354,-0.1,0.36
-2.93228,-2.93175,0.292061,-0.0811286,0.00579452,0.0028239,0.0992154,0.167544,-25,-2500,-0.911035,-0.1,-184.143,-0.1,0.364
-2.93226,-2.93173,0.292457,-0.0804535,0.00591765,0.00306303,0.0991985,0.167953,-24,-2500,-0.933158,-0.1,-185.921,-0.1,0.368
-2.93224,-2.93172,0.292854,-0.0797787,0.00604198,0.00310728,0.0991814,0.168198,-25,-2500,-0.954238,-0.1,-187.689,-0.1,0.372
-2.93221,-2.93171,0.293251,-0.0791016,0.00616748,0.00313679,0.0991642,0.168562,-26,-2500,-0.976117,-0.1,-189.447,-0.1,0.376
-2.93219,-2.9317,0.293647,-0.0784223,0.00629417,0.00304129,0.0991468,0.168978,-28,-2500,-0.999034,-0.1,-191.195,-0.1,0.38
-2.93216,-2.93169,0.294044,-0.0777386,0.00642203,0.00277609,0.0991292,0.169629,-32,-2500,-1.02429,-0.1,-192.932,-0.1,0.384
-2.93214,-2.93168,0.294441,-0.0770535,0.00655106,0.00259929,0.0991115,0.170178,-35,-2500,-1.05341,-0.1,-194.66,-0.1,0.388
-2.93211,-2.93167,0.294837,-0.0763611,0.00668127,0.00248143,0.0990936,0.171149,-37,-2500,-1.08553,-0.1,-196.376,-0.1,0.392
-2.93208,-2.93166,0.295233,-0.0756681,0.00681264,0.00246043,0.0990755,0.171854,-39,-2500,-1.12004,-0.1,-198.083,-0.1,0.396
-2.93205,-2.93165,0.29563,-0.0749736,0.00694518,0.00264797,0.0990573,0.172439,-39,-2500,-1.1559,-0.1,-199.779,-0.1,0.4
-2.93203,-2.93164,0.296026,-0.0742837,0.00707887,0.00285937,0.0990388,0.172455,-38,-2500,-1.19114,-0.1,-201.466,-0.1,0.404
-2.932,-2.93162,0.296422,-0.0735944,0.00721372,0.00311546,0.0990203,0.172408,-37,-2500,-1.22554,-0.1,-203.143,-0.1,0.408
-2.93197,-2.93161,0.296818,-0.0729159,0.00734973,0.00337257,0.0990015,0.171484,-36,-2500,-1.25867,-0.1,-204.811,-0.1,0.412
-2.93194,-2.93159,0.297214,-0.0722356,0.00748689,0.00363034,0.0989826,0.171012,-35,-2500,-1.29056,-0.1,-206.471,-0.1,0.416
-2.93191,-2.93157,0.29761,-0.0715574,0.00762519,0.00388857,0.0989635,0.170525,-34,-2500,-1.32119,-0.1,-208.121,-0.1,0.42
-2.93188,-2.93155,0.298006,-0.0708789,0.00776463,0.00414709,0.0989443,0.170228,-33,-2500,-1.35059,-0.1,-209.763,-0.1,0.424
-2.93185,-2.93153,0.298401,-0.0701979,0.00790522,0.00446339,0.0989248,0.170233,-31,-2500,-1.37872,-0.1,-211.395,-0.1,0.428
-2.93181,-2.93151,0.298797,-0.0695159,0.00804694,0.00470305,0.0989053,0.170322,-30,-2500,-1.4051,-0.1,-213.017,-0.1,0.432
-2.93178,-2.93149,0.299193,-0.068828,0.00818979,0.00483403,0.0988855,0.17087,-30,-2500,-1.43056,-0.1,-214.631,-0.1,0.436
-2.93175,-2.93147,0.299588,-0.0681474,0.00833378,0.00480619,0.0988656,0.170632,-32,-2500,-1.45622,-0.1,-216.235,-0.1,0.44
-2.93172,-2.93145,0.299983,-0.0674561,0.00847889,0.00473004,0.0988455,0.171365,-34,-2500,-1.48363,-0.1,-217.829,-0.1,0.444
-2.93168,-2.93143,0.300379,-0.06677,0.00862513,0.00476565,0.0988253,0.171422,-35,-2500,-1.51315,-0.1,-219.414,-0.1,0.448
-2.93165,-2.93141,0.300774,-0.0660848,0.00877248,0.00481819,0.0988049,0.171374,-37,-2500,-1.54375,-0.1,-220.99,-0.1,0.452
-2.93161,-2.93139,0.301169,-0.0653966,0.00892096,0.00499716,0.0987843,0.171601,-36,-2500,-1.57518,-0.1,-222.557,-0.1,0.456
-2.93158,-2.93137,0.301564,-0.0647146,0.00907054,0.00517406,0.0987636,0.171234,-36,-2500,-1.60628,-0.1,-224.115,-0.1,0.46
-2.93154,-2.93135,0.301959,-0.0640264,0.00922124,0.00540716,0.0987427,0.171507,-35,-2500,-1.63702,-0.1,-225.664,-0.1,0.464
-2.9315,-2.93132,0.302354,-0.0633437,0.00937304,0.00570651,0.0987216,0.171229,-34,-2500,-1.66686,-0.1,-227.204,-0.1,0.468
-2.93146,-2.9313,0.302749,-0.0626617,0.00952595,0.00593487,0.0987004,0.170986,-33,-2500,-1.69522,-0.1,-228.736,-0.1,0.472
-2.93143,-2.93127,0.303144,-0.0619832,0.00967996,0.0061159,0.098679,0.170536,-33,-2500,-1.72284,-0.1,-230.259,-0.1,0.476
-2.93139,-2.93125,0.303539,-0.0613029,0.00983507,0.00620779,0.0986575,0.17038,-34,-2500,-1.75022,-0.1,-231.774,-0.1,0.48
-2.93135,-2.93122,0.303933,-0.060624,0.00999127,0.00629785,0.0986358,0.170161,-35,-2500,-1.77821,-0.1,-233.279,-0.1,0.484
-2.93131,-2.93119,0.304328,-0.059941,0.0101486,0.00641547,0.0986139,0.17036,-35,-2500,-1.80682,-0.1,-234.777,-0.1,0.488
-2.93127,-2.93117,0.304722,-0.0592666,0.0103069,0.00655146,0.0985919,0.169773,-36,-2500,-1.83579,-0.1,-236.265,-0.1,0.492
-2.93122,-2.93114,0.305116,-0.0585943,0.0104664,0.0067285,0.0985697,0.169209,-35,-2500,-1.86493,-0.1,-237.746,-0.1,0.496
-2.93118,-2.93111,0.305511,-0.0579192,0.0106269,0.0069041,0.0985474,0.169064,-35,-2500,-1.89386,-0.1,-239.219,-0.1,0.5
-2.93114,-2.93108,0.305905,-0.0572444,0.0107886,0.00704996,0.0985248,0.168938,-36,-2500,-1.92263,-0.1,-240.683,-0.1,0.504
-2.9311,-2.93105,0.306299,-0.0565648,0.0109513,0.0071472,0.0985022,0.169257,-36,-2500,-1.95157,-0.1,-242.138,-0.1,0.508
-2.93105,-2.93102,0.306693,-0.0558846,0.011115,0.00735599,0.0984794,0.169527,-36,-2500,-1.98105,-0.1,-243.584,-0.1,0.512
-2.93101,-2.93099,0.307087,-0.0551998,0.0112799,0.00743759,0.0984564,0.170082,-37,-2500,-2.01015,-0.1,-245.022,-0.1,0.516
-2.93096,-2.93096,0.30748,-0.0545074,0.0114458,0.00769353,0.0984332,0.171085,-36,-2500,-2.03993,-0.1,-246.45,-0.1,0.52
-2.93091,-2.93092,0.307874,-0.0538151,0.0116127,0.00797932,0.0984099,0.171754,-35,-2500,-2.06875,-0.1,-247.87,-0.1,0.524
-2.93087,-2.93089,0.308268,-0.0531286,0.0117807,0.00819864,0.0983864,0.17171,-35,-2500,-2.09639,-0.1,-249.281,-0.1,0.528
-2.93082,-2.93085,0.308661,-0.0524411,0.0119498,0.00831606,0.0983628,0.171767,-35,-2500,-2.12355,-0.1,-250.683,-0.1,0.532
-2.93077,-2.93082,0.309055,-0.0517587,0.0121199,0.00842313,0.098339,0.171374,-36,-2500,-2.15123,-0.1,-252.078,-0.1,0.536
-2.93072,-2.93078,0.309448,-0.0510836,0.0122911,0.00852331,0.0983151,0.170507,-37,-2500,-2.17951,-0.1,-253.465,-0.1,0.54
-2.93067,-2.93075,0.309841,-0.0504054,0.0124633,0.00864767,0.098291,0.170188,-37,-2500,-2.20847,-0.1,-254.844,-0.1,0.544
-2.93062,-2.93071,0.310234,-0.0497366,0.0126366,0.00878816,0.0982668,0.169198,-38,-2500,-2.23786,-0.1,-256.216,-0.1,0.548
-2.93057,-2.93067,0.310627,-0.0490646,0.0128109,0.0089394,0.0982423,0.168797,-38,-2500,-2.26755,-0.1,-257.58,-0.1,0.552
-2.93052,-2.93064,0.31102,-0.0483957,0.0129862,0.00904023,0.0982178,0.16827,-39,-2500,-2.29748,-0.1,-258.936,-0.1,0.556
-2.93047,-2.9306,0.311413,-0.0477268,0.0131626,0.00913624,0.0981931,0.16792,-40,-2500,-2.32814,-0.1,-260.285,-0.1,0.56
-2.93042,-2.93056,0.311806,-0.0470569,0.01334,0.00925783,0.0981682,0.167772,-40,-2500,-2.35955,-0.1,-261.626,-0.1,0.564
-2.93036,-2.93052,0.312198,-0.046386,0.0135184,0.00945405,0.0981432,0.16776,-40,-2498,-2.39144,-0.1,-262.96,-0.1,0.568
-2.93031,-2.93048,0.312591,-0.045724,0.0136978,0.0094697,0.098118,0.167003,-42,-2497,-2.42325,-0.1,-264.286,-0.1,0.572
-2.93025,-2.93045,0.312983,-0.0450517,0.0138783,0.00933618,0.0980926,0.167363,-45,-2494,-2.45679,-0.1,-265.604,-0.1,0.576
-2.9302,-2.93042,0.313376,-0.0443859,0.0140598,0.00898805,0.0980671,0.167055,-51,-2493,-2.49361,-0.1,-266.914,-0.1,0.58
-2.93014,-2.93039,0.313768,-0.043724,0.0142423,0.00843926,0.0980415,0.166534,-58,-2491,-2.53589,-0.1,-268.217,-0.1,0.584
-2.93008,-2.93036,0.31416,-0.0430565,0.0144258,0.00784308,0.0980157,0.166646,-66,-2489,-2.58553,-0.1,-269.512,-0.1,0.588
-2.93003,-2.93034,0.314552,-0.0423942,0.0146103,0.0071865,0.0979897,0.16629,-74,-2488,-2.64303,-0.1,-270.8,-0.1,0.592
-2.92997,-2.93031,0.314944,-0.041726,0.0147958,0.00651846,0.0979636,0.166542,-82,-2486,-2.70896,-0.1,-272.08,-0.1,0.596
-2.92991,-2.9303,0.315336,-0.0410564,0.0149823,0.00584277,0.0979373,0.166825,-91,-2483,-2.78342,-0.1,-273.352,-0.1,0.6
-2.92985,-2.93028,0.315727,-0.0403869,0.0151698,0.0051044,0.0979109,0.167013,-100,-2481,-2.86654,-0.1,-274.616,-0.1,0.604
-2.92979,-2.93027,0.316119,-0.0397149,0.0153583,0.00438182,0.0978844,0.16734,-109,-2479,-2.95889,-0.1,-275.873,-0.1,0.608
-2.92972,-2.93026,0.31651,-0.0390426,0.0155478,0.00372736,0.0978576,0.167587,-118,-2477,-3.06026,-0.1,-277.122,-0.1,0.612
-2.92966,-2.93025,0.316902,-0.0383706,0.0157383,0.00320468,0.0978308,0.167723,-125,-2475,-3.16992,-0.1,-278.363,-0.1,0.616
-2.9296,-2.93024,0.317293,-0.0377076,0.0159298,0.00282744,0.0978037,0.167065,-131,-2474,-3.28653,-0.1,-279.597,-0.1,0.62
-2.92953,-2.93023,0.317684,-0.036866,0.0161222,0.00274868,0.0977766,0.181512,-134,-2459,-3.4085,-0.1,-280.813,-0.1,0.624
-2.92947,-2.93023,0.318075,-0.036374,0.0163157,0.00235069,0.0977492,0.162006,-140,-2474,-3.53328,-0.1,-282.033,-0.1,0.628
-2.9294,-2.93022,0.318466,-0.0356989,0.0165101,0.00231569,0.0977217,0.164261,-143,-2470,-3.6636,-0.1,-283.247,-0.1,0.632
-2.92934,-2.93021,0.318857,-0.0350345,0.0167054,0.00234994,0.0976941,0.164873,-145,-2468,-3.79599,-0.1,-284.454,-0.1,0.636
-2.92927,-2.9302,0.319248,-0.0343605,0.0169018,0.00243036,0.0976663,0.166086,-146,-2465,-3.9298,-0.1,-285.652,-0.1,0.64
-2.9292,-2.93019,0.319638,-0.0336871,0.0170991,0.00248396,0.0976384,0.166838,-148,-2462,-4.06461,-0.1,-286.842,-0.1,0.644
-2.92913,-2.93018,0.320029,-0.0330089,0.0172974,0.00249091,0.0976103,0.167742,-150,-2459,-4.20072,-0.1,-288.025,-0.1,0.648
-2.92906,-2.93017,0.320419,-0.0323449,0.0174966,0.00249555,0.0975821,0.167164,-153,-2458,-4.33857,-0.1,-289.2,-0.1,0.652
-2.92899,-2.93016,0.32081,-0.0316795,0.0176968,0.00249863,0.0975537,0.166894,-155,-2456,-4.4782,-0.1,-290.368,-0.1,0.656
-2.92892,-2.93015,0.3212,-0.0310106,0.0178979,0.00250069,0.0975252,0.167002,-157,-2454,-4.61962,-0.1,-291.529,-0.1,0.66
-2.92885,-2.93014,0.32159,-0.0303497,0.0181,0.00258844,0.0974965,0.166412,-159,-2453,-4.7628,-0.1,-292.684,-0.1,0.664
-2.92878,-2.93013,0.32198,-0.0296825,0.018303,0.00261814,0.0974677,0.166536,-161,-2451,-4.90697,-0.1,-293.831,-0.1,0.668
-2.9287,-2.93012,0.32237,-0.0290119,0.018507,0.00258037,0.0974387,0.166907,-164,-2449,-5.05275,-0.1,-294.971,-0.1,0.672
-2.92863,-2.93011,0.322759,-0.0283444,0.0187119,0.00244002,0.0974096,0.166896,-168,-2447,-5.20084,-0.1,-296.104,-0.1,0.676
-2.92855,-2.9301,0.323149,-0.0276797,0.0189178,0.00226008,0.0973804,0.166658,-172,-2445,-5.35224,-0.1,-297.23,-0.1,0.68
-2.92848,-2.93009,0.323538,-0.0270119,0.0191246,0.00193858,0.0973509,0.166758,-177,-2443,-5.50744,-0.1,-298.349,-0.1,0.684
-2.9284,-2.93009,0.323928,-0.0263513,0.0193323,0.00166667,0.0973214,0.16622,-182,-2442,-5.66772,-0.1,-299.462,-0.1,0.688
-2.92832,-2.93009,0.324317,-0.0256886,0.019541,0.00137023,0.0972917,0.166034,-188,-2440,-5.83264,-0.1,-300.568,-0.1,0.692
-2.92824,-2.93009,0.324706,-0.025025,0.0197505,0.00108623,0.0972618,0.165997,-193,-2438,-6.00243,-0.1,-301.667,-0.1,0.696
-2.92816,-2.93008,0.325095,-0.0243595,0.019961,0.00086811,0.0972318,0.166116,-198,-2436,-6.17693,-0.1,-302.759,-0.1,0.7
-2.92808,-2.93008,0.325484,-0.0236931,0.0201724,0.000722695,0.0972017,0.166282,-202,-2434,-6.35546,-0.1,-303.844,-0.1,0.704
-2.928,-2.93008,0.325873,-0.0230211,0.0203848,0.000654542,0.0971714,0.166853,-205,-2431,-6.53729,-0.1,-304.922,-0.1,0.708
-2.92792,-2.93008,0.326261,-0.0223477,0.020598,0.000637898,0.097141,0.167349,-208,-2429,-6.72167,-0.1,-305.993,-0.1,0.712
-2.92784,-2.93007,0.32665,-0.021672,0.0208122,0.000684384,0.0971104,0.167881,-210,-2427,-6.90807,-0.1,-307.056,-0.1,0.716
-2.92775,-2.93007,0.327038,-0.0209951,0.0210272,0.000772956,0.0970797,0.168322,-212,-2424,-7.09587,-0.1,-308.113,-0.1,0.72
-2.92767,-2.93007,0.327426,-0.0203176,0.0212432,0.000889586,0.0970488,0.168674,-213,-2422,-7.28467,-0.1,-309.162,-0.1,0.724
-2.92758,-2.93006,0.327814,-0.0196408,0.02146,0.00105371,0.0970178,0.168851,-214,-2420,-7.47417,-0.1,-310.204,-0.1,0.728
-2.9275,-2.93006,0.328202,-0.0189657,0.0216778,0.00113434,0.0969867,0.168824,-216,-2418,-7.664,-0.1,-311.24,-0.1,0.732
-2.92741,-2.93005,0.32859,-0.0182879,0.0218964,0.00133204,0.0969554,0.169037,-217,-2416,-7.85487,-0.1,-312.269,-0.1,0.736
-2.92732,-2.93004,0.328978,-0.0176159,0.022116,0.00149264,0.0969239,0.16869,-218,-2414,-8.04572,-0.1,-313.292,-0.1,0.74
-2.92723,-2.93003,0.329366,-0.0169443,0.0223364,0.00162849,0.0968924,0.16843,-220,-2412,-8.23691,-0.1,-314.308,-0.1,0.744
-2.92714,-2.93002,0.329753,-0.0162771,0.0225577,0.00183423,0.0968606,0.167882,-220,-2411,-8.42865,-0.1,-315.318,-0.1,0.748
-2.92705,-2.93001,0.330141,-0.0156069,0.0227799,0.00202896,0.0968288,0.167775,-221,-2409,-8.62028,-0.1,-316.322,-0.1,0.752
-2.92696,-2.93,0.330528,-0.0149415,0.023003,0.00221637,0.0967968,0.167302,-222,-2407,-8.81193,-0.1,-317.319,-0.1,0.756
-2.92687,-2.92999,0.330915,-0.014275,0.0232269,0.00239889,0.0967646,0.167072,-223,-2406,-9.00369,-0.1,-318.311,-0.1,0.76
-2.92678,-2.92998,0.331302,-0.0136037,0.0234518,0.00252057,0.0967323,0.167322,-225,-2403,-9.19564,-0.1,-319.296,-0.1,0.764
-2.92668,-2.92997,0.331689,-0.0129307,0.0236775,0.00260169,0.0966999,0.167633,-227,-2401,-9.3884,-0.1,-320.274,-0.1,0.768
-2.92659,-2.92996,0.332076,-0.0122539,0.023904,0.00271335,0.0966673,0.168157,-228,-2399,-9.58234,-0.1,-321.246,-0.1,0.772
-2.92649,-2.92995,0.332462,-0.0115771,0.0241314,0.002759,0.0966346,0.168506,-231,-2396,-9.77722,-0.1,-322.21,-0.1,0.776
-2.92639,-2.92993,0.332849,-0.0109051,0.0243597,0.00293339,0.0966018,0.168336,-232,-2395,-9.97358,-0.1,-323.169,-0.1,0.78
-2.9263,-2.92992,0.333235,-0.0102276,0.0245888,0.00299207,0.0965688,0.168683,-234,-2392,-10.1703,-0.1,-324.121,-0.1,0.784
-2.9262,-2.92991,0.333621,-0.00955836,0.0248188,0.00311756,0.0965357,0.168223,-236,-2391,-10.3684,-0.1,-325.067,-0.1,0.788
-2.9261,-2.9299,0.334007,-0.00888154,0.0250497,0.00311484,0.0965024,0.16855,-238,-2388,-10.5674,-0.1,-326.007,-0.1,0.792
-2.926,-2.92988,0.334393,-0.00820369,0.0252814,0.00305545,0.096469,0.168855,-242,-2386,-10.7686,-0.1,-326.94,-0.1,0.796
-2.9259,-2.92987,0.334779,-0.00753032,0.0255139,0.00298707,0.0964354,0.168683,-245,-2384,-10.9724,-0.1,-327.867,-0.1,0.8
-2.92579,-2.92986,0.335165,-0.00685074,0.0257473,0.0028839,0.0964017,0.169087,-249,-2382,-11.179,-0.1,-328.787,-0.1,0.804
-2.92569,-2.92985,0.33555,-0.00617462,0.0259815,0.0028727,0.0963679,0.169069,-252,-2380,-11.3887,-0.1,-329.702,-0.1,0.808
-2.92558,-2.92984,0.335936,-0.00549953,0.0262165,0.00286523,0.096334,0.16897,-255,-2378,-11.6005,-0.1,-330.61,-0.1,0.812
-2.92548,-2.92983,0.336321,-0.00483066,0.0264524,0.00288905,0.0962999,0.168386,-258,-2376,-11.8145,-0.1,-331.512,-0.1,0.816
-2.92537,-2.92981,0.336706,-0.00415971,0.0266891,0.00304888,0.0962656,0.168169,-259,-2375,-12.0303,-0.1,-332.409,-0.1,0.82
-2.92527,-2.9298,0.337091,-0.00348911,0.0269266,0.00327059,0.0962313,0.167996,-260,-2373,-12.2465,-0.1,-333.3,-0.1,0.824
-2.92516,-2.92978,0.337476,-0.00281575,0.027165,0.00350478,0.0961968,0.168111,-261,-2371,-12.4625,-0.1,-334.185,-0.1,0.828
-2.92505,-2.92977,0.337861,-0.00214723,0.0274042,0.00380486,0.0961621,0.167784,-261,-2369,-12.6783,-0.1,-335.064,-0.1,0.832
-2.92494,-2.92975,0.338245,-0.00147939,0.0276442,0.00409128,0.0961273,0.167509,-261,-2367,-12.8931,-0.1,-335.938,-0.1,0.836
-2.92483,-2.92973,0.33863,-0.000808795,0.027885,0.00454135,0.0960924,0.167556,-260,-2365,-13.1071,-0.1,-336.805,-0.1,0.84
-2.92472,-2.9297,0.339014,-0.000139578,0.0281266,0.00495656,0.0960574,0.167472,-259,-2363,-13.3187,-0.1,-337.667,-0.1,0.844
-2.9246,-2.92968,0.339398,0.000529983,0.028369,0.00529095,0.0960222,0.167445,-258,-2361,-13.5283,-0.1,-338.523,-0.1,0.848
-2.92449,-2.92965,0.339782,0.00119816,0.0286123,0.00565783,0.0959869,0.167312,-258,-2359,-13.7367,-0.1,-339.373,-0.1,0.852
-2.92437,-2.92963,0.340166,0.00186634,0.0288563,0.00598878,0.0959514,0.167223,-258,-2358,-13.9436,-0.1,-340.217,-0.1,0.856
-2.92426,-2.9296,0.34055,0.00253418,0.0291012,0.00643975,0.0959158,0.167135,-256,-2356,-14.1492,-0.1,-341.056,-0.1,0.86
-2.92414,-2.92956,0.340933,0.00320028,0.0293468,0.00702831,0.0958801,0.166932,-253,-2354,-14.3524,-0.1,-341.889,-0.1,0.864
-2.92402,-2.92953,0.341317,0.00387296,0.0295932,0.00782375,0.0958442,0.167344,-249,-2352,-14.5517,-0.1,-342.716,-0.1,0.868
-2.9239,-2.92948,0.3417,0.00454079,0.0298404,0.0088147,0.0958082,0.167215,-242,-2350,-14.745,-0.1,-343.538,-0.1,0.872
-2.92378,-2.92944,0.342083,0.00522279,0.0300884,0.00990719,0.0957721,0.16831,-234,-2347,-14.9305,-0.1,-344.353,-0.1,0.876
-2.92366,-2.92938,0.342466,0.0058882,0.0303372,0.0109522,0.0957359,0.167658,-227,-2345,-15.1073,-0.1,-345.162,-0.1,0.88
-2.92354,-2.92932,0.342849,0.00655673,0.0305868,0.0121672,0.0956995,0.167483,-218,-2343,-15.2756,-0.1,-345.966,-0.1,0.884
-2.92342,-2.92926,0.343232,0.00722526,0.0308372,0.0135817,0.095663,0.167365,-207,-2341,-15.4339,-0.1,-346.765,-0.1,0.888
-2.92329,-2.92919,0.343614,0.00789344,0.0310883,0.0152157,0.0956263,0.167259,-194,-2340,-15.58,-0.1,-347.558,-0.1,0.892
-2.92317,-2.9291,0.343997,0.00855229,0.0313402,0.0169673,0.0955895,0.16641,-180,-2338,-15.7118,-0.1,-348.347,-0.1,0.896
-2.92304,-2.92901,0.344379,0.00921321,0.0315928,0.0187396,0.0955526,0.166017,-166,-2337,-15.8283,-0.1,-349.13,-0.1,0.9
-2.92292,-2.92892,0.344761,0.00987966,0.0318463,0.0205257,0.0955155,0.166216,-151,-2335,-15.9294,-0.1,-349.907,-0.1,0.904
-2.92279,-2.92882,0.345143,0.0105389,0.0321005,0.0222347,0.0954784,0.165744,-137,-2333,-16.0148,-0.1,-350.68,-0.1,0.908
-2.92266,-2.92871,0.345525,0.0111946,0.0323554,0.0238923,0.0954411,0.165141,-124,-2332,-16.0855,-0.1,-351.447,-0.1,0.912
-2.92253,-2.92859,0.345907,0.0118569,0.0326111,0.0252852,0.0954036,0.165286,-113,-2330,-16.1422,-0.1,-352.209,-0.1,0.916
-2.9224,-2.92848,0.346288,0.0125158,0.0328676,0.0265882,0.095366,0.165095,-103,-2328,-16.1874,-0.1,-352.966,-0.1,0.92
-2.92227,-2.92835,0.34667,0.0131805,0.0331248,0.0279174,0.0953283,0.165457,-92,-2326,-16.222,-0.1,-353.718,-0.1,0.924
-2.92213,-2.92823,0.347051,0.0138469,0.0333828,0.02889,0.0952905,0.165842,-86,-2323,-16.246,-0.1,-354.463,-0.1,0.928
-2.922,-2.9281,0.347432,0.0145179,0.0336415,0.029855,0.0952526,0.166474,-79,-2321,-16.2628,-0.1,-355.203,-0.1,0.932
-2.92187,-2.92797,0.347813,0.0151933,0.033901,0.0308439,0.0952145,0.167269,-72,-2318,-16.2725,-0.1,-355.937,-0.1,0.936
-2.92173,-2.92784,0.348194,0.0158691,0.0341612,0.031532,0.0951763,0.167827,-68,-2315,-16.275,-0.1,-356.665,-0.1,0.94
-2.92159,-2.92771,0.348574,0.0165411,0.0344221,0.032077,0.0951379,0.167883,-65,-2313,-16.2734,-0.1,-357.387,-0.1,0.944
-2.92145,-2.92757,0.348955,0.0172158,0.0346838,0.0326131,0.0950994,0.168151,-62,-2311,-16.269,-0.1,-358.104,-0.1,0.948
-2.92131,-2.92744,0.349335,0.017884,0.0349462,0.0329418,0.0950608,0.167782,-62,-2309,-16.262,-0.1,-358.816,-0.1,0.952
-2.92117,-2.9273,0.349715,0.0185591,0.0352093,0.0335063,0.0950221,0.168112,-59,-2307,-16.2543,-0.1,-359.522,-0.1,0.956
-2.92103,-2.92717,0.350095,0.0192359,0.0354732,0.0335948,0.0949833,0.168476,-61,-2305,-16.2439,-0.1,-360.223,-0.1,0.96
-2.92089,-2.92703,0.350475,0.0199158,0.0357378,0.0339129,0.0949443,0.168978,-60,-2302,-16.2352,-0.1,-360.918,-0.1,0.964
-2.92075,-2.92689,0.350855,0.0205982,0.0360031,0.0342113,0.0949052,0.169514,-60,-2300,-16.226,-0.1,-361.608,-0.1,0.968
-2.9206,-2.92675,0.351234,0.0212802,0.0362691,0.03418,0.0948659,0.169843,-63,-2297,-16.2169,-0.1,-362.292,-0.1,0.972
-2.92046,-2.92661,0.351614,0.0219684,0.0365358,0.0346197,0.0948266,0.17058,-61,-2295,-16.2104,-0.1,-362.97,-0.1,0.976
-2.92031,-2.92647,0.351993,0.0226594,0.0368032,0.0347977,0.0947871,0.171302,-62,-2292,-16.2025,-0.1,-363.643,-0.1,0.98
-2.92016,-2.92633,0.352372,0.0233469,0.0370714,0.0350028,0.0947475,0.171495,-63,-2289,-16.1955,-0.1,-364.31,-0.1,0.984
-2.92001,-2.92618,0.352751,0.0240393,0.0373402,0.0352834,0.0947077,0.172027,-63,-2287,-16.1892,-0.1,-364.971,-0.1,0.988
-2.91986,-2.92604,0.35313,0.0247265,0.0376098,0.0355569,0.0946679,0.17195,-63,-2285,-16.1828,-0.1,-365.628,-0.1,0.992
-2.91971,-2.92589,0.353508,0.0254081,0.0378801,0.0359983,0.0946279,0.171438,-61,-2283,-16.1763,-0.1,-366.279,-0.1,0.996
-2.91956,-2.92575,0.353887,0.0260856,0.038151,0.0361486,0.0945877,0.170751,-62,-2282,-16.1684,-0.1,-366.926,-0.1,1
-2.91941,-2.9256,0.354265,0.0267666,0.0384226,0.0365944,0.0945475,0.170581,-61,-2280,-16.1616,-0.1,-367.568,-0.1,1.004
-2.91925,-2.92545,0.354643,0.027442,0.038695,0.0369491,0.0945071,0.170007,-60,-2278,-16.1531,-0.1,-368.206,-0.1,1.008
-2.9191,-2.9253,0.355021,0.0281092,0.038968,0.0370704,0.0944667,0.168933,-61,-2277,-16.144,-0.1,-368.839,-0.1,1.012
-2.91894,-2.92514,0.355399,0.0287894,0.0392417,0.0376119,0.0944261,0.169311,-59,-2274,-16.1363,-0.1,-369.468,-0.1,1.016
-2.91878,-2.92499,0.355777,0.0294749,0.0395161,0.0378866,0.0943853,0.169995,-59,-2272,-16.126,-0.1,-370.091,-0.1,1.02
-2.91863,-2.92483,0.356154,0.0301648,0.0397912,0.0382136,0.0943445,0.170826,-58,-2269,-16.1159,-0.1,-370.708,-0.1,1.024
-2.91847,-2.92468,0.356531,0.0308603,0.0400669,0.038518,0.0943035,0.17184,-58,-2266,-16.1052,-0.1,-371.32,-0.1,1.028
-2.91831,-2.92452,0.356908,0.0315578,0.0403433,0.0388937,0.0942624,0.172689,-57,-2263,-16.0943,-0.1,-371.925,-0.1,1.032
-2.91814,-2.92436,0.357285,0.0322585,0.0406204,0.0391154,0.0942212,0.173514,-58,-2260,-16.0826,-0.1,-372.526,-0.1,1.036
-2.91798,-2.9242,0.357662,0.0329599,0.0408981,0.0393495,0.0941798,0.174122,-58,-2257,-16.0715,-0.1,-373.12,-0.1,1.04
-2.91782,-2.92404,0.358039,0.0336588,0.0411766,0.0396208,0.0941384,0.174325,-58,-2255,-16.0609,-0.1,-373.71,-0.1,1.044
-2.91765,-2.92388,0.358415,0.0343553,0.0414556,0.0397441,0.0940968,0.174259,-60,-2253,-16.0505,-0.1,-374.294,-0.1,1.048
-2.91748,-2.92372,0.358792,0.0350559,0.0417354,0.0401429,0.0940551,0.174561,-58,-2250,-16.0416,-0.1,-374.873,-0.1,1.052
-2.91732,-2.92355,0.359168,0.0357542,0.0420158,0.0402649,0.0940132,0.17456,-60,-2248,-16.0317,-0.1,-375.448,-0.1,1.056
-2.91715,-2.92339,0.359544,0.0364538,0.0422968,0.0405478,0.0939713,0.174675,-60,-2246,-16.0234,-0.1,-376.017,-0.1,1.06
-2.91698,-2.92323,0.35992,0.0371513,0.0425785,0.0406499,0.0939292,0.174579,-62,-2243,-16.0153,-0.1,-376.582,-0.1,1.064
-2.91681,-2.92306,0.360295,0.0378517,0.0428609,0.0410348,0.093887,0.174745,-61,-2241,-16.0089,-0.1,-377.142,-0.1,1.068
-2.91664,-2.92289,0.360671,0.0385437,0.0431438,0.0411474,0.0938447,0.174165,-63,-2239,-16.0016,-0.1,-377.697,-0.1,1.072
-2.91646,-2.92272,0.361046,0.0392309,0.0434275,0.0414815,0.0938023,0.173375,-62,-2238,-15.996,-0.1,-378.249,-0.1,1.076
-2.91629,-2.92256,0.361421,0.0399059,0.0437117,0.0415892,0.0937597,0.171841,-64,-2237,-15.9901,-0.1,-378.796,-0.1,1.08
-2.91611,-2.92238,0.361796,0.0405876,0.0439966,0.0421792,0.0937171,0.171365,-61,-2235,-15.9857,-0.1,-379.34,-0.1,1.084
-2.91594,-2.92221,0.362171,0.0412444,0.0442822,0.042227,0.0936743,0.168975,-63,-2235,-15.9786,-0.1,-379.881,-0.1,1.088
-2.91576,-2.92204,0.362545,0.0419133,0.0445684,0.042662,0.0936314,0.168389,-62,-2234,-15.9738,-0.1,-380.418,-0.1,1.092
-2.91558,-2.92187,0.36292,0.0425721,0.0448552,0.0427216,0.0935884,0.167164,-64,-2233,-15.9677,-0.1,-380.952,-0.1,1.096
-2.9154,-2.92169,0.363294,0.0432368,0.0451426,0.0431356,0.0935452,0.166836,-63,-2231,-15.9638,-0.1,-381.482,-0.1,1.1
-2.91522,-2.92152,0.363668,0.0439047,0.0454306,0.0434693,0.093502,0.166877,-62,-2229,-15.9587,-0.1,-382.007,-0.1,1.104
-2.91504,-2.92134,0.364042,0.0445735,0.0457193,0.0438932,0.0934586,0.166991,-61,-2227,-15.9531,-0.1,-382.528,-0.1,1.108
-2.91485,-2.92116,0.364416,0.0452528,0.0460086,0.044291,0.0934151,0.16793,-60,-2224,-15.9463,-0.1,-383.044,-0.1,1.112
-2.91467,-2.92098,0.364789,0.0459268,0.0462984,0.0444698,0.0933715,0.168124,-61,-2221,-15.9385,-0.1,-383.554,-0.1,1.116
-2.91448,-2.9208,0.365163,0.0466092,0.0465889,0.0447618,0.0933278,0.168945,-61,-2219,-15.9319,-0.1,-384.06,-0.1,1.12
-2.9143,-2.92061,0.365536,0.0472939,0.0468801,0.0450716,0.0932839,0.169694,-61,-2216,-15.9253,-0.1,-384.561,-0.1,1.124
-2.91411,-2.92043,0.365909,0.0479725,0.0471718,0.045163,0.09324,0.169674,-63,-2214,-15.9187,-0.1,-385.057,-0.1,1.128
-2.91392,-2.92025,0.366282,0.0486555,0.0474641,0.0456557,0.0931959,0.170036,-61,-2211,-15.9139,-0.1,-385.549,-0.1,1.132
-2.91373,-2.92006,0.366655,0.0493258,0.047757,0.0457251,0.0931517,0.169212,-63,-2210,-15.9074,-0.1,-386.037,-0.1,1.136
-2.91354,-2.91988,0.367027,0.0499974,0.0480505,0.0460881,0.0931074,0.168777,-63,-2208,-15.903,-0.1,-386.521,-0.1,1.14
-2.91334,-2.91969,0.3674,0.0506652,0.0483446,0.0463013,0.093063,0.168171,-64,-2207,-15.8981,-0.1,-387.001,-0.1,1.144
-2.91315,-2.9195,0.367772,0.0513293,0.0486393,0.0467313,0.0930185,0.16745,-62,-2205,-15.8939,-0.1,-387.477,-0.1,1.148
-2.91295,-2.9193,0.368144,0.0520109,0.0489346,0.0473347,0.0929738,0.168438,-59,-2202,-15.8883,-0.1,-387.948,-0.1,1.152
-2.91276,-2.91912,0.368515,0.0526525,0.0492305,0.0471036,0.0929291,0.165757,-64,-2202,-15.8802,-0.1,-388.417,-0.1,1.156
-2.91256,-2.91892,0.368887,0.0533169,0.0495269,0.0475253,0.0928842,0.165869,-63,-2200,-15.877,-0.1,-388.883,-0.1,1.16
-2.91236,-2.91873,0.369259,0.0539716,0.049824,0.0478065,0.0928392,0.165138,-63,-2199,-15.8728,-0.1,-389.344,-0.1,1.164
-2.91216,-2.91854,0.36963,0.0546114,0.0501216,0.0478787,0.0927941,0.163413,-66,-2198,-15.8688,-0.1,-389.803,-0.1,1.168
-2.91196,-2.91834,0.370001,0.0552575,0.0504198,0.04833,0.0927489,0.162781,-64,-2197,-15.8669,-0.1,-390.259,-0.1,1.172
-2.91176,-2.91815,0.370372,0.0558911,0.0507185,0.0485444,0.0927036,0.161323,-65,-2196,-15.8637,-0.1,-390.711,-0.1,1.176
-2.91155,-2.91795,0.370743,0.0565279,0.0510178,0.0489465,0.0926581,0.160611,-64,-2195,-15.8613,-0.1,-391.161,-0.1,1.18
-2.91135,-2.91774,0.371113,0.0571729,0.0513177,0.0494737,0.0926126,0.160826,-62,-2193,-15.8578,-0.1,-391.606,-0.1,1.184
-2.91114,-2.91754,0.371483,0.0578121,0.0516182,0.0496236,0.0925669,0.160481,-63,-2191,-15.8523,-0.1,-392.048,-0.1,1.188
-2.91094,-2.91734,0.371854,0.0584581,0.0519192,0.0501554,0.0925212,0.160826,-61,-2189,-15.8481,-0.1,-392.486,-0.1,1.192
-2.91073,-2.91714,0.372224,0.0591059,0.0522208,0.0503948,0.0924753,0.1612,-62,-2187,-15.8418,-0.1,-392.919,-0.1,1.196
-2.91052,-2.91693,0.372593,0.0597596,0.0525229,0.0508423,0.0924293,0.161939,-60,-2184,-15.8361,-0.1,-393.348,-0.1,1.2
-2.91031,-2.91672,0.372963,0.0604088,0.0528256,0.0510255,0.0923832,0.162058,-62,-2182,-15.8291,-0.1,-393.773,-0.1,1.204
-2.9101,-2.91652,0.373332,0.0610624,0.0531288,0.0514067,0.092337,0.162511,-61,-2180,-15.8233,-0.1,-394.194,-0.1,1.208
-2.90988,-2.91631,0.373702,0.061722,0.0534326,0.051776,0.0922906,0.163302,-60,-2177,-15.8167,-0.1,-394.61,-0.1,1.212
-2.90967,-2.9161,0.374071,0.062375,0.0537369,0.0519359,0.0922442,0.163283,-62,-2175,-15.8097,-0.1,-395.022,-0.1,1.216
-2.90945,-2.91588,0.37444,0.0630269,0.0540418,0.0523015,0.0921977,0.163184,-61,-2173,-15.804,-0.1,-395.43,-0.1,1.22
-2.90924,-2.91567,0.374808,0.0636775,0.0543472,0.0526893,0.092151,0.163003,-60,-2172,-15.7977,-0.1,-395.835,-0.1,1.224
-2.90902,-2.91546,0.375177,0.0643266,0.0546531,0.0528326,0.0921042,0.162767,-62,-2170,-15.7909,-0.1,-396.236,-0.1,1.228
-2.9088,-2.91524,0.375545,0.0649762,0.0549596,0.0531873,0.0920574,0.162638,-62,-2168,-15.7856,-0.1,-396.633,-0.1,1.232
-2.90858,-2.91503,0.375913,0.0656326,0.0552666,0.0533949,0.0920104,0.163128,-63,-2165,-15.7799,-0.1,-397.026,-0.1,1.236
-2.90836,-2.91481,0.376281,0.0662908,0.0555741,0.0535909,0.0919633,0.163599,-64,-2163,-15.7753,-0.1,-397.415,-0.1,1.24
-2.90813,-2.91459,0.376649,0.0669569,0.0558822,0.0540383,0.0919161,0.164575,-62,-2160,-15.7718,-0.1,-397.799,-0.1,1.244
-2.90791,-2.91437,0.377017,0.0676292,0.0561907,0.0542502,0.0918688,0.165744,-63,-2157,-15.767,-0.1,-398.179,-0.1,1.248
-2.90769,-2.91415,0.377384,0.068305,0.0564998,0.0546218,0.0918214,0.166811,-63,-2154,-15.7631,-0.1,-398.554,-0.1,1.252
-2.90746,-2.91393,0.377751,0.0689877,0.0568094,0.0549271,0.0917739,0.168098,-63,-2151,-15.7587,-0.1,-398.923,-0.1,1.256
-2.90723,-2.91371,0.378118,0.0696655,0.0571196,0.0551594,0.0917262,0.168553,-64,-2148,-15.7544,-0.1,-399.289,-0.1,1.26
-2.907,-2.91348,0.378485,0.0703503,0.0574302,0.0554583,0.0916785,0.169432,-64,-2145,-15.7509,-0.1,-399.65,-0.1,1.264
-2.90677,-2.91326,0.378852,0.071033,0.0577413,0.0557151,0.0916306,0.169846,-64,-2143,-15.7476,-0.1,-400.006,-0.1,1.268
-2.90654,-2.91303,0.379218,0.0717153,0.058053,0.056059,0.0915827,0.170093,-64,-2140,-15.7449,-0.1,-400.359,-0.1,1.272
-2.90631,-2.9128,0.379584,0.0723966,0.0583651,0.0564323,0.0915346,0.170171,-63,-2138,-15.7418,-0.1,-400.707,-0.1,1.276
-2.90607,-2.91257,0.37995,0.0730762,0.0586778,0.0565371,0.0914865,0.170079,-65,-2136,-15.7383,-0.1,-401.052,-0.1,1.28
-2.90584,-2.91234,0.380316,0.073761,0.058991,0.0570677,0.0914382,0.17045,-63,-2133,-15.7367,-0.1,-401.393,-0.1,1.284
-2.9056,-2.91211,0.380682,0.0744385,0.0593046,0.0572487,0.0913898,0.170092,-65,-2132,-15.7331,-0.1,-401.73,-0.1,1.288
-2.90536,-2.91188,0.381047,0.0751208,0.0596187,0.0574557,0.0913414,0.170257,-66,-2129,-15.731,-0.1,-402.063,-0.1,1.292
-2.90512,-2.91165,0.381413,0.0758042,0.0599334,0.0578528,0.0912928,0.170453,-65,-2127,-15.7298,-0.1,-402.393,-0.1,1.296
-2.90488,-2.91141,0.381778,0.0764928,0.0602485,0.0583479,0.0912441,0.171016,-63,-2124,-15.7277,-0.1,-402.718,-0.1,1.3
-2.90464,-2.91117,0.382143,0.0771727,0.0605641,0.0584477,0.0911953,0.170671,-65,-2122,-15.7242,-0.1,-403.039,-0.1,1.304
-2.9044,-2.91093,0.382507,0.077853,0.0608802,0.0589748,0.0911464,0.17047,-63,-2120,-15.7226,-0.1,-403.357,-0.1,1.308
-2.90415,-2.9107,0.382872,0.0785298,0.0611967,0.0591535,0.0910974,0.170048,-65,-2118,-15.7191,-0.1,-403.672,-0.1,1.312
-2.90391,-2.91046,0.383236,0.0792104,0.0615138,0.0593014,0.0910483,0.170083,-66,-2116,-15.7171,-0.1,-403.983,-0.1,1.316
-2.90366,-2.91021,0.3836,0.0798903,0.0618313,0.0598031,0.0909991,0.17005,-65,-2114,-15.7165,-0.1,-404.291,-0.1,1.32
-2.90341,-2.90997,0.383964,0.0805727,0.0621493,0.0602527,0.0909498,0.170228,-63,-2111,-15.7142,-0.1,-404.595,-0.1,1.324
-2.90317,-2.90973,0.384328,0.0812564,0.0624677,0.0603797,0.0909004,0.170463,-65,-2109,-15.7109,-0.1,-404.895,-0.1,1.328
-2.90291,-2.90948,0.384691,0.0819419,0.0627866,0.0608098,0.0908509,0.170763,-64,-2107,-15.7092,-0.1,-405.191,-0.1,1.332
-2.90266,-2.90923,0.385054,0.0826315,0.063106,0.0611542,0.0908013,0.171309,-64,-2104,-15.7066,-0.1,-405.483,-0.1,1.336
-2.90241,-2.90898,0.385418,0.0833155,0.0634258,0.0614701,0.0907516,0.171212,-64,-2102,-15.7038,-0.1,-405.771,-0.1,1.34
-2.90216,-2.90874,0.38578,0.0839993,0.0637461,0.061652,0.0907018,0.171118,-65,-2099,-15.7011,-0.1,-406.056,-0.1,1.344
-2.9019,-2.90848,0.386143,0.0846854,0.0640669,0.0620611,0.0906518,0.171258,-65,-2097,-15.6997,-0.1,-406.337,-0.1,1.348
-2.90164,-2.90823,0.386506,0.085376,0.0643881,0.0624202,0.0906018,0.171725,-64,-2094,-15.6975,-0.1,-406.614,-0.1,1.352
-2.90139,-2.90798,0.386868,0.0860618,0.0647098,0.0626885,0.0905517,0.171633,-65,-2092,-15.695,-0.1,-406.888,-0.1,1.356
-2.90113,-2.90772,0.38723,0.0867466,0.0650319,0.0630112,0.0905015,0.171486,-65,-2090,-15.6931,-0.1,-407.158,-0.1,1.36
-2.90086,-2.90747,0.387592,0.0874303,0.0653544,0.0633415,0.0904512,0.171301,-65,-2088,-15.6912,-0.1,-407.425,-0.1,1.364
-2.9006,-2.90721,0.387954,0.0881089,0.0656774,0.0634178,0.0904007,0.170746,-67,-2086,-15.6894,-0.1,-407.689,-0.1,1.368
-2.90034,-2.90696,0.388315,0.0887884,0.0660008,0.0636414,0.0903502,0.170462,-68,-2084,-15.69,-0.1,-407.949,-0.1,1.372
-2.90007,-2.9067,0.388677,0.0894656,0.0663247,0.0640496,0.0902996,0.170072,-67,-2082,-15.6915,-0.1,-408.207,-0.1,1.376
-2.89981,-2.90644,0.389038,0.0901445,0.066649,0.0643793,0.0902489,0.169955,-67,-2080,-15.6922,-0.1,-408.461,-0.1,1.38
-2.89954,-2.90618,0.389399,0.0908206,0.0669737,0.0645991,0.090198,0.169647,-68,-2078,-15.693,-0.1,-408.712,-0.1,1.384
-2.89927,-2.90591,0.389759,0.0914981,0.0672989,0.0650335,0.0901471,0.169557,-67,-2076,-15.6948,-0.1,-408.96,-0.1,1.388
-2.899,-2.90565,0.39012,0.0921698,0.0676245,0.0651792,0.0900961,0.169008,-69,-2074,-15.6957,-0.1,-409.205,-0.1,1.392
-2.89873,-2.90539,0.39048,0.0928445,0.0679505,0.0654203,0.090045,0.168901,-70,-2072,-15.6983,-0.1,-409.446,-0.1,1.396
-2.89846,-2.90513,0.39084,0.0935161,0.0682769,0.0656098,0.0899938,0.16857,-71,-2070,-15.7018,-0.1,-409.685,-0.1,1.4
-2.89819,-2.90486,0.3912,0.0941867,0.0686038,0.0657361,0.0899425,0.168263,-73,-2068,-15.7068,-0.1,-409.92,-0.1,1.404
-2.89791,-2.90459,0.39156,0.0948608,0.068931,0.0661658,0.0898911,0.168347,-72,-2066,-15.7137,-0.1,-410.152,-0.1,1.408
-2.89763,-2.90433,0.391919,0.0955328,0.0692587,0.0662796,0.0898396,0.168229,-75,-2064,-15.7197,-0.1,-410.381,-0.1,1.412
-2.89736,-2.90406,0.392278,0.0962065,0.0695868,0.0663554,0.089788,0.168295,-77,-2062,-15.7279,-0.1,-410.607,-0.1,1.416
-2.89708,-2.90379,0.392637,0.0968788,0.0699153,0.0666939,0.0897363,0.168224,-77,-2060,-15.7385,-0.1,-410.829,-0.1,1.42
-2.8968,-2.90352,0.392996,0.0975542,0.0702442,0.0670347,0.0896845,0.168436,-77,-2057,-15.749,-0.1,-411.048,-0.1,1.424
-2.89652,-2.90325,0.393355,0.0982324,0.0705735,0.0673482,0.0896326,0.168807,-77,-2055,-15.7594,-0.1,-411.264,-0.1,1.428
-2.89623,-2.90297,0.393713,0.098911,0.0709032,0.0678164,0.0895806,0.169083,-76,-2052,-15.7699,-0.1,-411.476,-0.1,1.432
-2.89595,-2.9027,0.394071,0.0995864,0.0712333,0.0678982,0.0895285,0.169008,-78,-2050,-15.7792,-0.1,-411.684,-0.1,1.436
-2.89566,-2.90242,0.394429,0.100267,0.0715638,0.0684709,0.0894763,0.16939,-76,-2048,-15.7908,-0.1,-411.89,-0.1,1.44
-2.89538,-2.90215,0.394787,0.10095,0.0718947,0.0687088,0.0894241,0.169875,-77,-2045,-15.8001,-0.1,-412.091,-0.1,1.444
-2.89509,-2.90187,0.395145,0.101636,0.072226,0.0690977,0.0893717,0.170343,-76,-2042,-15.8103,-0.1,-412.289,-0.1,1.448
-2.8948,-2.90159,0.395502,0.102321,0.0725576,0.0692706,0.0893192,0.170654,-78,-2040,-15.82,-0.1,-412.484,-0.1,1.452
-2.89451,-2.90131,0.395859,0.103009,0.0728897,0.0694723,0.0892667,0.171092,-79,-2037,-15.8314,-0.1,-412.675,-0.1,1.456
-2.89422,-2.90103,0.396216,0.103698,0.0732221,0.0698946,0.089214,0.171557,-79,-2034,-15.8439,-0.1,-412.862,-0.1,1.46
-2.89392,-2.90075,0.396573,0.104378,0.0735549,0.0697443,0.0891613,0.171032,-83,-2032,-15.8559,-0.1,-413.046,-0.1,1.464
-2.89363,-2.90047,0.39693,0.105058,0.0738881,0.0697593,0.0891084,0.170653,-86,-2030,-15.8726,-0.1,-413.228,-0.1,1.468
-2.89333,-2.90019,0.397286,0.105739,0.0742217,0.0695677,0.0890555,0.170544,-92,-2028,-15.8927,-0.1,-413.407,-0.1,1.472
-2.89303,-2.89992,0.397642,0.106419,0.0745556,0.0694112,0.0890025,0.170328,-96,-2026,-15.9179,-0.1,-413.582,-0.1,1.476
-2.89273,-2.89964,0.397998,0.107098,0.0748899,0.0691053,0.0889493,0.170184,-103,-2024,-15.9482,-0.1,-413.755,-0.1,1.48
-2.89243,-2.89937,0.398354,0.107778,0.0752246,0.0686711,0.0888961,0.170088,-110,-2022,-15.9849,-0.1,-413.924,-0.1,1.484
-2.89213,-2.8991,0.398709,0.108457,0.0755597,0.0679498,0.0888428,0.169966,-120,-2020,-16.0295,-0.1,-414.091,-0.1,1.488
-2.89183,-2.89884,0.399064,0.109134,0.0758951,0.0669794,0.0887894,0.16977,-133,-2018,-16.0848,-0.1,-414.255,-0.1,1.492
-2.89152,-2.89859,0.39942,0.109812,0.0762308,0.0660734,0.0887359,0.169668,-145,-2015,-16.153,-0.1,-414.415,-0.1,1.496
-2.89122,-2.89834,0.399774,0.110488,0.0765669,0.064836,0.0886824,0.169456,-161,-2013,-16.2337,-0.1,-414.573,-0.1,1.5
-2.89091,-2.89809,0.400129,0.111161,0.0769034,0.0635792,0.0886287,0.168997,-176,-2011,-16.3301,-0.1,-414.728,-0.1,1.504
-2.8906,-2.89786,0.400483,0.111831,0.0772402,0.0621655,0.0885749,0.168548,-194,-2010,-16.4424,-0.1,-414.881,-0.1,1.508
-2.89029,-2.89763,0.400838,0.112496,0.0775774,0.0605896,0.0885211,0.16773,-212,-2008,-16.5721,-0.1,-415.031,-0.1,1.512
-2.88998,-2.89739,0.401192,0.113175,0.0779149,0.059827,0.0884671,0.168452,-223,-2005,-16.7201,-0.1,-415.178,-0.1,1.516
-2.88967,-2.89717,0.401545,0.113816,0.0782528,0.0588579,0.0884131,0.16568,-236,-2005,-16.8791,-0.1,-415.324,-0.1,1.52
-2.88936,-2.89692,0.401899,0.114479,0.078591,0.0594786,0.088359,0.165703,-234,-2003,-17.0497,-0.1,-415.468,-0.1,1.524
-2.88904,-2.89667,0.402252,0.115144,0.0789295,0.0607273,0.0883047,0.165862,-226,-2001,-17.2169,-0.1,-415.608,-0.1,1.528
-2.88873,-2.89641,0.402605,0.115807,0.0792684,0.0624236,0.0882504,0.165853,-213,-1999,-17.3744,-0.1,-415.746,-0.1,1.532
-2.88841,-2.89613,0.402958,0.116472,0.0796076,0.0646773,0.088196,0.165992,-195,-1997,-17.5177,-0.1,-415.88,-0.1,1.536
-2.88809,-2.89585,0.403311,0.117136,0.0799472,0.0668419,0.0881416,0.165968,-178,-1994,-17.6418,-0.1,-416.012,-0.1,1.54
-2.88777,-2.89555,0.403663,0.1178,0.080287,0.068976,0.088087,0.166011,-161,-1992,-17.7475,-0.1,-416.141,-0.1,1.544
-2.88745,-2.89525,0.404016,0.118464,0.0806272,0.071176,0.0880323,0.165981,-143,-1990,-17.8351,-0.1,-416.267,-0.1,1.548
-2.88712,-2.89494,0.404368,0.11913,0.0809678,0.0731322,0.0879776,0.166192,-128,-1988,-17.9042,-0.1,-416.39,-0.1,1.552
-2.8868,-2.89463,0.404719,0.1198,0.0813086,0.0749545,0.0879227,0.166591,-114,-1985,-17.9571,-0.1,-416.51,-0.1,1.556
-2.88647,-2.89431,0.405071,0.12047,0.0816498,0.0766013,0.0878678,0.166886,-102,-1983,-17.9954,-0.1,-416.627,-0.1,1.56
-2.88615,-2.89398,0.405422,0.12114,0.0819913,0.077987,0.0878128,0.167112,-92,-1980,-18.0208,-0.1,-416.741,-0.1,1.564
-2.88582,-2.89366,0.405773,0.121814,0.0823331,0.079026,0.0877577,0.16755,-85,-1977,-18.036,-0.1,-416.852,-0.1,1.568
-2.88549,-2.89333,0.406124,0.122489,0.0826752,0.0799778,0.0877025,0.167986,-79,-1975,-18.0443,-0.1,-416.96,-0.1,1.572
-2.88516,-2.893,0.406475,0.123167,0.0830176,0.0806699,0.0876472,0.168508,-76,-1972,-18.0467,-0.1,-417.064,-0.1,1.576
-2.88482,-2.89268,0.406826,0.123842,0.0833603,0.0811889,0.0875919,0.168538,-74,-1970,-18.0458,-0.1,-417.165,-0.1,1.58
-2.88449,-2.89235,0.407176,0.12451,0.0837033,0.0815061,0.0875364,0.168098,-75,-1968,-18.0433,-0.1,-417.264,-0.1,1.584
-2.88415,-2.89202,0.407526,0.125179,0.0840467,0.0818039,0.0874809,0.167747,-75,-1966,-18.0412,-0.1,-417.361,-0.1,1.588
-2.88382,-2.89169,0.407876,0.125845,0.0843903,0.0820313,0.0874253,0.16734,-76,-1964,-18.0395,-0.1,-417.455,-0.1,1.592
-2.88348,-2.89136,0.408225,0.126512,0.0847342,0.0822404,0.0873696,0.167127,-77,-1962,-18.039,-0.1,-417.547,-0.1,1.596
-2.88314,-2.89102,0.408575,0.12718,0.0850784,0.082495,0.0873138,0.167157,-78,-1960,-18.0399,-0.1,-417.636,-0.1,1.6
-2.8828,-2.89069,0.408924,0.127853,0.0854229,0.0826648,0.0872579,0.167465,-80,-1957,-18.0418,-0.1,-417.722,-0.1,1.604
-2.88246,-2.89036,0.409273,0.128524,0.0857677,0.0829219,0.0872019,0.167584,-81,-1955,-18.0454,-0.1,-417.805,-0.1,1.608
-2.88211,-2.89002,0.409621,0.129195,0.0861128,0.083266,0.0871459,0.167635,-81,-1953,-18.0498,-0.1,-417.885,-0.1,1.612
-2.88177,-2.88969,0.40997,0.129866,0.0864582,0.0836394,0.0870897,0.167697,-81,-1950,-18.0543,-0.1,-417.963,-0.1,1.616
-2.88142,-2.88935,0.410318,0.130539,0.0868038,0.0840035,0.0870335,0.167883,-81,-1948,-18.0584,-0.1,-418.038,-0.1,1.62
-2.88107,-2.889,0.410666,0.131219,0.0871498,0.0845917,0.0869772,0.168554,-78,-1945,-18.0623,-0.1,-418.11,-0.1,1.624
-2.88072,-2.88866,0.411014,0.131896,0.087496,0.0850127,0.0869208,0.168799,-78,-1942,-18.0639,-0.1,-418.178,-0.1,1.628
-2.88037,-2.88832,0.411361,0.132575,0.0878425,0.0854372,0.0868644,0.169136,-77,-1940,-18.0648,-0.1,-418.244,-0.1,1.632
-2.88002,-2.88797,0.411709,0.133257,0.0881892,0.0857491,0.0868078,0.169562,-77,-1937,-18.065,-0.1,-418.307,-0.1,1.636
-2.87967,-2.88762,0.412056,0.13394,0.0885363,0.0862737,0.0867512,0.169932,-76,-1935,-18.0654,-0.1,-418.367,-0.1,1.64
-2.87931,-2.88727,0.412403,0.134621,0.0888836,0.0867386,0.0866945,0.170064,-75,-1932,-18.0642,-0.1,-418.424,-0.1,1.644
-2.87896,-2.88692,0.412749,0.135301,0.0892311,0.0871925,0.0866377,0.170008,-74,-1930,-18.0618,-0.1,-418.478,-0.1,1.648
-2.8786,-2.88657,0.413096,0.135981,0.0895789,0.0874663,0.0865808,0.170056,-74,-1927,-18.0585,-0.1,-418.53,-0.1,1.652
-2.87824,-2.88621,0.413442,0.136661,0.089927,0.0878791,0.0865238,0.170032,-74,-1925,-18.0559,-0.1,-418.579,-0.1,1.656
-2.87788,-2.88586,0.413788,0.137338,0.0902754,0.0881544,0.0864668,0.169756,-74,-1923,-18.0527,-0.1,-418.625,-0.1,1.66
-2.87752,-2.8855,0.414134,0.138012,0.0906239,0.0884242,0.0864097,0.16937,-75,-1921,-18.0504,-0.1,-418.669,-0.1,1.664
-2.87715,-2.88514,0.414479,0.138696,0.0909728,0.0888633,0.0863524,0.169891,-74,-1918,-18.0487,-0.1,-418.711,-0.1,1.668
-2.87679,-2.88479,0.414825,0.139363,0.0913219,0.0887529,0.0862952,0.168856,-79,-1917,-18.0465,-0.1,-418.75,-0.1,1.672
-2.87642,-2.88443,0.41517,0.140035,0.0916712,0.0890823,0.0862378,0.168598,-79,-1915,-18.0486,-0.1,-418.787,-0.1,1.676
-2.87606,-2.88407,0.415515,0.140708,0.0920208,0.0895899,0.0861803,0.168426,-77,-1913,-18.0508,-0.1,-418.822,-0.1,1.68
-2.87569,-2.88371,0.415859,0.14137,0.0923707,0.0896692,0.0861228,0.167505,-80,-1911,-18.0518,-0.1,-418.855,-0.1,1.684
-2.87532,-2.88334,0.416204,0.142036,0.0927207,0.0900963,0.0860652,0.16715,-79,-1909,-18.0552,-0.1,-418.886,-0.1,1.688
-2.87494,-2.88298,0.416548,0.142701,0.093071,0.0904962,0.0860075,0.166827,-79,-1907,-18.058,-0.1,-418.915,-0.1,1.692
-2.87457,-2.88261,0.416892,0.143371,0.0934216,0.0907052,0.0859497,0.167015,-80,-1905,-18.0603,-0.1,-418.941,-0.1,1.696
-2.8742,-2.88225,0.417235,0.144045,0.0937724,0.0909022,0.0858919,0.167572,-82,-1902,-18.0642,-0.1,-418.964,-0.1,1.7
-2.87382,-2.88188,0.417579,0.144724,0.0941234,0.0910622,0.0858339,0.168318,-84,-1899,-18.0695,-0.1,-418.985,-0.1,1.704
-2.87344,-2.88152,0.417922,0.145401,0.0944746,0.0907083,0.0857759,0.168584,-90,-1896,-18.0772,-0.1,-419.002,-0.1,1.708
-2.87307,-2.88116,0.418265,0.14608,0.0948261,0.0904148,0.0857179,0.168993,-97,-1894,-18.0918,-0.1,-419.017,-0.1,1.712
-2.87269,-2.88081,0.418608,0.146755,0.0951778,0.0895569,0.0856597,0.168919,-108,-1891,-18.1131,-0.1,-419.029,-0.1,1.716
-2.8723,-2.88046,0.41895,0.147437,0.0955297,0.0888986,0.0856014,0.169388,-118,-1889,-18.1463,-0.1,-419.038,-0.1,1.72
-2.87192,-2.88012,0.419293,0.148108,0.0958818,0.0876248,0.0855431,0.168895,-134,-1887,-18.1899,-0.1,-419.045,-0.1,1.724
-2.87154,-2.87978,0.419635,0.148782,0.0962342,0.0866892,0.0854847,0.16871,-146,-1885,-18.2492,-0.1,-419.05,-0.1,1.728
-2.87115,-2.87945,0.419976,0.149447,0.0965868,0.0852593,0.0854262,0.167925,-163,-1883,-18.3216,-0.1,-419.053,-0.1,1.732
-2.87076,-2.87912,0.420318,0.150117,0.0969395,0.0841046,0.0853677,0.167776,-178,-1881,-18.4113,-0.1,-419.054,-0.1,1.736
-2.87038,-2.8788,0.420659,0.150785,0.0972925,0.083018,0.0853091,0.167532,-192,-1879,-18.5157,-0.1,-419.053,-0.1,1.74
-2.86999,-2.87848,0.421,0.151451,0.0976457,0.0819482,0.0852503,0.167197,-206,-1877,-18.6342,-0.1,-419.05,-0.1,1.744
-2.8696,-2.87817,0.421341,0.152114,0.0979991,0.0808031,0.0851916,0.166714,-221,-1875,-18.7667,-0.1,-419.045,-0.1,1.748
-2.8692,-2.87786,0.421682,0.152783,0.0983527,0.0797517,0.0851327,0.166911,-234,-1872,-18.9136,-0.1,-419.037,-0.1,1.752
-2.86881,-2.87755,0.422022,0.153456,0.0987065,0.0787918,0.0850738,0.16733,-247,-1870,-19.0742,-0.1,-419.027,-0.1,1.756
-2.86841,-2.87725,0.422363,0.154129,0.0990605,0.0778063,0.0850147,0.167638,-260,-1867,-19.2475,-0.1,-419.014,-0.1,1.76
-2.86802,-2.87694,0.422703,0.154812,0.0994147,0.0771205,0.0849557,0.168678,-271,-1864,-19.4336,-0.1,-418.998,-0.1,1.764
-2.86762,-2.87665,0.423042,0.15549,0.0997691,0.0761739,0.0848965,0.168969,-284,-1861,-19.6298,-0.1,-418.979,-0.1,1.768
-2.86722,-2.87635,0.423382,0.156166,0.100124,0.0754564,0.0848373,0.168961,-295,-1859,-19.8383,-0.1,-418.958,-0.1,1.772
-2.86682,-2.87606,0.423721,0.15684,0.100478,0.0748629,0.0847779,0.168812,-304,-1857,-20.057,-0.1,-418.934,-0.1,1.776
-2.86641,-2.87576,0.42406,0.157515,0.100833,0.0743521,0.0847186,0.16877,-313,-1854,-20.2847,-0.1,-418.909,-0.1,1.78
-2.86601,-2.87547,0.424399,0.158187,0.101189,0.0742419,0.0846591,0.168512,-318,-1852,-20.5202,-0.1,-418.881,-0.1,1.784
-2.8656,-2.87517,0.424737,0.158859,0.101544,0.0741396,0.0845995,0.168311,-323,-1850,-20.76,-0.1,-418.851,-0.1,1.788
-2.8652,-2.87487,0.425075,0.159533,0.101899,0.0744457,0.0845399,0.168407,-324,-1847,-21.0035,-0.1,-418.819,-0.1,1.792
-2.86479,-2.87457,0.425414,0.160201,0.102255,0.0746786,0.0844803,0.167982,-326,-1845,-21.2472,-0.1,-418.784,-0.1,1.796
-2.86438,-2.87427,0.425751,0.160876,0.102611,0.0749202,0.0844205,0.168159,-328,-1843,-21.4917,-0.1,-418.748,-0.1,1.8
-2.86397,-2.87397,0.426089,0.161546,0.102967,0.0750525,0.0843607,0.16796,-330,-1841,-21.737,-0.1,-418.709,-0.1,1.804
-2.86356,-2.87366,0.426426,0.162222,0.103323,0.0754286,0.0843008,0.168317,-331,-1838,-21.984,-0.1,-418.668,-0.1,1.808
-2.86314,-2.87336,0.426763,0.162892,0.10368,0.0757945,0.0842408,0.168066,-332,-1836,-22.2303,-0.1,-418.625,-0.1,1.812
-2.86273,-2.87305,0.4271,0.16356,0.104036,0.07624,0.0841807,0.167697,-331,-1834,-22.476,-0.1,-418.579,-0.1,1.816
-2.86231,-2.87273,0.427437,0.164231,0.104393,0.0769112,0.0841206,0.167681,-329,-1832,-22.7204,-0.1,-418.532,-0.1,1.82
-2.86189,-2.87242,0.427773,0.16489,0.10475,0.0772148,0.0840604,0.16672,-330,-1830,-22.9614,-0.1,-418.483,-0.1,1.824
-2.86147,-2.87211,0.428109,0.165552,0.105107,0.0779642,0.0840001,0.166339,-327,-1828,-23.2023,-0.1,-418.432,-0.1,1.828
-2.86105,-2.87179,0.428445,0.166217,0.105464,0.0786077,0.0839398,0.166287,-325,-1826,-23.439,-0.1,-418.38,-0.1,1.832
-2.86063,-2.87146,0.428781,0.166883,0.105821,0.0791519,0.0838794,0.166338,-324,-1824,-23.6726,-0.1,-418.325,-0.1,1.836
-2.8602,-2.87114,0.429116,0.167553,0.106179,0.0798026,0.0838189,0.166775,-322,-1821,-23.9039,-0.1,-418.267,-0.1,1.84
-2.85978,-2.87082,0.429451,0.168218,0.106536,0.0800925,0.0837584,0.166606,-323,-1819,-24.1321,-0.1,-418.208,-0.1,1.844
-2.85935,-2.87049,0.429786,0.16889,0.106894,0.0804872,0.0836977,0.167011,-323,-1816,-24.3606,-0.1,-418.146,-0.1,1.848
-2.85892,-2.87017,0.430121,0.169559,0.107252,0.0807792,0.083637,0.167109,-324,-1813,-24.5884,-0.1,-418.082,-0.1,1.852
-2.85849,-2.86984,0.430455,0.170232,0.10761,0.081089,0.0835763,0.167491,-325,-1811,-24.8165,-0.1,-418.016,-0.1,1.856
-2.85806,-2.86951,0.430789,0.170907,0.107968,0.0812092,0.0835154,0.167947,-328,-1808,-25.0448,-0.1,-417.947,-0.1,1.86
-2.85763,-2.86919,0.431123,0.171585,0.108326,0.0814333,0.0834545,0.168452,-330,-1805,-25.275,-0.1,-417.875,-0.1,1.864
-2.8572,-2.86886,0.431457,0.17226,0.108685,0.0814099,0.0833936,0.16853,-334,-1803,-25.5063,-0.1,-417.801,-0.1,1.868
-2.85676,-2.86854,0.431791,0.172931,0.109044,0.0811352,0.0833325,0.168323,-341,-1800,-25.7411,-0.1,-417.725,-0.1,1.872
-2.85632,-2.86822,0.432124,0.173601,0.109402,0.0805778,0.0832714,0.167983,-350,-1798,-25.9819,-0.1,-417.648,-0.1,1.876
-2.85588,-2.86791,0.432457,0.174268,0.109761,0.0799183,0.0832102,0.167584,-361,-1796,-26.2314,-0.1,-417.568,-0.1,1.88
-2.85545,-2.86759,0.432789,0.174944,0.11012,0.0793922,0.083149,0.168095,-370,-1794,-26.4904,-0.1,-417.486,-0.1,1.884
-2.855,-2.86728,0.433122,0.17562,0.110479,0.0786672,0.0830877,0.16835,-381,-1791,-26.7578,-0.1,-417.402,-0.1,1.888
-2.85456,-2.86697,0.433454,0.176299,0.110839,0.0784142,0.0830263,0.168865,-387,-1788,-27.0351,-0.1,-417.315,-0.1,1.892
-2.85412,-2.86666,0.433786,0.176985,0.111198,0.0781304,0.0829648,0.169755,-394,-1785,-27.318,-0.1,-417.226,-0.1,1.896
-2.85367,-2.86635,0.434118,0.177677,0.111557,0.0782003,0.0829033,0.17081,-398,-1781,-27.6065,-0.1,-417.133,-0.1,1.9
-2.85322,-2.86604,0.434449,0.178365,0.111917,0.0782181,0.0828417,0.171196,-402,-1779,-27.8973,-0.1,-417.038,-0.1,1.904
-2.85278,-2.86572,0.434781,0.179055,0.112277,0.0783739,0.0827801,0.171597,-404,-1776,-28.1909,-0.1,-416.94,-0.1,1.908
-2.85233,-2.8654,0.435112,0.179747,0.112636,0.0786794,0.0827184,0.172124,-406,-1773,-28.4859,-0.1,-416.84,-0.1,1.912
-2.85188,-2.86509,0.435442,0.180431,0.112996,0.0788542,0.0826566,0.171727,-408,-1771,-28.7811,-0.1,-416.738,-0.1,1.916
-2.85142,-2.86477,0.435773,0.181115,0.113356,0.079345,0.0825947,0.17149,-408,-1768,-29.0773,-0.1,-416.634,-0.1,1.92
-2.85097,-2.86444,0.436103,0.181796,0.113717,0.0798738,0.0825328,0.171045,-407,-1766,-29.3717,-0.1,-416.528,-0.1,1.924
-2.85051,-2.86411,0.436433,0.182474,0.114077,0.0806869,0.0824708,0.170547,-403,-1764,-29.6639,-0.1,-416.42,-0.1,1.928
-2.85006,-2.86379,0.436763,0.183144,0.114437,0.0811139,0.0824088,0.169552,-404,-1763,-29.9513,-0.1,-416.312,-0.1,1.932
-2.8496,-2.86345,0.437092,0.183812,0.114798,0.0818016,0.0823466,0.168659,-401,-1761,-30.2375,-0.1,-416.201,-0.1,1.936
-2.84914,-2.86312,0.437422,0.184481,0.115158,0.0822888,0.0822844,0.168236,-401,-1759,-30.5201,-0.1,-416.09,-0.1,1.94
-2.84868,-2.86279,0.437751,0.185154,0.115519,0.0827288,0.0822222,0.168184,-401,-1757,-30.801,-0.1,-415.976,-0.1,1.944
-2.84821,-2.86245,0.438079,0.185832,0.115879,0.0829358,0.0821599,0.168668,-403,-1754,-31.0809,-0.1,-415.861,-0.1,1.948
-2.84775,-2.86212,0.438408,0.186512,0.11624,0.0830738,0.0820975,0.169077,-406,-1751,-31.3619,-0.1,-415.743,-0.1,1.952
-2.84728,-2.86178,0.438736,0.187197,0.116601,0.0834825,0.0820351,0.169839,-406,-1748,-31.6444,-0.1,-415.622,-0.1,1.956
-2.84682,-2.86144,0.439064,0.187889,0.116962,0.084158,0.0819726,0.170923,-404,-1744,-31.9258,-0.1,-415.498,-0.1,1.96
-2.84635,-2.86109,0.439392,0.188589,0.117323,0.0850978,0.08191,0.17225,-399,-1741,-32.2035,-0.1,-415.372,-0.1,1.964
-2.84588,-2.86075,0.43972,0.189281,0.117684,0.0855804,0.0818473,0.172473,-399,-1738,-32.4754,-0.1,-415.242,-0.1,1.968
-2.84541,-2.86039,0.440047,0.189979,0.118046,0.0865643,0.0817847,0.173169,-394,-1735,-32.7453,-0.1,-415.111,-0.1,1.972
-2.84493,-2.86003,0.440374,0.190682,0.118407,0.0878536,0.0817219,0.174006,-386,-1731,-33.0085,-0.1,-414.976,-0.1,1.976
-2.84446,-2.85967,0.440701,0.191377,0.118768,0.0889147,0.0816591,0.173932,-380,-1729,-33.2624,-0.1,-414.839,-0.1,1.98
-2.84398,-2.85929,0.441027,0.192075,0.11913,0.0903995,0.0815962,0.174141,-370,-1726,-33.5088,-0.1,-414.7,-0.1,1.984
-2.84351,-2.85891,0.441353,0.19277,0.119491,0.0919075,0.0815332,0.173992,-360,-1724,-33.7437,-0.1,-414.559,-0.1,1.988
-2.84303,-2.85853,0.441679,0.193466,0.119853,0.0934887,0.0814702,0.17398,-349,-1721,-33.9671,-0.1,-414.416,-0.1,1.992
-2.84255,-2.85813,0.442005,0.194159,0.120214,0.0948884,0.0814071,0.173741,-340,-1719,-34.1784,-0.1,-414.271,-0.1,1.996
-2.84207,-2.85774,0.442331,0.194852,0.120576,0.0963973,0.081344,0.173582,-330,-1716,-34.3791,-0.1,-414.125,-0.1,2
-2.84158,-2.85734,0.442656,0.195539,0.120938,0.0976047,0.0812808,0.172987,-322,-1714,-34.5686,-0.1,-413.976,-0.1,2.004
-2.8411,-2.85693,0.442981,0.196221,0.1213,0.0986976,0.0812175,0.172186,-316,-1712,-34.7496,-0.1,-413.827,-0.1,2.008
-2.84061,-2.85653,0.443306,0.196897,0.121661,0.099455,0.0811542,0.171106,-313,-1711,-34.9234,-0.1,-413.676,-0.1,2.012
-2.84012,-2.85613,0.44363,0.197565,0.122023,0.0999599,0.0810908,0.169695,-312,-1709,-35.0933,-0.1,-413.525,-0.1,2.016
-2.83964,-2.85572,0.443954,0.198227,0.122385,0.100325,0.0810274,0.168293,-312,-1708,-35.2616,-0.1,-413.372,-0.1,2.02
-2.83915,-2.85532,0.444278,0.198891,0.122747,0.100511,0.0809639,0.167589,-314,-1706,-35.4297,-0.1,-413.219,-0.1,2.024
-2.83865,-2.85492,0.444602,0.199555,0.123109,0.100405,0.0809003,0.167034,-319,-1704,-35.5996,-0.1,-413.065,-0.1,2.028
-2.83816,-2.85452,0.444926,0.200224,0.123472,0.100161,0.0808367,0.167095,-325,-1702,-35.7738,-0.1,-412.909,-0.1,2.032
-2.83767,-2.85412,0.445249,0.200897,0.123834,0.0998263,0.080773,0.16751,-332,-1699,-35.9537,-0.1,-412.75,-0.1,2.036
-2.83717,-2.85373,0.445572,0.201579,0.124196,0.0995452,0.0807093,0.168449,-339,-1696,-36.1401,-0.1,-412.59,-0.1,2.04
-2.83667,-2.85333,0.445894,0.202257,0.124558,0.0989548,0.0806455,0.168845,-348,-1693,-36.3327,-0.1,-412.427,-0.1,2.044
-2.83617,-2.85294,0.446217,0.202943,0.12492,0.0986764,0.0805816,0.169742,-355,-1690,-36.534,-0.1,-412.261,-0.1,2.048
-2.83567,-2.85255,0.446539,0.20363,0.125283,0.0984332,0.0805177,0.170426,-361,-1687,-36.7412,-0.1,-412.093,-0.1,2.052
-2.83517,-2.85216,0.446861,0.204317,0.125645,0.0982422,0.0804537,0.170854,-367,-1684,-36.954,-0.1,-411.923,-0.1,2.056
-2.83467,-2.85177,0.447183,0.205001,0.126007,0.0982013,0.0803897,0.17088,-371,-1681,-37.1716,-0.1,-411.75,-0.1,2.06
-2.83416,-2.85136,0.447504,0.205694,0.12637,0.0989514,0.0803256,0.171646,-368,-1678,-37.3924,-0.1,-411.575,-0.1,2.064
-2.83366,-2.85096,0.447825,0.206373,0.126732,0.0994226,0.0802614,0.171033,-368,-1676,-37.6091,-0.1,-411.399,-0.1,2.068
-2.83315,-2.85057,0.448146,0.207034,0.127095,0.0992186,0.0801972,0.169099,-374,-1675,-37.8249,-0.1,-411.222,-0.1,2.072
-2.83264,-2.85016,0.448467,0.207704,0.127457,0.0999175,0.0801329,0.168558,-371,-1673,-38.0453,-0.1,-411.044,-0.1,2.076
-2.83213,-2.84975,0.448787,0.208383,0.12782,0.101305,0.0800686,0.169004,-362,-1670,-38.2617,-0.1,-410.865,-0.1,2.08
-2.83162,-2.84935,0.449107,0.209029,0.128182,0.10079,0.0800042,0.16648,-371,-1670,-38.4689,-0.1,-410.685,-0.1,2.084
-2.8311,-2.84894,0.449427,0.209693,0.128545,0.101455,0.0799398,0.166351,-369,-1668,-38.6837,-0.1,-410.504,-0.1,2.088
-2.83059,-2.84852,0.449747,0.210362,0.128907,0.102128,0.0798753,0.166583,-366,-1665,-38.8952,-0.1,-410.321,-0.1,2.092
-2.83007,-2.84811,0.450066,0.211024,0.12927,0.102318,0.0798107,0.166218,-369,-1663,-39.1036,-0.1,-410.137,-0.1,2.096
-2.82956,-2.8477,0.450385,0.211685,0.129632,0.10279,0.0797461,0.165918,-368,-1661,-39.3132,-0.1,-409.951,-0.1,2.1
-2.82904,-2.84728,0.450704,0.212337,0.129995,0.102932,0.0796814,0.164998,-371,-1659,-39.5217,-0.1,-409.764,-0.1,2.104
-2.82852,-2.84687,0.451023,0.21299,0.130358,0.10317,0.0796167,0.164385,-373,-1657,-39.7318,-0.1,-409.576,-0.1,2.108
-2.82799,-2.84645,0.451341,0.213647,0.13072,0.10356,0.0795519,0.16435,-373,-1655,-39.9428,-0.1,-409.387,-0.1,2.112
-2.82747,-2.84603,0.451659,0.214306,0.131083,0.103848,0.0794871,0.164442,-374,-1652,-40.1533,-0.1,-409.196,-0.1,2.116
-2.82694,-2.84562,0.451977,0.214967,0.131445,0.104069,0.0794222,0.164763,-376,-1650,-40.3642,-0.1,-409.004,-0.1,2.12
-2.82642,-2.8452,0.452295,0.215636,0.131808,0.104389,0.0793572,0.165552,-377,-1647,-40.5762,-0.1,-408.809,-0.1,2.124
-2.82589,-2.84478,0.452612,0.216305,0.13217,0.104516,0.0792922,0.166107,-380,-1644,-40.7883,-0.1,-408.612,-0.1,2.128
-2.82536,-2.84436,0.452929,0.216964,0.132533,0.104342,0.0792272,0.165643,-385,-1642,-41.0025,-0.1,-408.413,-0.1,2.132
-2.82483,-2.84394,0.453246,0.217629,0.132896,0.104801,0.0791621,0.165909,-385,-1639,-41.2212,-0.1,-408.213,-0.1,2.136
-2.8243,-2.84351,0.453562,0.218299,0.133258,0.105539,0.0790969,0.166402,-382,-1636,-41.4385,-0.1,-408.01,-0.1,2.14
-2.82376,-2.84308,0.453879,0.21896,0.133621,0.105772,0.0790317,0.166041,-384,-1634,-41.6521,-0.1,-407.807,-0.1,2.144
-2.82323,-2.84265,0.454195,0.219624,0.133983,0.106446,0.0789664,0.166001,-382,-1632,-41.8663,-0.1,-407.601,-0.1,2.148
-2.82269,-2.84222,0.45451,0.220283,0.134346,0.107298,0.0789011,0.165601,-378,-1629,-42.0771,-0.1,-407.395,-0.1,2.152
-2.82215,-2.84178,0.454826,0.220941,0.134708,0.108413,0.0788357,0.165218,-371,-1627,-42.2827,-0.1,-407.187,-0.1,2.156
-2.82161,-2.84133,0.455141,0.221597,0.135071,0.109473,0.0787703,0.16482,-365,-1625,-42.4807,-0.1,-406.978,-0.1,2.16
-2.82107,-2.84088,0.455456,0.222254,0.135433,0.110295,0.0787048,0.164669,-362,-1623,-42.6719,-0.1,-406.767,-0.1,2.164
-2.82053,-2.84043,0.455771,0.222913,0.135795,0.110872,0.0786393,0.164683,-360,-1621,-42.8586,-0.1,-406.555,-0.1,2.168
-2.81999,-2.83998,0.456085,0.223584,0.136158,0.111919,0.0785737,0.165643,-354,-1617,-43.0426,-0.1,-406.341,-0.1,2.172
-2.81944,-2.83953,0.456399,0.224247,0.13652,0.112069,0.078508,0.165708,-357,-1615,-43.2203,-0.1,-406.125,-0.1,2.176
-2.81889,-2.83908,0.456713,0.224916,0.136882,0.112372,0.0784423,0.166268,-358,-1612,-43.3997,-0.1,-405.907,-0.1,2.18
-2.81835,-2.83862,0.457027,0.225586,0.137245,0.112832,0.0783766,0.166671,-358,-1609,-43.5794,-0.1,-405.687,-0.1,2.184
-2.8178,-2.83816,0.45734,0.226259,0.137607,0.113283,0.0783108,0.16717,-357,-1606,-43.7578,-0.1,-405.465,-0.1,2.188
-2.81725,-2.83771,0.457653,0.226937,0.137969,0.113555,0.0782449,0.167963,-359,-1603,-43.9352,-0.1,-405.241,-0.1,2.192
-2.81669,-2.83725,0.457966,0.227612,0.138331,0.113736,0.078179,0.168233,-361,-1600,-44.1133,-0.1,-405.015,-0.1,2.196
-2.81614,-2.83679,0.458279,0.228287,0.138693,0.114087,0.0781131,0.168413,-361,-1597,-44.2928,-0.1,-404.787,-0.1,2.2
-2.81558,-2.83633,0.458591,0.228964,0.139055,0.114465,0.0780471,0.168619,-362,-1595,-44.472,-0.1,-404.557,-0.1,2.204
-2.81503,-2.83587,0.458903,0.229644,0.139417,0.114717,0.077981,0.169102,-363,-1592,-44.651,-0.1,-404.325,-0.1,2.208
-2.81447,-2.83541,0.459215,0.230322,0.139779,0.114799,0.0779149,0.16928,-366,-1589,-44.8308,-0.1,-404.092,-0.1,2.212
-2.81391,-2.83495,0.459526,0.231001,0.140141,0.115256,0.0778488,0.169428,-366,-1586,-45.0128,-0.1,-403.856,-0.1,2.216
-2.81335,-2.83448,0.459838,0.231684,0.140503,0.115504,0.0777826,0.169814,-368,-1583,-45.1938,-0.1,-403.619,-0.1,2.22
-2.81278,-2.83401,0.460149,0.232367,0.140865,0.116014,0.0777163,0.170129,-367,-1580,-45.3754,-0.1,-403.38,-0.1,2.224
-2.81222,-2.83354,0.460459,0.233051,0.141227,0.116786,0.07765,0.170454,-363,-1577,-45.5552,-0.1,-403.139,-0.1,2.228
-2.81165,-2.83307,0.46077,0.233733,0.141588,0.117359,0.0775837,0.170469,-362,-1575,-45.7308,-0.1,-402.896,-0.1,2.232
-2.81109,-2.83259,0.46108,0.23442,0.14195,0.118115,0.0775173,0.170883,-359,-1572,-45.9042,-0.1,-402.652,-0.1,2.236
-2.81052,-2.83211,0.46139,0.235103,0.142312,0.118475,0.0774508,0.17087,-359,-1569,-46.0737,-0.1,-402.405,-0.1,2.24
-2.80995,-2.83164,0.4617,0.235786,0.142673,0.118484,0.0773843,0.170804,-363,-1567,-46.2431,-0.1,-402.158,-0.1,2.244
-2.80938,-2.83116,0.462009,0.236472,0.143035,0.118721,0.0773178,0.171077,-365,-1564,-46.4156,-0.1,-401.908,-0.1,2.248
-2.8088,-2.83068,0.462318,0.237157,0.143396,0.11885,0.0772512,0.171086,-367,-1561,-46.5891,-0.1,-401.657,-0.1,2.252
-2.80823,-2.83021,0.462627,0.237844,0.143757,0.118648,0.0771845,0.171323,-373,-1558,-46.7647,-0.1,-401.404,-0.1,2.256
-2.80765,-2.82974,0.462936,0.238533,0.144118,0.118657,0.0771178,0.171624,-377,-1555,-46.9454,-0.1,-401.149,-0.1,2.26
-2.80708,-2.82926,0.463244,0.239214,0.14448,0.118376,0.0770511,0.171192,-383,-1553,-47.1293,-0.1,-400.892,-0.1,2.264
-2.8065,-2.8288,0.463552,0.239891,0.144841,0.117986,0.0769843,0.170529,-391,-1551,-47.3191,-0.1,-400.635,-0.1,2.268
-2.80592,-2.82832,0.46386,0.240572,0.145202,0.118159,0.0769175,0.170404,-393,-1548,-47.5155,-0.1,-400.376,-0.1,2.272
-2.80534,-2.82784,0.464167,0.241255,0.145563,0.118763,0.0768506,0.17058,-391,-1546,-47.7131,-0.1,-400.116,-0.1,2.276
-2.80475,-2.82736,0.464475,0.241937,0.145923,0.119195,0.0767837,0.170525,-391,-1543,-47.9081,-0.1,-399.854,-0.1,2.28
-2.80417,-2.82688,0.464782,0.242613,0.146284,0.119454,0.0767167,0.169998,-393,-1541,-48.1023,-0.1,-399.591,-0.1,2.284
-2.80358,-2.82639,0.465088,0.243298,0.146645,0.120289,0.0766497,0.170424,-389,-1538,-48.2969,-0.1,-399.326,-0.1,2.288
-2.803,-2.82591,0.465395,0.243981,0.147005,0.120816,0.0765826,0.170507,-388,-1535,-48.4868,-0.1,-399.06,-0.1,2.292
-2.80241,-2.82542,0.465701,0.244655,0.147366,0.121456,0.0765155,0.1699,-386,-1533,-48.6747,-0.1,-398.792,-0.1,2.296
-2.80182,-2.82492,0.466007,0.245338,0.147726,0.122343,0.0764484,0.170158,-381,-1530,-48.8596,-0.1,-398.523,-0.1,2.3
-2.80123,-2.82442,0.466313,0.24601,0.148087,0.12282,0.0763812,0.169437,-381,-1528,-49.0393,-0.1,-398.253,-0.1,2.304
-2.80063,-2.82392,0.466618,0.246691,0.148447,0.123799,0.0763139,0.169705,-376,-1525,-49.2175,-0.1,-397.981,-0.1,2.308
-2.80004,-2.82342,0.466923,0.247363,0.148807,0.123905,0.0762466,0.169164,-379,-1523,-49.39,-0.1,-397.708,-0.1,2.312
-2.79944,-2.82292,0.467228,0.248033,0.149167,0.124235,0.0761793,0.168544,-379,-1521,-49.5645,-0.1,-397.434,-0.1,2.316
-2.79885,-2.82243,0.467533,0.248708,0.149527,0.124311,0.0761119,0.168649,-382,-1518,-49.7392,-0.1,-397.159,-0.1,2.32
-2.79825,-2.82193,0.467837,0.249384,0.149887,0.124621,0.0760445,0.168748,-383,-1516,-49.9162,-0.1,-396.882,-0.1,2.324
-2.79765,-2.82143,0.468141,0.250053,0.150246,0.124223,0.075977,0.168295,-391,-1514,-50.0938,-0.1,-396.604,-0.1,2.328
-2.79704,-2.82094,0.468445,0.250722,0.150606,0.123958,0.0759095,0.167936,-397,-1511,-50.2784,-0.1,-396.325,-0.1,2.332
-2.79644,-2.82044,0.468748,0.251391,0.150965,0.123867,0.075842,0.167725,-402,-1509,-50.4684,-0.1,-396.044,-0.1,2.336
-2.79584,-2.81995,0.469051,0.252062,0.151325,0.123547,0.0757744,0.167671,-409,-1506,-50.6626,-0.1,-395.763,-0.1,2.34
-2.79523,-2.81946,0.469354,0.252729,0.151684,0.12345,0.0757067,0.167376,-413,-1504,-50.8628,-0.1,-395.48,-0.1,2.344
-2.79462,-2.81897,0.469657,0.253397,0.152043,0.123298,0.075639,0.167295,-418,-1501,-51.0671,-0.1,-395.196,-0.1,2.348
-2.79401,-2.81848,0.46996,0.254066,0.152402,0.122967,0.0755713,0.167269,-425,-1499,-51.276,-0.1,-394.91,-0.1,2.352
-2.7934,-2.81799,0.470262,0.254738,0.152761,0.122947,0.0755035,0.167482,-429,-1496,-51.4909,-0.1,-394.623,-0.1,2.356
-2.79279,-2.8175,0.470564,0.255411,0.15312,0.122906,0.0754357,0.16774,-434,-1493,-51.7091,-0.1,-394.334,-0.1,2.36
-2.79218,-2.817,0.470865,0.256088,0.153479,0.123079,0.0753679,0.168228,-436,-1490,-51.9307,-0.1,-394.044,-0.1,2.364
-2.79156,-2.8165,0.471166,0.25677,0.153837,0.123713,0.0753,0.169043,-434,-1487,-52.1533,-0.1,-393.751,-0.1,2.368
-2.79095,-2.816,0.471468,0.257453,0.154195,0.123848,0.075232,0.169557,-437,-1484,-52.3733,-0.1,-393.457,-0.1,2.372
-2.79033,-2.8155,0.471768,0.258142,0.154554,0.124543,0.0751641,0.170505,-434,-1480,-52.5948,-0.1,-393.16,-0.1,2.376
-2.78971,-2.815,0.472069,0.258831,0.154912,0.125149,0.075096,0.17105,-433,-1477,-52.8127,-0.1,-392.862,-0.1,2.38
-2.78909,-2.81448,0.472369,0.259523,0.15527,0.126015,0.075028,0.17173,-429,-1474,-53.0278,-0.1,-392.561,-0.1,2.384
-2.78847,-2.81397,0.472669,0.260212,0.155628,0.126505,0.0749599,0.171867,-428,-1471,-53.238,-0.1,-392.259,-0.1,2.388
-2.78785,-2.81346,0.472969,0.2609,0.155986,0.127034,0.0748917,0.17193,-427,-1468,-53.4465,-0.1,-391.955,-0.1,2.392
-2.78722,-2.81295,0.473268,0.26158,0.156343,0.127242,0.0748235,0.171309,-429,-1466,-53.6533,-0.1,-391.65,-0.1,2.396
-2.7866,-2.81244,0.473567,0.26226,0.156701,0.127151,0.0747553,0.170838,-433,-1464,-53.8614,-0.1,-391.344,-0.1,2.4
-2.78597,-2.81193,0.473866,0.262938,0.157058,0.127291,0.074687,0.170408,-436,-1461,-54.0732,-0.1,-391.037,-0.1,2.404
-2.78534,-2.81143,0.474165,0.263615,0.157415,0.127097,0.0746187,0.170007,-442,-1459,-54.2869,-0.1,-390.729,-0.1,2.408
-2.78471,-2.81092,0.474463,0.264295,0.157772,0.127227,0.0745504,0.169999,-444,-1456,-54.5054,-0.1,-390.419,-0.1,2.412
-2.78408,-2.8104,0.474761,0.264981,0.158129,0.127688,0.074482,0.17054,-444,-1453,-54.7254,-0.1,-390.108,-0.1,2.416
-2.78344,-2.8099,0.475059,0.265655,0.158486,0.127333,0.0744136,0.169807,-451,-1451,-54.9446,-0.1,-389.796,-0.1,2.42
-2.78281,-2.80938,0.475357,0.266335,0.158842,0.127729,0.0743451,0.169894,-451,-1448,-55.1696,-0.1,-389.483,-0.1,2.424
-2.78217,-2.80887,0.475654,0.267015,0.159199,0.127763,0.0742766,0.169894,-455,-1446,-55.3942,-0.1,-389.168,-0.1,2.428
-2.78154,-2.80836,0.475951,0.267695,0.159555,0.127988,0.0742081,0.169952,-457,-1443,-55.6214,-0.1,-388.852,-0.1,2.432
-2.7809,-2.80785,0.476247,0.268371,0.159911,0.127907,0.0741395,0.169674,-461,-1440,-55.8495,-0.1,-388.534,-0.1,2.436
-2.78026,-2.80733,0.476544,0.269043,0.160267,0.127968,0.0740709,0.169086,-465,-1438,-56.0814,-0.1,-388.216,-0.1,2.44
-2.77961,-2.80682,0.47684,0.269712,0.160623,0.12775,0.0740022,0.168463,-470,-1436,-56.3158,-0.1,-387.897,-0.1,2.444
-2.77897,-2.80631,0.477136,0.270387,0.160978,0.128151,0.0739335,0.168566,-471,-1433,-56.5548,-0.1,-387.577,-0.1,2.448
-2.77833,-2.8058,0.477432,0.271056,0.161334,0.127671,0.0738648,0.168174,-479,-1431,-56.7936,-0.1,-387.255,-0.1,2.452
-2.77768,-2.80529,0.477727,0.271729,0.161689,0.127494,0.073796,0.168201,-484,-1428,-57.0397,-0.1,-386.933,-0.1,2.456
-2.77703,-2.80479,0.478022,0.272401,0.162044,0.127261,0.0737272,0.168103,-490,-1426,-57.2904,-0.1,-386.609,-0.1,2.46
-2.77638,-2.80428,0.478317,0.273074,0.162399,0.126933,0.0736584,0.168182,-497,-1423,-57.5463,-0.1,-386.283,-0.1,2.464
-2.77573,-2.80377,0.478611,0.273748,0.162754,0.126858,0.0735895,0.168235,-502,-1420,-57.808,-0.1,-385.957,-0.1,2.468
-2.77508,-2.80327,0.478905,0.27442,0.163109,0.126607,0.0735206,0.168155,-508,-1418,-58.0734,-0.1,-385.629,-0.1,2.472
-2.77443,-2.80276,0.479199,0.275091,0.163463,0.126641,0.0734516,0.168015,-512,-1415,-58.3439,-0.1,-385.3,-0.1,2.476
-2.77377,-2.80226,0.479493,0.275762,0.163817,0.126289,0.0733826,0.16798,-519,-1413,-58.6172,-0.1,-384.97,-0.1,2.48
-2.77312,-2.80176,0.479786,0.27644,0.164171,0.126228,0.0733136,0.168417,-523,-1410,-58.8965,-0.1,-384.638,-0.1,2.484
-2.77246,-2.80125,0.48008,0.277115,0.164525,0.126071,0.0732445,0.168564,-529,-1407,-59.1792,-0.1,-384.305,-0.1,2.488
-2.7718,-2.80075,0.480372,0.277789,0.164879,0.125938,0.0731754,0.168576,-534,-1404,-59.4663,-0.1,-383.97,-0.1,2.492
-2.77114,-2.80025,0.480665,0.278463,0.165233,0.12585,0.0731063,0.168497,-538,-1401,-59.7574,-0.1,-383.634,-0.1,2.496
-2.77048,-2.79975,0.480957,0.279138,0.165586,0.125762,0.0730371,0.168589,-543,-1399,-60.0521,-0.1,-383.297,-0.1,2.5
-2.76982,-2.79924,0.481249,0.279815,0.165939,0.126135,0.0729679,0.168794,-544,-1396,-60.3502,-0.1,-382.959,-0.1,2.504
-2.76915,-2.79874,0.481541,0.280482,0.166292,0.125808,0.0728987,0.168154,-551,-1394,-60.648,-0.1,-382.619,-0.1,2.508
-2.76849,-2.79823,0.481832,0.281153,0.166645,0.126137,0.0728294,0.167986,-552,-1391,-60.9513,-0.1,-382.279,-0.1,2.512
-2.76782,-2.79773,0.482124,0.281818,0.166997,0.126097,0.0727601,0.167413,-556,-1389,-61.2545,-0.1,-381.937,-0.1,2.516
-2.76715,-2.79722,0.482414,0.282482,0.16735,0.126215,0.0726907,0.166945,-559,-1387,-61.5607,-0.1,-381.595,-0.1,2.52
-2.76648,-2.79671,0.482705,0.283148,0.167702,0.126725,0.0726214,0.166834,-558,-1384,-61.8684,-0.1,-381.252,-0.1,2.524
-2.76581,-2.7962,0.482995,0.283807,0.168054,0.126576,0.0725519,0.166156,-564,-1382,-62.1745,-0.1,-380.908,-0.1,2.528
-2.76514,-2.79569,0.483286,0.28447,0.168406,0.12711,0.0724825,0.165992,-563,-1380,-62.4844,-0.1,-380.563,-0.1,2.532
-2.76446,-2.79518,0.483575,0.285133,0.168757,0.127437,0.072413,0.165882,-564,-1377,-62.7922,-0.1,-380.217,-0.1,2.536
-2.76379,-2.79466,0.483865,0.285798,0.169109,0.128173,0.0723435,0.166011,-561,-1374,-63.0994,-0.1,-379.87,-0.1,2.54
-2.76311,-2.79414,0.484154,0.286462,0.16946,0.128664,0.072274,0.165981,-561,-1372,-63.4027,-0.1,-379.522,-0.1,2.544
-2.76243,-2.79362,0.484443,0.28713,0.169811,0.129452,0.0722044,0.166336,-558,-1369,-63.704,-0.1,-379.172,-0.1,2.548
-2.76175,-2.79309,0.484732,0.287803,0.170162,0.130121,0.0721348,0.167004,-556,-1365,-64.0008,-0.1,-378.821,-0.1,2.552
-2.76107,-2.79257,0.48502,0.288473,0.170512,0.130481,0.0720651,0.167133,-556,-1363,-64.2943,-0.1,-378.468,-0.1,2.556
-2.76039,-2.79204,0.485308,0.28914,0.170862,0.130692,0.0719955,0.167017,-558,-1360,-64.5873,-0.1,-378.114,-0.1,2.56
-2.7597,-2.79152,0.485596,0.289813,0.171213,0.130919,0.0719258,0.167458,-560,-1357,-64.8811,-0.1,-377.759,-0.1,2.564
-2.75902,-2.791,0.485884,0.29048,0.171562,0.130667,0.071856,0.167177,-566,-1355,-65.1759,-0.1,-377.402,-0.1,2.568
-2.75833,-2.79047,0.486171,0.291147,0.171912,0.130758,0.0717862,0.167104,-569,-1352,-65.4755,-0.1,-377.045,-0.1,2.572
-2.75764,-2.78995,0.486458,0.291813,0.172262,0.131078,0.0717164,0.166883,-571,-1349,-65.7769,-0.1,-376.686,-0.1,2.576
-2.75695,-2.78942,0.486745,0.292484,0.172611,0.131465,0.0716466,0.167167,-571,-1347,-66.078,-0.1,-376.326,-0.1,2.58
-2.75626,-2.78889,0.487031,0.293153,0.17296,0.131923,0.0715767,0.167213,-571,-1344,-66.3782,-0.1,-375.965,-0.1,2.584
-2.75557,-2.78835,0.487317,0.29382,0.173309,0.132402,0.0715068,0.16707,-570,-1341,-66.6769,-0.1,-375.603,-0.1,2.588
-2.75487,-2.78782,0.487603,0.294486,0.173657,0.132693,0.0714369,0.166803,-572,-1339,-66.974,-0.1,-375.239,-0.1,2.592
-2.75418,-2.78729,0.487889,0.295152,0.174006,0.132828,0.071367,0.166711,-574,-1336,-67.2712,-0.1,-374.875,-0.1,2.596
-2.75348,-2.78676,0.488174,0.295816,0.174354,0.132689,0.071297,0.166534,-580,-1334,-67.57,-0.1,-374.51,-0.1,2.6
-2.75278,-2.78624,0.488459,0.296474,0.174702,0.131876,0.071227,0.165812,-591,-1332,-67.8733,-0.1,-374.144,-0.1,2.604
-2.75208,-2.78572,0.488744,0.29713,0.175049,0.131276,0.0711569,0.165244,-600,-1329,-68.1866,-0.1,-373.778,-0.1,2.608
-2.75138,-2.7852,0.489028,0.297781,0.175397,0.130301,0.0710868,0.164347,-613,-1328,-68.5084,-0.1,-373.411,-0.1,2.612
-2.75068,-2.78468,0.489313,0.298429,0.175744,0.130198,0.0710167,0.163605,-618,-1326,-68.8414,-0.1,-373.044,-0.1,2.616
-2.74998,-2.78416,0.489597,0.299079,0.176091,0.130561,0.0709466,0.163255,-618,-1323,-69.1777,-0.1,-372.676,-0.1,2.62
-2.74927,-2.78363,0.48988,0.299715,0.176437,0.131119,0.0708764,0.161841,-617,-1322,-69.5132,-0.1,-372.308,-0.1,2.624
-2.74857,-2.78309,0.490164,0.300353,0.176784,0.132068,0.0708062,0.161042,-613,-1320,-69.8459,-0.1,-371.94,-0.1,2.628
-2.74786,-2.78255,0.490447,0.300992,0.17713,0.133391,0.070736,0.160596,-605,-1318,-70.1723,-0.1,-371.571,-0.1,2.632
-2.74715,-2.782,0.490729,0.301631,0.177476,0.134676,0.0706657,0.160298,-597,-1316,-70.4891,-0.1,-371.202,-0.1,2.636
-2.74644,-2.78144,0.491012,0.302264,0.177822,0.13608,0.0705955,0.15961,-589,-1314,-70.7967,-0.1,-370.832,-0.1,2.64
-2.74573,-2.78088,0.491294,0.302897,0.178167,0.137419,0.0705252,0.159152,-581,-1312,-71.094,-0.1,-370.461,-0.1,2.644
-2.74501,-2.78033,0.491576,0.303522,0.178512,0.138081,0.0704548,0.158242,-579,-1310,-71.3821,-0.1,-370.091,-0.1,2.648
-2.7443,-2.77976,0.491858,0.304153,0.178857,0.139214,0.0703845,0.158067,-573,-1308,-71.6665,-0.1,-369.72,-0.1,2.652
-2.74358,-2.77919,0.492139,0.304782,0.179202,0.139911,0.0703141,0.157806,-570,-1305,-71.9435,-0.1,-369.348,-0.1,2.656
-2.74287,-2.77862,0.49242,0.305403,0.179546,0.140952,0.0702436,0.156941,-565,-1304,-72.2165,-0.1,-368.976,-0.1,2.66
-2.74215,-2.77805,0.492701,0.306023,0.17989,0.141876,0.0701732,0.15625,-560,-1302,-72.4828,-0.1,-368.604,-0.1,2.664
-2.74143,-2.77747,0.492982,0.30664,0.180234,0.142694,0.0701027,0.155645,-557,-1300,-72.7433,-0.1,-368.231,-0.1,2.668
-2.7407,-2.77689,0.493262,0.307255,0.180578,0.143786,0.0700322,0.155011,-551,-1298,-72.999,-0.1,-367.858,-0.1,2.672
-2.73998,-2.7763,0.493542,0.307861,0.180921,0.144427,0.0699617,0.153782,-549,-1297,-73.2476,-0.1,-367.486,-0.1,2.676
-2.73926,-2.77572,0.493822,0.308467,0.181264,0.145028,0.0698911,0.153021,-547,-1295,-73.4931,-0.1,-367.113,-0.1,2.68
-2.73853,-2.77513,0.494101,0.309073,0.181607,0.145889,0.0698206,0.152513,-543,-1293,-73.7357,-0.1,-366.74,-0.1,2.684
-2.7378,-2.77454,0.49438,0.309674,0.18195,0.146175,0.06975,0.151829,-545,-1292,-73.9735,-0.1,-366.367,-0.1,2.688
-2.73708,-2.77395,0.494659,0.31028,0.182292,0.146827,0.0696793,0.15169,-543,-1289,-74.2113,-0.1,-365.993,-0.1,2.692
-2.73635,-2.77336,0.494938,0.310882,0.182634,0.147203,0.0696087,0.15128,-543,-1287,-74.4461,-0.1,-365.619,-0.1,2.696
-2.73561,-2.77276,0.495216,0.311485,0.182976,0.147915,0.069538,0.151123,-540,-1285,-74.6799,-0.1,-365.244,-0.1,2.7
-2.73488,-2.77216,0.495494,0.312084,0.183318,0.148879,0.0694673,0.150643,-535,-1283,-74.9099,-0.1,-364.869,-0.1,2.704
-2.73415,-2.77155,0.495772,0.312675,0.183659,0.149349,0.0693965,0.149719,-535,-1282,-75.1341,-0.1,-364.495,-0.1,2.708
-2.73341,-2.77095,0.496049,0.313262,0.184,0.14972,0.0693258,0.148671,-535,-1281,-75.3568,-0.1,-364.12,-0.1,2.712
-2.73268,-2.77035,0.496326,0.313841,0.18434,0.150284,0.069255,0.147367,-534,-1280,-75.5788,-0.1,-363.746,-0.1,2.716
-2.73194,-2.76974,0.496603,0.314412,0.184681,0.151207,0.0691842,0.145894,-529,-1279,-75.7982,-0.1,-363.372,-0.1,2.72
-2.7312,-2.76912,0.49688,0.314977,0.185021,0.152023,0.0691134,0.144336,-526,-1278,-76.0121,-0.1,-362.999,-0.1,2.724
-2.73046,-2.7685,0.497156,0.315537,0.185361,0.152856,0.0690425,0.142865,-522,-1277,-76.2212,-0.1,-362.627,-0.1,2.728
-2.72972,-2.76788,0.497432,0.316092,0.1857,0.153728,0.0689716,0.141482,-518,-1276,-76.4255,-0.1,-362.255,-0.1,2.732
-2.72897,-2.76725,0.497708,0.316636,0.186039,0.154885,0.0689007,0.139696,-511,-1276,-76.6245,-0.1,-361.885,-0.1,2.736
-2.72823,-2.76662,0.497983,0.317179,0.186378,0.156174,0.0688298,0.138332,-504,-1275,-76.8157,-0.1,-361.515,-0.1,2.74
-2.72748,-2.76598,0.498259,0.317714,0.186717,0.156832,0.0687588,0.136847,-501,-1274,-76.9983,-0.1,-361.147,-0.1,2.744
-2.72673,-2.76535,0.498533,0.318249,0.187055,0.157444,0.0686879,0.135771,-500,-1273,-77.1779,-0.1,-360.779,-0.1,2.748
-2.72598,-2.76471,0.498808,0.318776,0.187393,0.158341,0.0686169,0.13442,-495,-1273,-77.3545,-0.1,-360.412,-0.1,2.752
-2.72523,-2.76407,0.499082,0.3193,0.187731,0.159169,0.0685459,0.133347,-491,-1272,-77.5258,-0.1,-360.045,-0.1,2.756
-2.72448,-2.76341,0.499356,0.319822,0.188069,0.160672,0.0684748,0.132372,-482,-1271,-77.6921,-0.1,-359.679,-0.1,2.76
-2.72373,-2.76276,0.49963,0.320333,0.188406,0.161097,0.0684037,0.130801,-481,-1270,-77.8482,-0.1,-359.315,-0.1,2.764
-2.72298,-2.76211,0.499904,0.320839,0.188743,0.162043,0.0683327,0.129379,-476,-1270,-78.0029,-0.1,-358.951,-0.1,2.768
-2.72222,-2.76145,0.500177,0.32134,0.189079,0.162818,0.0682615,0.127971,-473,-1269,-78.1521,-0.1,-358.588,-0.1,2.772
-2.72146,-2.76078,0.50045,0.321838,0.189415,0.164169,0.0681904,0.126859,-465,-1269,-78.2967,-0.1,-358.226,-0.1,2.776
-2.7207,-2.76012,0.500722,0.322329,0.189751,0.164581,0.0681193,0.125514,-464,-1268,-78.4326,-0.1,-357.865,-0.1,2.78
-2.71995,-2.75945,0.500995,0.322819,0.190087,0.16546,0.0680481,0.124501,-460,-1268,-78.5673,-0.1,-357.506,-0.1,2.784
-2.71918,-2.75878,0.501267,0.323301,0.190422,0.166334,0.0679769,0.123164,-456,-1267,-78.697,-0.1,-357.147,-0.1,2.788
-2.71842,-2.75811,0.501538,0.323778,0.190757,0.166772,0.0679057,0.121812,-455,-1267,-78.8219,-0.1,-356.789,-0.1,2.792
-2.71766,-2.75743,0.50181,0.324252,0.191092,0.16741,0.0678344,0.120767,-453,-1266,-78.9456,-0.1,-356.432,-0.1,2.796
-2.71689,-2.75673,0.502081,0.324734,0.191426,0.169966,0.0677632,0.120646,-434,-1265,-79.0654,-0.1,-356.076,-0.1,2.8
-2.71613,-2.75605,0.502352,0.325203,0.191761,0.170518,0.0676919,0.119529,-433,-1264,-79.1661,-0.1,-355.72,-0.1,2.804
-2.71536,-2.75538,0.502623,0.325653,0.192094,0.169389,0.0676206,0.117172,-446,-1265,-79.2656,-0.1,-355.366,-0.1,2.808
-2.71459,-2.75468,0.502893,0.32611,0.192428,0.170911,0.0675493,0.116234,-436,-1264,-79.3768,-0.1,-355.014,-0.1,2.812
-2.71382,-2.75399,0.503163,0.326564,0.192761,0.171868,0.0674779,0.11532,-431,-1264,-79.4776,-0.1,-354.662,-0.1,2.816
-2.71305,-2.75328,0.503433,0.327019,0.193094,0.173629,0.0674066,0.11474,-419,-1263,-79.5722,-0.1,-354.311,-0.1,2.82
-2.71227,-2.75256,0.503702,0.327469,0.193426,0.175494,0.0673352,0.114037,-405,-1262,-79.6536,-0.1,-353.961,-0.1,2.824
-2.7115,-2.75184,0.503972,0.327917,0.193758,0.177514,0.0672638,0.113338,-391,-1261,-79.7211,-0.1,-353.612,-0.1,2.828
-2.71072,-2.7511,0.50424,0.328359,0.19409,0.179351,0.0671924,0.112411,-378,-1261,-79.7734,-0.1,-353.263,-0.1,2.832
-2.70995,-2.75037,0.504509,0.328801,0.194422,0.181151,0.0671209,0.111793,-365,-1260,-79.812,-0.1,-352.916,-0.1,2.836
-2.70917,-2.74962,0.504777,0.32924,0.194753,0.182725,0.0670495,0.111064,-355,-1259,-79.8376,-0.1,-352.569,-0.1,2.84
-2.70839,-2.74888,0.505045,0.329671,0.195084,0.184005,0.066978,0.110003,-347,-1259,-79.8521,-0.1,-352.223,-0.1,2.844
-2.70761,-2.74813,0.505313,0.330102,0.195414,0.185147,0.0669065,0.10918,-340,-1259,-79.8583,-0.1,-351.878,-0.1,2.848
-2.70683,-2.74738,0.505581,0.330529,0.195744,0.185735,0.066835,0.108401,-338,-1258,-79.8575,-0.1,-351.535,-0.1,2.852
-2.70604,-2.74662,0.505848,0.33096,0.196074,0.186587,0.0667635,0.10817,-333,-1257,-79.8544,-0.1,-351.192,-0.1,2.856
-2.70526,-2.74587,0.506115,0.331395,0.196404,0.187069,0.0666919,0.108361,-332,-1256,-79.8471,-0.1,-350.849,-0.1,2.86
-2.70447,-2.74514,0.506381,0.331826,0.196733,0.186124,0.0666203,0.108143,-343,-1255,-79.8393,-0.1,-350.506,-0.1,2.864
-2.70368,-2.7444,0.506648,0.332258,0.197062,0.185148,0.0665488,0.108141,-355,-1254,-79.8432,-0.1,-350.164,-0.1,2.868
-2.70289,-2.74367,0.506914,0.332696,0.19739,0.184383,0.0664772,0.108572,-364,-1252,-79.8589,-0.1,-349.822,-0.1,2.872
-2.7021,-2.74294,0.50718,0.333137,0.197718,0.183901,0.0664055,0.109176,-372,-1250,-79.8845,-0.1,-349.48,-0.1,2.876
-2.70131,-2.74221,0.507445,0.333584,0.198046,0.183062,0.0663339,0.109982,-382,-1248,-79.9178,-0.1,-349.137,-0.1,2.88
-2.70052,-2.74148,0.50771,0.334037,0.198373,0.182876,0.0662623,0.111066,-387,-1246,-79.9613,-0.1,-348.794,-0.1,2.884
-2.69973,-2.74076,0.507975,0.334487,0.1987,0.182407,0.0661906,0.111559,-394,-1244,-80.0096,-0.1,-348.45,-0.1,2.888
-2.69893,-2.74003,0.50824,0.334935,0.199027,0.182469,0.0661189,0.111743,-397,-1243,-80.0648,-0.1,-348.107,-0.1,2.892
-2.69813,-2.7393,0.508504,0.335383,0.199354,0.182596,0.0660472,0.111808,-399,-1241,-80.1224,-0.1,-347.763,-0.1,2.896
-2.69734,-2.73856,0.508768,0.335836,0.19968,0.183257,0.0659755,0.112284,-396,-1240,-80.1815,-0.1,-347.419,-0.1,2.9
-2.69654,-2.73782,0.509032,0.336291,0.200005,0.184072,0.0659037,0.112774,-392,-1238,-80.2375,-0.1,-347.075,-0.1,2.904
-2.69574,-2.73707,0.509295,0.336743,0.200331,0.184932,0.065832,0.112841,-387,-1236,-80.289,-0.1,-346.73,-0.1,2.908
-2.69493,-2.73631,0.509559,0.337194,0.200655,0.186138,0.0657602,0.112799,-380,-1235,-80.3356,-0.1,-346.386,-0.1,2.912
-2.69413,-2.73556,0.509821,0.337642,0.20098,0.186943,0.0656884,0.112513,-376,-1234,-80.3744,-0.1,-346.042,-0.1,2.916
-2.69333,-2.7348,0.510084,0.338087,0.201304,0.187796,0.0656166,0.112091,-372,-1233,-80.409,-0.1,-345.699,-0.1,2.92
-2.69252,-2.73405,0.510346,0.338532,0.201628,0.188278,0.0655448,0.11181,-371,-1232,-80.439,-0.1,-345.356,-0.1,2.924
-2.69171,-2.7333,0.510608,0.338972,0.201952,0.187995,0.065473,0.111277,-376,-1231,-80.4682,-0.1,-345.014,-0.1,2.928
-2.6909,-2.73255,0.51087,0.339411,0.202275,0.187835,0.0654012,0.110749,-380,-1230,-80.5028,-0.1,-344.672,-0.1,2.932
-2.69009,-2.7318,0.511132,0.339846,0.202598,0.187498,0.0653293,0.110052,-386,-1229,-80.5419,-0.1,-344.331,-0.1,2.936
-2.68928,-2.73105,0.511393,0.340277,0.20292,0.187187,0.0652574,0.109299,-392,-1229,-80.587,-0.1,-343.991,-0.1,2.94
-2.68847,-2.7303,0.511654,0.340711,0.203242,0.187239,0.0651855,0.108999,-395,-1228,-80.6377,-0.1,-343.652,-0.1,2.944
-2.68766,-2.72957,0.511914,0.341134,0.203564,0.185834,0.0651136,0.107963,-410,-1227,-80.6916,-0.1,-343.313,-0.1,2.948
-2.68684,-2.72883,0.512175,0.341563,0.203885,0.185732,0.0650417,0.107676,-414,-1226,-80.7604,-0.1,-342.975,-0.1,2.952
-2.68603,-2.72809,0.512435,0.341994,0.204206,0.185607,0.0649698,0.107744,-418,-1225,-80.833,-0.1,-342.637,-0.1,2.956
-2.68521,-2.72735,0.512694,0.342426,0.204527,0.185408,0.0648979,0.107818,-423,-1224,-80.9096,-0.1,-342.3,-0.1,2.96
-2.68439,-2.7266,0.512954,0.342866,0.204847,0.186024,0.0648259,0.108587,-421,-1222,-80.9905,-0.1,-341.962,-0.1,2.964
-2.68357,-2.72585,0.513213,0.343307,0.205166,0.186492,0.0647539,0.109129,-420,-1220,-81.0688,-0.1,-341.624,-0.1,2.968
-2.68275,-2.72509,0.513472,0.34375,0.205486,0.187352,0.064682,0.109662,-415,-1218,-81.1454,-0.1,-341.285,-0.1,2.972
-2.68193,-2.72433,0.51373,0.344199,0.205805,0.188327,0.06461,0.110508,-410,-1216,-81.2172,-0.1,-340.946,-0.1,2.976
-2.6811,-2.72357,0.513989,0.344654,0.206124,0.189352,0.064538,0.111561,-404,-1214,-81.283,-0.1,-340.607,-0.1,2.98
-2.68028,-2.72279,0.514247,0.345118,0.206442,0.190813,0.0644659,0.11304,-394,-1211,-81.3423,-0.1,-340.266,-0.1,2.984
-2.67945,-2.72201,0.514504,0.345587,0.20676,0.192132,0.0643939,0.114487,-386,-1209,-81.3914,-0.1,-339.924,-0.1,2.988
-2.67862,-2.72122,0.514762,0.346062,0.207077,0.193789,0.0643219,0.115855,-375,-1206,-81.4314,-0.1,-339.58,-0.1,2.992
-2.67779,-2.72043,0.515019,0.346534,0.207394,0.194894,0.0642498,0.116651,-368,-1204,-81.4597,-0.1,-339.236,-0.1,2.996
-2.67696,-2.71964,0.515276,0.347011,0.207711,0.196177,0.0641777,0.117499,-360,-1201,-81.4808,-0.1,-338.891,-0.1,3
-2.67613,-2.71884,0.515532,0.347494,0.208027,0.197205,0.0641057,0.118554,-354,-1199,-81.4936,-0.1,-338.546,-0.1,3.004
-2.6753,-2.71805,0.515789,0.347973,0.208343,0.19743,0.0640336,0.118969,-355,-1197,-81.5005,-0.1,-338.199,-0.1,3.008
-2.67447,-2.71723,0.516045,0.348471,0.208659,0.199999,0.0639615,0.120771,-335,-1194,-81.5071,-0.1,-337.851,-0.1,3.012
-2.67363,-2.71645,0.5163,0.348948,0.208974,0.19863,0.0638894,0.120303,-350,-1193,-81.4957,-0.1,-337.504,-0.1,3.016
-2.67279,-2.71566,0.516556,0.34943,0.209289,0.198063,0.0638172,0.120366,-358,-1191,-81.499,-0.1,-337.156,-0.1,3.02
-2.67196,-2.71488,0.516811,0.349913,0.209603,0.196793,0.0637451,0.120493,-371,-1189,-81.5108,-0.1,-336.808,-0.1,3.024
-2.67112,-2.71408,0.517066,0.350415,0.209917,0.197645,0.063673,0.122162,-367,-1186,-81.5357,-0.1,-336.458,-0.1,3.028
-2.67028,-2.7133,0.51732,0.350909,0.21023,0.197234,0.0636008,0.122641,-373,-1184,-81.5565,-0.1,-336.108,-0.1,3.032
-2.66944,-2.71251,0.517575,0.351405,0.210544,0.196845,0.0635287,0.123018,-380,-1182,-81.5838,-0.1,-335.757,-0.1,3.036
-2.66859,-2.71173,0.517829,0.351894,0.210856,0.196499,0.0634565,0.122809,-385,-1180,-81.6173,-0.1,-335.406,-0.1,3.04
-2.66775,-2.71096,0.518082,0.352374,0.211169,0.19552,0.0633843,0.121863,-397,-1180,-81.6571,-0.1,-335.056,-0.1,3.044
-2.6669,-2.71015,0.518336,0.352865,0.211481,0.197257,0.0633121,0.122183,-385,-1178,-81.7069,-0.1,-334.705,-0.1,3.048
-2.66606,-2.70938,0.518589,0.353329,0.211792,0.196399,0.0632399,0.120093,-395,-1178,-81.7454,-0.1,-334.356,-0.1,3.052
-2.66521,-2.70859,0.518842,0.353788,0.212103,0.19672,0.0631677,0.118296,-395,-1178,-81.7936,-0.1,-334.008,-0.1,3.056
-2.66436,-2.70779,0.519094,0.354242,0.212414,0.197423,0.0630955,0.116695,-392,-1178,-81.8416,-0.1,-333.661,-0.1,3.06
-2.66351,-2.70699,0.519346,0.354687,0.212724,0.197979,0.0630232,0.114908,-390,-1178,-81.8862,-0.1,-333.316,-0.1,3.064
-2.66266,-2.70618,0.519598,0.355137,0.213034,0.199875,0.062951,0.114063,-377,-1177,-81.9279,-0.1,-332.971,-0.1,3.068
-2.66181,-2.70539,0.51985,0.355575,0.213343,0.19921,0.0628788,0.112606,-385,-1177,-81.9569,-0.1,-332.628,-0.1,3.072
-2.66095,-2.70458,0.520101,0.356023,0.213652,0.200005,0.0628065,0.112355,-381,-1176,-81.9939,-0.1,-332.286,-0.1,3.076
-2.6601,-2.70377,0.520352,0.356469,0.213961,0.200822,0.0627342,0.112101,-377,-1174,-82.0267,-0.1,-331.943,-0.1,3.08
-2.65924,-2.70295,0.520603,0.356926,0.214269,0.20249,0.062662,0.112825,-366,-1172,-82.0545,-0.1,-331.601,-0.1,3.084
-2.65838,-2.70216,0.520854,0.357367,0.214577,0.200579,0.0625897,0.111925,-385,-1172,-82.0723,-0.1,-331.258,-0.1,3.088
-2.65752,-2.70136,0.521104,0.357819,0.214884,0.200716,0.0625174,0.112275,-386,-1170,-82.1087,-0.1,-330.916,-0.1,3.092
-2.65666,-2.70055,0.521354,0.358275,0.215191,0.201009,0.0624451,0.112854,-387,-1168,-82.1467,-0.1,-330.574,-0.1,3.096
-2.6558,-2.69975,0.521603,0.358734,0.215498,0.201002,0.0623728,0.113557,-390,-1166,-82.185,-0.1,-330.231,-0.1,3.1
-2.65494,-2.69894,0.521853,0.359199,0.215804,0.201056,0.0623005,0.114457,-392,-1164,-82.2261,-0.1,-329.887,-0.1,3.104
-2.65408,-2.69813,0.522102,0.359667,0.216109,0.201725,0.0622282,0.115288,-389,-1161,-82.2691,-0.1,-329.542,-0.1,3.108
-2.65321,-2.69732,0.522351,0.360133,0.216415,0.202055,0.0621558,0.11564,-389,-1159,-82.309,-0.1,-329.197,-0.1,3.112
-2.65234,-2.69651,0.522599,0.360599,0.216719,0.202362,0.0620835,0.11599,-389,-1158,-82.3488,-0.1,-328.852,-0.1,3.116
-2.65148,-2.69569,0.522847,0.361068,0.217024,0.20297,0.0620112,0.116338,-387,-1156,-82.3884,-0.1,-328.506,-0.1,3.12
-2.65061,-2.69487,0.523095,0.361538,0.217328,0.204066,0.0619388,0.116772,-380,-1154,-82.425,-0.1,-328.16,-0.1,3.124
-2.64974,-2.69405,0.523343,0.362005,0.217631,0.203674,0.0618665,0.116773,-386,-1152,-82.4555,-0.1,-327.813,-0.1,3.128
-2.64887,-2.69323,0.52359,0.362474,0.217934,0.204161,0.0617941,0.116918,-385,-1150,-82.4917,-0.1,-327.467,-0.1,3.132
-2.64799,-2.69241,0.523837,0.362939,0.218237,0.204687,0.0617218,0.116669,-383,-1149,-82.5262,-0.1,-327.12,-0.1,3.136
-2.64712,-2.69159,0.524084,0.363407,0.218539,0.205125,0.0616494,0.116762,-382,-1147,-82.5589,-0.1,-326.774,-0.1,3.14
-2.64625,-2.69076,0.52433,0.363872,0.21884,0.205589,0.061577,0.116623,-381,-1146,-82.5903,-0.1,-326.427,-0.1,3.144
-2.64537,-2.68994,0.524577,0.364325,0.219142,0.205236,0.0615046,0.115465,-387,-1145,-82.6208,-0.1,-326.081,-0.1,3.148
-2.64449,-2.68911,0.524822,0.364782,0.219443,0.205865,0.0614323,0.115096,-384,-1144,-82.6566,-0.1,-325.735,-0.1,3.152
-2.64361,-2.68829,0.525068,0.36523,0.219743,0.205852,0.0613599,0.114101,-387,-1144,-82.6898,-0.1,-325.391,-0.1,3.156
-2.64274,-2.68747,0.525313,0.36567,0.220043,0.205699,0.0612875,0.112689,-391,-1143,-82.7259,-0.1,-325.047,-0.1,3.16
-2.64185,-2.68665,0.525558,0.366109,0.220342,0.205655,0.0612151,0.111691,-394,-1143,-82.766,-0.1,-324.704,-0.1,3.164
-2.64097,-2.68583,0.525803,0.366545,0.220641,0.205511,0.0611427,0.110823,-398,-1142,-82.8092,-0.1,-324.362,-0.1,3.168
-2.64009,-2.685,0.526047,0.366981,0.22094,0.205789,0.0610703,0.110216,-399,-1141,-82.8561,-0.1,-324.021,-0.1,3.172
-2.6392,-2.68418,0.526292,0.367411,0.221238,0.20583,0.0609979,0.109294,-401,-1141,-82.9034,-0.1,-323.68,-0.1,3.176
-2.63832,-2.68336,0.526535,0.36783,0.221536,0.205714,0.0609254,0.107757,-405,-1141,-82.9529,-0.1,-323.341,-0.1,3.18
-2.63743,-2.68253,0.526779,0.368242,0.221833,0.206241,0.060853,0.106214,-403,-1141,-83.0058,-0.1,-323.003,-0.1,3.184
-2.63654,-2.6817,0.527022,0.368645,0.22213,0.206506,0.0607806,0.104409,-403,-1141,-83.0567,-0.1,-322.667,-0.1,3.188
-2.63566,-2.68087,0.527265,0.369041,0.222426,0.207028,0.0607082,0.102571,-402,-1141,-83.1078,-0.1,-322.333,-0.1,3.192
-2.63477,-2.68003,0.527508,0.369429,0.222722,0.20798,0.0606357,0.100771,-396,-1142,-83.1567,-0.1,-322,-0.1,3.196
-2.63387,-2.67918,0.52775,0.369812,0.223017,0.20876,0.0605633,0.0990808,-393,-1142,-83.1999,-0.1,-321.669,-0.1,3.2
-2.63298,-2.67834,0.527992,0.37019,0.223312,0.209682,0.0604909,0.0975223,-387,-1142,-83.2389,-0.1,-321.34,-0.1,3.204
-2.63209,-2.67748,0.528234,0.370564,0.223607,0.211506,0.0604184,0.0961955,-375,-1142,-83.2718,-0.1,-321.013,-0.1,3.208
-2.63119,-2.67663,0.528476,0.370924,0.223901,0.211542,0.060346,0.0941305,-377,-1143,-83.2923,-0.1,-320.687,-0.1,3.212
-2.6303,-2.67577,0.528717,0.371279,0.224194,0.212516,0.0602735,0.0923219,-371,-1144,-83.3147,-0.1,-320.364,-0.1,3.216
-2.6294,-2.67491,0.528958,0.371631,0.224487,0.213511,0.0602011,0.0908571,-366,-1144,-83.3312,-0.1,-320.042,-0.1,3.22
-2.6285,-2.67405,0.529199,0.371975,0.22478,0.213799,0.0601286,0.0892472,-366,-1145,-83.342,-0.1,-319.722,-0.1,3.224
-2.6276,-2.6732,0.529439,0.372313,0.225072,0.213474,0.0600562,0.0876844,-371,-1145,-83.3532,-0.1,-319.405,-0.1,3.228
-2.6267,-2.67235,0.529679,0.372648,0.225364,0.213199,0.0599837,0.0863547,-376,-1146,-83.3701,-0.1,-319.089,-0.1,3.232
-2.6258,-2.6715,0.529919,0.372977,0.225655,0.212843,0.0599113,0.0849788,-382,-1146,-83.392,-0.1,-318.774,-0.1,3.236
-2.62489,-2.67066,0.530158,0.373303,0.225946,0.212433,0.0598388,0.0838311,-388,-1146,-83.4198,-0.1,-318.462,-0.1,3.24
-2.62399,-2.66981,0.530398,0.373624,0.226236,0.212304,0.0597664,0.082663,-392,-1147,-83.4536,-0.1,-318.151,-0.1,3.244
-2.62308,-2.66897,0.530636,0.37394,0.226526,0.211901,0.0596939,0.0813948,-398,-1147,-83.4913,-0.1,-317.842,-0.1,3.248
-2.62218,-2.66813,0.530875,0.374246,0.226815,0.211172,0.0596215,0.0798007,-407,-1148,-83.5353,-0.1,-317.535,-0.1,3.252
-2.62127,-2.66727,0.531113,0.374552,0.227104,0.211751,0.059549,0.0786805,-404,-1148,-83.5876,-0.1,-317.23,-0.1,3.256
-2.62036,-2.66643,0.531352,0.374846,0.227392,0.211446,0.0594765,0.0769835,-410,-1149,-83.6379,-0.1,-316.927,-0.1,3.26
-2.61945,-2.66558,0.531589,0.375135,0.22768,0.211876,0.0594041,0.0753915,-409,-1150,-83.693,-0.1,-316.626,-0.1,3.264
-2.61854,-2.66473,0.531827,0.375412,0.227968,0.212479,0.0593316,0.0733801,-406,-1152,-83.7467,-0.1,-316.327,-0.1,3.268
-2.61763,-2.66387,0.532064,0.37568,0.228255,0.213141,0.0592591,0.0712331,-403,-1153,-83.7977,-0.1,-316.031,-0.1,3.272
-2.61671,-2.663,0.532301,0.375938,0.228541,0.213985,0.0591867,0.0689955,-399,-1155,-83.8453,-0.1,-315.738,-0.1,3.276
-2.6158,-2.66214,0.532537,0.376183,0.228827,0.214576,0.0591142,0.066381,-397,-1157,-83.8882,-0.1,-315.448,-0.1,3.28
-2.61488,-2.66126,0.532774,0.376422,0.229112,0.21618,0.0590418,0.0641485,-386,-1158,-83.9279,-0.1,-315.161,-0.1,3.284
-2.61397,-2.6604,0.53301,0.376651,0.229397,0.215867,0.0589693,0.0618829,-391,-1160,-83.9573,-0.1,-314.878,-0.1,3.288
-2.61305,-2.65953,0.533245,0.376873,0.229682,0.216608,0.0588968,0.0597966,-387,-1162,-83.9914,-0.1,-314.597,-0.1,3.292
-2.61213,-2.65866,0.533481,0.377091,0.229966,0.217333,0.0588244,0.0579739,-384,-1164,-84.0217,-0.1,-314.319,-0.1,3.296
-2.61121,-2.65777,0.533716,0.377307,0.230249,0.218305,0.0587519,0.0567012,-378,-1165,-84.0481,-0.1,-314.043,-0.1,3.3
-2.61029,-2.65691,0.533951,0.377515,0.230532,0.217745,0.0586795,0.0551329,-386,-1166,-84.0694,-0.1,-313.77,-0.1,3.304
-2.60936,-2.65605,0.534186,0.377721,0.230815,0.21668,0.058607,0.0538859,-397,-1167,-84.0986,-0.1,-313.5,-0.1,3.308
-2.60844,-2.65521,0.53442,0.377925,0.231097,0.214703,0.0585345,0.0529106,-417,-1168,-84.1403,-0.1,-313.232,-0.1,3.312
-2.60751,-2.65438,0.534654,0.378122,0.231378,0.212147,0.0584621,0.0517133,-441,-1169,-84.2021,-0.1,-312.966,-0.1,3.316
-2.60659,-2.65358,0.534887,0.378314,0.231659,0.208399,0.0583896,0.0504545,-475,-1171,-84.2896,-0.1,-312.703,-0.1,3.32
-2.60566,-2.65277,0.535121,0.378499,0.23194,0.205872,0.0583172,0.0490395,-499,-1172,-84.4115,-0.1,-312.442,-0.1,3.324
-2.60473,-2.65199,0.535354,0.378678,0.23222,0.202373,0.0582447,0.0476067,-532,-1174,-84.5585,-0.1,-312.184,-0.1,3.328
-2.6038,-2.65121,0.535587,0.378852,0.2325,0.199983,0.0581723,0.0462772,-555,-1175,-84.7379,-0.1,-311.928,-0.1,3.332
-2.60287,-2.65044,0.535819,0.379021,0.232779,0.19741,0.0580999,0.044959,-580,-1176,-84.9405,-0.1,-311.675,-0.1,3.336
-2.60194,-2.64968,0.536052,0.379184,0.233057,0.194745,0.0580274,0.0435332,-605,-1178,-85.1679,-0.1,-311.425,-0.1,3.34
-2.60101,-2.64894,0.536284,0.379345,0.233335,0.191904,0.057955,0.0424387,-632,-1179,-85.421,-0.1,-311.177,-0.1,3.344
-2.60007,-2.6482,0.536515,0.379504,0.233613,0.189836,0.0578825,0.0415363,-653,-1180,-85.7007,-0.1,-310.931,-0.1,3.348
-2.59914,-2.64747,0.536747,0.379657,0.23389,0.187162,0.0578101,0.0404165,-679,-1182,-86.0008,-0.1,-310.688,-0.1,3.352
-2.5982,-2.64674,0.536978,0.379809,0.234166,0.185725,0.0577377,0.0396123,-694,-1183,-86.3257,-0.1,-310.447,-0.1,3.356
