peachynonah/Fire_monitor_/csv_datas/trial10/cdsl_data_debug.csv
joint1_pos_desired, joint1_pos, joint2_pos_desired, joint2_pos, joint1_vel_desired, joint1_vel_filtered, joint2_vel_desired, joint2_vel_filtered, target_torque_joint1, target_torque_joint2, propo_term_torque_joint1, deriv_term_torque_joint1, propo_term_torque_joint2, deriv_term_torque_joint2, current_time
9.43873e-11,0.000628794,7.0784e-08,0,0,0,0.004
7.54892e-10,0.000628794,2.83033e-07,0,0,0,0.008
2.54707e-09,0.000628448,6.36593e-07,-2.87909e-05,0,-0,0.012
6.03584e-09,0.000628794,1.13131e-06,9.59697e-06,0,0,0.016
1.17855e-08,0.000629139,1.76703e-06,3.51889e-05,0,0,0.02
2.03599e-08,0.000628448,2.54359e-06,-3.41226e-05,0,-0,0.024
3.23219e-08,0.000628794,3.46085e-06,6.04254e-06,0,0,0.028
4.82341e-08,0.000629139,4.51865e-06,3.28193e-05,0,0,0.032
6.86583e-08,0.000628794,5.71683e-06,-6.9114e-06,0,-0,0.036
9.41557e-08,0.000629139,7.05525e-06,2.41833e-05,0,0,0.04
1.25287e-07,0.000629139,8.53374e-06,1.61222e-05,0,0,0.044
1.62612e-07,0.000628794,1.01522e-05,-1.80428e-05,0,-0,0.048
2.06691e-07,0.000629139,1.19103e-05,1.67624e-05,0,0,0.052
2.58081e-07,0.000628794,1.38081e-05,-1.7616e-05,0,-0,0.056
3.17342e-07,0.000628794,1.58454e-05,-1.1744e-05,0,-0,0.06
3.8503e-07,0.000628448,1.8022e-05,-3.66203e-05,0,-0,0.064
4.61703e-07,0.000628448,2.03377e-05,-2.44135e-05,0,-0,0.068
5.47917e-07,0.000628103,2.27924e-05,-4.50666e-05,0,-0,0.072
6.44228e-07,0.000628448,2.5386e-05,-1.25347e-06,0,-0,0.076
7.5119e-07,0.000628794,2.81183e-05,2.79553e-05,0,0,0.08
8.69359e-07,0.000628794,3.09891e-05,1.86369e-05,0,0,0.084
9.99287e-07,0.000628448,3.39983e-05,-1.63664e-05,0,-0,0.088
1.14153e-06,0.000628794,3.71457e-05,1.788e-05,0,0,0.092
1.29664e-06,0.000628794,4.04312e-05,1.192e-05,0,0,0.096
1.46516e-06,0.000628103,4.38547e-05,-4.96352e-05,0,-0,0.1
1.64766e-06,0.000628794,4.74159e-05,2.44917e-05,0,0,0.104
1.84467e-06,0.000629139,5.11147e-05,4.51187e-05,0,0,0.108
2.05676e-06,0.000628448,5.4951e-05,-2.75027e-05,0,-0,0.112
2.28447e-06,0.000629139,5.89247e-05,3.92467e-05,0,0,0.116
2.52834e-06,0.000628794,6.30354e-05,-2.62644e-06,0,-0,0.12
2.78893e-06,0.000628103,6.72832e-05,-5.93328e-05,0,-0,0.124
3.06679e-06,0.000628103,7.16679e-05,-3.95552e-05,0,-0,0.128
3.36246e-06,0.000629139,7.61893e-05,6.00026e-05,0,0,0.132
3.67648e-06,0.000628794,8.08472e-05,1.12108e-05,0,0,0.136
4.00942e-06,0.000628794,8.56415e-05,7.47389e-06,0,0,0.14
4.3618e-06,0.000628103,9.0572e-05,-5.25993e-05,0,-0,0.144
4.73417e-06,0.000628794,9.56387e-05,2.25157e-05,0,0,0.148
5.12709e-06,0.000628794,0.000100841,1.50105e-05,0,0,0.152
5.54109e-06,0.000629139,0.00010618,3.87979e-05,0,0,0.156
5.97671e-06,0.000628103,0.000111654,-6.05075e-05,0,-0,0.16
6.43449e-06,0.000628103,0.000117263,-4.03383e-05,0,-0,0.164
6.91499e-06,0.000628794,0.000123008,3.06896e-05,0,0,0.168
7.41874e-06,0.000628794,0.000128888,2.04597e-05,0,0,0.172
7.94628e-06,0.000628794,0.000134903,1.36398e-05,0,0,0.176
8.49814e-06,0.000628794,0.000141053,9.09322e-06,0,0,0.18
9.07488e-06,0.000629139,0.000147338,3.48531e-05,0,0,0.184
9.67702e-06,0.000628794,0.000153757,-5.55554e-06,0,-0,0.188
1.03051e-05,0.000628794,0.00016031,-3.7037e-06,0,-0,0.192
1.09597e-05,0.000629139,0.000166998,2.63218e-05,0,0,0.196
1.16413e-05,0.000628794,0.00017382,-1.12431e-05,0,-0,0.2
1.23504e-05,0.000628794,0.000180776,-7.49537e-06,0,-0,0.204
1.30877e-05,0.000628794,0.000187866,-4.99692e-06,0,-0,0.208
1.38535e-05,0.000628103,0.00019509,-6.09131e-05,0,-0,0.212
1.46486e-05,0.000628794,0.000202447,1.69731e-05,0,0,0.216
1.54733e-05,0.000628103,0.000209937,-4.62665e-05,0,-0,0.22
1.63282e-05,0.000628794,0.00021756,2.67375e-05,0,0,0.224
1.72139e-05,0.000628794,0.000225317,1.7825e-05,0,0,0.228
1.8131e-05,0.000628794,0.000233207,1.18834e-05,0,0,0.232
1.90798e-05,0.000628794,0.000241229,7.92224e-06,0,0,0.236
2.0061e-05,0.000628794,0.000249384,5.28149e-06,0,0,0.24
2.1075e-05,0.000628103,0.000257671,-5.40609e-05,0,-0,0.244
2.21225e-05,0.000628794,0.000266091,2.15413e-05,0,0,0.248
2.32039e-05,0.000629139,0.000274642,4.31518e-05,0,0,0.252
2.43198e-05,0.000629139,0.000283326,2.87679e-05,0,0,0.256
2.54707e-05,0.000629139,0.000292142,1.91786e-05,0,0,0.26
2.66571e-05,0.000628448,0.000301089,-4.47961e-05,0,-0,0.264
2.78796e-05,0.000628794,0.000310168,-1.07317e-06,0,-0,0.268
2.91386e-05,0.000629139,0.000319378,2.80755e-05,0,0,0.272
3.04348e-05,0.000628103,0.00032872,-6.76558e-05,0,-0,0.276
3.17686e-05,0.000628794,0.000338192,1.2478e-05,0,0,0.28
3.31405e-05,0.000628794,0.000347796,8.31866e-06,0,0,0.284
3.45511e-05,0.000628103,0.00035753,-5.20361e-05,0,-0,0.288
3.60009e-05,0.000628794,0.000367395,2.28911e-05,0,0,0.292
3.74904e-05,0.000629139,0.00037739,4.40517e-05,0,0,0.296
3.90202e-05,0.000628794,0.000387516,5.76862e-07,0,0,0.3
4.05907e-05,0.000628794,0.000397772,3.84574e-07,0,0,0.304
4.22026e-05,0.000628103,0.000408158,-5.73255e-05,0,-0,0.308
4.38562e-05,0.000628103,0.000418674,-3.8217e-05,0,-0,0.312
4.55521e-05,0.000628103,0.00042932,-2.5478e-05,0,-0,0.316
4.72909e-05,0.000628794,0.000440095,4.05965e-05,0,0,0.32
4.90731e-05,0.000628794,0.000450999,2.70644e-05,0,0,0.324
5.08991e-05,0.000628794,0.000462033,1.80429e-05,0,0,0.328
5.27695e-05,0.000628103,0.000473197,-4.55532e-05,0,-0,0.332
5.46848e-05,0.000628794,0.000484489,2.7213e-05,0,0,0.336
5.66456e-05,0.000629139,0.00049591,4.69329e-05,0,0,0.34
5.86523e-05,0.000628794,0.000507459,2.4977e-06,0,0,0.344
6.07054e-05,0.000628448,0.000519137,-2.71258e-05,0,-0,0.348
6.28055e-05,0.000628794,0.000530944,1.07071e-05,0,0,0.352
6.49531e-05,0.000628448,0.000542879,-2.16529e-05,0,-0,0.356
6.71487e-05,0.000628448,0.000554942,-1.44353e-05,0,-0,0.36
6.93928e-05,0.000628448,0.000567132,-9.6235e-06,0,-0,0.364
7.1686e-05,0.000628794,0.000579451,2.23753e-05,0,0,0.368
7.40286e-05,0.000628794,0.000591897,1.49168e-05,0,0,0.372
7.64213e-05,0.000628794,0.000604471,9.94456e-06,0,0,0.376
7.88646e-05,0.000628794,0.000617172,6.62971e-06,0,0,0.38
8.13589e-05,0.000628794,0.00063,4.4198e-06,0,0,0.384
8.39047e-05,0.000628794,0.000642956,2.94654e-06,0,0,0.388
8.65027e-05,0.000628448,0.000656038,-2.68266e-05,0,-0,0.392
8.91532e-05,0.000628794,0.000669247,1.09065e-05,0,0,0.396
9.18568e-05,0.000628448,0.000682583,-2.15199e-05,0,-0,0.4
9.4614e-05,0.000628794,0.000696045,1.44443e-05,0,0,0.404
9.74254e-05,0.000628794,0.000709633,9.62955e-06,0,0,0.408
0.000100291,0.000628794,0.000723347,6.4197e-06,0,0,0.412
0.000103212,0.000628794,0.000737188,4.2798e-06,0,0,0.416
0.000106189,0.000628794,0.000751154,2.8532e-06,0,0,0.42
0.000109222,0.000628794,0.000765246,1.90213e-06,0,0,0.424
0.000112311,0.000628794,0.000779464,1.26809e-06,0,0,0.428
0.000115458,0.000628794,0.000793807,8.45393e-07,0,0,0.432
0.000118662,0.000628794,0.000808275,5.63595e-07,0,0,0.436
0.000121924,0.000628794,0.000822869,3.7573e-07,0,0,0.44
0.000125245,0.000628794,0.000837587,2.50487e-07,0,0,0.444
0.000128625,0.000628794,0.00085243,1.66991e-07,0,0,0.448
0.000132064,0.000628794,0.000867398,1.11327e-07,0,0,0.452
0.000135564,0.000628448,0.000882491,-2.87167e-05,0,-0,0.456
0.000139125,0.000628794,0.000897707,9.64645e-06,0,0,0.46
0.000142746,0.000628448,0.000913048,-2.236e-05,0,-0,0.464
0.000146429,0.000628448,0.000928513,-1.49066e-05,0,-0,0.468
0.000150174,0.000628794,0.000944102,1.88532e-05,0,0,0.472
0.000153982,0.000628794,0.000959815,1.25688e-05,0,0,0.476
0.000157853,0.000628794,0.000975652,8.37919e-06,0,0,0.48
0.000161787,0.000628794,0.000991611,5.58612e-06,0,0,0.484
0.000165786,0.000628448,0.00100769,-2.50668e-05,0,-0,0.488
0.000169849,0.000628794,0.0010239,1.20797e-05,0,0,0.492
0.000173977,0.000628794,0.00104023,8.05313e-06,0,0,0.496
0.000178171,0.000628794,0.00105668,5.36875e-06,0,0,0.5
0.000182431,0.000628794,0.00107326,3.57917e-06,0,0,0.504
0.000186757,0.000628794,0.00108996,2.38611e-06,0,0,0.508
0.000191151,0.000628794,0.00110678,1.59074e-06,0,0,0.512
0.000195612,0.000628794,0.00112372,1.06049e-06,0,0,0.516
0.000200141,0.000628448,0.00114078,-2.80839e-05,0,-0,0.52
0.000204738,0.000628794,0.00115797,1.00683e-05,0,0,0.524
0.000209405,0.000628794,0.00117528,6.7122e-06,0,0,0.528
0.000214141,0.000628794,0.00119271,4.4748e-06,0,0,0.532
0.000218946,0.000628794,0.00121026,2.9832e-06,0,0,0.536
0.000223823,0.000628448,0.00122793,-2.68021e-05,0,-0,0.54
0.00022877,0.000628448,0.00124573,-1.78681e-05,0,-0,0.544
0.000233789,0.000628794,0.00126364,1.68789e-05,0,0,0.548
0.000238879,0.000628794,0.00128168,1.12526e-05,0,0,0.552
0.000244042,0.000628794,0.00129984,7.50172e-06,0,0,0.556
0.000249278,0.000628794,0.00131812,5.00115e-06,0,0,0.56
0.000254587,0.000628794,0.00133651,3.3341e-06,0,0,0.564
0.000259971,0.000628794,0.00135503,2.22273e-06,0,0,0.568
0.000265428,0.000628794,0.00137367,1.48182e-06,0,0,0.572
0.00027096,0.000628794,0.00139243,9.87881e-07,0,0,0.576
0.000276568,0.000628794,0.00141131,6.58587e-07,0,0,0.58
0.000282251,0.000628794,0.00143031,4.39058e-07,0,0,0.584
0.00028801,0.000628794,0.00144943,2.92705e-07,0,0,0.588
0.000293846,0.000628794,0.00146867,1.95137e-07,0,0,0.592
0.00029976,0.000628794,0.00148802,1.30091e-07,0,0,0.596
0.000305751,0.000628794,0.0015075,8.67275e-08,0,0,0.6
0.00031182,0.000628448,0.0015271,-2.87331e-05,0,-0,0.604
0.000317968,0.000628794,0.00154681,9.63552e-06,0,0,0.608
0.000324194,0.000628448,0.00156665,-2.23672e-05,0,-0,0.612
0.000330501,0.000628794,0.0015866,1.38794e-05,0,0,0.616
0.000336887,0.000628794,0.00160667,9.25295e-06,0,0,0.62
0.000343354,0.000628794,0.00162686,6.16863e-06,0,0,0.624
0.000349902,0.000628794,0.00164717,4.11242e-06,0,0,0.628
0.000356532,0.000628794,0.00166759,2.74162e-06,0,0,0.632
0.000363243,0.000628794,0.00168813,1.82774e-06,0,0,0.636
0.000370037,0.000628794,0.0017088,1.2185e-06,0,0,0.64
0.000376914,0.000628794,0.00172957,8.12331e-07,0,0,0.644
0.000383874,0.000628448,0.00175047,-2.82494e-05,0,-0,0.648
0.000390918,0.000628794,0.00177148,9.95801e-06,0,0,0.652
0.000398046,0.000628794,0.00179262,6.63867e-06,0,0,0.656
0.000405259,0.000628794,0.00181386,4.42578e-06,0,0,0.66
0.000412557,0.000628448,0.00183523,-2.58404e-05,0,-0,0.664
0.000419941,0.000628448,0.00185671,-1.72269e-05,0,-0,0.668
0.000427411,0.000628448,0.00187831,-1.14846e-05,0,-0,0.672
0.000434967,0.000628794,0.00190002,2.11345e-05,0,0,0.676
0.000442611,0.000628794,0.00192185,1.40897e-05,0,0,0.68
0.000450342,0.000628103,0.0019438,-4.81887e-05,0,-0,0.684
0.000458162,0.000628794,0.00196586,2.5456e-05,0,0,0.688
0.000466069,0.000628794,0.00198804,1.69707e-05,0,0,0.692
0.000474066,0.000628794,0.00201034,1.13138e-05,0,0,0.696
0.000482152,0.000628794,0.00203275,7.54253e-06,0,0,0.7
0.000490328,0.000628448,0.00205527,-2.37626e-05,0,-0,0.704
0.000498595,0.000628794,0.00207791,1.29492e-05,0,0,0.708
0.000506952,0.000628794,0.00210067,8.63281e-06,0,0,0.712
0.0005154,0.000628794,0.00212354,5.7552e-06,0,0,0.716
0.00052394,0.000628448,0.00214653,-2.49541e-05,0,-0,0.72
0.000532572,0.000628794,0.00216963,1.21548e-05,0,0,0.724
0.000541297,0.000628448,0.00219284,-2.06877e-05,0,-0,0.728
0.000550115,0.000628448,0.00221617,-1.37918e-05,0,-0,0.732
0.000559027,0.000628794,0.00223961,1.95964e-05,0,0,0.736
0.000568032,0.000628448,0.00226317,-1.57267e-05,0,-0,0.74
0.000577132,0.000628448,0.00228684,-1.04844e-05,0,-0,0.744
0.000586327,0.000628794,0.00231063,2.18013e-05,0,0,0.748
0.000595618,0.000628794,0.00233453,1.45342e-05,0,0,0.752
0.000605004,0.000628794,0.00235854,9.68947e-06,0,0,0.756
0.000614486,0.000628794,0.00238267,6.45964e-06,0,0,0.76
0.000624065,0.000628794,0.00240691,4.30643e-06,0,0,0.764
0.000633742,0.000628794,0.00243126,2.87095e-06,0,0,0.768
0.000643515,0.000628794,0.00245573,1.91397e-06,0,0,0.772
0.000653388,0.000628794,0.00248031,1.27598e-06,0,0,0.776
0.000663358,0.000628794,0.002505,8.50653e-07,0,0,0.78
0.000673428,0.000628794,0.0025298,5.67102e-07,0,0,0.784
0.000683597,0.000628794,0.00255472,3.78068e-07,0,0,0.788
0.000693866,0.000628103,0.00257975,-5.73298e-05,0,-0,0.792
0.000704235,0.000628794,0.00260489,1.9362e-05,0,0,0.796
0.000714705,0.000628794,0.00263014,1.2908e-05,0,0,0.8
0.000725276,0.000628794,0.00265551,8.60532e-06,0,0,0.804
0.000735949,0.000628794,0.00268098,5.73688e-06,0,0,0.808
0.000746724,0.000628794,0.00270657,3.82459e-06,0,0,0.812
0.000757602,0.000628794,0.00273227,2.54973e-06,0,0,0.816
0.000768582,0.000628794,0.00275808,1.69982e-06,0,0,0.82
0.000779667,0.000628794,0.002784,1.13321e-06,0,0,0.824
0.000790855,0.000628794,0.00281004,7.55474e-07,0,0,0.828
0.000802147,0.000628794,0.00283618,5.0365e-07,0,0,0.832
0.000813544,0.000628794,0.00286244,3.35766e-07,0,0,0.836
0.000825047,0.000628448,0.0028888,-2.85671e-05,0,-0,0.84
0.000836655,0.000628794,0.00291528,9.7462e-06,0,0,0.844
0.000848369,0.000628794,0.00294186,6.49747e-06,0,0,0.848
0.00086019,0.000628448,0.00296856,-2.44593e-05,0,-0,0.852
0.000872118,0.000628448,0.00299536,-1.63062e-05,0,-0,0.856
0.000884153,0.000628794,0.00302228,1.79201e-05,0,0,0.86
0.000896296,0.000628794,0.0030493,1.19468e-05,0,0,0.864
0.000908548,0.000628448,0.00307644,-2.08264e-05,0,-0,0.868
0.000920908,0.000628448,0.00310368,-1.38843e-05,0,-0,0.872
0.000933377,0.000628794,0.00313104,1.95347e-05,0,0,0.876
0.000945956,0.000628448,0.0031585,-1.57678e-05,0,-0,0.88
0.000958645,0.000628794,0.00318607,1.82791e-05,0,0,0.884
0.000971445,0.000628794,0.00321375,1.21861e-05,0,0,0.888
0.000984355,0.000628794,0.00324154,8.12404e-06,0,0,0.892
0.000997377,0.000628448,0.00326944,-2.33749e-05,0,-0,0.896
0.00101051,0.000628794,0.00329745,1.32077e-05,0,0,0.9
0.00102376,0.000628448,0.00332556,-1.99858e-05,0,-0,0.904
0.00103712,0.000628794,0.00335378,1.5467e-05,0,0,0.908
0.00105059,0.000628448,0.00338211,-1.84796e-05,0,-0,0.912
0.00106417,0.000628448,0.00341055,-1.23197e-05,0,-0,0.916
0.00107787,0.000628794,0.0034391,2.05778e-05,0,0,0.92
0.00109169,0.000628448,0.00346775,-1.50724e-05,0,-0,0.924
0.00110561,0.000628794,0.00349651,1.87427e-05,0,0,0.928
0.00111966,0.000628794,0.00352538,1.24951e-05,0,0,0.932
0.00113382,0.000628794,0.00355436,8.33007e-06,0,0,0.936
0.00114809,0.000628794,0.00358344,5.55338e-06,0,0,0.94
0.00116249,0.000628794,0.00361263,3.70225e-06,0,0,0.944
0.00117699,0.000628448,0.00364193,-2.63228e-05,0,-0,0.948
0.00119162,0.000628794,0.00367133,1.12424e-05,0,0,0.952
0.00120636,0.000628794,0.00370084,7.49495e-06,0,0,0.956
0.00122123,0.000628794,0.00373045,4.99663e-06,0,0,0.96
0.00123621,0.000628448,0.00376018,-2.54598e-05,0,-0,0.964
0.00125131,0.000628794,0.00379,1.18177e-05,0,0,0.968
0.00126653,0.000628794,0.00381994,7.87847e-06,0,0,0.972
0.00128187,0.000628448,0.00384998,-2.35386e-05,0,-0,0.976
0.00129733,0.000628794,0.00388012,1.30985e-05,0,0,0.98
0.00131291,0.000628794,0.00391037,8.73234e-06,0,0,0.984
0.00132861,0.000628794,0.00394073,5.82156e-06,0,0,0.988
0.00134444,0.000628794,0.00397119,3.88104e-06,0,0,0.992
0.00136038,0.000628794,0.00400175,2.58736e-06,0,0,0.996
0.00137645,0.000628794,0.00403243,1.72491e-06,0,0,1
0.00139264,0.000628448,0.0040632,-2.7641e-05,0,-0,1.004
0.00140896,0.000628794,0.00409408,1.03636e-05,0,0,1.008
0.00142539,0.000628448,0.00412507,-2.18819e-05,0,-0,1.012
0.00144196,0.000628794,0.00415615,1.4203e-05,0,0,1.016
0.00145864,0.000628794,0.00418735,9.46868e-06,0,0,1.02
0.00147546,0.000628794,0.00421865,6.31245e-06,0,0,1.024
0.00149239,0.000628448,0.00425005,-2.45826e-05,0,-0,1.028
0.00150946,0.000628794,0.00428155,1.24025e-05,0,0,1.032
0.00152665,0.000628794,0.00431316,8.26834e-06,0,0,1.036
0.00154396,0.000628794,0.00434487,5.51223e-06,0,0,1.04
0.0015614,0.000628794,0.00437669,3.67482e-06,0,0,1.044
0.00157897,0.000628794,0.00440861,2.44988e-06,0,0,1.048
0.00159667,0.000628794,0.00444063,1.63325e-06,0,0,1.052
0.0016145,0.000628794,0.00447275,1.08883e-06,0,0,1.056
0.00163246,0.000628794,0.00450498,7.2589e-07,0,0,1.06
0.00165054,0.000628794,0.00453731,4.83927e-07,0,0,1.064
0.00166875,0.000628794,0.00456974,3.22618e-07,0,0,1.068
0.0016871,0.000628794,0.00460228,2.15078e-07,0,0,1.072
0.00170557,0.000628794,0.00463491,1.43386e-07,0,0,1.076
0.00172418,0.000628794,0.00466765,9.55904e-08,0,0,1.08
0.00174291,0.000628794,0.00470049,6.3727e-08,0,0,1.084
0.00176178,0.000628794,0.00473344,4.24846e-08,0,0,1.088
0.00178078,0.000628448,0.00476648,-2.87626e-05,0,-0,1.092
0.00179991,0.000628794,0.00479963,9.61586e-06,0,0,1.096
0.00181918,0.000628794,0.00483288,6.41057e-06,0,0,1.1
0.00183858,0.000628448,0.00486623,-2.45172e-05,0,-0,1.104
0.00185811,0.000628794,0.00489968,1.24461e-05,0,0,1.108
0.00187777,0.000628794,0.00493323,8.29741e-06,0,0,1.112
0.00189757,0.000628794,0.00496688,5.53161e-06,0,0,1.116
0.00191751,0.000628448,0.00500063,-2.51032e-05,0,-0,1.12
0.00193758,0.000628794,0.00503448,1.20555e-05,0,0,1.124
0.00195779,0.000628794,0.00506844,8.03698e-06,0,0,1.128
0.00197813,0.000628794,0.00510249,5.35799e-06,0,0,1.132
0.00199861,0.000628794,0.00513664,3.57199e-06,0,0,1.136
0.00201922,0.000628794,0.0051709,2.38133e-06,0,0,1.14
0.00203997,0.000628448,0.00520525,-2.72034e-05,0,-0,1.144
0.00206086,0.000628448,0.00523971,-1.81356e-05,0,-0,1.148
0.00208189,0.000628794,0.00527426,1.67005e-05,0,0,1.152
0.00210306,0.000628448,0.00530891,-1.76572e-05,0,-0,1.156
0.00212436,0.000628794,0.00534366,1.70194e-05,0,0,1.16
0.00214581,0.000628794,0.00537852,1.13463e-05,0,0,1.164
0.00216739,0.000628794,0.00541347,7.56419e-06,0,0,1.168
0.00218911,0.000628794,0.00544851,5.0428e-06,0,0,1.172
0.00221098,0.000628794,0.00548366,3.36186e-06,0,0,1.176
0.00223298,0.000628794,0.00551891,2.24124e-06,0,0,1.18
0.00225513,0.000628794,0.00555425,1.49416e-06,0,0,1.184
0.00227742,0.000628794,0.0055897,9.96108e-07,0,0,1.188
0.00229985,0.000628794,0.00562524,6.64072e-07,0,0,1.192
0.00232242,0.000628794,0.00566088,4.42715e-07,0,0,1.196
0.00234513,0.000628448,0.00569662,-2.84958e-05,0,-0,1.2
0.00236799,0.000628794,0.00573245,9.79374e-06,0,0,1.204
0.00239099,0.000628794,0.00576838,6.52916e-06,0,0,1.208
0.00241414,0.000628448,0.00580441,-2.44382e-05,0,-0,1.212
0.00243743,0.000628794,0.00584054,1.24988e-05,0,0,1.216
0.00246086,0.000628794,0.00587677,8.33255e-06,0,0,1.22
0.00248444,0.000628794,0.00591309,5.55503e-06,0,0,1.224
0.00250817,0.000628794,0.00594951,3.70335e-06,0,0,1.228
0.00253204,0.000628794,0.00598602,2.4689e-06,0,0,1.232
0.00255606,0.000628448,0.00602264,-2.7145e-05,0,-0,1.236
0.00258022,0.000628448,0.00605935,-1.80967e-05,0,-0,1.24
0.00260453,0.000628448,0.00609615,-1.20644e-05,0,-0,1.244
0.00262899,0.000628448,0.00613305,-8.04296e-06,0,-0,1.248
0.0026536,0.000628794,0.00617005,2.3429e-05,0,0,1.252
0.00267835,0.000628448,0.00620715,-1.31716e-05,0,-0,1.256
0.00270325,0.000628794,0.00624434,2.00098e-05,0,0,1.26
0.00272831,0.000628794,0.00628162,1.33399e-05,0,0,1.264
0.00275351,0.000628794,0.006319,8.89326e-06,0,0,1.268
0.00277886,0.000628794,0.00635648,5.92884e-06,0,0,1.272
0.00280436,0.000628794,0.00639405,3.95256e-06,0,0,1.276
0.00283001,0.000628794,0.00643172,2.63504e-06,0,0,1.28
0.00285581,0.000628794,0.00646948,1.75669e-06,0,0,1.284
0.00288177,0.000628448,0.00650734,-2.76198e-05,0,-0,1.288
0.00290787,0.000628448,0.00654529,-1.84132e-05,0,-0,1.292
0.00293413,0.000628794,0.00658334,1.65155e-05,0,0,1.296
0.00296054,0.000628794,0.00662148,1.10103e-05,0,0,1.3
0.0029871,0.000628794,0.00665972,7.3402e-06,0,0,1.304
0.00301382,0.000628448,0.00669805,-2.38975e-05,0,-0,1.308
0.00304069,0.000628794,0.00673647,1.28593e-05,0,0,1.312
0.00306771,0.000628794,0.00677499,8.57286e-06,0,0,1.316
0.00309489,0.000628103,0.0068136,-5.18666e-05,0,-0,1.32
0.00312222,0.000628794,0.00685231,2.30041e-05,0,0,1.324
0.0031497,0.000628448,0.00689111,-1.34549e-05,0,-0,1.328
0.00317735,0.000628794,0.00693,1.9821e-05,0,0,1.332
0.00320514,0.000628794,0.00696898,1.3214e-05,0,0,1.336
0.0032331,0.000628794,0.00700806,8.80934e-06,0,0,1.34
0.00326121,0.000628794,0.00704723,5.8729e-06,0,0,1.344
0.00328948,0.000628794,0.0070865,3.91526e-06,0,0,1.348
0.0033179,0.000628794,0.00712586,2.61018e-06,0,0,1.352
0.00334648,0.000628794,0.00716531,1.74012e-06,0,0,1.356
0.00337522,0.000628794,0.00720485,1.16008e-06,0,0,1.36
0.00340412,0.000628794,0.00724448,7.73385e-07,0,0,1.364
0.00343318,0.000628794,0.00728421,5.1559e-07,0,0,1.368
0.0034624,0.000629139,0.00732403,2.91347e-05,0,0,1.372
0.00349177,0.000628448,0.00736394,-3.81587e-05,0,-0,1.376
0.00352131,0.000628794,0.00740395,3.35176e-06,0,0,1.38
0.003551,0.000628103,0.00744404,-5.53473e-05,0,-0,1.384
0.00358086,0.000628103,0.00748423,-3.68982e-05,0,-0,1.388
0.00361088,0.000628794,0.0075245,3.2983e-05,0,0,1.392
0.00364106,0.000628794,0.00756487,2.19887e-05,0,0,1.396
0.0036714,0.000628794,0.00760533,1.46591e-05,0,0,1.4
0.0037019,0.000628794,0.00764588,9.77275e-06,0,0,1.404
0.00373256,0.000628794,0.00768653,6.51517e-06,0,0,1.408
0.00376339,0.000629139,0.00772726,3.31344e-05,0,0,1.412
0.00379438,0.000628794,0.00776808,-6.70135e-06,0,-0,1.416
0.00382554,0.000628794,0.007809,-4.46756e-06,0,-0,1.42
0.00385685,0.000629139,0.00785,2.58125e-05,0,0,1.424
0.00388834,0.000628103,0.00789109,-6.91644e-05,0,-0,1.428
0.00391998,0.000628794,0.00793228,1.14722e-05,0,0,1.432
0.0039518,0.000629139,0.00797355,3.64391e-05,0,0,1.436
0.00398377,0.000628794,0.00801492,-4.4982e-06,0,-0,1.44
0.00401591,0.000628794,0.00805637,-2.9988e-06,0,-0,1.444
0.00404822,0.000628794,0.00809791,-1.9992e-06,0,-0,1.448
0.0040807,0.000628794,0.00813954,-1.3328e-06,0,-0,1.452
0.00411334,0.000628794,0.00818127,-8.88533e-07,0,-0,1.456
0.00414615,0.000628794,0.00822308,-5.92356e-07,0,-0,1.46
0.00417912,0.000628794,0.00826498,-3.94904e-07,0,-0,1.464
0.00421227,0.000628794,0.00830696,-2.63269e-07,0,-0,1.468
0.00424558,0.000629139,0.00834904,2.86154e-05,0,0,1.472
0.00427906,0.000628103,0.00839121,-6.72958e-05,0,-0,1.476
0.00431271,0.000628794,0.00843346,1.2718e-05,0,0,1.48
0.00434653,0.000628103,0.0084758,-4.91032e-05,0,-0,1.484
0.00438052,0.000628448,0.00851823,-3.94455e-06,0,-0,1.488
0.00441467,0.000628103,0.00856075,-3.14206e-05,0,-0,1.492
0.004449,0.000629139,0.00860336,6.54257e-05,0,0,1.496
0.0044835,0.000628794,0.00864605,1.48262e-05,0,0,1.5
0.00451817,0.000628794,0.00868884,9.88414e-06,0,0,1.504
0.00455301,0.000628794,0.00873171,6.58942e-06,0,0,1.508
0.00458802,0.000629139,0.00877466,3.31839e-05,0,0,1.512
0.00462321,0.000628794,0.00881771,-6.66834e-06,0,-0,1.516
0.00465857,0.000628448,0.00886084,-3.32365e-05,0,-0,1.52
0.0046941,0.000628448,0.00890406,-2.21577e-05,0,-0,1.524
0.0047298,0.000628103,0.00894736,-4.35627e-05,0,-0,1.528
0.00476568,0.000628794,0.00899075,2.85401e-05,0,0,1.532
0.00480173,0.000628103,0.00903423,-3.85551e-05,0,-0,1.536
0.00483795,0.000628103,0.0090778,-2.57034e-05,0,-0,1.54
0.00487435,0.000629139,0.00912145,6.92372e-05,0,0,1.544
0.00491092,0.000628794,0.00916518,1.73672e-05,0,0,1.548
0.00494767,0.000628448,0.00920901,-1.72128e-05,0,-0,1.552
0.00498459,0.000628794,0.00925292,1.73157e-05,0,0,1.556
0.00502169,0.000628794,0.00929691,1.15438e-05,0,0,1.56
0.00505897,0.000628794,0.00934099,7.69588e-06,0,0,1.564
0.00509642,0.000628794,0.00938516,5.13058e-06,0,0,1.568
0.00513405,0.000628794,0.00942941,3.42039e-06,0,0,1.572
0.00517186,0.000629139,0.00947375,3.10712e-05,0,0,1.576
0.00520984,0.000628103,0.00951817,-6.56587e-05,0,-0,1.58
0.005248,0.000628794,0.00956268,1.38094e-05,0,0,1.584
0.00528634,0.000628794,0.00960727,9.20628e-06,0,0,1.588
0.00532486,0.000628794,0.00965194,6.13752e-06,0,0,1.592
0.00536356,0.000628448,0.0096967,-2.46992e-05,0,-0,1.596
0.00540243,0.000628103,0.00974155,-4.52571e-05,0,-0,1.6
0.00544149,0.000629139,0.00978648,5.62014e-05,0,0,1.604
0.00548073,0.000628794,0.00983149,8.67666e-06,0,0,1.608
0.00552014,0.000628794,0.00987659,5.78444e-06,0,0,1.612
0.00555974,0.000628794,0.00992177,3.85629e-06,0,0,1.616
0.00559952,0.000628794,0.00996704,2.57086e-06,0,0,1.62
0.00563947,0.000628103,0.0100124,-5.58679e-05,0,-0,1.624
0.00567962,0.000629139,0.0100578,4.91275e-05,0,0,1.628
0.00571994,0.000628448,0.0101033,-2.48302e-05,0,-0,1.632
0.00576044,0.000628794,0.0101489,1.22375e-05,0,0,1.636
0.00580113,0.000628794,0.0101946,8.15831e-06,0,0,1.64
0.005842,0.000628794,0.0102404,5.43887e-06,0,0,1.644
0.00588305,0.000628794,0.0102862,3.62591e-06,0,0,1.648
0.00592429,0.000628794,0.0103322,2.41728e-06,0,0,1.652
0.00596571,0.000629139,0.0103782,3.04024e-05,0,0,1.656
0.00600731,0.000628448,0.0104243,-3.73136e-05,0,-0,1.66
0.0060491,0.000628794,0.0104705,3.91522e-06,0,0,1.664
0.00609108,0.000628794,0.0105167,2.61015e-06,0,0,1.668
0.00613324,0.000628448,0.0105631,-2.70508e-05,0,-0,1.672
0.00617558,0.000628794,0.0106095,1.0757e-05,0,0,1.676
0.00621811,0.000628794,0.010656,7.17136e-06,0,0,1.68
0.00626083,0.000629139,0.0107026,3.35718e-05,0,0,1.684
0.00630373,0.000628794,0.0107492,-6.4097e-06,0,-0,1.688
0.00634683,0.000628794,0.010796,-4.27314e-06,0,-0,1.692
0.0063901,0.000628103,0.0108428,-6.04306e-05,0,-0,1.696
0.00643357,0.000628103,0.0108897,-4.02871e-05,0,-0,1.7
0.00647722,0.000629139,0.0109367,5.95147e-05,0,0,1.704
0.00652106,0.000628794,0.0109838,1.08856e-05,0,0,1.708
0.00656509,0.000628794,0.011031,7.25704e-06,0,0,1.712
0.00660931,0.000628103,0.0110782,-5.27438e-05,0,-0,1.716
0.00665372,0.000629139,0.0111255,5.12102e-05,0,0,1.72
0.00669831,0.000628794,0.0111729,5.34923e-06,0,0,1.724
0.0067431,0.000629139,0.0112204,3.23571e-05,0,0,1.728
0.00678808,0.000629139,0.011268,2.15714e-05,0,0,1.732
0.00683324,0.000628794,0.0113156,-1.441e-05,0,-0,1.736
0.0068786,0.000628103,0.0113633,-6.71885e-05,0,-0,1.74
0.00692415,0.000628794,0.0114111,1.27895e-05,0,0,1.744
0.00696989,0.000628794,0.011459,8.52634e-06,0,0,1.748
0.00701582,0.000629139,0.0115069,3.44751e-05,0,0,1.752
0.00706195,0.000628103,0.011555,-6.33893e-05,0,-0,1.756
0.00710826,0.000628794,0.0116031,1.53223e-05,0,0,1.76
0.00715477,0.000628794,0.0116513,1.02149e-05,0,0,1.764
0.00720147,0.000628794,0.0116996,6.80991e-06,0,0,1.768
0.00724837,0.000628794,0.0117479,4.53994e-06,0,0,1.772
0.00729546,0.000628794,0.0117964,3.02662e-06,0,0,1.776
0.00734274,0.000629139,0.0118449,3.08087e-05,0,0,1.78
0.00739022,0.000628794,0.0118935,-8.25181e-06,0,-0,1.784
0.00743789,0.000628794,0.0119421,-5.50121e-06,0,-0,1.788
0.00748575,0.000628103,0.0119909,-6.12493e-05,0,-0,1.792
0.00753381,0.000628448,0.0120397,-1.2042e-05,0,-0,1.796
0.00758207,0.000629139,0.0120886,4.95539e-05,0,0,1.8
0.00763052,0.000628794,0.0121376,4.24499e-06,0,0,1.804
0.00767917,0.000628794,0.0121866,2.83e-06,0,0,1.808
0.00772802,0.000629139,0.0122358,3.06776e-05,0,0,1.812
0.00777706,0.000628103,0.012285,-6.5921e-05,0,-0,1.816
0.0078263,0.000628794,0.0123343,1.36345e-05,0,0,1.82
0.00787573,0.000629139,0.0123836,3.78806e-05,0,0,1.824
0.00792536,0.000629139,0.0124331,2.52537e-05,0,0,1.828
0.0079752,0.000628794,0.0124826,-1.19551e-05,0,-0,1.832
0.00802523,0.000628794,0.0125322,-7.97007e-06,0,-0,1.836
0.00807545,0.000628794,0.0125818,-5.31338e-06,0,-0,1.84
0.00812588,0.000628794,0.0126316,-3.54226e-06,0,-0,1.844
0.00817651,0.000628794,0.0126814,-2.3615e-06,0,-0,1.848
0.00822733,0.000628103,0.0127313,-5.91562e-05,0,-0,1.852
0.00827836,0.000628794,0.0127813,1.81444e-05,0,0,1.856
0.00832958,0.000628448,0.0128314,-1.66947e-05,0,-0,1.86
0.00838101,0.000628103,0.0128815,-3.99207e-05,0,-0,1.864
0.00843263,0.000629139,0.0129317,5.9759e-05,0,0,1.868
0.00848446,0.000628794,0.012982,1.10484e-05,0,0,1.872
0.00853649,0.000628794,0.0130323,7.36559e-06,0,0,1.876
0.00858872,0.000628794,0.0130828,4.9104e-06,0,0,1.88
0.00864115,0.000628794,0.0131333,3.2736e-06,0,0,1.884
0.00869379,0.000628794,0.0131838,2.1824e-06,0,0,1.888
0.00874662,0.000628448,0.0132345,-2.7336e-05,0,-0,1.892
0.00879966,0.000628794,0.0132852,1.05669e-05,0,0,1.896
0.00885291,0.000628794,0.013336,7.04462e-06,0,0,1.9
0.00890635,0.000628794,0.0133869,4.69641e-06,0,0,1.904
0.00896,0.000628103,0.0134379,-5.44509e-05,0,-0,1.908
0.00901385,0.000628794,0.0134889,2.12812e-05,0,0,1.912
0.00906791,0.000629139,0.01354,4.29784e-05,0,0,1.916
0.00912217,0.000628448,0.0135912,-2.89296e-05,0,-0,1.92
0.00917664,0.000628103,0.0136424,-4.80773e-05,0,-0,1.924
0.00923131,0.000628103,0.0136938,-3.20515e-05,0,-0,1.928
0.00928619,0.000629139,0.0137452,6.50051e-05,0,0,1.932
0.00934128,0.000628103,0.0137966,-4.30361e-05,0,-0,1.936
0.00939657,0.000628103,0.0138482,-2.86907e-05,0,-0,1.94
0.00945206,0.000629139,0.0138998,6.72456e-05,0,0,1.944
0.00950776,0.000628794,0.0139515,1.60395e-05,0,0,1.948
0.00956367,0.000628794,0.0140033,1.0693e-05,0,0,1.952
0.00961979,0.000628103,0.0140551,-5.04532e-05,0,-0,1.956
0.00967611,0.000628794,0.014107,2.39464e-05,0,0,1.96
0.00973265,0.000628448,0.014159,-1.28267e-05,0,-0,1.964
0.00978939,0.000628794,0.0142111,2.02398e-05,0,0,1.968
0.00984634,0.000628103,0.0142632,-4.40886e-05,0,-0,1.972
0.00990349,0.000628103,0.0143154,-2.93924e-05,0,-0,1.976
0.00996086,0.000628794,0.0143677,3.79869e-05,0,0,1.98
0.0100184,0.000628794,0.01442,2.53246e-05,0,0,1.984
0.0100762,0.000628448,0.0144724,-1.19079e-05,0,-0,1.988
0.0101342,0.000628103,0.0145249,-3.67295e-05,0,-0,1.992
0.0101924,0.000628103,0.0145775,-2.44863e-05,0,-0,1.996
0.0102508,0.000629139,0.0146301,7.00486e-05,0,0,2
0.0103095,0.000628794,0.0146828,1.79081e-05,0,0,2.004
0.0103683,0.000628794,0.0147356,1.19387e-05,0,0,2.008
0.0104273,0.000628794,0.0147884,7.95916e-06,0,0,2.012
0.0104866,0.000628794,0.0148414,5.30611e-06,0,0,2.016
0.0105461,0.000628794,0.0148943,3.5374e-06,0,0,2.02
0.0106058,0.000628794,0.0149474,2.35827e-06,0,0,2.024
0.0106657,0.000628794,0.0150005,1.57218e-06,0,0,2.028
0.0107258,0.000628794,0.0150537,1.04812e-06,0,0,2.032
0.0107861,0.000628448,0.015107,-2.80922e-05,0,-0,2.036
0.0108466,0.000628794,0.0151603,1.00628e-05,0,0,2.04
0.0109074,0.000628794,0.0152138,6.70854e-06,0,0,2.044
0.0109683,0.000628794,0.0152672,4.47236e-06,0,0,2.048
0.0110295,0.000628794,0.0153208,2.98157e-06,0,0,2.052
0.0110909,0.000628794,0.0153744,1.98771e-06,0,0,2.056
0.0111525,0.000628794,0.0154281,1.32514e-06,0,0,2.06
0.0112143,0.000628794,0.0154819,8.83429e-07,0,0,2.064
0.0112764,0.000628448,0.0155357,-2.8202e-05,0,-0,2.068
0.0113386,0.000628794,0.0155896,9.98961e-06,0,0,2.072
0.0114011,0.000628448,0.0156436,-2.21312e-05,0,-0,2.076
0.0114638,0.000628794,0.0156976,1.40368e-05,0,0,2.08
0.0115267,0.000628794,0.0157517,9.35787e-06,0,0,2.084
0.0115898,0.000628794,0.0158059,6.23858e-06,0,0,2.088
0.0116531,0.000628794,0.0158601,4.15905e-06,0,0,2.092
0.0117166,0.000628448,0.0159144,-2.60182e-05,0,-0,2.096
0.0117804,0.000628794,0.0159688,1.14454e-05,0,0,2.1
0.0118444,0.000628794,0.0160233,7.6303e-06,0,0,2.104
0.0119086,0.000628794,0.0160778,5.08686e-06,0,0,2.108
0.011973,0.000628794,0.0161324,3.39124e-06,0,0,2.112
0.0120377,0.000628794,0.016187,2.26083e-06,0,0,2.116
0.0121025,0.000628448,0.0162417,-2.72837e-05,0,-0,2.12
0.0121676,0.000628794,0.0162965,1.06018e-05,0,0,2.124
0.0122329,0.000628794,0.0163514,7.06786e-06,0,0,2.128
0.0122984,0.000628794,0.0164063,4.71191e-06,0,0,2.132
0.0123641,0.000628794,0.0164613,3.14127e-06,0,0,2.136
0.0124301,0.000628794,0.0165163,2.09418e-06,0,0,2.14
0.0124963,0.000628794,0.0165715,1.39612e-06,0,0,2.144
0.0125627,0.000628794,0.0166267,9.30747e-07,0,0,2.148
0.0126293,0.000628794,0.0166819,6.20498e-07,0,0,2.152
0.0126961,0.000628794,0.0167372,4.13665e-07,0,0,2.156
0.0127632,0.000628794,0.0167926,2.75777e-07,0,0,2.16
0.0128305,0.000628794,0.0168481,1.83851e-07,0,0,2.164
0.012898,0.000628448,0.0169036,-2.86684e-05,0,-0,2.168
0.0129657,0.000628794,0.0169592,9.67869e-06,0,0,2.172
0.0130336,0.000628794,0.0170148,6.45246e-06,0,0,2.176
0.0131018,0.000628794,0.0170706,4.30164e-06,0,0,2.18
0.0131702,0.000628794,0.0171264,2.86776e-06,0,0,2.184
0.0132388,0.000628794,0.0171822,1.91184e-06,0,0,2.188
0.0133077,0.000628794,0.0172381,1.27456e-06,0,0,2.192
0.0133767,0.000628794,0.0172941,8.49706e-07,0,0,2.196
0.013446,0.000628794,0.0173502,5.66471e-07,0,0,2.2
0.0135155,0.000628794,0.0174063,3.77647e-07,0,0,2.204
0.0135853,0.000628448,0.0174625,-2.85392e-05,0,-0,2.208
0.0136552,0.000628794,0.0175187,9.76482e-06,0,0,2.212
0.0137254,0.000628794,0.017575,6.50988e-06,0,0,2.216
0.0137958,0.000628448,0.0176314,-2.4451e-05,0,-0,2.22
0.0138665,0.000628794,0.0176878,1.24903e-05,0,0,2.224
0.0139373,0.000628448,0.0177443,-2.04641e-05,0,-0,2.228
0.0140084,0.000628794,0.0178009,1.51482e-05,0,0,2.232
0.0140797,0.000628794,0.0178575,1.00988e-05,0,0,2.236
0.0141513,0.000628794,0.0179142,6.73253e-06,0,0,2.24
0.0142231,0.000628794,0.017971,4.48836e-06,0,0,2.244
0.0142951,0.000628794,0.0180278,2.99224e-06,0,0,2.248
0.0143673,0.000628794,0.0180847,1.99482e-06,0,0,2.252
0.0144397,0.000628794,0.0181416,1.32988e-06,0,0,2.256
0.0145124,0.000628794,0.0181986,8.86589e-07,0,0,2.26
0.0145853,0.000628794,0.0182557,5.91059e-07,0,0,2.264
0.0146585,0.000628794,0.0183129,3.94039e-07,0,0,2.268
0.0147318,0.000628448,0.0183701,-2.85282e-05,0,-0,2.272
0.0148054,0.000628794,0.0184273,9.7721e-06,0,0,2.276
0.0148792,0.000628794,0.0184847,6.51474e-06,0,0,2.28
0.0149533,0.000628794,0.018542,4.34316e-06,0,0,2.284
0.0150276,0.000628794,0.0185995,2.89544e-06,0,0,2.288
0.0151021,0.000628448,0.018657,-2.68606e-05,0,-0,2.292
0.0151768,0.000628448,0.0187146,-1.79071e-05,0,-0,2.296
0.0152518,0.000628794,0.0187722,1.68529e-05,0,0,2.3
0.015327,0.000628794,0.0188299,1.12352e-05,0,0,2.304
0.0154024,0.000628794,0.0188877,7.49016e-06,0,0,2.308
0.0154781,0.000628448,0.0189455,-2.37975e-05,0,-0,2.312
0.015554,0.000628794,0.0190034,1.29259e-05,0,0,2.316
0.0156301,0.000628794,0.0190614,8.61729e-06,0,0,2.32
0.0157065,0.000628794,0.0191194,5.74486e-06,0,0,2.324
0.0157831,0.000628448,0.0191774,-2.4961e-05,0,-0,2.328
0.0158599,0.000628794,0.0192356,1.21502e-05,0,0,2.332
0.015937,0.000628448,0.0192938,-2.06908e-05,0,-0,2.336
0.0160143,0.000628448,0.019352,-1.37938e-05,0,-0,2.34
0.0160918,0.000628794,0.0194103,1.9595e-05,0,0,2.344
0.0161696,0.000628448,0.0194687,-1.57276e-05,0,-0,2.348
0.0162475,0.000628794,0.0195272,1.83059e-05,0,0,2.352
0.0163258,0.000628794,0.0195857,1.22039e-05,0,0,2.356
0.0164042,0.000628794,0.0196442,8.13595e-06,0,0,2.36
0.0164829,0.000628448,0.0197028,-2.3367e-05,0,-0,2.364
0.0165619,0.000628448,0.0197615,-1.5578e-05,0,-0,2.368
0.016641,0.000628794,0.0198203,1.84056e-05,0,0,2.372
0.0167204,0.000628448,0.0198791,-1.65205e-05,0,-0,2.376
0.0168,0.000628794,0.0199379,1.77772e-05,0,0,2.38
0.0168799,0.000628794,0.0199968,1.18515e-05,0,0,2.384
0.01696,0.000628794,0.0200558,7.901e-06,0,0,2.388
0.0170404,0.000628448,0.0201148,-2.35236e-05,0,-0,2.392
0.0171209,0.000628794,0.0201739,1.31085e-05,0,0,2.396
0.0172018,0.000628794,0.0202331,8.73902e-06,0,0,2.4
0.0172828,0.000628794,0.0202923,5.82601e-06,0,0,2.404
0.0173641,0.000628448,0.0203516,-2.49069e-05,0,-0,2.408
0.0174456,0.000628448,0.0204109,-1.66046e-05,0,-0,2.412
0.0175274,0.000628794,0.0204703,1.77212e-05,0,0,2.416
0.0176094,0.000628794,0.0205298,1.18141e-05,0,0,2.42
0.0176916,0.000628794,0.0205893,7.87608e-06,0,0,2.424
0.0177741,0.000628794,0.0206488,5.25072e-06,0,0,2.428
0.0178568,0.000628448,0.0207085,-2.52904e-05,0,-0,2.432
0.0179398,0.000628448,0.0207681,-1.68603e-05,0,-0,2.436
0.018023,0.000628448,0.0208279,-1.12402e-05,0,-0,2.44
0.0181064,0.000628794,0.0208877,2.12975e-05,0,0,2.444
0.0181901,0.000628794,0.0209475,1.41983e-05,0,0,2.448
0.018274,0.000628794,0.0210074,9.46554e-06,0,0,2.452
0.0183581,0.000628794,0.0210674,6.31036e-06,0,0,2.456
0.0184425,0.000628794,0.0211274,4.20691e-06,0,0,2.46
0.0185271,0.000628794,0.0211875,2.8046e-06,0,0,2.464
0.018612,0.000628794,0.0212477,1.86974e-06,0,0,2.468
0.0186971,0.000628794,0.0213079,1.24649e-06,0,0,2.472
0.0187825,0.000628448,0.0213681,-2.79599e-05,0,-0,2.476
0.0188681,0.000628794,0.0214284,1.0151e-05,0,0,2.48
0.0189539,0.000628794,0.0214888,6.76731e-06,0,0,2.484
0.01904,0.000628794,0.0215492,4.51154e-06,0,0,2.488
0.0191263,0.000628794,0.0216097,3.0077e-06,0,0,2.492
0.0192129,0.000628794,0.0216703,2.00513e-06,0,0,2.496
0.0192997,0.000628448,0.0217309,-2.74542e-05,0,-0,2.5
0.0193867,0.000628794,0.0217915,1.04881e-05,0,0,2.504
0.019474,0.000628794,0.0218522,6.9921e-06,0,0,2.508
0.0195615,0.000628448,0.021913,-2.41295e-05,0,-0,2.512
0.0196493,0.000628794,0.0219738,1.27046e-05,0,0,2.516
0.0197373,0.000628794,0.0220347,8.46972e-06,0,0,2.52
0.0198256,0.000628794,0.0220956,5.64648e-06,0,0,2.524
0.0199141,0.000628448,0.0221566,-2.50266e-05,0,-0,2.528
0.0200028,0.000628448,0.0222176,-1.66844e-05,0,-0,2.532
0.0200918,0.000628794,0.0222787,1.7668e-05,0,0,2.536
0.0201811,0.000628794,0.0223399,1.17787e-05,0,0,2.54
0.0202705,0.000628448,0.0224011,-2.09385e-05,0,-0,2.544
0.0203603,0.000628794,0.0224623,1.48319e-05,0,0,2.548
0.0204502,0.000628794,0.0225237,9.88796e-06,0,0,2.552
0.0205404,0.000628448,0.022585,-2.2199e-05,0,-0,2.556
0.0206309,0.000628794,0.0226465,1.39916e-05,0,0,2.56
0.0207216,0.000628448,0.0227079,-1.94632e-05,0,-0,2.564
0.0208126,0.000628448,0.0227695,-1.29755e-05,0,-0,2.568
0.0209038,0.000628794,0.022831,2.01406e-05,0,0,2.572
0.0209952,0.000628794,0.0228927,1.34271e-05,0,0,2.576
0.0210869,0.000628448,0.0229544,-1.98395e-05,0,-0,2.58
0.0211789,0.000628794,0.0230161,1.55646e-05,0,0,2.584
0.021271,0.000628448,0.0230779,-1.84145e-05,0,-0,2.588
0.0213635,0.000628794,0.0231398,1.65146e-05,0,0,2.592
0.0214562,0.000628794,0.0232017,1.10097e-05,0,0,2.596
0.0215491,0.000628794,0.0232637,7.3398e-06,0,0,2.6
0.0216423,0.000628794,0.0233257,4.8932e-06,0,0,2.604
0.0217357,0.000628794,0.0233877,3.26214e-06,0,0,2.608
0.0218294,0.000628794,0.0234499,2.17476e-06,0,0,2.612
0.0219233,0.000628794,0.023512,1.44984e-06,0,0,2.616
0.0220175,0.000628794,0.0235742,9.66559e-07,0,0,2.62
0.0221119,0.000628448,0.0236365,-2.81466e-05,0,-0,2.624
0.0222066,0.000628794,0.0236989,1.00266e-05,0,0,2.628
0.0223015,0.000628448,0.0237612,-2.21066e-05,0,-0,2.632
0.0223967,0.000628794,0.0238237,1.40532e-05,0,0,2.636
0.0224921,0.000628448,0.0238862,-1.94221e-05,0,-0,2.64
0.0225877,0.000628794,0.0239487,1.58429e-05,0,0,2.644
0.0226837,0.000628794,0.0240113,1.05619e-05,0,0,2.648
0.0227798,0.000628448,0.0240739,-2.17497e-05,0,-0,2.652
0.0228763,0.000628794,0.0241366,1.42912e-05,0,0,2.656
0.0229729,0.000628448,0.0241994,-1.92635e-05,0,-0,2.66
0.0230699,0.000628794,0.0242622,1.59486e-05,0,0,2.664
0.023167,0.000628794,0.024325,1.06324e-05,0,0,2.668
0.0232645,0.000628794,0.0243879,7.08827e-06,0,0,2.672
0.0233621,0.000628448,0.0244509,-2.40654e-05,0,-0,2.676
0.0234601,0.000628794,0.0245139,1.27473e-05,0,0,2.68
0.0235582,0.000628794,0.0245769,8.49821e-06,0,0,2.684
0.0236567,0.000628794,0.02464,5.66547e-06,0,0,2.688
0.0237554,0.000628448,0.0247032,-2.50139e-05,0,-0,2.692
0.0238543,0.000628794,0.0247664,1.2115e-05,0,0,2.696
0.0239535,0.000628794,0.0248296,8.07664e-06,0,0,2.7
0.0240529,0.000628794,0.0248929,5.38443e-06,0,0,2.704
0.0241526,0.000628794,0.0249563,3.58962e-06,0,0,2.708
0.0242526,0.000628794,0.0250197,2.39308e-06,0,0,2.712
0.0243528,0.000628794,0.0250831,1.59539e-06,0,0,2.716
0.0244533,0.000628794,0.0251466,1.06359e-06,0,0,2.72
0.024554,0.000628794,0.0252102,7.0906e-07,0,0,2.724
0.0246549,0.000628794,0.0252738,4.72707e-07,0,0,2.728
0.0247562,0.000628448,0.0253374,-2.84758e-05,0,-0,2.732
0.0248576,0.000628794,0.0254011,9.80707e-06,0,0,2.736
0.0249594,0.000628448,0.0254649,-2.22529e-05,0,-0,2.74
0.0250614,0.000628794,0.0255287,1.39557e-05,0,0,2.744
0.0251636,0.000628448,0.0255925,-1.94871e-05,0,-0,2.748
0.0252661,0.000628448,0.0256564,-1.29914e-05,0,-0,2.752
0.0253688,0.000628794,0.0257203,2.013e-05,0,0,2.756
0.0254719,0.000628794,0.0257843,1.342e-05,0,0,2.76
0.0255751,0.000628448,0.0258484,-1.98443e-05,0,-0,2.764
0.0256786,0.000628794,0.0259125,1.55614e-05,0,0,2.768
0.0257824,0.000628794,0.0259766,1.03743e-05,0,0,2.772
0.0258865,0.000628794,0.0260408,6.91618e-06,0,0,2.776
0.0259907,0.000628794,0.026105,4.61079e-06,0,0,2.78
0.0260953,0.000628794,0.0261693,3.07386e-06,0,0,2.784
0.0262001,0.000628794,0.0262336,2.04924e-06,0,0,2.788
0.0263052,0.000628794,0.026298,1.36616e-06,0,0,2.792
0.0264105,0.000628794,0.0263624,9.10773e-07,0,0,2.796
0.0265161,0.000628794,0.0264269,6.07182e-07,0,0,2.8
0.0266219,0.000628794,0.0264914,4.04788e-07,0,0,2.804
0.026728,0.000628794,0.026556,2.69859e-07,0,0,2.808
0.0268343,0.000628794,0.0266206,1.79906e-07,0,0,2.812
0.026941,0.000628794,0.0266853,1.19937e-07,0,0,2.816
0.0270478,0.000628794,0.02675,7.99581e-08,0,0,2.82
0.027155,0.000628794,0.0268147,5.33054e-08,0,0,2.824
0.0272623,0.000629139,0.0268795,2.88265e-05,0,0,2.828
0.02737,0.000628794,0.0269444,-9.57328e-06,0,-0,2.832
0.0274779,0.000628448,0.0270092,-3.51731e-05,0,-0,2.836
0.0275861,0.000628448,0.0270742,-2.34487e-05,0,-0,2.84
0.0276945,0.000628794,0.0271392,1.31584e-05,0,0,2.844
0.0278032,0.000628794,0.0272042,8.77229e-06,0,0,2.848
0.0279121,0.000628794,0.0272693,5.84819e-06,0,0,2.852
0.0280213,0.000628448,0.0273344,-2.48921e-05,0,-0,2.856
0.0281308,0.000628794,0.0273996,1.21962e-05,0,0,2.86
0.0282405,0.000628103,0.0274648,-4.94511e-05,0,-0,2.864
0.0283505,0.000628794,0.02753,2.46145e-05,0,0,2.868
0.0284608,0.000628794,0.0275953,1.64096e-05,0,0,2.872
0.0285713,0.000628794,0.0276607,1.09398e-05,0,0,2.876
0.0286821,0.000628794,0.0277261,7.29318e-06,0,0,2.88
0.0287931,0.000628448,0.0277915,-2.39288e-05,0,-0,2.884
0.0289044,0.000628794,0.027857,1.28384e-05,0,0,2.888
0.0290159,0.000628448,0.0279225,-2.0232e-05,0,-0,2.892
0.0291278,0.000628794,0.0279881,1.53029e-05,0,0,2.896
0.0292399,0.000628794,0.0280537,1.02019e-05,0,0,2.9
0.0293522,0.000628794,0.0281194,6.8013e-06,0,0,2.904
0.0294648,0.000629139,0.0281851,3.33251e-05,0,0,2.908
0.0295777,0.000628103,0.0282508,-6.4156e-05,0,-0,2.912
0.0296908,0.000628103,0.0283166,-4.27707e-05,0,-0,2.916
0.0298042,0.000628448,0.0283825,2.77136e-07,0,0,2.92
0.0299179,0.000628794,0.0284484,2.89757e-05,0,0,2.924
0.0300318,0.000628103,0.0285143,-3.82647e-05,0,-0,2.928
0.030146,0.000628794,0.0285802,3.2072e-05,0,0,2.932
0.0302604,0.000628448,0.0286463,-7.40957e-06,0,-0,2.936
0.0303752,0.000628794,0.0287123,2.38512e-05,0,0,2.94
0.0304901,0.000628794,0.0287784,1.59008e-05,0,0,2.944
0.0306054,0.000628794,0.0288446,1.06005e-05,0,0,2.948
0.0307209,0.000628794,0.0289107,7.06703e-06,0,0,2.952
0.0308367,0.000628794,0.028977,4.71135e-06,0,0,2.956
0.0309527,0.000629139,0.0290432,3.19318e-05,0,0,2.96
0.031069,0.000628794,0.0291096,-7.50304e-06,0,-0,2.964
0.0311856,0.000628794,0.0291759,-5.00203e-06,0,-0,2.968
0.0313024,0.000628794,0.0292423,-3.33469e-06,0,-0,2.972
0.0314195,0.000628103,0.0293087,-5.9805e-05,0,-0,2.976
0.0315369,0.000628794,0.0293752,1.77119e-05,0,0,2.98
0.0316545,0.000629139,0.0294418,4.05988e-05,0,0,2.984
0.0317724,0.000629139,0.0295083,2.70659e-05,0,0,2.988
0.0318906,0.000628794,0.0295749,-1.0747e-05,0,-0,2.992
0.032009,0.000628794,0.0296416,-7.16466e-06,0,-0,2.996
0.0321277,0.000629139,0.0297083,2.40145e-05,0,0,3
0.0322467,0.000629139,0.029775,1.60097e-05,0,0,3.004
0.0323659,0.000629139,0.0298418,1.06731e-05,0,0,3.008
0.0324854,0.000628103,0.0299086,-7.92574e-05,0,-0,3.012
0.0326052,0.000628103,0.0299755,-5.28382e-05,0,-0,3.016
0.0327252,0.000628794,0.0300424,2.23564e-05,0,0,3.02
0.0328455,0.000628448,0.0301093,-1.38867e-05,0,-0,3.024
0.0329661,0.000628794,0.0301763,1.95331e-05,0,0,3.028
0.0330869,0.000629139,0.0302433,4.1813e-05,0,0,3.032
0.0332081,0.000628794,0.0303104,-9.15583e-07,0,-0,3.036
0.0333294,0.000628794,0.0303775,-6.10389e-07,0,-0,3.04
0.0334511,0.000628448,0.0304446,-2.91979e-05,0,-0,3.044
0.033573,0.000628103,0.0305118,-4.82562e-05,0,-0,3.048
0.0336952,0.000628794,0.030579,2.54111e-05,0,0,3.052
0.0338176,0.000628794,0.0306463,1.69407e-05,0,0,3.056
0.0339403,0.000628794,0.0307136,1.12938e-05,0,0,3.06
0.0340633,0.000628103,0.0307809,-5.00526e-05,0,-0,3.064
0.0341866,0.000628794,0.0308483,2.42134e-05,0,0,3.068
0.0343101,0.000628103,0.0309157,-4.14396e-05,0,-0,3.072
0.0344339,0.000628794,0.0309832,2.99555e-05,0,0,3.076
0.034558,0.000628103,0.0310507,-3.76115e-05,0,-0,3.08
0.0346823,0.000628794,0.0311182,3.25075e-05,0,0,3.084
0.0348069,0.000628794,0.0311858,2.16717e-05,0,0,3.088
0.0349318,0.000628794,0.0312534,1.44478e-05,0,0,3.092
0.035057,0.000629139,0.0313211,3.84228e-05,0,0,3.096
0.0351824,0.000629139,0.0313888,2.56152e-05,0,0,3.1
0.0353081,0.000628103,0.0314565,-6.9296e-05,0,-0,3.104
0.035434,0.000628794,0.0315243,1.13845e-05,0,0,3.108
0.0355603,0.000628794,0.0315921,7.58968e-06,0,0,3.112
0.0356868,0.000629139,0.03166,3.38507e-05,0,0,3.116
0.0358135,0.000628794,0.0317279,-6.22378e-06,0,-0,3.12
0.0359406,0.000628103,0.0317958,-6.1731e-05,0,-0,3.124
0.0360679,0.000628103,0.0318638,-4.1154e-05,0,-0,3.128
0.0361955,0.000628794,0.0319318,3.01458e-05,0,0,3.132
0.0363234,0.000629139,0.0319998,4.88881e-05,0,0,3.136
0.0364515,0.000628794,0.0320679,3.80117e-06,0,0,3.14
0.0365799,0.000628103,0.032136,-5.50477e-05,0,-0,3.144
0.0367086,0.000628794,0.0322042,2.08834e-05,0,0,3.148
0.0368375,0.000629139,0.0322724,4.27132e-05,0,0,3.152
0.0369668,0.000629139,0.0323406,2.84754e-05,0,0,3.156
0.0370963,0.000628103,0.0324089,-6.73891e-05,0,-0,3.16
0.037226,0.000628794,0.0324772,1.26558e-05,0,0,3.164
0.0373561,0.000628794,0.0325455,8.43717e-06,0,0,3.168
0.0374864,0.000628103,0.0326139,-5.19571e-05,0,-0,3.172
0.037617,0.000628794,0.0326823,2.29438e-05,0,0,3.176
0.0377479,0.000629139,0.0327507,4.40868e-05,0,0,3.18
0.037879,0.000628103,0.0328192,-5.69816e-05,0,-0,3.184
0.0380104,0.000628794,0.0328878,1.95941e-05,0,0,3.188
0.0381421,0.000628103,0.0329563,-4.45191e-05,0,-0,3.192
0.0382741,0.000629139,0.0330249,5.66934e-05,0,0,3.196
0.0384063,0.000629139,0.0330936,3.77956e-05,0,0,3.2
0.0385388,0.000629139,0.0331622,2.51971e-05,0,0,3.204
0.0386716,0.000629139,0.0332309,1.6798e-05,0,0,3.208
0.0388047,0.000628794,0.0332997,-1.75922e-05,0,-0,3.212
0.038938,0.000628794,0.0333684,-1.17282e-05,0,-0,3.216
0.0390716,0.000628103,0.0334373,-6.54006e-05,0,-0,3.22
0.0392055,0.000628794,0.0335061,1.39814e-05,0,0,3.224
0.0393397,0.000628794,0.033575,9.32096e-06,0,0,3.228
0.0394741,0.000629139,0.0336439,3.50049e-05,0,0,3.232
0.0396088,0.000628794,0.0337129,-5.45433e-06,0,-0,3.236
0.0397438,0.000629139,0.0337818,2.51547e-05,0,0,3.24
0.0398791,0.000628103,0.0338509,-6.9603e-05,0,-0,3.244
0.0400146,0.000629139,0.0339199,3.99708e-05,0,0,3.248
0.0401504,0.000628103,0.033989,-5.97256e-05,0,-0,3.252
0.0402865,0.000629139,0.0340582,4.65557e-05,0,0,3.256
0.0404229,0.000628794,0.0341273,2.24622e-06,0,0,3.26
0.0405595,0.000629139,0.0341965,3.02884e-05,0,0,3.264
0.0406965,0.000629139,0.0342657,2.01923e-05,0,0,3.268
0.0408337,0.000628794,0.034335,-1.53294e-05,0,-0,3.272
0.0409711,0.000628794,0.0344043,-1.02196e-05,0,-0,3.276
0.0411089,0.000628103,0.0344736,-6.43949e-05,0,-0,3.28
0.0412469,0.000628103,0.034543,-4.29299e-05,0,-0,3.284
0.0413852,0.000628794,0.0346124,2.89619e-05,0,0,3.288
0.0415238,0.000628794,0.0346818,1.93079e-05,0,0,3.292
0.0416627,0.000628794,0.0347513,1.28719e-05,0,0,3.296
0.0418018,0.000628794,0.0348208,8.5813e-06,0,0,3.3
0.0419413,0.000629139,0.0348903,3.45118e-05,0,0,3.304
0.042081,0.000628794,0.0349599,-5.78306e-06,0,-0,3.308
0.0422209,0.000628103,0.0350295,-6.14372e-05,0,-0,3.312
0.0423612,0.000628448,0.0350991,-1.21672e-05,0,-0,3.316
0.0425017,0.000628794,0.0351688,2.06794e-05,0,0,3.32
0.0426425,0.000628103,0.0352385,-4.37956e-05,0,-0,3.324
0.0427836,0.000628103,0.0353082,-2.9197e-05,0,-0,3.328
0.042925,0.000629139,0.035378,6.69081e-05,0,0,3.332
0.0430667,0.000628103,0.0354478,-4.17674e-05,0,-0,3.336
0.0432086,0.000628794,0.0355176,2.97369e-05,0,0,3.34
0.0433508,0.000628794,0.0355875,1.98246e-05,0,0,3.344
0.0434933,0.000628794,0.0356574,1.32164e-05,0,0,3.348
0.0436361,0.000628794,0.0357273,8.81094e-06,0,0,3.352
0.0437791,0.000628794,0.0357973,5.87396e-06,0,0,3.356
0.0439224,0.000629139,0.0358673,3.27069e-05,0,0,3.36
0.0440661,0.000628794,0.0359373,-6.98633e-06,0,-0,3.364
0.0442099,0.000628103,0.0360073,-6.22394e-05,0,-0,3.368
0.0443541,0.000629139,0.0360774,4.48798e-05,0,0,3.372
0.0444986,0.000628794,0.0361475,1.12897e-06,0,0,3.376
0.0446433,0.000628794,0.0362177,7.52646e-07,0,0,3.38
0.0447883,0.000628103,0.0362878,-5.70801e-05,0,-0,3.384
0.0449336,0.000628794,0.0363581,1.95285e-05,0,0,3.388
0.0450792,0.000628794,0.0364283,1.3019e-05,0,0,3.392
0.045225,0.000628794,0.0364986,8.67932e-06,0,0,3.396
0.0453712,0.000628794,0.0365689,5.78621e-06,0,0,3.4
0.0455176,0.000628794,0.0366392,3.85747e-06,0,0,3.404
0.0456643,0.000628794,0.0367096,2.57165e-06,0,0,3.408
0.0458112,0.000628794,0.0367799,1.71443e-06,0,0,3.412
0.0459585,0.000628103,0.0368504,-5.64389e-05,0,-0,3.416
0.046106,0.000628103,0.0369208,-3.76259e-05,0,-0,3.42
0.0462539,0.000628103,0.0369913,-2.5084e-05,0,-0,3.424
0.046402,0.000628103,0.0370618,-1.67226e-05,0,-0,3.428
0.0465504,0.000628794,0.0371324,4.64334e-05,0,0,3.432
0.046699,0.000628103,0.0372029,-2.66262e-05,0,-0,3.436
0.046848,0.000628794,0.0372735,3.9831e-05,0,0,3.44
0.0469972,0.000629139,0.0373442,5.53449e-05,0,0,3.444
0.0471467,0.000628103,0.0374148,-4.94761e-05,0,-0,3.448
0.0472965,0.000628794,0.0374855,2.45978e-05,0,0,3.452
0.0474466,0.000628794,0.0375562,1.63985e-05,0,0,3.456
0.047597,0.000628794,0.037627,1.09323e-05,0,0,3.46
0.0477476,0.000628448,0.0376978,-2.15027e-05,0,-0,3.464
0.0478986,0.000629139,0.0377686,4.32467e-05,0,0,3.468
0.0480498,0.000628794,0.0378394,4.02186e-08,0,0,3.472
0.0482013,0.000628794,0.0379103,2.68124e-08,0,0,3.476
0.0483531,0.000628448,0.0379812,-2.8773e-05,0,-0,3.48
0.0485051,0.000628794,0.0380521,9.60889e-06,0,0,3.484
0.0486575,0.000628794,0.038123,6.40593e-06,0,0,3.488
0.0488101,0.000628794,0.038194,4.27062e-06,0,0,3.492
0.048963,0.000629139,0.038265,3.1638e-05,0,0,3.496
0.0491162,0.000628794,0.038336,-7.69892e-06,0,-0,3.5
0.0492697,0.000628794,0.0384071,-5.13261e-06,0,-0,3.504
0.0494235,0.000629139,0.0384782,2.53692e-05,0,0,3.508
0.0495776,0.000628794,0.0385493,-1.18781e-05,0,-0,3.512
0.0497319,0.000628103,0.0386205,-6.55006e-05,0,-0,3.516
0.0498865,0.000628794,0.0386916,1.39148e-05,0,0,3.52
0.0500414,0.000628103,0.0387628,-4.83053e-05,0,-0,3.524
0.0501966,0.000629139,0.0388341,5.41692e-05,0,0,3.528
0.0503521,0.000628794,0.0389053,7.32189e-06,0,0,3.532
0.0505079,0.000628794,0.0389766,4.88126e-06,0,0,3.536
0.0506639,0.000629139,0.0390479,3.20451e-05,0,0,3.54
0.0508202,0.000628794,0.0391192,-7.42753e-06,0,-0,3.544
0.0509769,0.000628794,0.0391906,-4.95168e-06,0,-0,3.548
0.0511338,0.000628794,0.039262,-3.30112e-06,0,-0,3.552
0.051291,0.000628794,0.0393334,-2.20075e-06,0,-0,3.556
0.0514484,0.000628794,0.0394048,-1.46717e-06,0,-0,3.56
0.0516062,0.000628448,0.0394763,-2.9769e-05,0,-0,3.564
0.0517643,0.000628794,0.0395478,8.9449e-06,0,0,3.568
0.0519226,0.000628794,0.0396193,5.96327e-06,0,0,3.572
0.0520812,0.000628794,0.0396909,3.97551e-06,0,0,3.576
0.0522401,0.000628103,0.0397624,-5.49315e-05,0,-0,3.58
0.0523993,0.000628794,0.039834,2.09608e-05,0,0,3.584
0.0525588,0.000628794,0.0399057,1.39739e-05,0,0,3.588
0.0527186,0.000628103,0.0399773,-4.82659e-05,0,-0,3.592
0.0528786,0.000628794,0.040049,2.54046e-05,0,0,3.596
0.0530389,0.000628794,0.0401207,1.69364e-05,0,0,3.6
0.0531996,0.000628448,0.0401924,-1.75e-05,0,-0,3.604
0.0533605,0.000628794,0.0402642,1.71243e-05,0,0,3.608
0.0535217,0.000628794,0.0403359,1.14162e-05,0,0,3.612
0.0536832,0.000628103,0.0404077,-4.99711e-05,0,-0,3.616
0.0538449,0.000628794,0.0404796,2.42678e-05,0,0,3.62
0.054007,0.000629139,0.0405514,4.49695e-05,0,0,3.624
0.0541694,0.000628794,0.0406233,1.18872e-06,0,0,3.628
0.054332,0.000628794,0.0406952,7.92477e-07,0,0,3.632
0.0544949,0.000628103,0.0407671,-5.70535e-05,0,-0,3.636
0.0546581,0.000628794,0.0408391,1.95462e-05,0,0,3.64
0.0548216,0.000628794,0.040911,1.30308e-05,0,0,3.644
0.0549854,0.000628448,0.040983,-2.01037e-05,0,-0,3.648
0.0551495,0.000629139,0.0410551,4.41794e-05,0,0,3.652
0.0553139,0.000628448,0.0411271,-2.81289e-05,0,-0,3.656
0.0554785,0.000628448,0.0411992,-1.87526e-05,0,-0,3.66
0.0556435,0.000628794,0.0412713,1.62892e-05,0,0,3.664
0.0558087,0.000628448,0.0413434,-1.79315e-05,0,-0,3.668
0.0559742,0.000628794,0.0414155,1.68366e-05,0,0,3.672
0.05614,0.000628794,0.0414877,1.12244e-05,0,0,3.676
0.0563061,0.000628794,0.0415599,7.48294e-06,0,0,3.68
0.0564725,0.000629139,0.0416321,3.37795e-05,0,0,3.684
0.0566392,0.000628794,0.0417043,-6.27123e-06,0,-0,3.688
0.0568061,0.000628794,0.0417766,-4.18082e-06,0,-0,3.692
0.0569734,0.000628794,0.0418489,-2.78721e-06,0,-0,3.696
0.0571409,0.000628794,0.0419212,-1.85814e-06,0,-0,3.7
0.0573087,0.000628448,0.0419935,-3.00297e-05,0,-0,3.704
0.0574769,0.000628448,0.0420658,-2.00198e-05,0,-0,3.708
0.0576453,0.000628794,0.0421382,1.54444e-05,0,0,3.712
0.057814,0.000628794,0.0422106,1.02963e-05,0,0,3.716
0.057983,0.000628794,0.042283,6.86418e-06,0,0,3.72
0.0581522,0.000628794,0.0423555,4.57612e-06,0,0,3.724
0.0583218,0.000628794,0.0424279,3.05075e-06,0,0,3.728
0.0584917,0.000628794,0.0425004,2.03383e-06,0,0,3.732
0.0586618,0.000628794,0.0425729,1.35589e-06,0,0,3.736
0.0588322,0.000628794,0.0426454,9.03925e-07,0,0,3.74
0.059003,0.000628448,0.042718,-2.81883e-05,0,-0,3.744
0.059174,0.000628794,0.0427905,9.99872e-06,0,0,3.748
0.0593453,0.000628448,0.0428631,-2.21251e-05,0,-0,3.752
0.0595169,0.000628794,0.0429357,1.40409e-05,0,0,3.756
0.0596888,0.000628794,0.0430084,9.36057e-06,0,0,3.76
0.059861,0.000628448,0.043081,-2.25505e-05,0,-0,3.764
0.0600334,0.000628794,0.0431537,1.37572e-05,0,0,3.768
0.0602062,0.000628794,0.0432264,9.17148e-06,0,0,3.772
0.0603792,0.000628794,0.0432991,6.11432e-06,0,0,3.776
0.0605526,0.000628794,0.0433719,4.07622e-06,0,0,3.78
0.0607262,0.000628448,0.0434446,-2.60734e-05,0,-0,3.784
0.0609001,0.000628448,0.0435174,-1.73823e-05,0,-0,3.788
0.0610743,0.000628794,0.0435902,1.72027e-05,0,0,3.792
0.0612489,0.000628794,0.043663,1.14685e-05,0,0,3.796
0.0614237,0.000628448,0.0437359,-2.11453e-05,0,-0,3.8
0.0615987,0.000628448,0.0438087,-1.40968e-05,0,-0,3.804
0.0617741,0.000628794,0.0438816,1.9393e-05,0,0,3.808
0.0619498,0.000628448,0.0439545,-1.58622e-05,0,-0,3.812
0.0621258,0.000628794,0.0440274,1.82161e-05,0,0,3.816
0.062302,0.000628794,0.0441004,1.21441e-05,0,0,3.82
0.0624786,0.000628794,0.0441733,8.09604e-06,0,0,3.824
0.0626554,0.000628794,0.0442463,5.39736e-06,0,0,3.828
0.0628325,0.000628794,0.0443193,3.59824e-06,0,0,3.832
0.06301,0.000628794,0.0443923,2.39883e-06,0,0,3.836
0.0631877,0.000628794,0.0444654,1.59922e-06,0,0,3.84
0.0633657,0.000628794,0.0445384,1.06615e-06,0,0,3.844
0.063544,0.000628794,0.0446115,7.10764e-07,0,0,3.848
0.0637226,0.000628794,0.0446846,4.73843e-07,0,0,3.852
0.0639015,0.000628794,0.0447577,3.15895e-07,0,0,3.856
0.0640806,0.000628448,0.0448308,-2.85803e-05,0,-0,3.86
0.0642601,0.000628448,0.044904,-1.90536e-05,0,-0,3.864
0.0644399,0.000628448,0.0449772,-1.27024e-05,0,-0,3.868
0.0646199,0.000628794,0.0450504,2.03227e-05,0,0,3.872
0.0648003,0.000628448,0.0451236,-1.52425e-05,0,-0,3.876
0.0649809,0.000628794,0.0451968,1.86293e-05,0,0,3.88
0.0651618,0.000628794,0.04527,1.24195e-05,0,0,3.884
0.0653431,0.000628794,0.0453433,8.27968e-06,0,0,3.888
0.0655246,0.000628448,0.0454166,-2.32711e-05,0,-0,3.892
0.0657064,0.000628794,0.0454899,1.32768e-05,0,0,3.896
0.0658885,0.000628794,0.0455632,8.85122e-06,0,0,3.9
0.0660709,0.000628794,0.0456365,5.90081e-06,0,0,3.904
0.0662536,0.000628448,0.0457099,-2.4857e-05,0,-0,3.908
0.0664366,0.000628794,0.0457832,1.22196e-05,0,0,3.912
0.0666199,0.000628794,0.0458566,8.14637e-06,0,0,3.916
0.0668034,0.000628794,0.04593,5.43092e-06,0,0,3.92
0.0669873,0.000628794,0.0460034,3.62061e-06,0,0,3.924
0.0671715,0.000628794,0.0460769,2.41374e-06,0,0,3.928
0.0673559,0.000628448,0.0461503,-2.71818e-05,0,-0,3.932
0.0675407,0.000628794,0.0462238,1.06697e-05,0,0,3.936
0.0677257,0.000628794,0.0462973,7.11317e-06,0,0,3.94
0.067911,0.000628794,0.0463708,4.74211e-06,0,0,3.944
0.0680967,0.000628794,0.0464443,3.16141e-06,0,0,3.948
0.0682826,0.000628794,0.0465179,2.1076e-06,0,0,3.952
0.0684688,0.000628794,0.0465914,1.40507e-06,0,0,3.956
0.0686553,0.000628794,0.046665,9.36713e-07,0,0,3.96
0.0688421,0.000628794,0.0467386,6.24475e-07,0,0,3.964
0.0690292,0.000628794,0.0468122,4.16317e-07,0,0,3.968
0.0692166,0.000628794,0.0468858,2.77545e-07,0,0,3.972
0.0694043,0.000628794,0.0469594,1.8503e-07,0,0,3.976
0.0695923,0.000628794,0.0470331,1.23353e-07,0,0,3.98
0.0697806,0.000628448,0.0471067,-2.87087e-05,0,-0,3.984
0.0699692,0.000628794,0.0471804,9.6518e-06,0,0,3.988
0.070158,0.000628794,0.0472541,6.43453e-06,0,0,3.992
0.0703472,0.000628794,0.0473278,4.28969e-06,0,0,3.996
0.0705367,0.000628448,0.0474016,-2.59311e-05,0,-0,4
0.0707264,0.000628448,0.0474753,-1.72874e-05,0,-0,4.004
0.0709165,0.000628794,0.0475491,1.7266e-05,0,0,4.008
0.0711068,0.000628448,0.0476228,-1.72803e-05,0,-0,4.012
0.0712974,0.000628794,0.0476966,1.72707e-05,0,0,4.016
0.0714884,0.000628794,0.0477704,1.15138e-05,0,0,4.02
0.0716796,0.000628448,0.0478443,-2.1115e-05,0,-0,4.024
0.0718711,0.000628448,0.0479181,-1.40767e-05,0,-0,4.028
0.072063,0.000628794,0.0479919,1.94065e-05,0,0,4.032
0.0722551,0.000628448,0.0480658,-1.58533e-05,0,-0,4.036
0.0724475,0.000628794,0.0481397,1.82221e-05,0,0,4.04
0.0726402,0.000628448,0.0482136,-1.66429e-05,0,-0,4.044
0.0728332,0.000628794,0.0482875,1.76957e-05,0,0,4.048
0.0730265,0.000628794,0.0483614,1.17971e-05,0,0,4.052
0.0732201,0.000628448,0.0484353,-2.09262e-05,0,-0,4.056
0.073414,0.000628448,0.0485093,-1.39508e-05,0,-0,4.06
0.0736082,0.000628794,0.0485832,1.94904e-05,0,0,4.064
0.0738026,0.000628794,0.0486572,1.29936e-05,0,0,4.068
0.0739974,0.000628794,0.0487312,8.6624e-06,0,0,4.072
0.0741925,0.000628794,0.0488052,5.77493e-06,0,0,4.076
0.0743879,0.000628448,0.0488792,-2.4941e-05,0,-0,4.08
0.0745835,0.000628794,0.0489532,1.21636e-05,0,0,4.084
0.0747795,0.000628448,0.0490273,-2.06819e-05,0,-0,4.088
0.0749757,0.000628794,0.0491013,1.5003e-05,0,0,4.092
0.0751723,0.000628794,0.0491754,1.0002e-05,0,0,4.096
0.0753691,0.000628448,0.0492495,-2.21229e-05,0,-0,4.1
0.0755663,0.000628794,0.0493236,1.40423e-05,0,0,4.104
0.0757637,0.000628794,0.0493977,9.36154e-06,0,0,4.108
0.0759615,0.000628794,0.0494718,6.24103e-06,0,0,4.112
0.0761595,0.000628794,0.0495459,4.16069e-06,0,0,4.116
0.0763578,0.000628794,0.0496201,2.77379e-06,0,0,4.12
0.0765565,0.000628794,0.0496942,1.84919e-06,0,0,4.124
0.0767554,0.000628448,0.0497684,-2.75581e-05,0,-0,4.128
0.0769546,0.000628448,0.0498425,-1.83721e-05,0,-0,4.132
0.0771541,0.000628794,0.0499167,1.65429e-05,0,0,4.136
0.0773539,0.000628794,0.0499909,1.10286e-05,0,0,4.14
0.0775541,0.000628794,0.0500652,7.35239e-06,0,0,4.144
0.0777545,0.000628794,0.0501394,4.90159e-06,0,0,4.148
0.0779552,0.000628794,0.0502136,3.26773e-06,0,0,4.152
0.0781562,0.000628448,0.0502879,-2.66124e-05,0,-0,4.156
0.0783575,0.000628794,0.0503621,1.10493e-05,0,0,4.16
0.0785591,0.000628794,0.0504364,7.3662e-06,0,0,4.164
0.078761,0.000628448,0.0505107,-2.38801e-05,0,-0,4.168
0.0789632,0.000628448,0.050585,-1.59201e-05,0,-0,4.172
0.0791656,0.000628448,0.0506593,-1.06134e-05,0,-0,4.176
0.0793684,0.000628794,0.0507336,2.17153e-05,0,0,4.18
0.0795715,0.000628794,0.0508079,1.44769e-05,0,0,4.184
0.0797749,0.000628794,0.0508823,9.65126e-06,0,0,4.188
0.0799786,0.000628794,0.0509566,6.43417e-06,0,0,4.192
0.0801825,0.000628448,0.051031,-2.45015e-05,0,-0,4.196
0.0803868,0.000628794,0.0511053,1.24566e-05,0,0,4.2
0.0805914,0.000628448,0.0511797,-2.04865e-05,0,-0,4.204
0.0807963,0.000628448,0.0512541,-1.36577e-05,0,-0,4.208
0.0810014,0.000628794,0.0513285,1.96858e-05,0,0,4.212
0.0812069,0.000628794,0.0514029,1.31239e-05,0,0,4.216
0.0814126,0.000628794,0.0514773,8.74925e-06,0,0,4.22
0.0816187,0.000628794,0.0515518,5.83283e-06,0,0,4.224
0.0818251,0.000628794,0.0516262,3.88855e-06,0,0,4.228
0.0820317,0.000628794,0.0517007,2.59237e-06,0,0,4.232
0.0822387,0.000628794,0.0517751,1.72825e-06,0,0,4.236
0.0824459,0.000628794,0.0518496,1.15216e-06,0,0,4.24
0.0826535,0.000628448,0.0519241,-2.80228e-05,0,-0,4.244
0.0828613,0.000628794,0.0519986,1.0109e-05,0,0,4.248
0.0830694,0.000628794,0.0520731,6.73937e-06,0,0,4.252
0.0832779,0.000628794,0.0521476,4.49291e-06,0,0,4.256
0.0834866,0.000628794,0.0522221,2.99527e-06,0,0,4.26
0.0836957,0.000628794,0.0522966,1.99685e-06,0,0,4.264
0.083905,0.000628448,0.0523711,-2.74597e-05,0,-0,4.268
0.0841146,0.000628794,0.0524457,1.04845e-05,0,0,4.272
0.0843246,0.000628794,0.0525202,6.98964e-06,0,0,4.276
0.0845348,0.000628794,0.0525948,4.65976e-06,0,0,4.28
0.0847453,0.000628794,0.0526694,3.10651e-06,0,0,4.284
0.0849562,0.000628448,0.0527439,-2.67199e-05,0,-0,4.288
0.0851673,0.000628794,0.0528185,1.09776e-05,0,0,4.292
0.0853787,0.000628794,0.0528931,7.31843e-06,0,0,4.296
0.0855904,0.000628448,0.0529677,-2.3912e-05,0,-0,4.3
0.0858024,0.000628794,0.0530423,1.28496e-05,0,0,4.304
0.0860148,0.000628794,0.0531169,8.56641e-06,0,0,4.308
0.0862274,0.000628794,0.0531916,5.71094e-06,0,0,4.312
0.0864403,0.000628794,0.0532662,3.80729e-06,0,0,4.316
0.0866535,0.000628794,0.0533408,2.53819e-06,0,0,4.32
0.086867,0.000628794,0.0534155,1.69213e-06,0,0,4.324
0.0870808,0.000628448,0.0534901,-2.76628e-05,0,-0,4.328
0.0872949,0.000628794,0.0535648,1.0349e-05,0,0,4.332
0.0875093,0.000628794,0.0536395,6.89936e-06,0,0,4.336
0.0877241,0.000628448,0.0537141,-2.41914e-05,0,-0,4.34
0.0879391,0.000628794,0.0537888,1.26634e-05,0,0,4.344
0.0881544,0.000628794,0.0538635,8.44224e-06,0,0,4.348
0.08837,0.000628794,0.0539382,5.62816e-06,0,0,4.352
0.0885859,0.000628794,0.0540129,3.75211e-06,0,0,4.356
0.0888021,0.000628448,0.0540876,-2.62895e-05,0,-0,4.36
0.0890186,0.000628794,0.0541623,1.12646e-05,0,0,4.364
0.0892354,0.000628794,0.0542371,7.50972e-06,0,0,4.368
0.0894525,0.000628794,0.0543118,5.00648e-06,0,0,4.372
0.0896699,0.000628448,0.0543865,-2.54533e-05,0,-0,4.376
0.0898876,0.000628794,0.0544613,1.18221e-05,0,0,4.38
0.0901056,0.000628448,0.054536,-2.09095e-05,0,-0,4.384
0.0903238,0.000628794,0.0546108,1.48512e-05,0,0,4.388
0.0905424,0.000628794,0.0546855,9.90082e-06,0,0,4.392
0.0907613,0.000628794,0.0547603,6.60055e-06,0,0,4.396
0.0909805,0.000628794,0.0548351,4.40036e-06,0,0,4.4
0.0912,0.000628448,0.0549099,-2.58573e-05,0,-0,4.404
0.0914198,0.000628448,0.0549846,-1.72382e-05,0,-0,4.408
0.0916399,0.000628794,0.0550594,1.72988e-05,0,0,4.412
0.0918603,0.000628794,0.0551342,1.15325e-05,0,0,4.416
0.092081,0.000628794,0.055209,7.68834e-06,0,0,4.42
0.092302,0.000628794,0.0552838,5.12556e-06,0,0,4.424
0.0925232,0.000628794,0.0553586,3.41704e-06,0,0,4.428
0.0927448,0.000628448,0.0554334,-2.65129e-05,0,-0,4.432
0.0929667,0.000628794,0.0555083,1.11157e-05,0,0,4.436
0.0931889,0.000628794,0.0555831,7.41044e-06,0,0,4.44
0.0934114,0.000628448,0.0556579,-2.38506e-05,0,-0,4.444
0.0936341,0.000628794,0.0557328,1.28905e-05,0,0,4.448
0.0938572,0.000628794,0.0558076,8.59367e-06,0,0,4.452
0.0940806,0.000628448,0.0558824,-2.30618e-05,0,-0,4.456
0.0943043,0.000628448,0.0559573,-1.53745e-05,0,-0,4.46
0.0945283,0.000628794,0.0560321,1.85412e-05,0,0,4.464
0.0947525,0.000628448,0.056107,-1.64301e-05,0,-0,4.468
0.0949771,0.000628794,0.0561819,1.78375e-05,0,0,4.472
0.095202,0.000628794,0.0562567,1.18917e-05,0,0,4.476
0.0954272,0.000628448,0.0563316,-2.08631e-05,0,-0,4.48
0.0956527,0.000628448,0.0564065,-1.39088e-05,0,-0,4.484
0.0958784,0.000628794,0.0564813,1.95184e-05,0,0,4.488
0.0961045,0.000628794,0.0565562,1.30123e-05,0,0,4.492
0.0963309,0.000628794,0.0566311,8.67485e-06,0,0,4.496
0.0965576,0.000628103,0.056706,-5.17986e-05,0,-0,4.5
0.0967845,0.000628794,0.0567809,2.30494e-05,0,0,4.504
0.0970118,0.000628794,0.0568558,1.53663e-05,0,0,4.508
0.0972394,0.000628794,0.0569307,1.02442e-05,0,0,4.512
0.0974672,0.000628794,0.0570056,6.82946e-06,0,0,4.516
0.0976954,0.000628448,0.0570805,-2.42379e-05,0,-0,4.52
0.0979239,0.000628794,0.0571554,1.26323e-05,0,0,4.524
0.0981527,0.000628794,0.0572303,8.42153e-06,0,0,4.528
0.0983817,0.000628794,0.0573052,5.61435e-06,0,0,4.532
0.0986111,0.000628794,0.0573801,3.7429e-06,0,0,4.536
0.0988408,0.000628794,0.057455,2.49527e-06,0,0,4.54
0.0990707,0.000629139,0.0575299,3.04544e-05,0,0,4.544
0.099301,0.000628794,0.0576049,-8.48797e-06,0,-0,4.548
0.0995316,0.000629139,0.0576798,2.31323e-05,0,0,4.552
0.0997625,0.000628794,0.0577547,-1.33694e-05,0,-0,4.556
0.0999936,0.000628794,0.0578296,-8.91294e-06,0,-0,4.56
0.100225,0.000628794,0.0579046,-5.94196e-06,0,-0,4.564
0.100457,0.000628794,0.0579795,-3.96131e-06,0,-0,4.568
0.100689,0.000628794,0.0580544,-2.64087e-06,0,-0,4.572
0.100921,0.000628103,0.0581294,-5.93424e-05,0,-0,4.576
0.101154,0.000628794,0.0582043,1.80202e-05,0,0,4.58
0.101387,0.000629139,0.0582792,4.08044e-05,0,0,4.584
0.10162,0.000628103,0.0583542,-5.91698e-05,0,-0,4.588
0.101854,0.000628794,0.0584291,1.81353e-05,0,0,4.592
0.102088,0.000628794,0.058504,1.20902e-05,0,0,4.596
0.102322,0.000628794,0.058579,8.06013e-06,0,0,4.6
0.102556,0.000628794,0.0586539,5.37342e-06,0,0,4.604
0.102791,0.000628103,0.0587289,-5.39996e-05,0,-0,4.608
0.103026,0.000629139,0.0588038,5.03731e-05,0,0,4.612
0.103261,0.000628794,0.0588788,4.79112e-06,0,0,4.616
0.103497,0.000628794,0.0589537,3.19408e-06,0,0,4.62
0.103733,0.000628794,0.0590287,2.12938e-06,0,0,4.624
0.103969,0.000628794,0.0591036,1.41959e-06,0,0,4.628
0.104206,0.000628103,0.0591786,-5.66355e-05,0,-0,4.632
0.104443,0.000628103,0.0592535,-3.7757e-05,0,-0,4.636
0.10468,0.000628794,0.0593285,3.24105e-05,0,0,4.64
0.104917,0.000628794,0.0594034,2.1607e-05,0,0,4.644
0.105155,0.000629139,0.0594784,4.31956e-05,0,0,4.648
0.105393,0.000628794,0.0595533,6.14676e-09,0,0,4.652
0.105632,0.000628794,0.0596283,4.09784e-09,0,0,4.656
0.10587,0.000628794,0.0597032,2.73189e-09,0,0,4.66
0.106109,0.000628794,0.0597782,1.82126e-09,0,0,4.664
0.106348,0.000628794,0.0598531,1.21417e-09,0,0,4.668
0.106588,0.000628794,0.0599281,8.09449e-10,0,0,4.672
0.106828,0.000628103,0.060003,-5.75813e-05,0,-0,4.676
0.107068,0.000628794,0.060078,1.91943e-05,0,0,4.68
0.107309,0.000629139,0.0601529,4.15871e-05,0,0,4.684
0.107549,0.000628448,0.0602279,-2.98571e-05,0,-0,4.688
0.10779,0.000628794,0.0603028,8.88619e-06,0,0,4.692
0.108032,0.000628794,0.0603778,5.92413e-06,0,0,4.696
0.108273,0.000629139,0.0604527,3.27403e-05,0,0,4.7
0.108515,0.000628103,0.0605276,-6.45459e-05,0,-0,4.704
0.108758,0.000628448,0.0606026,-1.42397e-05,0,-0,4.708
0.109,0.000628794,0.0606775,1.92978e-05,0,0,4.712
0.109243,0.000628794,0.0607525,1.28652e-05,0,0,4.716
0.109486,0.000629139,0.0608274,3.73677e-05,0,0,4.72
0.10973,0.000628794,0.0609023,-3.8791e-06,0,-0,4.724
0.109973,0.000629139,0.0609773,2.62049e-05,0,0,4.728
0.110217,0.000628103,0.0610522,-6.89029e-05,0,-0,4.732
0.110462,0.000628103,0.0611271,-4.59352e-05,0,-0,4.736
0.110706,0.000628794,0.0612021,2.69584e-05,0,0,4.74
0.110951,0.000628103,0.061277,-3.96096e-05,0,-0,4.744
0.111197,0.000628794,0.0613519,3.11754e-05,0,0,4.748
0.111442,0.000629139,0.0614268,4.95746e-05,0,0,4.752
0.111688,0.000628794,0.0615017,4.25878e-06,0,0,4.756
0.111934,0.000628448,0.0615767,-2.59517e-05,0,-0,4.76
0.112181,0.000628794,0.0616516,1.14898e-05,0,0,4.764
0.112427,0.000628794,0.0617265,7.65984e-06,0,0,4.768
0.112675,0.000629139,0.0618014,3.38975e-05,0,0,4.772
0.112922,0.000629139,0.0618763,2.25983e-05,0,0,4.776
0.11317,0.000628794,0.0619512,-1.37254e-05,0,-0,4.78
0.113417,0.000628103,0.0620261,-6.67321e-05,0,-0,4.784
0.113666,0.000628794,0.062101,1.30938e-05,0,0,4.788
0.113914,0.000628448,0.0621759,-2.00617e-05,0,-0,4.792
0.114163,0.000629139,0.0622508,4.42074e-05,0,0,4.796
0.114412,0.000628448,0.0623257,-2.81103e-05,0,-0,4.8
0.114662,0.000628103,0.0624006,-4.75311e-05,0,-0,4.804
0.114912,0.000628794,0.0624755,2.58944e-05,0,0,4.808
0.115162,0.000629139,0.0625503,4.60539e-05,0,0,4.812
0.115412,0.000629139,0.0626252,3.07026e-05,0,0,4.816
0.115663,0.000628103,0.0627001,-6.59044e-05,0,-0,4.82
0.115914,0.000628794,0.062775,1.36456e-05,0,0,4.824
0.116165,0.000628794,0.0628498,9.09706e-06,0,0,4.828
0.116416,0.000628103,0.0629247,-5.15171e-05,0,-0,4.832
0.116668,0.000629139,0.0629995,5.2028e-05,0,0,4.836
0.11692,0.000628794,0.0630744,5.89442e-06,0,0,4.84
0.117173,0.000628794,0.0631492,3.92961e-06,0,0,4.844
0.117426,0.000629139,0.0632241,3.14107e-05,0,0,4.848
0.117679,0.000628103,0.0632989,-6.54323e-05,0,-0,4.852
0.117932,0.000628794,0.0633738,1.39603e-05,0,0,4.856
0.118186,0.000628794,0.0634486,9.30686e-06,0,0,4.86
0.118439,0.000629139,0.0635234,3.49955e-05,0,0,4.864
0.118694,0.000628794,0.0635982,-5.46059e-06,0,-0,4.868
0.118948,0.000628103,0.063673,-6.12222e-05,0,-0,4.872
0.119203,0.000628794,0.0637479,1.6767e-05,0,0,4.876
0.119458,0.000629139,0.0638227,3.99689e-05,0,0,4.88
0.119714,0.000628103,0.0638975,-5.97268e-05,0,-0,4.884
0.119969,0.000629139,0.0639723,4.65549e-05,0,0,4.888
0.120225,0.000628448,0.064047,-2.65453e-05,0,-0,4.892
0.120482,0.000628794,0.0641218,1.10941e-05,0,0,4.896
0.120738,0.000628794,0.0641966,7.39606e-06,0,0,4.9
0.120995,0.000628794,0.0642714,4.93071e-06,0,0,4.904
0.121253,0.000628448,0.0643462,-2.55038e-05,0,-0,4.908
0.12151,0.000628794,0.0644209,1.17884e-05,0,0,4.912
0.121768,0.000629139,0.0644957,3.66499e-05,0,0,4.916
0.122026,0.000629139,0.0645704,2.44332e-05,0,0,4.92
0.122285,0.000628794,0.0646452,-1.25021e-05,0,-0,4.924
0.122543,0.000628794,0.0647199,-8.33473e-06,0,-0,4.928
0.122802,0.000628794,0.0647946,-5.55649e-06,0,-0,4.932
0.123062,0.000628794,0.0648694,-3.70433e-06,0,-0,4.936
0.123321,0.000628103,0.0649441,-6.00514e-05,0,-0,4.94
0.123581,0.000628794,0.0650188,1.75476e-05,0,0,4.944
0.123841,0.000629139,0.0650935,4.04893e-05,0,0,4.948
0.124102,0.000628794,0.0651682,-1.79805e-06,0,-0,4.952
0.124363,0.000628103,0.0652429,-5.87805e-05,0,-0,4.956
0.124624,0.000628794,0.0653176,1.83948e-05,0,0,4.96
0.124885,0.000628103,0.0653923,-4.53186e-05,0,-0,4.964
0.125147,0.000628794,0.065467,2.73694e-05,0,0,4.968
0.125409,0.000628794,0.0655416,1.82463e-05,0,0,4.972
0.125671,0.000629139,0.0656163,4.09551e-05,0,0,4.976
0.125934,0.000628794,0.0656909,-1.48752e-06,0,-0,4.98
0.126197,0.000628448,0.0657656,-2.97826e-05,0,-0,4.984
0.12646,0.000628794,0.0658402,8.93586e-06,0,0,4.988
0.126724,0.000628794,0.0659149,5.95724e-06,0,0,4.992
0.126987,0.000628794,0.0659895,3.97149e-06,0,0,4.996
0.127252,0.000628103,0.0660641,-5.49342e-05,0,-0,5
0.127516,0.000628794,0.0661387,2.09591e-05,0,0,5.004
0.127781,0.000628103,0.0662133,-4.36091e-05,0,-0,5.008
0.128046,0.000629139,0.0662879,5.73e-05,0,0,5.012
0.128311,0.000629139,0.0663625,3.82e-05,0,0,5.016
0.128577,0.000628794,0.0664371,-3.32425e-06,0,-0,5.02
0.128842,0.000629139,0.0665117,2.65748e-05,0,0,5.024
0.129109,0.000628103,0.0665862,-6.86563e-05,0,-0,5.028
0.129375,0.000629139,0.0666608,4.06019e-05,0,0,5.032
0.129642,0.000628103,0.0667353,-5.93048e-05,0,-0,5.036
0.129909,0.000628794,0.0668099,1.80453e-05,0,0,5.04
0.130176,0.000628794,0.0668844,1.20302e-05,0,0,5.044
0.130444,0.000629139,0.0669589,3.68111e-05,0,0,5.048
0.130712,0.000628794,0.0670334,-4.25022e-06,0,-0,5.052
0.13098,0.000628794,0.0671079,-2.83348e-06,0,-0,5.056
0.131249,0.000628794,0.0671824,-1.88899e-06,0,-0,5.06
0.131518,0.000629139,0.0672569,2.75316e-05,0,0,5.064
0.131787,0.000628103,0.0673314,-6.80184e-05,0,-0,5.068
0.132056,0.000628794,0.0674058,1.22363e-05,0,0,5.072
0.132326,0.000628794,0.0674803,8.15751e-06,0,0,5.076
0.132596,0.000628794,0.0675547,5.43834e-06,0,0,5.08
0.132867,0.000628794,0.0676292,3.62556e-06,0,0,5.084
0.133137,0.000629139,0.0677036,3.1208e-05,0,0,5.088
0.133408,0.000628103,0.067778,-6.55675e-05,0,-0,5.092
0.13368,0.000628794,0.0678525,1.38702e-05,0,0,5.096
0.133951,0.000628794,0.0679269,9.2468e-06,0,0,5.1
0.134223,0.000628794,0.0680012,6.16454e-06,0,0,5.104
0.134495,0.000629139,0.0680756,3.29006e-05,0,0,5.108
0.134768,0.000628794,0.06815,-6.85718e-06,0,-0,5.112
0.13504,0.000628103,0.0682244,-6.21533e-05,0,-0,5.116
0.135313,0.000628794,0.0682987,1.61463e-05,0,0,5.12
0.135587,0.000628794,0.0683731,1.07642e-05,0,0,5.124
0.13586,0.000628794,0.0684474,7.17614e-06,0,0,5.128
0.136134,0.000628794,0.0685217,4.78409e-06,0,0,5.132
0.136409,0.000628794,0.068596,3.1894e-06,0,0,5.136
0.136683,0.000628794,0.0686703,2.12626e-06,0,0,5.14
0.136958,0.000628794,0.0687446,1.41751e-06,0,0,5.144
0.137233,0.000629139,0.0688189,2.97359e-05,0,0,5.148
0.137508,0.000628794,0.0688932,-8.96697e-06,0,-0,5.152
0.137784,0.000628794,0.0689674,-5.97798e-06,0,-0,5.156
0.13806,0.000628794,0.0690417,-3.98532e-06,0,-0,5.16
0.138336,0.000628794,0.0691159,-2.65688e-06,0,-0,5.164
0.138613,0.000628794,0.0691901,-1.77125e-06,0,-0,5.168
0.13889,0.000628794,0.0692644,-1.18084e-06,0,-0,5.172
0.139167,0.000628103,0.0693386,-5.83691e-05,0,-0,5.176
0.139445,0.000628794,0.0694127,1.86691e-05,0,0,5.18
0.139723,0.000628794,0.0694869,1.24461e-05,0,0,5.184
0.140001,0.000628794,0.0695611,8.29739e-06,0,0,5.188
0.140279,0.000628794,0.0696353,5.5316e-06,0,0,5.192
0.140558,0.000628794,0.0697094,3.68773e-06,0,0,5.196
0.140837,0.000629139,0.0697835,3.12494e-05,0,0,5.2
0.141116,0.000629139,0.0698577,2.08329e-05,0,0,5.204
0.141396,0.000628794,0.0699318,-1.49023e-05,0,-5.26507e-13,5.208
0.141675,0.000628794,0.0700059,-9.93486e-06,0,1.16821e-13,5.212
0.141956,0.000628794,0.07008,-6.62324e-06,0,5.19204e-14,5.216
0.142236,0.000628794,0.070154,-4.4155e-06,0,2.30757e-14,5.22
0.142517,0.000628794,0.0702281,-2.94366e-06,0,1.02559e-14,5.224
0.142798,0.000628794,0.0703021,-1.96244e-06,0,4.55817e-15,5.228
0.143079,0.000628794,0.0703762,-1.30829e-06,0,2.02585e-15,5.232
0.143361,0.000629139,0.0704502,2.79187e-05,0,-2.88208e-14,5.236
0.143643,0.000628794,0.0705242,-1.01784e-05,0,7.00489e-15,5.24
0.143925,0.000628794,0.0705982,-6.78563e-06,0,3.11328e-15,5.244
0.144208,0.000628794,0.0706722,-4.52375e-06,0,1.38368e-15,5.248
0.14449,0.000628794,0.0707462,-3.01583e-06,0,6.14969e-16,5.252
0.144774,0.000629139,0.0708202,2.67804e-05,0,-3.64059e-15,5.256
0.145057,0.000628794,0.0708941,-1.09373e-05,0,9.91232e-16,5.26
0.145341,0.000628794,0.070968,-7.29156e-06,0,4.40548e-16,5.264
0.145625,0.000628794,0.071042,-4.86104e-06,0,1.95799e-16,5.268
0.145909,0.000628794,0.0711159,-3.24069e-06,0,8.70218e-17,5.272
0.146194,0.000628794,0.0711898,-2.16046e-06,0,3.86763e-17,5.276
0.146479,0.000628794,0.0712637,-1.44031e-06,0,1.71895e-17,5.28
0.146764,0.000628794,0.0713375,-9.60206e-07,0,7.63977e-18,5.284
0.147049,0.000628794,0.0714114,-6.40137e-07,0,3.39545e-18,5.288
0.147335,0.000628794,0.0714852,-4.26758e-07,0,1.50909e-18,5.292
0.147621,0.000628794,0.0715591,-2.84505e-07,0,6.70707e-19,5.296
0.147908,0.000628794,0.0716329,-1.8967e-07,0,2.98092e-19,5.3
0.148194,0.000628448,0.0717067,-2.89174e-05,0,3.02983e-17,5.304
0.148481,0.000628794,0.0717805,9.51268e-06,0,-6.64464e-18,5.308
0.148768,0.000628794,0.0718542,6.34178e-06,0,-2.95317e-18,5.312
0.149056,0.000628794,0.071928,4.22786e-06,0,-1.31252e-18,5.316
0.149344,0.000628794,0.0720018,2.81857e-06,0,-5.83343e-19,5.32
0.149632,0.000628794,0.0720755,1.87905e-06,0,-2.59263e-19,5.324
0.149921,0.000628794,0.0721492,1.2527e-06,0,-1.15228e-19,5.328
0.150209,0.000628794,0.0722229,8.35132e-07,0,-5.12125e-20,5.332
0.150498,0.000628794,0.0722966,5.56755e-07,0,-2.27611e-20,5.336
0.150788,0.000628794,0.0723703,3.7117e-07,0,-1.01161e-20,5.34
0.151077,0.000628794,0.0724439,2.47447e-07,0,-4.49602e-21,5.344
0.151367,0.000628794,0.0725176,1.64964e-07,0,-1.99823e-21,5.348
0.151657,0.000628794,0.0725912,1.09976e-07,0,-8.88103e-22,5.352
0.151948,0.000628448,0.0726648,-2.87176e-05,0,1.54604e-19,5.356
0.152239,0.000628794,0.0727384,9.64585e-06,0,-3.46197e-20,5.36
0.15253,0.000628794,0.072812,6.43057e-06,0,-1.53865e-20,5.364
0.152821,0.000628448,0.0728856,-2.45039e-05,0,3.90872e-20,5.368
0.153113,0.000628448,0.0729592,-1.63359e-05,0,1.73721e-20,5.372
0.153405,0.000628448,0.0730327,-1.08906e-05,0,7.72093e-21,5.376
0.153697,0.000628794,0.0731062,2.15305e-05,0,-1.01761e-20,5.38
0.15399,0.000628448,0.0731797,-1.44372e-05,0,4.54903e-21,5.384
0.154283,0.000628794,0.0732532,1.91661e-05,0,-4.02603e-21,5.388
0.154576,0.000628794,0.0733267,1.27774e-05,0,-1.78935e-21,5.392
0.154869,0.000628794,0.0734002,8.51826e-06,0,-7.95265e-22,5.396
0.155163,0.000628794,0.0734736,5.67884e-06,0,-3.53451e-22,5.4
0.155457,0.000628448,0.0735471,-2.5005e-05,0,1.03754e-21,5.404
0.155751,0.000628794,0.0736205,1.21209e-05,0,-3.35291e-22,5.408
0.156046,0.000628794,0.0736939,8.0806e-06,0,-1.49018e-22,5.412
0.156341,0.000628794,0.0737673,5.38707e-06,0,-6.62303e-23,5.416
0.156636,0.000628794,0.0738406,3.59138e-06,0,-2.94357e-23,5.42
0.156932,0.000628794,0.073914,2.39425e-06,0,-1.30825e-23,5.424
0.157227,0.000628794,0.0739873,1.59617e-06,0,-5.81446e-24,5.428
0.157524,0.000628794,0.0740606,1.06411e-06,0,-2.5842e-24,5.432
0.15782,0.000628794,0.0741339,7.09408e-07,0,-1.14854e-24,5.436
0.158117,0.000628448,0.0742072,-2.8318e-05,0,3.05646e-23,5.44
0.158414,0.000628794,0.0742805,9.91227e-06,0,-7.13245e-24,5.444
0.158711,0.000628794,0.0743538,6.60818e-06,0,-3.16998e-24,5.448
0.159008,0.000628794,0.074427,4.40545e-06,0,-1.40888e-24,5.452
0.159306,0.000628794,0.0745002,2.93697e-06,0,-6.26168e-25,5.456
0.159604,0.000628794,0.0745734,1.95798e-06,0,-2.78297e-25,5.46
0.159903,0.000628794,0.0746466,1.30532e-06,0,-1.23688e-25,5.464
0.160202,0.000628794,0.0747198,8.70213e-07,0,-5.49723e-26,5.468
0.160501,0.000628448,0.0747929,-2.82108e-05,0,1.18807e-24,5.472
0.1608,0.000628794,0.0748661,9.98374e-06,0,-2.80304e-25,5.476
0.1611,0.000628794,0.0749392,6.65582e-06,0,-1.24579e-25,5.48
0.161399,0.000628794,0.0750123,4.43722e-06,0,-5.53686e-26,5.484
0.1617,0.000628794,0.0750854,2.95814e-06,0,-2.46083e-26,5.488
0.162,0.000628794,0.0751584,1.9721e-06,0,-1.0937e-26,5.492
0.162301,0.000628448,0.0752315,-2.74762e-05,0,1.01586e-25,5.496
0.162602,0.000628794,0.0753045,1.04735e-05,0,-2.58154e-26,5.5
0.162903,0.000628794,0.0753775,6.98231e-06,0,-1.14735e-26,5.504
0.163205,0.000628794,0.0754505,4.65487e-06,0,-5.09933e-27,5.508
0.163507,0.000628794,0.0755235,3.10325e-06,0,-2.26637e-27,5.512
0.163809,0.000628794,0.0755965,2.06883e-06,0,-1.00728e-27,5.516
0.164112,0.000628794,0.0756694,1.37922e-06,0,-4.47678e-28,5.52
0.164415,0.000628794,0.0757423,9.19481e-07,0,-1.98968e-28,5.524
0.164718,0.000628794,0.0758152,6.12987e-07,0,-8.84302e-29,5.528
0.165021,0.000628448,0.0758881,-2.83823e-05,0,2.72964e-27,5.532
0.165325,0.000628794,0.075961,9.86941e-06,0,-6.32788e-28,5.536
0.165629,0.000628794,0.0760338,6.57961e-06,0,-2.81239e-28,5.54
0.165933,0.000628448,0.0761067,-2.44045e-05,0,6.95432e-28,5.544
0.166238,0.000628794,0.0761795,1.25212e-05,0,-2.3787e-28,5.548
0.166542,0.000628794,0.0762523,8.3475e-06,0,-1.0572e-28,5.552
0.166848,0.000628794,0.0763251,5.565e-06,0,-4.69867e-29,5.556
0.167153,0.000628448,0.0763978,-2.50809e-05,0,1.41177e-28,5.56
0.167459,0.000628794,0.0764706,1.20703e-05,0,-4.52946e-29,5.564
0.167765,0.000628794,0.0765433,8.04687e-06,0,-2.01309e-29,5.568
0.168071,0.000628794,0.076616,5.36458e-06,0,-8.94708e-30,5.572
0.168378,0.000628794,0.0766887,3.57639e-06,0,-3.97648e-30,5.576
0.168685,0.000628448,0.0767613,-2.64067e-05,0,1.95739e-29,5.58
0.168992,0.000628794,0.076834,1.11865e-05,0,-5.52796e-30,5.584
0.169299,0.000628794,0.0769066,7.45765e-06,0,-2.45687e-30,5.588
0.169607,0.000628794,0.0769792,4.97177e-06,0,-1.09194e-30,5.592
0.169915,0.000628794,0.0770518,3.31451e-06,0,-4.85308e-31,5.596
0.170224,0.000628794,0.0771243,2.20968e-06,0,-2.15692e-31,5.6
0.170532,0.000628794,0.0771969,1.47312e-06,0,-9.58633e-32,5.604
0.170841,0.000628448,0.0772694,-2.78088e-05,0,1.20644e-30,5.608
0.17115,0.000628794,0.0773419,1.02517e-05,0,-2.96502e-31,5.612
0.17146,0.000628794,0.0774144,6.83446e-06,0,-1.31779e-31,5.616
0.17177,0.000628794,0.0774869,4.55631e-06,0,-5.85684e-32,5.62
0.17208,0.000628794,0.0775593,3.03754e-06,0,-2.60304e-32,5.624
0.17239,0.000628794,0.0776318,2.02503e-06,0,-1.15691e-32,5.628
0.172701,0.000628794,0.0777042,1.35002e-06,0,-5.14181e-33,5.632
0.173012,0.000628794,0.0777765,9.00011e-07,0,-2.28525e-33,5.636
0.173323,0.000628794,0.0778489,6.00008e-07,0,-1.01567e-33,5.64
0.173635,0.000628448,0.0779213,-2.83909e-05,0,3.20392e-32,5.644
0.173946,0.000628794,0.0779936,9.86364e-06,0,-7.42077e-33,5.648
0.174258,0.000628794,0.0780659,6.57576e-06,0,-3.29812e-33,5.652
0.174571,0.000628794,0.0781382,4.38384e-06,0,-1.46583e-33,5.656
0.174884,0.000628448,0.0782104,-2.58684e-05,0,5.76642e-33,5.66
0.175197,0.000628794,0.0782827,1.15453e-05,0,-1.71575e-33,5.664
0.17551,0.000628794,0.0783549,7.6969e-06,0,-7.62555e-34,5.668
0.175823,0.000628794,0.0784271,5.13127e-06,0,-3.38913e-34,5.672
0.176137,0.000628794,0.0784993,3.42084e-06,0,-1.50628e-34,5.676
0.176451,0.000628794,0.0785714,2.28056e-06,0,-6.69458e-35,5.68
0.176766,0.000628794,0.0786436,1.52038e-06,0,-2.97537e-35,5.684
0.177081,0.000628794,0.0787157,1.01358e-06,0,-1.32239e-35,5.688
0.177396,0.000628794,0.0787878,6.75722e-07,0,-5.87727e-36,5.692
0.177711,0.000628448,0.0788599,-2.83404e-05,0,1.64332e-34,5.696
0.178026,0.000628794,0.0789319,9.8973e-06,0,-3.82597e-35,5.7
0.178342,0.000628794,0.079004,6.5982e-06,0,-1.70043e-35,5.704
0.178658,0.000628794,0.079076,4.3988e-06,0,-7.55747e-36,5.708
0.178975,0.000628794,0.0791479,2.93253e-06,0,-3.35888e-36,5.712
0.179292,0.000628794,0.0792199,1.95502e-06,0,-1.49283e-36,5.716
0.179609,0.000628794,0.0792919,1.30335e-06,0,-6.63482e-37,5.72
0.179926,0.000628794,0.0793638,8.68898e-07,0,-2.94881e-37,5.724
0.180244,0.000628794,0.0794357,5.79266e-07,0,-1.31058e-37,5.728
0.180561,0.000628794,0.0795076,3.86177e-07,0,-5.82481e-38,5.732
0.18088,0.000628794,0.0795794,2.57451e-07,0,-2.5888e-38,5.736
0.181198,0.000628794,0.0796513,1.71634e-07,0,-1.15058e-38,5.74
0.181517,0.000628794,0.0797231,1.14423e-07,0,-5.11368e-39,5.744
0.181836,0.000628794,0.0797949,7.62819e-08,0,-2.27275e-39,5.748
0.182155,0.000628794,0.0798666,5.08546e-08,0,-1.01011e-39,5.752
0.182475,0.000628794,0.0799384,3.39031e-08,0,-4.48938e-40,5.756
0.182795,0.000628448,0.0800101,-2.87683e-05,0,2.53963e-37,5.76
0.183115,0.000628448,0.0800818,-1.91789e-05,0,1.12873e-37,5.764
0.183435,0.000628794,0.0801535,1.6005e-05,0,-6.27956e-38,5.768
0.183756,0.000628794,0.0802251,1.067e-05,0,-2.79092e-38,5.772
0.184077,0.000628794,0.0802968,7.11333e-06,0,-1.24041e-38,5.776
0.184398,0.000628448,0.0803684,-2.40487e-05,0,2.79571e-38,5.78
0.18472,0.000628448,0.0804399,-1.60325e-05,0,1.24254e-38,5.784
0.185042,0.000628794,0.0805115,1.81026e-05,0,-9.35317e-39,5.788
0.185364,0.000628448,0.0805831,-1.67225e-05,0,5.76007e-39,5.792
0.185687,0.000628794,0.0806546,1.76426e-05,0,-4.05132e-39,5.796
0.186009,0.000628448,0.0807261,-1.70292e-05,0,2.60698e-39,5.8
0.186332,0.000628794,0.0807975,1.74381e-05,0,-1.77972e-39,5.804
0.186656,0.000628448,0.080869,-1.71655e-05,0,1.16793e-39,5.808
0.186979,0.000628794,0.0809404,1.73473e-05,0,-7.86865e-40,5.812
0.187303,0.000628794,0.0810118,1.15648e-05,0,-3.49718e-40,5.816
0.187628,0.000628794,0.0810832,7.70989e-06,0,-1.5543e-40,5.82
0.187952,0.000628794,0.0811545,5.13993e-06,0,-6.90801e-41,5.824
0.188277,0.000628794,0.0812259,3.42662e-06,0,-3.07023e-41,5.828
0.188602,0.000628794,0.0812972,2.28441e-06,0,-1.36455e-41,5.832
0.188927,0.000628794,0.0813684,1.52294e-06,0,-6.06464e-42,5.836
0.189253,0.000628448,0.0814397,-2.77756e-05,0,7.37386e-41,5.84
0.189579,0.000628794,0.0815109,1.02738e-05,0,-1.81833e-41,5.844
0.189905,0.000628448,0.0815821,-2.19417e-05,0,2.58892e-41,5.848
0.190231,0.000628794,0.0816533,1.41631e-05,0,-1.11408e-41,5.852
0.190558,0.000628794,0.0817245,9.44208e-06,0,-4.95147e-42,5.856
0.190885,0.000628448,0.0817956,-2.24962e-05,0,7.86473e-42,5.86
0.191212,0.000628794,0.0818667,1.37935e-05,0,-3.21482e-42,5.864
0.19154,0.000628448,0.0819378,-1.95953e-05,0,3.04469e-42,5.868
0.191868,0.000628794,0.0820089,1.57274e-05,0,-1.62914e-42,5.872
0.192196,0.000628794,0.0820799,1.04849e-05,0,-7.24061e-43,5.876
0.192525,0.000628448,0.0821509,-2.1801e-05,0,1.00368e-42,5.88
0.192853,0.000628448,0.0822219,-1.4534e-05,0,4.46079e-43,5.884
0.193182,0.000628794,0.0822929,1.91016e-05,0,-3.90846e-43,5.888
0.193512,0.000628794,0.0823638,1.27344e-05,0,-1.73709e-43,5.892
0.193841,0.000628794,0.0824347,8.4896e-06,0,-7.72042e-44,5.896
0.194171,0.000628794,0.0825056,5.65973e-06,0,-3.4313e-44,5.9
0.194501,0.000628794,0.0825765,3.77316e-06,0,-1.52502e-44,5.904
0.194832,0.000628794,0.0826473,2.51544e-06,0,-6.77787e-45,5.908
0.195162,0.000628794,0.0827181,1.67696e-06,0,-3.01239e-45,5.912
0.195494,0.000628794,0.0827889,1.11797e-06,0,-1.33884e-45,5.916
0.195825,0.000628794,0.0828597,7.45315e-07,0,-5.95039e-46,5.92
0.196156,0.000628794,0.0829304,4.96877e-07,0,-2.64462e-46,5.924
0.196488,0.000628794,0.0830011,3.31251e-07,0,-1.17539e-46,5.928
0.19682,0.000628794,0.0830718,2.20834e-07,0,-5.22394e-47,5.932
0.197153,0.000628794,0.0831425,1.47223e-07,0,-2.32175e-47,5.936
0.197486,0.000628794,0.0832131,9.81485e-08,0,-1.03189e-47,5.94
0.197819,0.000628794,0.0832837,6.54323e-08,0,-4.58617e-48,5.944
0.198152,0.000628794,0.0833543,4.36215e-08,0,-2.0383e-48,5.948
0.198485,0.000628794,0.0834248,2.9081e-08,0,-9.05911e-49,5.952
0.198819,0.000628794,0.0834954,1.93874e-08,0,-4.02627e-49,5.956
0.199153,0.000628794,0.0835659,1.29249e-08,0,-1.78945e-49,5.96
0.199488,0.000628794,0.0836364,8.6166e-09,0,-7.95313e-50,5.964
0.199822,0.000628794,0.0837068,5.7444e-09,0,-3.53472e-50,5.968
0.200157,0.000628448,0.0837772,-2.87871e-05,0,1.18091e-46,5.972
0.200493,0.000628448,0.0838476,-1.91914e-05,0,5.24849e-47,5.976
0.200828,0.000628794,0.083918,1.59967e-05,0,-2.91653e-47,5.98
0.201164,0.000628794,0.0839883,1.06644e-05,0,-1.29623e-47,5.984
0.2015,0.000628794,0.0840587,7.10963e-06,0,-5.76104e-48,5.988
0.201836,0.000628794,0.084129,4.73975e-06,0,-2.56046e-48,5.992
0.202173,0.000628794,0.0841992,3.15983e-06,0,-1.13798e-48,5.996
0.20251,0.000628794,0.0842695,2.10656e-06,0,-5.05771e-49,6
0.202847,0.000628794,0.0843397,1.40437e-06,0,-2.24787e-49,6.004
0.203185,0.000628794,0.0844099,9.36247e-07,0,-9.99053e-50,6.008
0.203523,0.000628794,0.08448,6.24165e-07,0,-4.44024e-50,6.012
0.203861,0.000628448,0.0845501,-2.83748e-05,0,1.3457e-48,6.016
0.204199,0.000628794,0.0846202,9.87438e-06,0,-3.12201e-49,6.02
0.204538,0.000628448,0.0846903,-2.2208e-05,0,4.68104e-49,6.024
0.204876,0.000628794,0.0847604,1.39856e-05,0,-1.96527e-49,6.028
0.205216,0.000628794,0.0848304,9.32373e-06,0,-8.73454e-50,6.032
0.205555,0.000628794,0.0849004,6.21582e-06,0,-3.88202e-50,6.036
0.205895,0.000628794,0.0849703,4.14388e-06,0,-1.72534e-50,6.04
0.206235,0.000628794,0.0850403,2.76259e-06,0,-7.66818e-51,6.044
0.206575,0.000628448,0.0851102,-2.69492e-05,0,4.98691e-50,6.048
0.206916,0.000628794,0.0851801,1.08248e-05,0,-1.33541e-50,6.052
0.207257,0.000628794,0.0852499,7.21653e-06,0,-5.93514e-51,6.056
0.207598,0.000628794,0.0853198,4.81102e-06,0,-2.63784e-51,6.06
0.207939,0.000628448,0.0853896,-2.55836e-05,0,9.35151e-51,6.064
0.208281,0.000628448,0.0854593,-1.70557e-05,0,4.15623e-51,6.068
0.208623,0.000628794,0.0855291,1.74204e-05,0,-2.83007e-51,6.072
0.208965,0.000628448,0.0855988,-1.71773e-05,0,1.86038e-51,6.076
0.209308,0.000628103,0.0856685,-4.02425e-05,0,2.90563e-51,6.08
0.20965,0.000628794,0.0857381,3.07535e-05,0,-1.48033e-51,6.084
0.209994,0.000628794,0.0858078,2.05024e-05,0,-6.57926e-52,6.088
0.210337,0.000628794,0.0858774,1.36682e-05,0,-2.92411e-52,6.092
0.210681,0.000628794,0.0859469,9.11216e-06,0,-1.29961e-52,6.096
0.211024,0.000628794,0.0860165,6.07477e-06,0,-5.77603e-53,6.1
0.211369,0.000628794,0.086086,4.04985e-06,0,-2.56712e-53,6.104
0.211713,0.000628448,0.0861555,-2.6091e-05,0,1.10257e-52,6.108
0.212058,0.000628794,0.0862249,1.13969e-05,0,-3.21079e-53,6.112
0.212403,0.000628794,0.0862944,7.59794e-06,0,-1.42702e-53,6.116
0.212748,0.000628794,0.0863638,5.06529e-06,0,-6.34231e-54,6.12
0.213094,0.000628794,0.0864331,3.37686e-06,0,-2.8188e-54,6.124
0.21344,0.000628794,0.0865025,2.25124e-06,0,-1.2528e-54,6.128
0.213786,0.000629139,0.0865718,3.02918e-05,0,-1.12381e-53,6.132
0.214132,0.000628794,0.0866411,-8.59642e-06,0,2.12616e-54,6.136
0.214479,0.000628794,0.0867103,-5.73095e-06,0,9.44959e-55,6.14
0.214826,0.000628794,0.0867796,-3.82063e-06,0,4.19982e-55,6.144
0.215173,0.000628794,0.0868488,-2.54709e-06,0,1.86659e-55,6.148
0.215521,0.000628794,0.0869179,-1.69806e-06,0,8.29594e-56,6.152
0.215869,0.000628794,0.0869871,-1.13204e-06,0,3.68708e-56,6.156
0.216217,0.000628103,0.0870562,-5.83365e-05,0,1.26669e-54,6.16
0.216565,0.000628448,0.0871252,-1.01001e-05,0,1.46206e-55,6.164
0.216914,0.000628794,0.0871943,2.20575e-05,0,-2.12865e-55,6.168
0.217263,0.000628448,0.0872633,-1.40859e-05,0,9.06236e-56,6.172
0.217612,0.000628794,0.0873323,1.94003e-05,0,-8.32097e-56,6.176
0.217961,0.000628794,0.0874013,1.29335e-05,0,-3.69821e-56,6.18
0.218311,0.000628448,0.0874702,-2.01686e-05,0,3.84466e-56,6.184
0.218661,0.000629139,0.0875391,4.41361e-05,0,-5.609e-56,6.188
0.219011,0.000628794,0.0876079,6.3317e-07,0,-5.36439e-58,6.192
0.219362,0.000629139,0.0876768,2.9213e-05,0,-1.65001e-56,6.196
0.219713,0.000628794,0.0877456,-9.31557e-06,0,3.50774e-57,6.2
0.220064,0.000628794,0.0878144,-6.21038e-06,0,1.55899e-57,6.204
0.220415,0.000628794,0.0878831,-4.14025e-06,0,6.92886e-58,6.208
0.220767,0.000629139,0.0879518,2.60308e-05,0,-2.90423e-57,6.212
0.221119,0.000628794,0.0880205,-1.14371e-05,0,8.50684e-58,6.216
0.221471,0.000628103,0.0880892,-6.52066e-05,0,3.23335e-57,6.22
0.221824,0.000628794,0.0881578,1.41108e-05,0,-4.66468e-58,6.224
0.222176,0.000629139,0.0882264,3.81981e-05,0,-8.41823e-58,6.228
0.222529,0.000628103,0.0882949,-6.09074e-05,0,8.94865e-58,6.232
0.222883,0.000628103,0.0883635,-4.06049e-05,0,3.97718e-58,6.236
0.223236,0.000628794,0.088432,3.05119e-05,0,-1.99239e-58,6.24
0.22359,0.000628794,0.0885004,2.03413e-05,0,-8.85507e-59,6.244
0.223944,0.000628794,0.0885689,1.35609e-05,0,-3.93559e-59,6.248
0.224299,0.000628794,0.0886373,9.04057e-06,0,-1.74915e-59,6.252
0.224653,0.000628103,0.0887057,-5.15548e-05,0,6.64981e-59,6.256
0.225008,0.000628794,0.088774,2.3212e-05,0,-1.996e-59,6.26
0.225364,0.000628103,0.0888423,-4.21072e-05,0,2.41387e-59,6.264
0.225719,0.000628103,0.0889106,-2.80715e-05,0,1.07283e-59,6.268
0.226075,0.000628794,0.0889789,3.88675e-05,0,-9.90289e-60,6.272
0.226431,0.000629139,0.0890471,5.47026e-05,0,-9.29163e-60,6.276
0.226787,0.000628448,0.0891153,-2.11134e-05,0,2.39085e-60,6.28
0.227144,0.000629139,0.0891834,4.35062e-05,0,-3.28437e-60,6.284
0.227501,0.000629139,0.0892515,2.90041e-05,0,-1.45972e-60,6.288
0.227858,0.000628103,0.0893196,-6.70367e-05,0,2.24922e-60,6.292
0.228215,0.000628794,0.0893877,1.28907e-05,0,-2.8834e-61,6.296
0.228573,0.000628794,0.0894557,8.59382e-06,0,-1.28151e-61,6.3
0.228931,0.000628794,0.0895237,5.72921e-06,0,-5.69561e-62,6.304
0.229289,0.000628103,0.0895917,-5.37624e-05,0,3.56313e-61,6.308
0.229648,0.000628794,0.0896596,2.17403e-05,0,-9.60566e-62,6.312
0.230006,0.000628794,0.0897275,1.44935e-05,0,-4.26918e-62,6.316
0.230365,0.000629139,0.0897954,3.84533e-05,0,-7.55115e-62,6.32
0.230725,0.000629139,0.0898632,2.56355e-05,0,-3.35607e-62,6.324
0.231084,0.000628794,0.089931,-1.17006e-05,0,1.02119e-62,6.328
0.231444,0.000628103,0.0899988,-6.53822e-05,0,3.80422e-62,6.332
0.231804,0.000628103,0.0900665,-4.35882e-05,0,1.69077e-62,6.336
0.232165,0.000628794,0.0901342,2.85231e-05,0,-7.37598e-63,6.34
0.232525,0.000629139,0.0902019,4.78063e-05,0,-8.24171e-63,6.344
0.232886,0.000628448,0.0902695,-2.5711e-05,0,2.95501e-63,6.348
0.233248,0.000628103,0.0903372,-4.59316e-05,0,3.51934e-63,6.352
0.233609,0.000628794,0.0904047,2.69608e-05,0,-1.37718e-63,6.356
0.233971,0.000629139,0.0904723,4.67648e-05,0,-1.59253e-63,6.36
0.234333,0.000628794,0.0905398,2.3856e-06,0,-5.41594e-65,6.364
0.234695,0.000628794,0.0906072,1.5904e-06,0,-2.40709e-65,6.368
0.235058,0.000628794,0.0906747,1.06027e-06,0,-1.06982e-65,6.372
0.235421,0.000629139,0.0907421,2.94978e-05,0,-1.98423e-64,6.376
0.235784,0.000628794,0.0908095,-9.12574e-06,0,4.09241e-65,6.38
0.236147,0.000628448,0.0908768,-3.48748e-05,0,1.04263e-64,6.384
0.236511,0.000628103,0.0909441,-5.20408e-05,0,3.66024e-12,6.388
0.236875,0.000629139,0.0910114,5.16789e-05,0,1.21535e-12,6.392
0.237239,0.000628794,0.0910786,5.6617e-06,0,8.87655e-14,6.396
0.237603,0.000628794,0.0911458,3.77447e-06,0,3.94513e-14,6.4
0.237968,0.000629139,0.091213,3.13072e-05,0,2.18152e-13,6.404
0.238333,0.000628794,0.0912802,-7.91943e-06,0,-3.6789e-14,6.408
0.238698,0.000628794,0.0913473,-5.27962e-06,0,-1.63507e-14,6.412
0.239064,0.000628103,0.0914143,-6.11016e-05,0,-1.26152e-13,6.416
0.239429,0.000628794,0.0914814,1.68475e-05,0,2.31891e-14,6.42
0.239796,0.000628794,0.0915484,1.12316e-05,0,4.07142e-13,6.424
0.240162,0.000628794,0.0916154,7.48776e-06,0,-8.34656e-14,6.428
0.240528,0.000628794,0.0916823,4.99184e-06,0,-3.70958e-14,6.432
0.240895,0.000628794,0.0917492,3.32789e-06,0,-1.6487e-14,6.436
0.241262,0.000628794,0.0918161,2.21859e-06,0,-7.32757e-15,6.44
0.24163,0.000628103,0.0918829,-5.61028e-05,0,1.23531e-13,6.444
0.241998,0.000628794,0.0919497,2.018e-05,0,-2.96224e-14,6.448
0.242365,0.000628794,0.0920165,1.34533e-05,0,-1.31655e-14,6.452
0.242734,0.000629139,0.0920832,3.77598e-05,0,-2.46347e-14,6.456
0.243102,0.000628794,0.0921499,-3.61772e-06,0,1.57348e-15,6.46
0.243471,0.000628794,0.0922165,-2.41181e-06,0,1.7033e-13,6.464
0.24384,0.000628794,0.0922832,-1.60787e-06,0,-3.75022e-14,6.468
0.244209,0.000628794,0.0923498,-1.07192e-06,0,-1.66676e-14,6.472
0.244579,0.000628794,0.0924163,-7.14611e-07,0,-7.40783e-15,6.476
0.244948,0.000628794,0.0924828,-4.76407e-07,0,-3.29237e-15,6.48
0.245319,0.000628103,0.0925493,-5.78995e-05,0,-2.66756e-13,6.484
0.245689,0.000628794,0.0926158,1.89822e-05,0,5.83035e-14,6.488
0.246059,0.000628794,0.0926822,1.26548e-05,0,2.59127e-14,6.492
0.24643,0.000628794,0.0927486,8.43654e-06,0,1.15167e-14,6.496
0.246801,0.000628794,0.0928149,5.62436e-06,0,5.11855e-15,6.5
0.247173,0.000628103,0.0928812,-5.38323e-05,0,-3.26607e-14,6.504
0.247544,0.000628103,0.0929475,-3.58882e-05,0,-1.45159e-14,6.508
0.247916,0.000628103,0.0930138,-2.39255e-05,0,-6.4515e-15,6.512
0.248289,0.000628794,0.09308,4.16315e-05,0,7.48396e-15,6.516
0.248661,0.000628794,0.0931461,2.77544e-05,0,3.32621e-15,6.52
0.249034,0.000628794,0.0932123,1.85029e-05,0,1.47831e-15,6.524
0.249407,0.000628794,0.0932784,1.23353e-05,0,6.57028e-16,6.528
0.24978,0.000628103,0.0933444,-4.93583e-05,0,-1.75269e-15,6.532
0.250154,0.000628794,0.0934105,2.46763e-05,0,5.84161e-16,6.536
0.250527,0.000628794,0.0934765,1.64509e-05,0,2.59627e-16,6.54
0.250901,0.000628794,0.0935424,1.09672e-05,0,1.1539e-16,6.544
0.251276,0.000629139,0.0936083,3.61024e-05,0,-2.53898e-12,6.548
0.25165,0.000628794,0.0936742,-4.72265e-06,0,-1.11086e-13,6.552
0.252025,0.000629139,0.0937401,2.56425e-05,0,4.02109e-13,6.556
0.2524,0.000629139,0.0938059,1.7095e-05,0,1.78715e-13,6.56
0.252775,0.000628794,0.0938716,-1.73943e-05,0,-1.21229e-13,6.564
0.253151,0.000628794,0.0939374,-1.15962e-05,0,-5.38796e-14,6.568
0.253527,0.000628448,0.0940031,-3.65217e-05,0,-1.13128e-13,6.572
0.253903,0.000628794,0.0940688,4.44312e-06,0,9.1752e-15,6.576
0.25428,0.000628794,0.0941344,2.96208e-06,0,4.07787e-15,6.58
0.254656,0.000628103,0.0942,-5.56071e-05,0,-5.10359e-14,6.584
0.255033,0.000628794,0.0942655,2.05104e-05,0,1.25496e-14,6.588
0.25541,0.000629139,0.0943311,4.24645e-05,0,1.73216e-14,6.592
0.255788,0.000628794,0.0943965,-4.81228e-07,0,-1.30865e-16,6.596
0.256165,0.000629139,0.094462,2.84701e-05,0,5.16142e-15,6.6
0.256543,0.000628794,0.0945274,-9.81085e-06,0,-1.18576e-15,6.604
0.256922,0.000628794,0.0945928,-6.54057e-06,0,-5.27003e-16,6.608
0.2573,0.000628794,0.0946581,-4.36038e-06,0,-2.34223e-16,6.612
0.257679,0.000628794,0.0947234,-2.90692e-06,0,-1.04099e-16,6.616
0.258058,0.000628794,0.0947887,-1.93795e-06,0,-4.62664e-17,6.62
0.258437,0.000629139,0.0948539,2.7499e-05,0,4.37672e-16,6.624
0.258817,0.000628794,0.0949191,-1.04583e-05,0,-1.10969e-16,6.628
0.259197,0.000628794,0.0949842,-6.97219e-06,0,-4.93195e-17,6.632
0.259577,0.000628794,0.0950493,-4.64813e-06,0,-2.19198e-17,6.636
0.259957,0.000628794,0.0951144,-3.09875e-06,0,-9.74213e-18,6.64
0.260338,0.000628794,0.0951795,-2.06583e-06,0,-4.32984e-18,6.644
0.260718,0.000629139,0.0952445,2.74137e-05,0,3.83047e-17,6.648
0.2611,0.000628103,0.0953094,-6.8097e-05,0,-6.34339e-17,6.652
0.261481,0.000628448,0.0953743,-1.66071e-05,0,-1.03132e-17,6.656
0.261863,0.000628794,0.0954392,1.77196e-05,0,7.33607e-18,6.66
0.262244,0.000628794,0.0955041,1.1813e-05,0,3.26048e-18,6.664
0.262627,0.000629139,0.0955689,3.66663e-05,0,6.74676e-18,6.668
0.263009,0.000629139,0.0956337,2.44442e-05,0,2.99856e-18,6.672
0.263392,0.000628103,0.0956984,-7.00766e-05,0,-5.73085e-18,6.676
0.263775,0.000628103,0.0957631,-4.67178e-05,0,-2.54705e-18,6.68
0.264158,0.000628103,0.0958278,-3.11452e-05,0,-1.13202e-18,6.684
0.264541,0.000628794,0.0958924,3.68184e-05,0,8.92148e-19,6.688
0.264925,0.000628794,0.095957,2.45456e-05,0,3.9651e-19,6.692
0.265309,0.000628794,0.0960215,1.63637e-05,0,5.7814e-13,6.696
0.265693,0.000628448,0.096086,-1.78818e-05,0,2.10266e-13,6.7
0.266078,0.000628794,0.0961505,1.68697e-05,0,-1.32244e-13,6.704
0.266462,0.000628448,0.0962149,-1.75444e-05,0,1.32537e-12,6.708
0.266847,0.000629139,0.0962793,4.58856e-05,0,9.1924e-13,6.712
0.267233,0.000628794,0.0963437,1.79945e-06,0,2.40326e-14,6.716
0.267618,0.000628794,0.096408,1.19963e-06,0,1.06812e-14,6.72
0.268004,0.000628794,0.0964723,7.99756e-07,0,4.74719e-15,6.724
0.26839,0.000629139,0.0965365,2.93241e-05,0,1.16041e-13,6.728
0.268776,0.000628794,0.0966007,-9.24153e-06,0,-2.43804e-14,6.732
0.269163,0.000629139,0.0966649,2.26299e-05,0,3.98004e-14,6.736
0.269549,0.000628103,0.096729,-7.12862e-05,0,4.93052e-12,6.74
0.269936,0.000628794,0.0967931,1.00577e-05,0,2.44393e-13,6.744
0.270324,0.000629139,0.0968571,3.54961e-05,0,5.75014e-13,6.748
0.270711,0.000628103,0.0969211,-6.27087e-05,0,-6.77227e-13,6.752
0.271099,0.000628794,0.0969851,1.5776e-05,0,1.13583e-13,6.756
0.271487,0.000628794,0.097049,1.05174e-05,0,5.04813e-14,6.76
0.271875,0.000628794,0.0971129,7.01157e-06,0,2.24361e-14,6.764
0.272264,0.000628794,0.0971767,4.67438e-06,0,9.97162e-15,6.768
0.272653,0.000629139,0.0972405,3.19072e-05,0,4.53773e-14,6.772
0.273042,0.000629139,0.0973043,2.12715e-05,0,2.01677e-14,6.776
0.273431,0.000628794,0.097368,-1.461e-05,0,-9.23457e-15,6.78
0.273821,0.000628448,0.0974317,-3.85309e-05,0,-1.62362e-14,6.784
0.274211,0.000628794,0.0974954,3.10366e-06,0,8.71885e-16,6.788
0.274601,0.000628794,0.097559,2.06911e-06,0,3.87505e-16,6.792
0.274991,0.000628794,0.0976226,1.3794e-06,0,1.72224e-16,6.796
0.275382,0.000628448,0.0976861,-2.78713e-05,0,-2.3199e-15,6.8
0.275773,0.000628794,0.0977496,1.021e-05,0,5.66562e-16,6.804
0.276164,0.000629139,0.097813,3.55976e-05,0,1.31689e-15,6.808
0.276555,0.000628794,0.0978764,-5.05918e-06,0,-1.24772e-16,6.812
0.276947,0.000628794,0.0979398,-3.37279e-06,0,-5.54543e-17,6.816
0.277339,0.000628794,0.0980032,-2.24852e-06,0,-2.46463e-17,6.82
0.277731,0.000628794,0.0980664,-1.49902e-06,0,-1.09539e-17,6.824
0.278123,0.000628794,0.0981297,-9.99344e-07,0,-4.86841e-18,6.828
0.278516,0.000628448,0.0981929,-2.94572e-05,0,-9.56692e-17,6.832
0.278909,0.000628103,0.0982561,-4.8429e-05,0,-1.04857e-16,6.836
0.279302,0.000628103,0.0983192,-3.2286e-05,0,-4.66029e-17,6.84
0.279695,0.000628794,0.0983823,3.60578e-05,0,3.46982e-17,6.844
0.280089,0.000629139,0.0984453,5.28295e-05,0,3.38916e-17,6.848
0.280483,0.000628103,0.0985084,-5.11531e-05,0,-2.18775e-17,6.852
0.280877,0.000628448,0.0985713,-5.31115e-06,0,-1.51434e-18,6.856
0.281272,0.000628103,0.0986342,-3.23317e-05,0,-6.14569e-18,6.86
0.281666,0.000628794,0.0986971,3.60274e-05,0,4.56545e-18,6.864
0.282061,0.000628794,0.09876,2.40183e-05,0,2.02909e-18,6.868
0.282456,0.000628794,0.0988228,1.60122e-05,0,9.01818e-19,6.872
0.282852,0.000628794,0.0988855,1.06748e-05,0,4.00808e-19,6.876
0.283247,0.000628794,0.0989483,7.11652e-06,0,1.78137e-19,6.88
0.283643,0.000628794,0.099011,4.74435e-06,0,7.9172e-20,6.884
0.284039,0.000628448,0.0990736,-2.5628e-05,0,-2.85114e-19,6.888
0.284436,0.000628448,0.0991362,-1.70854e-05,0,-1.26717e-19,6.892
0.284833,0.000628448,0.0991988,-1.13902e-05,0,-5.63189e-20,6.896
0.285229,0.000628794,0.0992613,2.11974e-05,0,6.98736e-20,6.9
0.285627,0.000628794,0.0993237,1.41316e-05,0,3.10549e-20,6.904
0.286024,0.000628794,0.0993862,9.42108e-06,0,1.38022e-20,6.908
0.286422,0.000628794,0.0994486,6.28072e-06,0,6.13431e-21,6.912
0.28682,0.000628794,0.0995109,4.18715e-06,0,2.72636e-21,6.916
0.287218,0.000628794,0.0995732,2.79143e-06,0,1.21172e-21,6.92
0.287616,0.000628448,0.0996355,-2.693e-05,0,-7.79324e-21,6.924
0.288015,0.000628794,0.0996977,1.08376e-05,0,2.09086e-21,6.928
0.288414,0.000628794,0.0997599,7.22507e-06,0,9.2927e-22,6.932
0.288813,0.000628794,0.0998221,4.81672e-06,0,4.13009e-22,6.936
0.289212,0.000628794,0.0998842,3.21114e-06,0,1.8356e-22,6.94
0.289612,0.000628794,0.0999462,2.14076e-06,0,8.1582e-23,6.944
0.290012,0.000628794,0.100008,1.42718e-06,0,3.62587e-23,6.948
0.290412,0.000628794,0.10007,9.5145e-07,0,1.6115e-23,6.952
0.290813,0.000628448,0.100132,-2.81566e-05,0,-3.17931e-22,6.956
0.291213,0.000628794,0.100194,1.00198e-05,0,7.54261e-23,6.96
0.291614,0.000628794,0.100256,6.67989e-06,0,3.35227e-23,6.964
0.292015,0.000628794,0.100318,4.45326e-06,0,1.4899e-23,6.968
0.292417,0.000628448,0.100379,-2.58221e-05,0,-5.75942e-23,6.972
0.292818,0.000628794,0.100441,1.15762e-05,0,1.72132e-23,6.976
0.29322,0.000628448,0.100503,-2.10735e-05,0,-2.08901e-23,6.98
0.293622,0.000628448,0.100565,-1.4049e-05,0,-9.28449e-24,6.984
0.294025,0.000628794,0.100626,1.94249e-05,0,8.55819e-24,6.988
0.294427,0.000628794,0.100688,1.295e-05,0,3.80364e-24,6.992
