peachynonah/Fire_monitor_/csv_datas/trial10/cdsl_data_debug.csv
joint1_pos_desired, joint1_pos, joint2_pos_desired, joint2_pos, joint1_vel_desired, joint1_vel_filtered, joint2_vel_desired, joint2_vel_filtered, target_torque_joint1, target_torque_joint2, propo_term_torque_joint1, deriv_term_torque_joint1, propo_term_torque_joint2, deriv_term_torque_joint2, current_time
9.43873e-11,0.138146,-0.86,-0.866188,7.0784e-08,0,-0,0,759,0,759.805,-0.000247744,-0,0,0.004
7.54892e-10,0.138148,-0.86,-0.866188,2.83033e-07,0.000115164,-0,-2.87909e-05,760,0,759.812,0.402082,-0,-0,0.008
2.54707e-09,0.138145,-0.86,-0.866188,6.36593e-07,-0.000124761,-0,-1.91939e-05,759,0,759.799,-0.43889,-0,-0,0.012
6.03584e-09,0.138089,-0.86,-0.866188,1.13131e-06,-0.00477609,-0,1.5995e-05,742,0,759.489,-16.7203,-0,0,0.016
1.17855e-08,0.137968,-0.86,-0.866188,1.76703e-06,-0.0132609,-0,1.06633e-05,712,0,758.824,-46.4193,-0,0,0.02
2.03599e-08,0.137783,-0.86,-0.866188,2.54359e-06,-0.0242437,-0,7.10887e-06,672,0,757.808,-84.862,-0,0,0.024
3.23219e-08,0.137541,-0.86,-0.866188,3.46085e-06,-0.0363449,-0,-2.40517e-05,629,0,756.476,-127.219,-0,-0,0.028
4.82341e-08,0.137255,-0.86,-0.866188,4.51865e-06,-0.0480976,-0,1.27565e-05,586,0,754.9,-168.358,-0,0,0.032
6.86583e-08,0.136926,-0.86,-0.866188,5.71683e-06,-0.0594165,-0,8.50432e-06,545,0,753.095,-207.978,-0,0,0.036
9.41557e-08,0.136556,-0.86,-0.866188,7.05525e-06,-0.0705036,-0,5.66954e-06,504,0,751.056,-246.787,-0,0,0.04
1.25287e-07,0.136152,-0.86,-0.866188,8.53374e-06,-0.0806302,-0,3.7797e-06,466,0,748.836,-282.236,-0,0,0.044
1.62612e-07,0.135711,-0.86,-0.866188,1.01522e-05,-0.0905483,-0,2.5198e-06,429,0,746.408,-316.955,-0,0,0.048
2.06691e-07,0.135237,-0.86,-0.866188,1.19103e-05,-0.0998379,-0,1.67986e-06,394,0,743.802,-349.474,-0,0,0.052
2.58081e-07,0.134739,-0.86,-0.866188,1.38081e-05,-0.108075,-0,1.11991e-06,362,0,741.062,-378.311,-0,0,0.056
3.17342e-07,0.134215,-0.86,-0.866188,1.58454e-05,-0.115697,-0,-2.80443e-05,333,0,738.181,-404.995,-0,-0,0.06
3.8503e-07,0.133668,-0.86,-0.866188,1.8022e-05,-0.122707,-0,1.00947e-05,305,0,735.172,-429.539,-0,0,0.064
4.61703e-07,0.13309,-0.86,-0.866188,2.03377e-05,-0.129972,-0,6.72981e-06,277,0,731.993,-454.974,-0,0,0.068
5.47917e-07,0.132509,-0.86,-0.866188,2.27924e-05,-0.135046,-0,4.48654e-06,256,0,728.798,-472.74,-0,0,0.072
6.44228e-07,0.131902,-0.86,-0.866188,2.5386e-05,-0.140674,-0,2.99103e-06,233,0,725.455,-492.447,-0,0,0.076
7.5119e-07,0.131284,-0.86,-0.866188,2.81183e-05,-0.145232,-0,1.99402e-06,213,0,722.059,-508.41,-0,0,0.08
8.69359e-07,0.130652,-0.86,-0.866188,3.09891e-05,-0.14948,-0,1.32934e-06,195,0,718.583,-523.288,-0,0,0.084
9.99287e-07,0.130009,-0.86,-0.866188,3.39983e-05,-0.153291,-0,8.8623e-07,178,0,715.042,-536.636,-0,0,0.088
1.14153e-06,0.12936,-0.86,-0.866188,3.71457e-05,-0.156234,-0,-2.82001e-05,164,0,711.475,-546.95,-0,-0,0.092
1.29664e-06,0.128701,-0.86,-0.866188,4.04312e-05,-0.159089,-0,9.99085e-06,150,0,707.848,-556.954,-0,0,0.096
1.46516e-06,0.128036,-0.86,-0.866188,4.38547e-05,-0.161482,-0,6.66057e-06,138,0,704.189,-565.341,-0,0,0.1
1.64766e-06,0.127364,-0.86,-0.866188,4.74159e-05,-0.163624,-0,4.44038e-06,127,0,700.494,-572.851,-0,0,0.104
1.84467e-06,0.126693,-0.86,-0.866188,5.11147e-05,-0.165052,-0,2.96025e-06,118,0,696.799,-577.862,-0,0,0.108
2.05676e-06,0.126016,-0.86,-0.866188,5.4951e-05,-0.166408,-0,1.9735e-06,110,0,693.078,-582.619,-0,0,0.112
2.28447e-06,0.125337,-0.86,-0.866188,5.89247e-05,-0.167541,-0,1.31567e-06,102,0,689.34,-586.601,-0,0,0.116
2.52834e-06,0.124657,-0.86,-0.866188,6.30354e-05,-0.168355,-0,8.77112e-07,96,0,685.6,-589.462,-0,0,0.12
2.78893e-06,0.123977,-0.86,-0.866188,6.72832e-05,-0.168868,-0,-2.82062e-05,90,0,681.86,-591.274,-0,-0,0.124
3.06679e-06,0.123295,-0.86,-0.866188,7.16679e-05,-0.16947,-0,9.9868e-06,84,0,678.104,-593.395,-0,0,0.128
3.36246e-06,0.122619,-0.86,-0.866188,7.61893e-05,-0.169266,-0,-2.21331e-05,81,0,674.388,-592.698,-0,-0,0.132
3.67648e-06,0.121943,-0.86,-0.866188,8.08472e-05,-0.169217,-0,-1.47554e-05,78,0,670.665,-592.541,-0,-0,0.136
4.00942e-06,0.121267,-0.86,-0.866188,8.56415e-05,-0.169097,-0,1.8954e-05,74,0,666.949,-592.141,-0,0,0.14
4.3618e-06,0.120592,-0.86,-0.866188,9.0572e-05,-0.169047,-0,1.2636e-05,71,0,663.23,-591.98,-0,0,0.144
4.73417e-06,0.119927,-0.86,-0.866188,9.56387e-05,-0.168091,-0,-2.03669e-05,70,0,659.572,-588.655,-0,-0,0.148
5.12709e-06,0.11926,-0.86,-0.866188,0.000100841,-0.167627,-0,1.5213e-05,68,0,655.902,-587.049,-0,0,0.152
5.54109e-06,0.118594,-0.86,-0.866188,0.00010618,-0.167232,-0,1.0142e-05,66,0,652.238,-585.683,-0,0,0.156
5.97671e-06,0.117939,-0.86,-0.866188,0.000111654,-0.166104,-0,6.76132e-06,66,0,648.631,-581.756,-0,0,0.16
6.43449e-06,0.117279,-0.86,-0.866188,0.000117263,-0.165756,-0,4.50755e-06,64,0,644.997,-580.555,-0,0,0.164
6.91499e-06,0.116627,-0.86,-0.866188,0.000123008,-0.164832,-0,3.00503e-06,64,0,641.409,-577.343,-0,0,0.168
7.41874e-06,0.115975,-0.86,-0.866188,0.000128888,-0.164188,-0,-2.67876e-05,62,0,637.822,-575.109,-0,-0,0.172
7.94628e-06,0.115325,-0.86,-0.866188,0.000134903,-0.163643,-0,1.09325e-05,61,0,634.243,-573.223,-0,0,0.176
8.49814e-06,0.114686,-0.86,-0.866188,0.000141053,-0.162301,-0,7.28836e-06,62,0,630.729,-568.547,-0,0,0.18
9.07488e-06,0.114049,-0.86,-0.866188,0.000147338,-0.161291,-0,4.85891e-06,62,0,627.222,-565.035,-0,0,0.184
9.67702e-06,0.11341,-0.86,-0.866188,0.000153757,-0.160791,-0,3.23927e-06,60,0,623.703,-563.305,-0,0,0.188
1.03051e-05,0.112784,-0.86,-0.866188,0.00016031,-0.159363,-0,2.15952e-06,61,0,620.256,-558.331,-0,0,0.192
1.09597e-05,0.112154,-0.86,-0.866188,0.000166998,-0.158785,-0,1.43968e-06,60,0,616.785,-556.333,-0,0,0.196
1.16413e-05,0.111527,-0.86,-0.866188,0.00017382,-0.158055,-0,9.59784e-07,59,0,613.336,-553.8,-0,0,0.2
1.23504e-05,0.110911,-0.86,-0.866188,0.000180776,-0.156733,-0,6.39856e-07,60,0,609.942,-549.198,-0,0,0.204
1.30877e-05,0.110295,-0.86,-0.866188,0.000187866,-0.155852,-0,4.26571e-07,60,0,606.548,-546.138,-0,0,0.208
1.38535e-05,0.109683,-0.86,-0.866188,0.00019509,-0.15489,-0,2.84381e-07,60,0,603.179,-542.797,-0,0,0.212
1.46486e-05,0.109077,-0.86,-0.866188,0.000202447,-0.153759,-0,1.89587e-07,60,0,599.841,-538.866,-0,0,0.216
1.54733e-05,0.108472,-0.86,-0.866188,0.000209937,-0.15289,-0,1.26391e-07,60,0,596.512,-535.851,-0,0,0.22
1.63282e-05,0.107872,-0.86,-0.866188,0.00021756,-0.151908,-0,8.42609e-08,60,0,593.208,-532.439,-0,0,0.224
1.72139e-05,0.107275,-0.86,-0.866188,0.000225317,-0.15108,-0,5.61739e-08,60,0,589.916,-529.569,-0,0,0.228
1.8131e-05,0.106688,-0.86,-0.866188,0.000233207,-0.149578,-0,3.74493e-08,62,0,586.686,-524.34,-0,0,0.232
1.90798e-05,0.106107,-0.86,-0.866188,0.000241229,-0.148174,-0,2.49662e-08,64,0,583.483,-519.453,-0,0,0.236
2.0061e-05,0.105533,-0.86,-0.866188,0.000249384,-0.146633,-0,1.66441e-08,66,0,580.319,-514.089,-0,0,0.24
2.1075e-05,0.10498,-0.86,-0.866188,0.000257671,-0.14385,-0,1.10961e-08,72,0,577.272,-504.376,-0,0,0.244
2.21225e-05,0.104441,-0.86,-0.866188,0.000266091,-0.140785,-0,7.39739e-09,80,0,574.303,-493.678,-0,0,0.248
2.32039e-05,0.103932,-0.86,-0.866188,0.000274642,-0.136294,-0,4.93159e-09,93,0,571.497,-477.992,-0,0,0.252
2.43198e-05,0.103434,-0.86,-0.866188,0.000283326,-0.132351,-0,3.28773e-09,104,0,568.752,-464.219,-0,0,0.256
2.54707e-05,0.102945,-0.86,-0.866188,0.000292142,-0.128973,-0,2.19182e-09,113,0,566.057,-452.428,-0,0,0.26
2.66571e-05,0.102469,-0.86,-0.866188,0.000301089,-0.125627,-0,1.46121e-09,122,0,563.434,-440.749,-0,0,0.264
2.78796e-05,0.101992,-0.86,-0.866188,0.000310168,-0.123512,-0,9.74142e-10,127,0,560.803,-433.376,-0,0,0.268
2.91386e-05,0.101517,-0.86,-0.866188,0.000319378,-0.1219,-0,6.49428e-10,130,0,558.185,-427.767,-0,0,0.272
3.04348e-05,0.10105,-0.86,-0.866188,0.00032872,-0.120192,-0,4.32952e-10,133,0,555.609,-421.822,-0,0,0.276
3.17686e-05,0.100576,-0.86,-0.866188,0.000338192,-0.119629,-0,2.88635e-10,133,0,552.995,-419.885,-0,0,0.28
3.31405e-05,0.0999178,-0.86,-0.866188,0.000347796,-0.134628,-0,1.92423e-10,76,0,549.365,-472.416,-0,0,0.284
3.45511e-05,0.0996255,-0.86,-0.866188,0.00035753,-0.114109,-0,1.28282e-10,147,0,547.75,-400.634,-0,0,0.288
3.60009e-05,0.0991432,-0.86,-0.866188,0.000367395,-0.116265,-0,8.55214e-11,136,0,545.089,-408.213,-0,0,0.292
3.74904e-05,0.098655,-0.86,-0.866188,0.00037739,-0.118192,-0,5.70143e-11,127,0,542.396,-414.991,-0,0,0.296
3.90202e-05,0.0981709,-0.86,-0.866188,0.000387516,-0.11913,-0,3.80095e-11,121,0,539.726,-418.313,-0,0,0.3
4.05907e-05,0.0976748,-0.86,-0.866188,0.000397772,-0.120764,-0,2.53397e-11,112,0,536.988,-424.066,-0,0,0.304
4.22026e-05,0.097178,-0.86,-0.866188,0.000408158,-0.121911,-0,1.68931e-11,106,0,534.247,-428.116,-0,0,0.308
4.38562e-05,0.096676,-0.86,-0.866188,0.000418674,-0.123107,-0,1.12621e-11,99,0,531.477,-432.34,-0,0,0.312
4.55521e-05,0.0961737,-0.86,-0.866188,0.00042932,-0.123933,-0,7.50805e-12,93,0,528.705,-435.269,-0,0,0.316
4.72909e-05,0.095662,-0.86,-0.866188,0.000440095,-0.125262,-0,5.00537e-12,85,0,525.881,-439.956,-0,0,0.32
4.90731e-05,0.0951572,-0.86,-0.866188,0.000450999,-0.125571,-0,3.33691e-12,82,0,523.095,-441.078,-0,0,0.324
5.08991e-05,0.0946542,-0.86,-0.866188,0.000462033,-0.125634,-0,2.22461e-12,78,0,520.318,-441.335,-0,0,0.328
5.27695e-05,0.0941467,-0.86,-0.866188,0.000473197,-0.12605,-0,1.48307e-12,74,0,517.516,-442.83,-0,0,0.332
5.46848e-05,0.0936412,-0.86,-0.866188,0.000484489,-0.126154,-0,9.88715e-13,71,0,514.726,-443.236,-0,0,0.336
5.66456e-05,0.0931368,-0.86,-0.866188,0.00049591,-0.126138,-0,6.59143e-13,68,0,511.941,-443.217,-0,0,0.34
5.86523e-05,0.0926358,-0.86,-0.866188,0.000507459,-0.125839,-0,4.39429e-13,66,0,509.175,-442.211,-0,0,0.344
6.07054e-05,0.0921328,-0.86,-0.866188,0.000519137,-0.125812,-0,2.92952e-13,64,0,506.397,-442.159,-0,0,0.348
6.28055e-05,0.0916329,-0.86,-0.866188,0.000530944,-0.125535,-0,1.95302e-13,62,0,503.635,-441.231,-0,0,0.352
6.49531e-05,0.0911357,-0.86,-0.866188,0.000542879,-0.12512,-0,1.30201e-13,61,0,500.889,-439.821,-0,0,0.356
6.71487e-05,0.0906399,-0.86,-0.866188,0.000554942,-0.124728,-0,8.68007e-14,59,0,498.15,-438.492,-0,0,0.36
6.93928e-05,0.0901469,-0.86,-0.866188,0.000567132,-0.124237,-0,5.78672e-14,58,0,495.426,-436.814,-0,0,0.364
7.1686e-05,0.0896629,-0.86,-0.866188,0.000579451,-0.123161,-0,3.85781e-14,59,0,492.752,-433.091,-0,0,0.368
7.40286e-05,0.089183,-0.86,-0.866188,0.000591897,-0.122098,-0,2.57187e-14,60,0,490.099,-429.414,-0,0,0.372
7.64213e-05,0.08871,-0.86,-0.866188,0.000604471,-0.120813,-0,1.71458e-14,62,0,487.485,-424.962,-0,0,0.376
7.88646e-05,0.0882408,-0.86,-0.866188,0.000617172,-0.11964,-0,1.14305e-14,63,0,484.891,-420.901,-0,0,0.38
8.13589e-05,0.087781,-0.86,-0.866188,0.00063,-0.118081,-0,7.62037e-15,66,0,482.348,-415.488,-0,0,0.384
8.39047e-05,0.0873291,-0.86,-0.866188,0.000642956,-0.116379,-0,5.08024e-15,70,0,479.849,-409.577,-0,0,0.388
8.65027e-05,0.0868896,-0.86,-0.866188,0.000656038,-0.114208,-0,3.38683e-15,75,0,477.417,-402.025,-0,0,0.392
8.91532e-05,0.0864571,-0.86,-0.866188,0.000669247,-0.112185,-0,2.25789e-15,80,0,475.024,-394.99,-0,0,0.396
9.18568e-05,0.0860363,-0.86,-0.866188,0.000682583,-0.109857,-0,1.50526e-15,85,0,472.694,-386.89,-0,0,0.4
9.4614e-05,0.08563,-0.86,-0.866188,0.000696045,-0.107096,-0,1.0035e-15,93,0,470.444,-377.273,-0,0,0.404
9.74254e-05,0.0852378,-0.86,-0.866188,0.000709633,-0.104075,-0,6.69003e-16,101,0,468.272,-366.747,-0,0,0.408
0.000100291,0.0848623,-0.86,-0.866188,0.000723347,-0.100679,-0,4.46002e-16,111,0,466.191,-354.909,-0,0,0.412
0.000103212,0.0845033,-0.86,-0.866188,0.000737188,-0.0970333,-0,2.97335e-16,122,0,464.201,-342.197,-0,0,0.416
0.000106189,0.0841596,-0.86,-0.866188,0.000751154,-0.0933358,-0,1.98223e-16,132,0,462.294,-329.304,-0,0,0.42
0.000109222,0.0838355,-0.86,-0.866188,0.000765246,-0.0892298,-0,1.32149e-16,145,0,460.494,-314.983,-0,0,0.424
0.000112311,0.0835335,-0.86,-0.866188,0.000779464,-0.0846498,-0,8.80992e-17,159,0,458.817,-299.002,-0,0,0.428
0.000115458,0.0832468,-0.86,-0.866188,0.000793807,-0.0803297,-0,5.87328e-17,173,0,457.222,-283.932,-0,0,0.432
0.000118662,0.082979,-0.86,-0.866188,0.000808275,-0.0758661,-0,3.91552e-17,187,0,455.732,-268.36,-0,0,0.436
0.000121924,0.0827275,-0.86,-0.866188,0.000822869,-0.0715372,-0,2.61035e-17,201,0,454.331,-253.26,-0,0,0.44
0.000125245,0.0824884,-0.86,-0.866188,0.000837587,-0.0676148,-0,1.74023e-17,213,0,452.997,-239.583,-0,0,0.444
0.000128625,0.082269,-0.86,-0.866188,0.00085243,-0.0633587,-0,1.16015e-17,227,0,451.772,-224.739,-0,0,0.448
0.000132064,0.0820576,-0.86,-0.866188,0.000867398,-0.0598592,-0,7.73436e-18,238,0,450.59,-212.543,-0,0,0.452
0.000135564,0.081861,-0.86,-0.866188,0.000882491,-0.0562882,-0,5.15624e-18,249,0,449.49,-200.097,-0,0,0.456
0.000139125,0.0816765,-0.86,-0.866188,0.000897707,-0.0528998,-0,3.43749e-18,260,0,448.456,-188.291,-0,0,0.46
0.000142746,0.0814996,-0.86,-0.866188,0.000913048,-0.0500075,-0,2.29166e-18,269,0,447.463,-178.222,-0,0,0.464
0.000146429,0.0813331,-0.86,-0.866188,0.000928513,-0.0472156,-0,-2.87909e-05,278,0,446.527,-168.504,-0,-0,0.468
0.000150174,0.0811745,-0.86,-0.866188,0.000944102,-0.0446921,-0,9.59697e-06,285,0,445.634,-159.727,-0,0,0.472
0.000153982,0.0810232,-0.86,-0.866188,0.000959815,-0.0424051,-0,6.39798e-06,293,0,444.781,-151.777,-0,0,0.476
0.000157853,0.0808815,-0.86,-0.866188,0.000975652,-0.0400744,-0,4.26532e-06,300,0,443.98,-143.675,-0,0,0.48
0.000161787,0.0807471,-0.86,-0.866188,0.000991611,-0.0379159,-0,2.84355e-06,307,0,443.219,-136.176,-0,0,0.484
0.000165786,0.0806228,-0.86,-0.866188,0.00100769,-0.035642,-0,1.8957e-06,314,0,442.513,-128.274,-0,0,0.488
0.000169849,0.0805043,-0.86,-0.866188,0.0010239,-0.0336366,-0,1.2638e-06,320,0,441.839,-121.312,-0,0,0.492
0.000173977,0.0803937,-0.86,-0.866188,0.00104023,-0.0316375,-0,8.42533e-07,326,0,441.209,-114.372,-0,0,0.496
0.000178171,0.0802942,-0.86,-0.866188,0.00105668,-0.0293835,-0,5.61689e-07,334,0,440.638,-106.541,-0,0,0.5
0.000182431,0.0802026,-0.86,-0.866188,0.00107326,-0.0272186,-0,-2.84165e-05,341,0,440.111,-99.0214,-0,-0,0.504
0.000186757,0.080117,-0.86,-0.866188,0.00108996,-0.0252859,-0,9.84661e-06,347,0,439.616,-92.3154,-0,0,0.508
0.000191151,0.0800375,-0.86,-0.866188,0.00110678,-0.0234792,-0,6.56441e-06,353,0,439.155,-86.0508,-0,0,0.512
0.000195612,0.079965,-0.86,-0.866188,0.00112372,-0.0216989,-0,-2.44147e-05,358,0,438.731,-79.879,-0,-0,0.516
0.000200141,0.0798972,-0.86,-0.866188,0.00114078,-0.0201089,-0,1.25145e-05,363,0,438.334,-74.374,-0,0,0.52
0.000204738,0.0798333,-0.86,-0.866188,0.00115797,-0.0187323,-0,8.34299e-06,368,0,437.957,-69.6159,-0,0,0.524
0.000209405,0.0797739,-0.86,-0.866188,0.00117528,-0.0174402,-0,5.562e-06,372,0,437.605,-65.1543,-0,0,0.528
0.000214141,0.079719,-0.86,-0.866188,0.00119271,-0.0162046,-0,3.708e-06,376,0,437.277,-60.8905,-0,0,0.532
0.000218946,0.0796689,-0.86,-0.866188,0.00121026,-0.0149777,-0,2.472e-06,380,0,436.975,-56.658,-0,0,0.536
0.000223823,0.0796222,-0.86,-0.866188,0.00122793,-0.0138719,-0,1.648e-06,383,0,436.691,-52.8495,-0,0,0.54
0.00022877,0.0795787,-0.86,-0.866188,0.00124573,-0.0128756,-0,1.09867e-06,386,0,436.425,-49.4247,-0,0,0.544
0.000233789,0.0795376,-0.86,-0.866188,0.00126364,-0.0120099,-0,7.32444e-07,389,0,436.171,-46.4573,-0,0,0.548
0.000238879,0.0794989,-0.86,-0.866188,0.00128168,-0.0112312,-0,4.88296e-07,392,0,435.93,-43.7949,-0,0,0.552
0.000244042,0.0794626,-0.86,-0.866188,0.00129984,-0.0105105,-0,3.25531e-07,394,0,435.702,-41.3361,-0,0,0.556
0.000249278,0.079426,-0.86,-0.866188,0.00131812,-0.0100588,-0,2.1702e-07,395,0,435.472,-39.8193,-0,0,0.56
0.000254587,0.0793914,-0.86,-0.866188,0.00133651,-0.00958498,-0,1.4468e-07,397,0,435.253,-38.2252,-0,0,0.564
0.000259971,0.0793593,-0.86,-0.866188,0.00135503,-0.00906754,-0,9.64535e-08,398,0,435.046,-36.479,-0,0,0.568
0.000265428,0.0793296,-0.86,-0.866188,0.00137367,-0.00852105,-0,6.43023e-08,400,0,434.853,-34.6315,-0,0,0.572
0.00027096,0.0793013,-0.86,-0.866188,0.00139243,-0.00804155,-0,4.28682e-08,401,0,434.667,-33.0189,-0,0,0.576
0.000276568,0.079275,-0.86,-0.866188,0.00141131,-0.00754915,-0,2.85788e-08,403,0,434.491,-31.3616,-0,0,0.58
0.000282251,0.0792515,-0.86,-0.866188,0.00143031,-0.00699055,-0,1.90525e-08,404,0,434.331,-29.473,-0,0,0.584
0.00028801,0.0792318,-0.86,-0.866188,0.00144943,-0.00630145,-0,1.27017e-08,407,0,434.191,-27.1281,-0,0,0.588
0.000293846,0.0792125,-0.86,-0.866188,0.00146867,-0.00581326,-0,8.4678e-09,408,0,434.052,-25.4867,-0,0,0.592
0.00029976,0.0791955,-0.86,-0.866188,0.00148802,-0.00528626,-0,5.6452e-09,410,0,433.927,-23.71,-0,0,0.596
0.000305751,0.0791807,-0.86,-0.866188,0.0015075,-0.00476218,-0,3.76347e-09,411,0,433.812,-21.9439,-0,0,0.6
0.00031182,0.0791693,-0.86,-0.866188,0.0015271,-0.00412489,-0,2.50898e-09,413,0,433.716,-19.782,-0,0,0.604
0.000317968,0.0791606,-0.86,-0.866188,0.00154681,-0.0034697,-0,1.67265e-09,416,0,433.635,-17.5578,-0,0,0.608
0.000324194,0.0791548,-0.86,-0.866188,0.00156665,-0.00280258,-0,1.1151e-09,418,0,433.568,-15.2923,-0,0,0.612
0.000330501,0.0791513,-0.86,-0.866188,0.0015866,-0.00215629,-0,-2.87902e-05,420,0,433.515,-13.1001,-0,-0,0.616
0.000336887,0.0791496,-0.86,-0.866188,0.00160667,-0.00158148,-0,9.59747e-06,422,0,433.47,-11.1585,-0,0,0.62
0.000343354,0.0791492,-0.86,-0.866188,0.00162686,-0.00108311,-0,6.39831e-06,423,0,433.432,-9.4849,-0,0,0.624
0.000349902,0.0791492,-0.86,-0.866188,0.00164717,-0.000722076,-0,4.26554e-06,425,0,433.396,-8.29235,-0,0,0.628
0.000356532,0.0791492,-0.86,-0.866188,0.00166759,-0.000481384,-0,2.84369e-06,425,0,433.36,-7.52141,-0,0,0.632
0.000363243,0.0791489,-0.86,-0.866188,0.00168813,-0.000349714,-0,1.8958e-06,426,0,433.321,-7.13247,-0,0,0.636
0.000370037,0.0791486,-0.86,-0.866188,0.0017088,-0.000261933,-0,1.26386e-06,426,0,433.282,-6.89755,-0,0,0.64
0.000376914,0.0791486,-0.86,-0.866188,0.00172957,-0.000174622,-0,8.42576e-07,426,0,433.244,-6.66469,-0,0,0.644
0.000383874,0.0791486,-0.86,-0.866188,0.00175047,-0.000116415,-0,5.61718e-07,426,0,433.206,-6.5341,-0,0,0.648
0.000390918,0.0791482,-0.86,-0.866188,0.00177148,-0.000106401,-0,3.74478e-07,426,0,433.165,-6.5726,-0,0,0.652
0.000398046,0.0791482,-0.86,-0.866188,0.00179262,-7.09339e-05,-0,2.49652e-07,426,0,433.126,-6.52242,-0,0,0.656
0.000405259,0.0791482,-0.86,-0.866188,0.00181386,-4.72892e-05,-0,1.66435e-07,426,0,433.086,-6.51403,-0,0,0.66
0.000412557,0.0791479,-0.86,-0.866188,0.00183523,-6.03171e-05,-0,1.10957e-07,426,0,433.044,-6.63441,-0,0,0.664
0.000419941,0.0791475,-0.86,-0.866188,0.00185671,-6.90023e-05,-0,7.3971e-08,426,0,433.002,-6.73999,-0,0,0.668
0.000427411,0.0791475,-0.86,-0.866188,0.00187831,-4.60015e-05,-0,4.9314e-08,426,0,432.961,-6.73508,-0,0,0.672
0.000434967,0.0791475,-0.86,-0.866188,0.00190002,-3.06677e-05,-0,3.2876e-08,426,0,432.919,-6.75741,-0,0,0.676
0.000442611,0.0791472,-0.86,-0.866188,0.00192185,-4.92361e-05,-0,2.19173e-08,425,0,432.875,-6.89881,-0,0,0.68
0.000450342,0.0791472,-0.86,-0.866188,0.0019438,-3.2824e-05,-0,1.46116e-08,425,0,432.833,-6.91818,-0,0,0.684
0.000458162,0.0791472,-0.86,-0.866188,0.00196586,-2.18827e-05,-0,9.74104e-09,425,0,432.79,-6.95711,-0,0,0.688
0.000466069,0.0791472,-0.86,-0.866188,0.00198804,-1.45885e-05,-0,6.49403e-09,425,0,432.746,-7.0092,-0,0,0.692
0.000474066,0.0791472,-0.86,-0.866188,0.00201034,-9.72564e-06,-0,4.32935e-09,425,0,432.702,-7.07021,-0,0,0.696
0.000482152,0.0791468,-0.86,-0.866188,0.00203275,-3.52747e-05,-0,2.88623e-09,425,0,432.656,-7.23807,-0,0,0.7
0.000490328,0.0791468,-0.86,-0.866188,0.00205527,-2.35165e-05,-0,1.92416e-09,425,0,432.611,-7.27576,-0,0,0.704
0.000498595,0.0791468,-0.86,-0.866188,0.00207791,-1.56776e-05,-0,-2.87896e-05,425,0,432.565,-7.32756,-0,-0,0.708
0.000506952,0.0791468,-0.86,-0.866188,0.00210067,-1.04518e-05,-0,9.59783e-06,425,0,432.519,-7.38892,-0,0,0.712
0.0005154,0.0791468,-0.86,-0.866188,0.00212354,-6.96784e-06,-0,6.39855e-06,425,0,432.473,-7.45677,-0,0,0.716
0.00052394,0.0791465,-0.86,-0.866188,0.00214653,-3.34362e-05,-0,4.2657e-06,424,0,432.424,-7.62986,-0,0,0.72
0.000532572,0.0791468,-0.86,-0.866188,0.00216963,6.50016e-06,-0,2.8438e-06,424,0,432.378,-7.57094,-0,0,0.724
0.000541297,0.0791468,-0.86,-0.866188,0.00219284,4.33344e-06,-0,1.89587e-06,424,0,432.33,-7.65978,-0,0,0.728
0.000550115,0.0791465,-0.86,-0.866188,0.00221617,-2.5902e-05,-0,1.26391e-06,424,0,432.28,-7.84725,-0,0,0.732
0.000559027,0.0791465,-0.86,-0.866188,0.00223961,-1.7268e-05,-0,8.42608e-07,424,0,432.231,-7.89909,-0,0,0.736
0.000568032,0.0791465,-0.86,-0.866188,0.00226317,-1.1512e-05,-0,5.61739e-07,424,0,432.181,-7.9614,-0,0,0.74
0.000577132,0.0791465,-0.86,-0.866188,0.00228684,-7.67466e-06,-0,3.74492e-07,424,0,432.131,-8.03082,-0,0,0.744
0.000586327,0.0791465,-0.86,-0.866188,0.00231063,-5.11644e-06,-0,2.49662e-07,423,0,432.081,-8.10511,-0,0,0.748
0.000595618,0.0791465,-0.86,-0.866188,0.00233453,-3.41096e-06,-0,1.66441e-07,423,0,432.03,-8.18279,-0,0,0.752
0.000605004,0.0791465,-0.86,-0.866188,0.00235854,-2.27397e-06,-0,1.10961e-07,423,0,431.978,-8.26286,-0,0,0.756
0.000614486,0.0791465,-0.86,-0.866188,0.00238267,-1.51598e-06,-0,7.39738e-08,423,0,431.926,-8.34465,-0,0,0.76
0.000624065,0.0791465,-0.86,-0.866188,0.00240691,-1.01065e-06,-0,4.93159e-08,423,0,431.873,-8.42772,-0,0,0.764
0.000633742,0.0791461,-0.86,-0.866188,0.00243126,-2.94647e-05,-0,3.28772e-08,423,0,431.818,-8.61255,-0,0,0.768
0.000643515,0.0791465,-0.86,-0.866188,0.00245573,9.1478e-06,-0,-2.8769e-05,423,0,431.766,-8.56304,-0,-0,0.772
0.000653388,0.0791461,-0.86,-0.866188,0.00248031,-2.26924e-05,-0,9.61159e-06,422,0,431.71,-8.7605,-0,0,0.776
0.000663358,0.0791461,-0.86,-0.866188,0.002505,-1.51283e-05,-0,6.40772e-06,422,0,431.655,-8.82045,-0,0,0.78
0.000673428,0.0791461,-0.86,-0.866188,0.0025298,-1.00855e-05,-0,4.27182e-06,422,0,431.6,-8.88961,-0,0,0.784
0.000683597,0.0791461,-0.86,-0.866188,0.00255472,-6.72367e-06,-0,2.84788e-06,422,0,431.544,-8.96505,-0,0,0.788
0.000693866,0.0791461,-0.86,-0.866188,0.00257975,-4.48245e-06,-0,1.89859e-06,422,0,431.487,-9.04481,-0,0,0.792
0.000704235,0.0791461,-0.86,-0.866188,0.00260489,-2.9883e-06,-0,1.26572e-06,422,0,431.43,-9.12758,-0,0,0.796
0.000714705,0.0791461,-0.86,-0.866188,0.00263014,-1.9922e-06,-0,-2.79471e-05,422,0,431.373,-9.21247,-0,-0,0.8
0.000725276,0.0791461,-0.86,-0.866188,0.00265551,-1.32813e-06,-0,1.01595e-05,422,0,431.315,-9.29893,-0,0,0.804
0.000735949,0.0791461,-0.86,-0.866188,0.00268098,-8.85422e-07,-0,6.77301e-06,421,0,431.256,-9.38655,-0,0,0.808
0.000746724,0.0791461,-0.86,-0.866188,0.00270657,-5.90281e-07,-0,4.51534e-06,421,0,431.197,-9.47507,-0,0,0.812
0.000757602,0.0791465,-0.86,-0.866188,0.00273227,2.83974e-05,-0,3.01023e-06,421,0,431.139,-9.46356,-0,0,0.816
0.000768582,0.0791461,-0.86,-0.866188,0.00275808,-9.85932e-06,-0,2.00682e-06,421,0,431.077,-9.6878,-0,0,0.82
0.000779667,0.0791461,-0.86,-0.866188,0.002784,-6.57288e-06,-0,1.33788e-06,421,0,431.016,-9.76702,-0,0,0.824
0.000790855,0.0791461,-0.86,-0.866188,0.00281004,-4.38192e-06,-0,8.91919e-07,421,0,430.954,-9.85047,-0,0,0.828
0.000802147,0.0791461,-0.86,-0.866188,0.00283618,-2.92128e-06,-0,5.94613e-07,420,0,430.892,-9.93686,-0,0,0.832
0.000813544,0.0791461,-0.86,-0.866188,0.00286244,-1.94752e-06,-0,3.96409e-07,420,0,430.829,-10.0253,-0,0,0.836
0.000825047,0.0791458,-0.86,-0.866188,0.0028888,-3.00893e-05,-0,2.64272e-07,420,0,430.764,-10.2161,-0,0,0.84
0.000836655,0.0791458,-0.86,-0.866188,0.00291528,-2.00595e-05,-0,1.76182e-07,420,0,430.7,-10.2737,-0,0,0.844
0.000848369,0.0791458,-0.86,-0.866188,0.00294186,-1.3373e-05,-0,1.17454e-07,420,0,430.636,-10.3433,-0,0,0.848
0.00086019,0.0791458,-0.86,-0.866188,0.00296856,-8.91534e-06,-0,7.83029e-08,420,0,430.571,-10.4212,-0,0,0.852
0.000872118,0.0791458,-0.86,-0.866188,0.00299536,-5.94356e-06,-0,5.2202e-08,420,0,430.505,-10.5046,-0,0,0.856
0.000884153,0.0791458,-0.86,-0.866188,0.00302228,-3.96237e-06,-0,3.48013e-08,419,0,430.439,-10.5918,-0,0,0.86
0.000896296,0.0791458,-0.86,-0.866188,0.0030493,-2.64158e-06,-0,-2.87677e-05,419,0,430.372,-10.6818,-0,-0,0.864
0.000908548,0.0791458,-0.86,-0.866188,0.00307644,-1.76105e-06,-0,9.61244e-06,419,0,430.305,-10.7737,-0,0,0.868
0.000920908,0.0791458,-0.86,-0.866188,0.00310368,-1.17404e-06,-0,6.40829e-06,419,0,430.237,-10.867,-0,0,0.872
0.000933377,0.0791458,-0.86,-0.866188,0.00313104,-7.82691e-07,-0,4.2722e-06,419,0,430.168,-10.9614,-0,0,0.876
0.000945956,0.0791458,-0.86,-0.866188,0.0031585,-5.21794e-07,-0,2.84813e-06,419,0,430.099,-11.0566,-0,0,0.88
0.000958645,0.0791458,-0.86,-0.866188,0.00318607,-3.47863e-07,-0,1.89875e-06,418,0,430.029,-11.1525,-0,0,0.884
0.000971445,0.0791458,-0.86,-0.866188,0.00321375,-2.31908e-07,-0,1.26584e-06,418,0,429.959,-11.2489,-0,0,0.888
0.000984355,0.0791458,-0.86,-0.866188,0.00324154,-1.54606e-07,-0,8.43891e-07,418,0,429.888,-11.3459,-0,0,0.892
0.000997377,0.0791458,-0.86,-0.866188,0.00326944,-1.0307e-07,-0,5.62594e-07,418,0,429.816,-11.4434,-0,0,0.896
0.00101051,0.0791458,-0.86,-0.866188,0.00329745,-6.87136e-08,-0,3.75063e-07,418,0,429.744,-11.5413,-0,0,0.9
0.00102376,0.0791458,-0.86,-0.866188,0.00332556,-4.58091e-08,-0,2.50042e-07,418,0,429.671,-11.6396,-0,0,0.904
0.00103712,0.0791458,-0.86,-0.866188,0.00335378,-3.05394e-08,-0,1.66694e-07,417,0,429.598,-11.7383,-0,0,0.908
0.00105059,0.0791458,-0.86,-0.866188,0.00338211,-2.03596e-08,-0,1.1113e-07,417,0,429.524,-11.8375,-0,0,0.912
0.00106417,0.0791458,-0.86,-0.866188,0.00341055,-1.35731e-08,-0,2.8865e-05,417,0,429.449,-11.937,-0,0,0.916
0.00107787,0.0791458,-0.86,-0.866188,0.0034391,-9.04871e-09,-0,-9.54758e-06,417,0,429.374,-12.0369,-0,-0,0.92
0.00109169,0.0791458,-0.86,-0.866188,0.00346775,-6.03247e-09,-0,-6.36506e-06,417,0,429.298,-12.1372,-0,-0,0.924
0.00110561,0.0791458,-0.86,-0.866189,0.00349651,-4.02165e-09,-0,-6.18252e-05,416,0,429.221,-12.2378,-0,-0,0.928
0.00111966,0.0791458,-0.86,-0.866188,0.00352538,-2.6811e-09,-0,1.6365e-05,416,0,429.144,-12.3388,-0,0,0.932
0.00113382,0.0791458,-0.86,-0.866188,0.00355436,-1.7874e-09,-0,3.97009e-05,416,0,429.066,-12.4403,-0,0,0.936
0.00114809,0.0791458,-0.86,-0.866188,0.00358344,-1.1916e-09,-0,-2.32363e-06,416,0,428.987,-12.542,-0,-0,0.94
0.00116249,0.0791458,-0.86,-0.866188,0.00361263,-7.94399e-10,-0,-1.54908e-06,416,0,428.908,-12.6442,-0,-0,0.944
0.00117699,0.0791458,-0.86,-0.866188,0.00364193,-5.296e-10,-0,-1.03272e-06,416,0,428.828,-12.7467,-0,-0,0.948
0.00119162,0.0791458,-0.86,-0.866188,0.00367133,-3.53066e-10,-0,-6.88482e-07,415,0,428.748,-12.8497,-0,-0,0.952
0.00120636,0.0791458,-0.86,-0.866188,0.00370084,-2.35378e-10,-0,-4.58988e-07,415,0,428.667,-12.9529,-0,-0,0.956
0.00122123,0.0791458,-0.86,-0.866188,0.00373045,-1.56918e-10,-0,-3.05992e-07,415,0,428.585,-13.0566,-0,-0,0.96
0.00123621,0.0791461,-0.86,-0.866188,0.00376018,2.87908e-05,-0,-2.03995e-07,415,0,428.505,-13.0598,-0,-0,0.964
0.00125131,0.0791451,-0.86,-0.866188,0.00379,-6.71789e-05,-0,-1.35996e-07,414,0,428.416,-13.5001,-0,-0,0.968
0.00126653,0.0791458,-0.86,-0.866188,0.00381994,1.27959e-05,-0,-9.06642e-08,415,0,428.336,-13.325,-0,-0,0.972
0.00128187,0.0791458,-0.86,-0.866189,0.00384998,8.53061e-06,-0,-5.76423e-05,414,0,428.252,-13.4451,-0,-0,0.976
0.00129733,0.0791458,-0.86,-0.866188,0.00388012,5.68708e-06,-0,1.91537e-05,414,0,428.167,-13.5605,-0,0,0.98
0.00131291,0.0791458,-0.86,-0.866188,0.00391037,3.79138e-06,-0,1.27691e-05,414,0,428.081,-13.673,-0,0,0.984
0.00132861,0.0791458,-0.86,-0.866188,0.00394073,2.52759e-06,-0,8.51274e-06,414,0,427.994,-13.7837,-0,0,0.988
0.00134444,0.0791451,-0.86,-0.866188,0.00397119,-5.58968e-05,-0,5.67516e-06,413,0,427.904,-14.0948,-0,0,0.992
0.00136038,0.0791458,-0.86,-0.866189,0.00400175,2.03173e-05,-0,-5.37984e-05,413,0,427.82,-13.935,-0,-0,0.996
0.00137645,0.0791461,-0.86,-0.866188,0.00403243,4.23358e-05,-0,2.17162e-05,413,0,427.733,-13.9653,-0,0,1
0.00139264,0.0791451,-0.86,-0.866188,0.0040632,-5.81489e-05,-0,1.44775e-05,413,0,427.639,-14.4247,-0,0,1.004
0.00140896,0.0791461,-0.86,-0.866188,0.00409408,4.76068e-05,-0,9.65166e-06,413,0,427.554,-14.1627,-0,0,1.008
0.00142539,0.0791461,-0.86,-0.866188,0.00412507,3.17379e-05,-0,6.43444e-06,413,0,427.464,-14.3266,-0,0,1.012
0.00144196,0.0791454,-0.86,-0.866188,0.00415615,-3.64233e-05,-0,4.28963e-06,412,0,427.369,-14.674,-0,0,1.016
0.00145864,0.0791454,-0.86,-0.866188,0.00418735,-2.42822e-05,-0,2.85975e-06,412,0,427.277,-14.7407,-0,0,1.02
0.00147546,0.0791451,-0.86,-0.866188,0.00421865,-4.4979e-05,-0,1.9065e-06,412,0,427.183,-14.9227,-0,0,1.024
0.00149239,0.0791451,-0.86,-0.866188,0.00425005,-2.9986e-05,-0,1.271e-06,412,0,427.09,-14.9801,-0,0,1.028
0.00150946,0.0791461,-0.86,-0.866188,0.00428155,6.63821e-05,-0,8.47334e-07,412,0,427.002,-14.7531,-0,0,1.032
0.00152665,0.0791451,-0.86,-0.866188,0.00431316,-4.2118e-05,-0,5.64889e-07,411,0,426.902,-15.2435,-0,0,1.036
0.00154396,0.0791458,-0.86,-0.866188,0.00434487,2.95032e-05,-0,3.76593e-07,411,0,426.81,-15.1038,-0,0,1.04
0.0015614,0.0791454,-0.86,-0.866188,0.00437669,-9.12216e-06,-0,2.51062e-07,411,0,426.712,-15.3503,-0,0,1.044
0.00157897,0.0791454,-0.86,-0.866188,0.00440861,-6.08144e-06,-0,1.67375e-07,411,0,426.616,-15.4514,-0,0,1.048
0.00159667,0.0791458,-0.86,-0.866188,0.00444063,2.47366e-05,-0,1.11583e-07,411,0,426.52,-15.4556,-0,0,1.052
0.0016145,0.0791461,-0.86,-0.866188,0.00447275,4.5282e-05,-0,7.43887e-08,410,0,426.424,-15.4961,-0,0,1.056
0.00163246,0.0791454,-0.86,-0.866188,0.00450498,-2.73938e-05,-0,4.95925e-08,410,0,426.321,-15.8633,-0,0,1.06
0.00165054,0.0791458,-0.86,-0.866188,0.00453731,1.05284e-05,-0,3.30616e-08,410,0,426.224,-15.8437,-0,0,1.064
0.00166875,0.0791451,-0.86,-0.866188,0.00456974,-5.05629e-05,-0,2.8813e-05,409,0,426.12,-16.1711,-0,0,1.068
0.0016871,0.0791451,-0.86,-0.866189,0.00460228,-3.37086e-05,-0,-6.71641e-05,409,0,426.019,-16.2259,-0,-0,1.072
0.00170557,0.0791458,-0.86,-0.866188,0.00463491,3.51094e-05,-0,1.28058e-05,409,0,425.921,-16.0993,-0,0,1.076
0.00172418,0.0791454,-0.86,-0.866188,0.00466765,-5.38464e-06,-0,8.53718e-06,409,0,425.817,-16.3556,-0,0,1.08
0.00174291,0.0791458,-0.86,-0.866188,0.00470049,2.52012e-05,-0,5.69145e-06,409,0,425.716,-16.3635,-0,0,1.084
0.00176178,0.0791454,-0.86,-0.866188,0.00473344,-1.19901e-05,-0,3.7943e-06,409,0,425.61,-16.609,-0,0,1.088
0.00178078,0.0791454,-0.86,-0.866188,0.00476648,-7.99343e-06,-0,2.52953e-06,408,0,425.506,-16.7107,-0,0,1.092
0.00179991,0.0791461,-0.86,-0.866188,0.00479963,5.22529e-05,-0,1.68636e-06,408,0,425.404,-16.6158,-0,0,1.096
0.00181918,0.0791454,-0.86,-0.866188,0.00483288,-2.27466e-05,-0,1.12424e-06,408,0,425.294,-16.9947,-0,0,1.1
0.00183858,0.0791458,-0.86,-0.866188,0.00486623,1.36265e-05,-0,7.49491e-07,408,0,425.19,-16.9841,-0,0,1.104
0.00185811,0.0791451,-0.86,-0.866188,0.00489968,-4.84975e-05,-0,4.99661e-07,407,0,425.078,-17.3186,-0,0,1.108
0.00187777,0.0791451,-0.86,-0.866189,0.00493323,-3.23317e-05,-0,-5.72487e-05,407,0,424.97,-17.3795,-0,-0,1.112
0.00189757,0.0791454,-0.86,-0.866188,0.00496688,7.23648e-06,-0,1.9416e-05,407,0,424.863,-17.3587,-0,0,1.116
0.00191751,0.0791451,-0.86,-0.866188,0.00500063,-2.39666e-05,-0,4.17349e-05,407,0,424.752,-17.5861,-0,0,1.12
0.00193758,0.0791454,-0.86,-0.866188,0.00503448,1.28132e-05,-0,-9.67632e-07,407,0,424.643,-17.5758,-0,-0,1.124
0.00195779,0.0791458,-0.86,-0.866188,0.00506844,3.73331e-05,-0,-6.45088e-07,406,0,424.534,-17.6089,-0,-0,1.128
0.00197813,0.0791458,-0.86,-0.866188,0.00510249,2.48887e-05,-0,-4.30059e-07,406,0,424.422,-17.7716,-0,-0,1.132
0.00199861,0.0791451,-0.86,-0.866188,0.00513664,-4.09894e-05,-0,-2.86706e-07,406,0,424.306,-18.1217,-0,-0,1.136
0.00201922,0.0791451,-0.86,-0.866188,0.0051709,-2.73263e-05,-0,-1.91137e-07,405,0,424.192,-18.1938,-0,-0,1.14
0.00203997,0.0791454,-0.86,-0.866188,0.00520525,1.05734e-05,-0,-1.27425e-07,405,0,424.08,-18.1814,-0,-0,1.144
0.00206086,0.0791451,-0.86,-0.866188,0.00523971,-2.1742e-05,-0,-8.49499e-08,405,0,423.963,-18.4151,-0,-0,1.148
0.00208189,0.0791461,-0.86,-0.866188,0.00527426,7.18781e-05,-0,-5.66332e-08,405,0,423.853,-18.2083,-0,-0,1.152
0.00210306,0.0791454,-0.86,-0.866188,0.00530891,-9.6631e-06,-0,2.87532e-05,405,0,423.733,-18.615,-0,0,1.156
0.00212436,0.0791451,-0.86,-0.866188,0.00534366,-3.5233e-05,-0,-9.62215e-06,404,0,423.614,-18.8261,-0,-0,1.16
0.00214581,0.0791454,-0.86,-0.866188,0.00537852,5.30226e-06,-0,-6.41476e-06,404,0,423.498,-18.8062,-0,-0,1.164
0.00216739,0.0791451,-0.86,-0.866188,0.00541347,-2.52561e-05,-0,-4.27651e-06,404,0,423.377,-19.0355,-0,-0,1.168
0.00218911,0.0791454,-0.86,-0.866188,0.00544851,1.19535e-05,-0,-2.85101e-06,404,0,423.26,-19.028,-0,-0,1.172
0.00221098,0.0791458,-0.86,-0.866188,0.00548366,3.67599e-05,-0,-1.90067e-06,404,0,423.141,-19.0642,-0,-0,1.176
0.00223298,0.0791454,-0.86,-0.866188,0.00551891,-4.28429e-06,-0,-1.26711e-06,403,0,423.019,-19.3312,-0,-0,1.18
0.00225513,0.0791458,-0.86,-0.866188,0.00555425,2.59347e-05,-0,-8.44743e-07,403,0,422.899,-19.3491,-0,-0,1.184
0.00227742,0.0791454,-0.86,-0.866188,0.0055897,-1.15011e-05,-0,-5.63162e-07,403,0,422.774,-19.6042,-0,-0,1.188
0.00229985,0.0791458,-0.86,-0.866188,0.00562524,2.11235e-05,-0,-3.75441e-07,403,0,422.653,-19.6144,-0,-0,1.192
0.00232242,0.0791461,-0.86,-0.866188,0.00566088,4.28733e-05,-0,-2.50294e-07,402,0,422.53,-19.663,-0,-0,1.196
0.00234513,0.0791458,-0.86,-0.866188,0.00569662,-2.08743e-07,-0,-1.66863e-07,402,0,422.404,-19.9389,-0,-0,1.2
0.00236799,0.0791454,-0.86,-0.866188,0.00573245,-2.89301e-05,-0,-1.11242e-07,402,0,422.276,-20.1648,-0,-0,1.204
0.00239099,0.0791461,-0.86,-0.866188,0.00576838,3.82951e-05,-0,-7.41612e-08,402,0,422.153,-20.0553,-0,-0,1.208
0.00241414,0.0791451,-0.86,-0.866188,0.00580441,-6.08427e-05,-0,-4.94408e-08,401,0,422.02,-20.5284,-0,-0,1.212
0.00243743,0.0791461,-0.86,-0.866189,0.00584054,4.5811e-05,-0,-5.76148e-05,401,0,421.898,-20.2816,-0,-0,1.216
0.00246086,0.0791454,-0.86,-0.866188,0.00587677,-2.70412e-05,-0,1.9172e-05,401,0,421.765,-20.6633,-0,0,1.22
0.00248444,0.0791454,-0.86,-0.866188,0.00591309,-1.80275e-05,-0,1.27813e-05,400,0,421.636,-20.7589,-0,0,1.224
0.00250817,0.0791451,-0.86,-0.866188,0.00594951,-4.08092e-05,-0,8.52088e-06,400,0,421.503,-20.9661,-0,0,1.228
0.00253204,0.0791461,-0.86,-0.866189,0.00598602,5.91666e-05,-0,-5.19013e-05,400,0,421.378,-20.744,-0,-0,1.232
0.00255606,0.0791451,-0.86,-0.866188,0.00602264,-4.69284e-05,-0,2.2981e-05,399,0,421.24,-21.2435,-0,0,1.236
0.00258022,0.0791451,-0.86,-0.866188,0.00605935,-3.12856e-05,-0,1.53207e-05,399,0,421.107,-21.3172,-0,0,1.24
0.00260453,0.0791454,-0.86,-0.866188,0.00609615,7.93387e-06,-0,1.02138e-05,399,0,420.975,-21.3088,-0,0,1.244
0.00262899,0.0791451,-0.86,-0.866188,0.00613305,-2.35017e-05,-0,6.80919e-06,399,0,420.839,-21.5479,-0,0,1.248
0.0026536,0.0791461,-0.86,-0.866188,0.00617005,7.0705e-05,-0,4.53946e-06,399,0,420.709,-21.3477,-0,0,1.252
0.00267835,0.0791461,-0.86,-0.866188,0.00620715,4.71367e-05,-0,3.02631e-06,399,0,420.573,-21.56,-0,0,1.256
0.00270325,0.0791454,-0.86,-0.866188,0.00624434,-2.61574e-05,-0,2.01754e-06,398,0,420.432,-21.9467,-0,0,1.26
0.00272831,0.0791451,-0.86,-0.866188,0.00628162,-4.62292e-05,-0,1.34502e-06,398,0,420.292,-22.1475,-0,0,1.264
0.00275351,0.0791461,-0.86,-0.866188,0.006319,5.55533e-05,-0,8.96683e-07,398,0,420.159,-21.9221,-0,0,1.268
0.00277886,0.0791454,-0.86,-0.866188,0.00635648,-2.05463e-05,-0,5.97789e-07,397,0,420.016,-22.3196,-0,0,1.272
0.00280436,0.0791451,-0.86,-0.866188,0.00639405,-4.24885e-05,-0,3.98526e-07,397,0,419.874,-22.5279,-0,0,1.276
0.00283001,0.0791454,-0.86,-0.866189,0.00643172,4.65282e-07,-0,-5.73162e-05,397,0,419.735,-22.5094,-0,-0,1.28
0.00285581,0.0791454,-0.86,-0.866188,0.00646948,3.10188e-07,-0,4.8162e-05,396,0,419.593,-22.6421,-0,0,1.284
0.00288177,0.0791454,-0.86,-0.866188,0.00650734,2.06792e-07,-0,3.31707e-06,396,0,419.45,-22.775,-0,0,1.288
0.00290787,0.0791454,-0.86,-0.866188,0.00654529,1.37861e-07,-0,2.21138e-06,396,0,419.307,-22.908,-0,0,1.292
0.00293413,0.0791454,-0.86,-0.866188,0.00658334,9.19075e-08,-0,1.47425e-06,396,0,419.162,-23.0414,-0,0,1.296
0.00296054,0.0791461,-0.86,-0.866188,0.00662148,5.76431e-05,-0,9.82837e-07,396,0,419.021,-22.9734,-0,0,1.3
0.0029871,0.0791461,-0.86,-0.866188,0.00665972,3.84287e-05,-0,6.55224e-07,395,0,418.875,-23.1745,-0,0,1.304
0.00301382,0.0791451,-0.86,-0.866188,0.00669805,-6.07536e-05,-0,4.36816e-07,395,0,418.722,-23.6558,-0,0,1.308
0.00304069,0.0791454,-0.86,-0.866188,0.00673647,-1.17115e-05,-0,2.91211e-07,394,0,418.576,-23.6186,-0,0,1.312
0.00306771,0.0791461,-0.86,-0.866188,0.00677499,4.97742e-05,-0,2.89851e-05,394,0,418.431,-23.5383,-0,0,1.316
0.00309489,0.0791454,-0.86,-0.866188,0.0068136,-2.43991e-05,-0,-9.46755e-06,394,0,418.278,-23.933,-0,-0,1.32
0.00312222,0.0791451,-0.86,-0.866188,0.00685231,-4.5057e-05,-0,-6.3117e-06,393,0,418.126,-24.1408,-0,-0,1.324
0.0031497,0.0791451,-0.86,-0.866188,0.00689111,-3.0038e-05,-0,-4.2078e-06,393,0,417.975,-24.224,-0,-0,1.328
0.00317735,0.0791454,-0.86,-0.866189,0.00693,8.76561e-06,-0,-6.0387e-05,393,0,417.825,-24.2243,-0,-0,1.332
0.00320514,0.0791451,-0.86,-0.866188,0.00696898,-2.29472e-05,-0,1.73238e-05,393,0,417.67,-24.4718,-0,0,1.336
0.0032331,0.0791454,-0.86,-0.866188,0.00700806,1.34928e-05,-0,4.03401e-05,393,0,417.518,-24.481,-0,0,1.34
0.00326121,0.0791458,-0.86,-0.866188,0.00704723,3.77861e-05,-0,-1.8975e-06,392,0,417.365,-24.5331,-0,-0,1.344
0.00328948,0.0791458,-0.86,-0.866188,0.0070865,2.51908e-05,-0,-1.265e-06,392,0,417.21,-24.7146,-0,-0,1.348
0.0033179,0.0791461,-0.86,-0.866189,0.00712586,4.55848e-05,-0,-5.84252e-05,392,0,417.055,-24.781,-0,-0,1.352
0.00334648,0.0791461,-0.86,-0.866188,0.00716531,3.03898e-05,-0,1.86317e-05,391,0,416.898,-24.9722,-0,0,1.356
0.00337522,0.0791454,-0.86,-0.866188,0.00720485,-3.7322e-05,-0,1.24212e-05,391,0,416.736,-25.3476,-0,0,1.36
0.00340412,0.0791454,-0.86,-0.866188,0.00724448,-2.48813e-05,-0,8.28077e-06,391,0,416.577,-25.4428,-0,0,1.364
0.00343318,0.0791451,-0.86,-0.866188,0.00728421,-4.53785e-05,-0,5.52051e-06,390,0,416.416,-25.6536,-0,0,1.368
0.0034624,0.0791454,-0.86,-0.866188,0.00732403,-1.46138e-06,-0,3.68034e-06,390,0,416.257,-25.6392,-0,0,1.372
0.00349177,0.0791451,-0.86,-0.866188,0.00736394,-2.97652e-05,-0,2.45356e-06,390,0,416.093,-25.878,-0,0,1.376
0.00352131,0.0791454,-0.86,-0.866188,0.00740395,8.94747e-06,-0,1.63571e-06,390,0,415.933,-25.8825,-0,0,1.38
0.003551,0.0791461,-0.86,-0.866188,0.00744404,6.35468e-05,-0,2.98814e-05,389,0,415.773,-25.8317,-0,0,1.384
0.00358086,0.0791458,-0.86,-0.866188,0.00748423,1.35736e-05,-0,-8.86999e-06,389,0,415.607,-26.1473,-0,-0,1.388
0.00361088,0.0791458,-0.86,-0.866188,0.0075245,9.04909e-06,-0,-5.91333e-06,389,0,415.442,-26.3041,-0,-0,1.392
0.00364106,0.0791454,-0.86,-0.866188,0.00756487,-2.27582e-05,-0,-3.94222e-06,388,0,415.274,-26.5567,-0,-0,1.396
0.0036714,0.0791454,-0.86,-0.866188,0.00760533,-1.51721e-05,-0,-2.62815e-06,388,0,415.107,-26.6718,-0,-0,1.4
0.0037019,0.0791454,-0.86,-0.866188,0.00764588,-1.01148e-05,-0,-1.7521e-06,388,0,414.94,-26.796,-0,-0,1.404
0.00373256,0.0791461,-0.86,-0.866188,0.00768653,5.08387e-05,-0,2.76229e-05,388,0,414.775,-26.7249,-0,0,1.408
0.00376339,0.0791458,-0.86,-0.866188,0.00772726,5.10153e-06,-0,-1.03757e-05,387,0,414.603,-27.0275,-0,-0,1.412
0.00379438,0.0791451,-0.86,-0.866188,0.00776808,-5.41808e-05,-0,-6.91712e-06,387,0,414.429,-27.3779,-0,-0,1.416
0.00382554,0.0791458,-0.86,-0.866188,0.007809,2.14613e-05,-0,-4.61142e-06,387,0,414.261,-27.2564,-0,-0,1.42
0.00385685,0.0791451,-0.86,-0.866188,0.00785,-4.32743e-05,-0,-3.07428e-06,386,0,414.085,-27.6265,-0,-0,1.424
0.00388834,0.0791454,-0.86,-0.866188,0.00789109,-5.86213e-08,-0,-2.04952e-06,386,0,413.914,-27.619,-0,-0,1.428
0.00391998,0.0791454,-0.86,-0.866188,0.00793228,-3.90809e-08,-0,2.74246e-05,385,0,413.74,-27.7631,-0,0,1.432
0.0039518,0.0791461,-0.86,-0.866188,0.00797355,5.75558e-05,-0,-1.05079e-05,385,0,413.569,-27.706,-0,-0,1.436
0.00398377,0.0791461,-0.86,-0.866188,0.00801492,3.83705e-05,-0,-7.00525e-06,385,0,413.393,-27.9179,-0,-0,1.44
0.00401591,0.0791454,-0.86,-0.866188,0.00805637,-3.20015e-05,-0,-4.67017e-06,384,0,413.212,-28.3093,-0,-0,1.444
0.00404822,0.0791458,-0.86,-0.866188,0.00809791,7.45659e-06,-0,-3.11344e-06,384,0,413.037,-28.3166,-0,-0,1.448
0.0040807,0.0791454,-0.86,-0.866188,0.00813954,-2.38199e-05,-0,-2.07563e-06,384,0,412.856,-28.5718,-0,-0,1.452
0.00411334,0.0791461,-0.86,-0.866188,0.00818127,4.17019e-05,-0,-1.38375e-06,384,0,412.68,-28.4885,-0,-0,1.456
0.00414615,0.0791451,-0.86,-0.866188,0.00822308,-5.85715e-05,-0,-9.22502e-07,383,0,412.494,-28.9858,-0,-0,1.46
0.00417912,0.0791458,-0.86,-0.866188,0.00826498,1.85342e-05,-0,-6.15001e-07,383,0,412.317,-28.8625,-0,-0,1.464
0.00421227,0.0791454,-0.86,-0.866188,0.00830696,-1.64348e-05,-0,-4.10001e-07,383,0,412.132,-29.1319,-0,-0,1.468
0.00424558,0.0791461,-0.86,-0.866188,0.00834904,4.66253e-05,-0,-2.73334e-07,382,0,411.953,-29.0585,-0,-0,1.472
0.00427906,0.0791454,-0.86,-0.866188,0.00839121,-2.64983e-05,-0,2.86087e-05,382,0,411.765,-29.462,-0,0,1.476
0.00431271,0.0791458,-0.86,-0.866188,0.00843346,1.11254e-05,-0,-9.71846e-06,382,0,411.582,-29.4782,-0,-0,1.48
0.00434653,0.0791454,-0.86,-0.866188,0.0084758,-2.1374e-05,-0,-6.47897e-06,381,0,411.394,-29.7401,-0,-0,1.484
0.00438052,0.0791461,-0.86,-0.866188,0.00851823,4.33325e-05,-0,-4.31931e-06,381,0,411.211,-29.6622,-0,-0,1.488
0.00441467,0.0791458,-0.86,-0.866188,0.00856075,9.74201e-08,-0,-2.87954e-06,381,0,411.021,-29.9623,-0,-0,1.492
0.004449,0.0791461,-0.86,-0.866188,0.00860336,2.88559e-05,-0,-1.9197e-06,380,0,410.834,-30.0108,-0,-0,1.496
0.0044835,0.0791451,-0.86,-0.866189,0.00864605,-6.71355e-05,-0,-5.88616e-05,380,0,410.639,-30.4962,-0,-0,1.5
0.00451817,0.0791451,-0.86,-0.866188,0.00868884,-4.4757e-05,-0,1.83408e-05,379,0,410.448,-30.5676,-0,0,1.504
0.00455301,0.0791458,-0.86,-0.866188,0.00873171,2.77438e-05,-0,1.22272e-05,379,0,410.26,-30.4639,-0,0,1.508
0.00458802,0.0791458,-0.86,-0.866188,0.00877466,1.84959e-05,-0,3.69424e-05,379,0,410.068,-30.6466,-0,0,1.512
0.00462321,0.0791451,-0.86,-0.866188,0.00881771,-4.52513e-05,-0,2.46282e-05,378,0,409.87,-31.0204,-0,0,1.516
0.00465857,0.0791454,-0.86,-0.866188,0.00886084,-1.37658e-06,-0,-1.23721e-05,378,0,409.678,-31.0178,-0,-0,1.52
0.0046941,0.0791451,-0.86,-0.866188,0.00890406,-2.97086e-05,-0,-8.24806e-06,378,0,409.481,-31.2682,-0,-0,1.524
0.0047298,0.0791451,-0.86,-0.866188,0.00894736,-1.98058e-05,-0,-5.49871e-06,377,0,409.284,-31.3851,-0,-0,1.528
0.00476568,0.0791458,-0.86,-0.866188,0.00899075,4.4378e-05,-0,-3.66581e-06,377,0,409.091,-31.3123,-0,-0,1.532
0.00480173,0.0791454,-0.86,-0.866188,0.00903423,7.94414e-07,-0,-2.44387e-06,377,0,408.89,-31.617,-0,-0,1.536
0.00483795,0.0791451,-0.86,-0.866188,0.0090778,-2.82613e-05,-0,-1.62925e-06,376,0,408.689,-31.8712,-0,-0,1.54
0.00487435,0.0791458,-0.86,-0.866188,0.00912145,3.8741e-05,-0,-1.08616e-06,376,0,408.493,-31.7895,-0,-0,1.544
0.00491092,0.0791458,-0.86,-0.866188,0.00916518,2.58273e-05,-0,-7.2411e-07,376,0,408.292,-31.9878,-0,-0,1.548
0.00494767,0.0791451,-0.86,-0.866188,0.00920901,-4.03636e-05,-0,-4.8274e-07,375,0,408.086,-32.3728,-0,-0,1.552
0.00498459,0.0791454,-0.86,-0.866188,0.00925292,1.88183e-06,-0,-3.21827e-07,375,0,407.885,-32.3786,-0,-0,1.556
0.00502169,0.0791454,-0.86,-0.866188,0.00929691,1.25455e-06,-0,-2.14551e-07,375,0,407.681,-32.5348,-0,-0,1.56
0.00505897,0.0791451,-0.86,-0.866188,0.00934099,-2.79546e-05,-0,-1.43034e-07,374,0,407.474,-32.7913,-0,-0,1.564
0.00509642,0.0791458,-0.86,-0.866188,0.00938516,3.89455e-05,-0,-9.5356e-08,374,0,407.272,-32.7117,-0,-0,1.568
0.00513405,0.0791454,-0.86,-0.866188,0.00942941,-2.82727e-06,-0,-6.35707e-08,374,0,407.063,-33.0128,-0,-0,1.572
0.00517186,0.0791458,-0.86,-0.866188,0.00947375,2.69061e-05,-0,-4.23805e-08,373,0,406.857,-33.0639,-0,-0,1.576
0.00520984,0.0791451,-0.86,-0.866188,0.00951817,-3.96445e-05,-0,-2.82536e-08,373,0,406.644,-33.4523,-0,-0,1.58
0.005248,0.0791454,-0.86,-0.866188,0.00956268,2.36128e-06,-0,-1.88358e-08,372,0,406.436,-33.4611,-0,-0,1.584
0.00528634,0.0791458,-0.86,-0.866188,0.00960727,3.03651e-05,-0,-1.25572e-08,372,0,406.227,-33.5192,-0,-0,1.588
0.00532486,0.0791461,-0.86,-0.866188,0.00965194,4.90343e-05,-0,-8.37145e-09,372,0,406.017,-33.6102,-0,-0,1.592
0.00536356,0.0791461,-0.86,-0.866188,0.0096967,3.26896e-05,-0,-5.58096e-09,371,0,405.804,-33.8241,-0,-0,1.596
0.00540243,0.0791461,-0.86,-0.866188,0.00974155,2.1793e-05,-0,-3.72064e-09,371,0,405.59,-34.0191,-0,-0,1.6
0.00544149,0.0791454,-0.86,-0.866188,0.00978648,-4.30532e-05,-0,-2.48043e-09,370,0,405.372,-34.4034,-0,-0,1.604
0.00548073,0.0791458,-0.86,-0.866188,0.00983149,8.88193e-08,-0,-1.65362e-09,370,0,405.158,-34.4099,-0,-0,1.608
0.00552014,0.0791458,-0.86,-0.866188,0.00987659,5.92128e-08,-0,-1.10241e-09,370,0,404.941,-34.5679,-0,-0,1.612
0.00555974,0.0791454,-0.86,-0.866188,0.00992177,-2.87514e-05,-0,-7.34942e-10,369,0,404.721,-34.8268,-0,-0,1.616
0.00559952,0.0791454,-0.86,-0.866188,0.00996704,-1.91676e-05,-0,-4.89961e-10,369,0,404.503,-34.9517,-0,-0,1.62
0.00563947,0.0791458,-0.86,-0.866188,0.0100124,1.60125e-05,-0,-3.26641e-10,369,0,404.285,-34.9873,-0,-0,1.624
0.00567962,0.0791451,-0.86,-0.866188,0.0100578,-4.69068e-05,-0,-2.17761e-10,368,0,404.06,-35.3665,-0,-0,1.628
0.00571994,0.0791451,-0.86,-0.866188,0.0101033,-3.12712e-05,-0,-1.45174e-10,368,0,403.838,-35.4711,-0,-0,1.632
0.00576044,0.0791454,-0.86,-0.866188,0.0101489,7.94344e-06,-0,-9.67825e-11,368,0,403.618,-35.4935,-0,-0,1.636
0.00580113,0.0791454,-0.86,-0.866188,0.0101946,5.29562e-06,-0,-6.45216e-11,367,0,403.394,-35.6626,-0,-0,1.64
0.005842,0.0791451,-0.86,-0.866188,0.0102404,-2.52605e-05,-0,-4.30144e-11,367,0,403.167,-35.9298,-0,-0,1.644
0.00588305,0.0791454,-0.86,-0.866188,0.0102862,1.19506e-05,-0,-2.86763e-11,366,0,402.943,-35.96,-0,-0,1.648
0.00592429,0.0791451,-0.86,-0.866188,0.0103322,-2.08239e-05,-0,-1.91175e-11,366,0,402.714,-36.2355,-0,-0,1.652
0.00596571,0.0791458,-0.86,-0.866188,0.0103782,4.36993e-05,-0,-2.87909e-05,366,0,402.49,-36.1707,-0,-0,1.656
0.00600731,0.0791461,-0.86,-0.866188,0.0104243,5.79238e-05,-0,9.59697e-06,365,0,402.264,-36.2822,-0,0,1.66
0.0060491,0.0791451,-0.86,-0.866188,0.0104705,-4.77569e-05,-0,6.39798e-06,365,0,402.028,-36.8137,-0,0,1.664
0.00609108,0.0791454,-0.86,-0.866188,0.0105167,-3.04703e-06,-0,4.26532e-06,364,0,401.799,-36.8192,-0,0,1.668
0.00613324,0.0791461,-0.86,-0.866188,0.0105631,5.55505e-05,-0,2.84355e-06,364,0,401.571,-36.7763,-0,0,1.672
0.00617558,0.0791451,-0.86,-0.866188,0.0106095,-4.93391e-05,-0,1.8957e-06,364,0,401.332,-37.3059,-0,0,1.676
0.00621811,0.0791458,-0.86,-0.866188,0.010656,2.46891e-05,-0,1.2638e-06,363,0,401.102,-37.2095,-0,0,1.68
0.00626083,0.0791458,-0.86,-0.866188,0.0107026,1.64594e-05,-0,8.42532e-07,363,0,400.867,-37.4014,-0,0,1.684
0.00630373,0.0791458,-0.86,-0.866188,0.0107492,1.09729e-05,-0,5.61688e-07,363,0,400.631,-37.584,-0,0,1.688
0.00634683,0.0791458,-0.86,-0.866188,0.010796,7.31529e-06,-0,3.74459e-07,362,0,400.394,-37.7604,-0,0,1.692
0.0063901,0.0791458,-0.86,-0.866188,0.0108428,4.87686e-06,-0,2.49639e-07,362,0,400.156,-37.9328,-0,0,1.696
0.00643357,0.0791458,-0.86,-0.866188,0.0108897,3.25124e-06,-0,-2.86245e-05,361,0,399.917,-38.1027,-0,-0,1.7
0.00647722,0.0791454,-0.86,-0.866188,0.0109367,-2.66234e-05,-0,9.70793e-06,361,0,399.675,-38.3718,-0,0,1.704
0.00652106,0.0791454,-0.86,-0.866188,0.0109838,-1.7749e-05,-0,6.47195e-06,360,0,399.434,-38.5055,-0,0,1.708
0.00656509,0.0791454,-0.86,-0.866188,0.011031,-1.18326e-05,-0,4.31463e-06,360,0,399.192,-38.6498,-0,0,1.712
0.00660931,0.0791458,-0.86,-0.866188,0.0110782,2.09025e-05,-0,2.87642e-06,360,0,398.951,-38.7006,-0,0,1.716
0.00665372,0.0791454,-0.86,-0.866188,0.0111255,-1.48559e-05,-0,1.91761e-06,359,0,398.705,-38.9913,-0,0,1.72
0.00669831,0.0791454,-0.86,-0.866188,0.0111729,-9.90395e-06,-0,1.27841e-06,359,0,398.459,-39.1399,-0,0,1.724
0.0067431,0.0791458,-0.86,-0.866188,0.0112204,2.21883e-05,-0,8.52273e-07,359,0,398.215,-39.1937,-0,0,1.728
0.00678808,0.0791458,-0.86,-0.866188,0.011268,1.47922e-05,-0,5.68182e-07,358,0,397.967,-39.3861,-0,0,1.732
0.00683324,0.0791454,-0.86,-0.866188,0.0113156,-1.89295e-05,-0,3.78788e-07,358,0,397.717,-39.6708,-0,0,1.736
0.0068786,0.0791458,-0.86,-0.866188,0.0113633,1.61713e-05,-0,2.52525e-07,357,0,397.47,-39.715,-0,0,1.74
0.00692415,0.0791454,-0.86,-0.866188,0.0114111,-1.80101e-05,-0,1.6835e-07,357,0,397.217,-40.0019,-0,0,1.744
0.00696989,0.0791454,-0.86,-0.866188,0.011459,-1.20067e-05,-0,1.12234e-07,356,0,396.966,-40.1485,-0,0,1.748
0.00701582,0.0791454,-0.86,-0.866188,0.0115069,-8.00448e-06,-0,7.48223e-08,356,0,396.713,-40.3023,-0,0,1.752
0.00706195,0.0791458,-0.86,-0.866188,0.011555,2.34546e-05,-0,4.98816e-08,356,0,396.461,-40.3604,-0,0,1.756
0.00710826,0.0791454,-0.86,-0.866188,0.0116031,-1.31545e-05,-0,3.32544e-08,355,0,396.205,-40.6569,-0,0,1.76
0.00715477,0.0791458,-0.86,-0.866188,0.0116513,2.00212e-05,-0,2.21696e-08,355,0,395.951,-40.7095,-0,0,1.764
0.00720147,0.0791454,-0.86,-0.866188,0.0116996,-1.54434e-05,-0,1.47797e-08,354,0,395.692,-41.0025,-0,0,1.768
0.00724837,0.0791458,-0.86,-0.866188,0.0117479,1.84953e-05,-0,9.85315e-09,354,0,395.436,-41.053,-0,0,1.772
0.00729546,0.0791454,-0.86,-0.866188,0.0117964,-1.64607e-05,-0,6.56877e-09,353,0,395.175,-41.3448,-0,0,1.776
0.00734274,0.0791458,-0.86,-0.866188,0.0118449,1.78171e-05,-0,4.37918e-09,353,0,394.917,-41.3947,-0,0,1.78
0.00739022,0.0791458,-0.86,-0.866188,0.0118935,1.18781e-05,-0,2.91945e-09,353,0,394.656,-41.5855,-0,0,1.784
0.00743789,0.0791454,-0.86,-0.866188,0.0119421,-2.08722e-05,-0,1.9463e-09,352,0,394.392,-41.8705,-0,0,1.788
0.00748575,0.0791454,-0.86,-0.866188,0.0119909,-1.39148e-05,-0,1.29753e-09,352,0,394.128,-42.0167,-0,0,1.792
0.00753381,0.0791458,-0.86,-0.866188,0.0120397,1.95144e-05,-0,8.65023e-10,351,0,393.866,-42.0706,-0,0,1.796
0.00758207,0.0791454,-0.86,-0.866188,0.0120886,-1.57813e-05,-0,5.76682e-10,351,0,393.599,-42.3653,-0,0,1.8
0.00763052,0.0791458,-0.86,-0.866188,0.0121376,1.827e-05,-0,3.84455e-10,350,0,393.334,-42.4175,-0,0,1.804
0.00767917,0.0791458,-0.86,-0.866188,0.0121866,1.218e-05,-0,2.56303e-10,350,0,393.066,-42.6105,-0,0,1.808
0.00772802,0.0791454,-0.86,-0.866188,0.0122358,-2.06709e-05,-0,1.70869e-10,349,0,392.796,-42.8975,-0,0,1.812
0.00777706,0.0791458,-0.86,-0.866188,0.012285,1.50103e-05,-0,1.13912e-10,349,0,392.528,-42.9448,-0,0,1.816
0.0078263,0.0791458,-0.86,-0.866188,0.0123343,1.00069e-05,-0,7.59416e-11,349,0,392.257,-43.1349,-0,0,1.82
0.00787573,0.0791454,-0.86,-0.866188,0.0123836,-2.21197e-05,-0,5.06278e-11,348,0,391.983,-43.4201,-0,0,1.824
0.00792536,0.0791458,-0.86,-0.866188,0.0124331,1.40445e-05,-0,3.37518e-11,348,0,391.712,-43.4666,-0,0,1.828
0.0079752,0.0791454,-0.86,-0.866188,0.0124826,-1.94279e-05,-0,-2.87909e-05,347,0,391.436,-43.757,-0,-0,1.832
0.00802523,0.0791458,-0.86,-0.866188,0.0125322,1.5839e-05,-0,9.59699e-06,347,0,391.163,-43.8072,-0,0,1.836
0.00807545,0.0791458,-0.86,-0.866188,0.0125818,1.05593e-05,-0,6.39799e-06,346,0,390.887,-43.9995,-0,0,1.84
0.00812588,0.0791454,-0.86,-0.866188,0.0126316,-2.17514e-05,-0,4.26533e-06,346,0,390.608,-44.2867,-0,0,1.844
0.00817651,0.0791458,-0.86,-0.866188,0.0126814,1.429e-05,-0,2.84355e-06,345,0,390.331,-44.335,-0,0,1.848
0.00822733,0.0791458,-0.86,-0.866188,0.0127313,9.52667e-06,-0,1.8957e-06,345,0,390.052,-44.5263,-0,0,1.852
0.00827836,0.0791458,-0.86,-0.866188,0.0127813,6.35111e-06,-0,1.2638e-06,345,0,389.771,-44.7123,-0,0,1.856
0.00832958,0.0791458,-0.86,-0.866188,0.0128314,4.23407e-06,-0,8.42534e-07,344,0,389.489,-44.8949,-0,0,1.86
0.00838101,0.0791458,-0.86,-0.866188,0.0128815,2.82272e-06,-0,5.61689e-07,344,0,389.206,-45.0753,-0,0,1.864
0.00843263,0.0791454,-0.86,-0.866188,0.0129317,-2.69091e-05,-0,3.7446e-07,343,0,388.92,-45.3551,-0,0,1.868
0.00848446,0.0791458,-0.86,-0.866188,0.012982,1.08515e-05,-0,2.4964e-07,343,0,388.637,-45.3989,-0,0,1.872
0.00853649,0.0791458,-0.86,-0.866188,0.0130323,7.23434e-06,-0,-2.86245e-05,342,0,388.351,-45.5878,-0,-0,1.876
0.00858872,0.0791454,-0.86,-0.866188,0.0130828,-2.3968e-05,-0,9.70793e-06,342,0,388.062,-45.8735,-0,0,1.88
0.00864115,0.0791454,-0.86,-0.866188,0.0131333,-1.59787e-05,-0,-2.2319e-05,341,0,387.774,-46.0224,-0,-0,1.884
0.00869379,0.0791454,-0.86,-0.866188,0.0131838,-1.06525e-05,-0,1.39116e-05,341,0,387.484,-46.1808,-0,0,1.888
0.00874662,0.0791458,-0.86,-0.866188,0.0132345,2.16893e-05,-0,9.27441e-06,340,0,387.195,-46.2449,-0,0,1.892
0.00879966,0.0791454,-0.86,-0.866188,0.0132852,-1.43314e-05,-0,6.18294e-06,340,0,386.902,-46.5485,-0,0,1.896
0.00885291,0.0791458,-0.86,-0.866188,0.013336,1.92367e-05,-0,-2.4669e-05,340,0,386.611,-46.6088,-0,-0,1.9
0.00890635,0.0791458,-0.86,-0.866188,0.0133869,1.28244e-05,-0,1.23449e-05,339,0,386.317,-46.8094,-0,0,1.904
0.00896,0.0791454,-0.86,-0.866188,0.0134379,-2.02413e-05,-0,8.22996e-06,338,0,386.02,-47.1034,-0,0,1.908
0.00901385,0.0791458,-0.86,-0.866188,0.0134889,1.52967e-05,-0,5.48664e-06,338,0,385.726,-47.1577,-0,0,1.912
0.00906791,0.0791458,-0.86,-0.866188,0.01354,1.01978e-05,-0,3.65776e-06,338,0,385.428,-47.3544,-0,0,1.916
0.00912217,0.0791458,-0.86,-0.866188,0.0135912,6.79854e-06,-0,-2.63524e-05,337,0,385.13,-47.5454,-0,-0,1.92
0.00917664,0.0791458,-0.86,-0.866188,0.0136424,4.53236e-06,-0,1.12226e-05,337,0,384.83,-47.7327,-0,0,1.924
0.00923131,0.0791458,-0.86,-0.866188,0.0136938,3.02158e-06,-0,7.48176e-06,336,0,384.53,-47.9176,-0,0,1.928
0.00928619,0.0791458,-0.86,-0.866188,0.0137452,2.01438e-06,-0,4.98784e-06,336,0,384.228,-48.101,-0,0,1.932
0.00934128,0.0791458,-0.86,-0.866188,0.0137966,1.34292e-06,-0,3.32523e-06,335,0,383.925,-48.2836,-0,0,1.936
0.00939657,0.0791458,-0.86,-0.866188,0.0138482,8.95282e-07,-0,2.21682e-06,335,0,383.621,-48.4655,-0,0,1.94
0.00945206,0.0791458,-0.86,-0.866188,0.0138998,5.96854e-07,-0,1.47788e-06,334,0,383.316,-48.6472,-0,0,1.944
0.00950776,0.0791458,-0.86,-0.866188,0.0139515,3.97903e-07,-0,9.85253e-07,334,0,383.009,-48.8289,-0,0,1.948
0.00956367,0.0791454,-0.86,-0.866188,0.0140033,-2.85257e-05,-0,6.56835e-07,333,0,382.7,-49.1113,-0,0,1.952
0.00961979,0.0791458,-0.86,-0.866188,0.0140551,9.77382e-06,-0,4.3789e-07,333,0,382.393,-49.1587,-0,0,1.956
0.00967611,0.0791454,-0.86,-0.866188,0.014107,-2.2275e-05,-0,2.91927e-07,332,0,382.081,-49.4525,-0,0,1.96
0.00973265,0.0791458,-0.86,-0.866188,0.014159,1.39409e-05,-0,1.94618e-07,332,0,381.772,-49.5077,-0,0,1.964
0.00978939,0.0791458,-0.86,-0.866188,0.0142111,9.29393e-06,-0,1.29745e-07,331,0,381.46,-49.7062,-0,0,1.968
0.00984634,0.0791458,-0.86,-0.866188,0.0142632,6.19595e-06,-0,8.64968e-08,331,0,381.147,-49.8995,-0,0,1.972
0.00990349,0.0791458,-0.86,-0.866188,0.0143154,4.13064e-06,-0,5.76646e-08,330,0,380.833,-50.0894,-0,0,1.976
0.00996086,0.0791458,-0.86,-0.866188,0.0143677,2.75376e-06,-0,3.8443e-08,330,0,380.517,-50.2772,-0,0,1.98
0.0100184,0.0791458,-0.86,-0.866188,0.01442,1.83584e-06,-0,2.56287e-08,329,0,380.2,-50.4636,-0,0,1.984
0.0100762,0.0791458,-0.86,-0.866188,0.0144724,1.22389e-06,-0,1.70858e-08,329,0,379.883,-50.6492,-0,0,1.988
0.0101342,0.0791458,-0.86,-0.866188,0.0145249,8.15928e-07,-0,1.13905e-08,328,0,379.564,-50.8344,-0,0,1.992
0.0101924,0.0791458,-0.86,-0.866188,0.0145775,5.43952e-07,-0,7.59369e-09,328,0,379.244,-51.0193,-0,0,1.996
0.0102508,0.0791458,-0.86,-0.866188,0.0146301,3.62635e-07,-0,5.06246e-09,327,0,378.922,-51.2041,-0,0,2
0.0103095,0.0791458,-0.86,-0.866188,0.0146828,2.41756e-07,-0,3.37497e-09,327,0,378.6,-51.389,-0,0,2.004
0.0103683,0.0791458,-0.86,-0.866188,0.0147356,1.61171e-07,-0,2.24998e-09,326,0,378.276,-51.574,-0,0,2.008
0.0104273,0.0791458,-0.86,-0.866188,0.0147884,1.07447e-07,-0,1.49999e-09,326,0,377.951,-51.7592,-0,0,2.012
0.0104866,0.0791454,-0.86,-0.866188,0.0148414,-2.87193e-05,-0,9.99992e-10,325,0,377.624,-52.0453,-0,0,2.016
0.0105461,0.0791454,-0.86,-0.866188,0.0148943,-1.91462e-05,-0,6.66661e-10,325,0,377.297,-52.1972,-0,0,2.02
0.0106058,0.0791458,-0.86,-0.866188,0.0149474,1.60268e-05,-0,4.44441e-10,324,0,376.97,-52.2598,-0,0,2.024
0.0106657,0.0791458,-0.86,-0.866188,0.0150005,1.06845e-05,-0,2.96294e-10,324,0,376.641,-52.4645,-0,0,2.028
0.0107258,0.0791458,-0.86,-0.866188,0.0150537,7.12302e-06,-0,-2.87907e-05,323,0,376.31,-52.6631,-0,-0,2.032
0.0107861,0.0791458,-0.86,-0.866188,0.015107,4.74868e-06,-0,9.59711e-06,323,0,375.978,-52.8579,-0,0,2.036
0.0108466,0.0791458,-0.86,-0.866188,0.0151603,3.16579e-06,-0,6.39807e-06,322,0,375.645,-53.0501,-0,0,2.04
0.0109074,0.0791458,-0.86,-0.866188,0.0152138,2.11052e-06,-0,4.26538e-06,322,0,375.311,-53.2408,-0,0,2.044
0.0109683,0.0791458,-0.86,-0.866188,0.0152672,1.40702e-06,-0,2.84359e-06,321,0,374.976,-53.4304,-0,0,2.048
0.0110295,0.0791458,-0.86,-0.866188,0.0153208,9.38011e-07,-0,1.89572e-06,321,0,374.64,-53.6195,-0,0,2.052
0.0110909,0.0791458,-0.86,-0.866188,0.0153744,6.25341e-07,-0,1.26382e-06,320,0,374.302,-53.8082,-0,0,2.056
0.0111525,0.0791458,-0.86,-0.866188,0.0154281,4.16894e-07,-0,8.42544e-07,319,0,373.963,-53.9969,-0,0,2.06
0.0112143,0.0791458,-0.86,-0.866188,0.0154819,2.77929e-07,-0,5.61696e-07,319,0,373.623,-54.1855,-0,0,2.064
0.0112764,0.0791458,-0.86,-0.866188,0.0155357,1.85286e-07,-0,3.74464e-07,318,0,373.282,-54.3743,-0,0,2.068
0.0113386,0.0791458,-0.86,-0.866188,0.0155896,1.23524e-07,-0,2.49643e-07,318,0,372.94,-54.5631,-0,0,2.072
0.0114011,0.0791458,-0.86,-0.866188,0.0156436,8.23494e-08,-0,1.66429e-07,317,0,372.596,-54.7522,-0,0,2.076
0.0114638,0.0791458,-0.86,-0.866188,0.0156976,5.48996e-08,-0,1.10952e-07,317,0,372.251,-54.9414,-0,0,2.08
0.0115267,0.0791458,-0.86,-0.866188,0.0157517,3.65997e-08,-0,7.39682e-08,316,0,371.905,-55.1308,-0,0,2.084
0.0115898,0.0791458,-0.86,-0.866188,0.0158059,2.43998e-08,-0,4.93122e-08,316,0,371.558,-55.3205,-0,0,2.088
0.0116531,0.0791458,-0.86,-0.866188,0.0158601,1.62665e-08,-0,3.28748e-08,315,0,371.21,-55.5103,-0,0,2.092
0.0117166,0.0791458,-0.86,-0.866188,0.0159144,1.08444e-08,-0,2.19165e-08,315,0,370.86,-55.7005,-0,0,2.096
0.0117804,0.0791458,-0.86,-0.866188,0.0159688,7.22957e-09,-0,1.4611e-08,314,0,370.51,-55.8908,-0,0,2.1
0.0118444,0.0791458,-0.86,-0.866188,0.0160233,4.81972e-09,-0,9.74067e-09,314,0,370.158,-56.0814,-0,0,2.104
0.0119086,0.0791458,-0.86,-0.866188,0.0160778,3.21314e-09,-0,6.49378e-09,313,0,369.805,-56.2722,-0,0,2.108
0.011973,0.0791458,-0.86,-0.866188,0.0161324,2.1421e-09,-0,4.32919e-09,312,0,369.45,-56.4632,-0,0,2.112
0.0120377,0.0791458,-0.86,-0.866188,0.016187,1.42806e-09,-0,2.88613e-09,312,0,369.095,-56.6545,-0,0,2.116
0.0121025,0.0791458,-0.86,-0.866188,0.0162417,9.52043e-10,-0,1.92408e-09,311,0,368.738,-56.846,-0,0,2.12
0.0121676,0.0791458,-0.86,-0.866188,0.0162965,6.34695e-10,-0,1.28272e-09,311,0,368.38,-57.0378,-0,0,2.124
0.0122329,0.0791458,-0.86,-0.866188,0.0163514,4.2313e-10,-0,8.55148e-10,310,0,368.021,-57.2298,-0,0,2.128
0.0122984,0.0791458,-0.86,-0.866188,0.0164063,2.82087e-10,-0,5.70099e-10,310,0,367.661,-57.422,-0,0,2.132
0.0123641,0.0791458,-0.86,-0.866188,0.0164613,1.88058e-10,-0,3.80066e-10,309,0,367.299,-57.6145,-0,0,2.136
0.0124301,0.0791458,-0.86,-0.866188,0.0165163,1.25372e-10,-0,2.53377e-10,309,0,366.936,-57.8072,-0,0,2.14
0.0124963,0.0791458,-0.86,-0.866188,0.0165715,8.35813e-11,-0,1.68918e-10,308,0,366.572,-58.0001,-0,0,2.144
0.0125627,0.0791458,-0.86,-0.866188,0.0166267,5.57208e-11,-0,1.12612e-10,308,0,366.207,-58.1933,-0,0,2.148
0.0126293,0.0791458,-0.86,-0.866188,0.0166819,3.71472e-11,-0,7.50747e-11,307,0,365.841,-58.3867,-0,0,2.152
0.0126961,0.0791458,-0.86,-0.866188,0.0167372,2.47648e-11,-0,5.00498e-11,306,0,365.473,-58.5803,-0,0,2.156
0.0127632,0.0791458,-0.86,-0.866188,0.0167926,1.65099e-11,-0,3.33665e-11,306,0,365.104,-58.7742,-0,0,2.16
0.0128305,0.0791458,-0.86,-0.866188,0.0168481,1.10066e-11,-0,2.22444e-11,305,0,364.734,-58.9683,-0,0,2.164
0.012898,0.0791458,-0.86,-0.866188,0.0169036,7.33772e-12,-0,1.48296e-11,305,0,364.363,-59.1626,-0,0,2.168
0.0129657,0.0791458,-0.86,-0.866188,0.0169592,4.89182e-12,-0,9.88638e-12,304,0,363.991,-59.3572,-0,0,2.172
0.0130336,0.0791458,-0.86,-0.866188,0.0170148,3.26121e-12,-0,6.59092e-12,304,0,363.617,-59.552,-0,0,2.176
0.0131018,0.0791458,-0.86,-0.866188,0.0170706,2.17414e-12,-0,4.39395e-12,303,0,363.242,-59.747,-0,0,2.18
0.0131702,0.0791458,-0.86,-0.866188,0.0171264,1.44943e-12,-0,2.9293e-12,302,0,362.866,-59.9422,-0,0,2.184
0.0132388,0.0791458,-0.86,-0.866188,0.0171822,9.66285e-13,-0,1.95287e-12,302,0,362.488,-60.1377,-0,0,2.188
0.0133077,0.0791458,-0.86,-0.866188,0.0172381,6.4419e-13,-0,1.30191e-12,301,0,362.11,-60.3334,-0,0,2.192
0.0133767,0.0791458,-0.86,-0.866188,0.0172941,4.2946e-13,-0,8.67941e-13,301,0,361.73,-60.5294,-0,0,2.196
0.013446,0.0791458,-0.86,-0.866188,0.0173502,2.86307e-13,-0,5.78627e-13,300,0,361.349,-60.7256,-0,0,2.2
0.0135155,0.0791458,-0.86,-0.866188,0.0174063,1.90871e-13,-0,3.85751e-13,300,0,360.966,-60.922,-0,0,2.204
0.0135853,0.0791458,-0.86,-0.866188,0.0174625,1.27247e-13,-0,2.57168e-13,299,0,360.583,-61.1186,-0,0,2.208
0.0136552,0.0791458,-0.86,-0.866188,0.0175187,8.48316e-14,-0,1.71445e-13,298,0,360.198,-61.3154,-0,0,2.212
0.0137254,0.0791458,-0.86,-0.866188,0.017575,5.65544e-14,-0,1.14297e-13,298,0,359.812,-61.5125,-0,0,2.216
0.0137958,0.0791458,-0.86,-0.866188,0.0176314,3.77029e-14,-0,7.61978e-14,297,0,359.425,-61.7098,-0,0,2.22
0.0138665,0.0791458,-0.86,-0.866188,0.0176878,2.51353e-14,-0,5.07985e-14,297,0,359.036,-61.9074,-0,0,2.224
0.0139373,0.0791458,-0.86,-0.866188,0.0177443,1.67569e-14,-0,3.38657e-14,296,0,358.647,-62.1051,-0,0,2.228
0.0140084,0.0791458,-0.86,-0.866188,0.0178009,1.11712e-14,-0,2.25771e-14,295,0,358.256,-62.3031,-0,0,2.232
0.0140797,0.0791458,-0.86,-0.866188,0.0178575,7.44749e-15,-0,1.50514e-14,295,0,357.863,-62.5013,-0,0,2.236
0.0141513,0.0791458,-0.86,-0.866188,0.0179142,4.96499e-15,-0,1.00343e-14,294,0,357.47,-62.6997,-0,0,2.24
0.0142231,0.0791458,-0.86,-0.866188,0.017971,3.31e-15,-0,-2.87909e-05,294,0,357.075,-62.8984,-0,-0,2.244
0.0142951,0.0791458,-0.86,-0.866188,0.0180278,2.20666e-15,-0,9.59697e-06,293,0,356.679,-63.0973,-0,0,2.248
0.0143673,0.0791458,-0.86,-0.866188,0.0180847,1.47111e-15,-0,6.39798e-06,292,0,356.282,-63.2964,-0,0,2.252
0.0144397,0.0791458,-0.86,-0.866188,0.0181416,9.80739e-16,-0,4.26532e-06,292,0,355.883,-63.4957,-0,0,2.256
0.0145124,0.0791458,-0.86,-0.866188,0.0181986,6.53826e-16,-0,-2.59474e-05,291,0,355.484,-63.6952,-0,-0,2.26
0.0145853,0.0791458,-0.86,-0.866188,0.0182557,4.35884e-16,-0,1.14927e-05,291,0,355.083,-63.895,-0,0,2.264
0.0146585,0.0791458,-0.86,-0.866188,0.0183129,2.90589e-16,-0,7.66178e-06,290,0,354.68,-64.095,-0,0,2.268
0.0147318,0.0791458,-0.86,-0.866188,0.0183701,1.93726e-16,-0,5.10785e-06,289,0,354.277,-64.2952,-0,0,2.272
0.0148054,0.0791458,-0.86,-0.866188,0.0184273,1.29151e-16,-0,3.40524e-06,289,0,353.872,-64.4956,-0,0,2.276
0.0148792,0.0791458,-0.86,-0.866188,0.0184847,8.61006e-17,-0,2.27016e-06,288,0,353.466,-64.6963,-0,0,2.28
0.0149533,0.0791458,-0.86,-0.866188,0.018542,5.74004e-17,-0,1.51344e-06,288,0,353.059,-64.8971,-0,0,2.284
0.0150276,0.0791458,-0.86,-0.866188,0.0185995,3.82669e-17,-0,1.00896e-06,287,0,352.65,-65.0982,-0,0,2.288
0.0151021,0.0791458,-0.86,-0.866188,0.018657,2.55113e-17,-0,6.72639e-07,286,0,352.24,-65.2995,-0,0,2.292
0.0151768,0.0791458,-0.86,-0.866188,0.0187146,1.70075e-17,-0,4.48426e-07,286,0,351.829,-65.5011,-0,0,2.296
0.0152518,0.0791458,-0.86,-0.866188,0.0187722,1.13383e-17,-0,2.98951e-07,285,0,351.417,-65.7028,-0,0,2.3
0.015327,0.0791458,-0.86,-0.866188,0.0188299,7.5589e-18,-0,1.99301e-07,285,0,351.003,-65.9048,-0,0,2.304
0.0154024,0.0791458,-0.86,-0.866188,0.0188877,5.03927e-18,-0,1.32867e-07,284,0,350.588,-66.1069,-0,0,2.308
0.0154781,0.0791458,-0.86,-0.866188,0.0189455,3.35951e-18,-0,-2.87023e-05,283,0,350.172,-66.3093,-0,-0,2.312
0.015554,0.0791458,-0.86,-0.866188,0.0190034,2.23967e-18,-0,9.65603e-06,283,0,349.755,-66.5119,-0,0,2.316
0.0156301,0.0791458,-0.86,-0.866188,0.0190614,1.49312e-18,-0,3.52283e-05,282,0,349.336,-66.7148,-0,0,2.32
0.0157065,0.0791458,-0.86,-0.866188,0.0191194,9.95411e-19,-0,-5.30541e-06,281,0,348.916,-66.9178,-0,-0,2.324
0.0157831,0.0791458,-0.86,-0.866188,0.0191774,6.63607e-19,-0,-3.53694e-06,281,0,348.495,-67.1211,-0,-0,2.328
0.0158599,0.0791458,-0.86,-0.866188,0.0192356,4.42405e-19,-0,-3.11489e-05,280,0,348.072,-67.3245,-0,-0,2.332
0.015937,0.0791458,-0.86,-0.866188,0.0192938,2.94936e-19,-0,8.025e-06,280,0,347.648,-67.5282,-0,0,2.336
0.0160143,0.0791458,-0.86,-0.866188,0.019352,1.96624e-19,-0,5.35e-06,279,0,347.223,-67.7321,-0,0,2.34
0.0160918,0.0791458,-0.86,-0.866188,0.0194103,1.31083e-19,-0,3.56667e-06,278,0,346.797,-67.9362,-0,0,2.344
0.0161696,0.0791458,-0.86,-0.866188,0.0194687,8.73886e-20,-0,2.37778e-06,278,0,346.369,-68.1405,-0,0,2.348
0.0162475,0.0791458,-0.86,-0.866188,0.0195272,5.82591e-20,-0,1.58519e-06,277,0,345.94,-68.3451,-0,0,2.352
0.0163258,0.0791458,-0.86,-0.866188,0.0195857,3.88394e-20,-0,-2.77341e-05,276,0,345.51,-68.5498,-0,-0,2.356
0.0164042,0.0791458,-0.86,-0.866188,0.0196442,2.58929e-20,-0,1.03015e-05,276,0,345.079,-68.7548,-0,0,2.36
0.0164829,0.0791458,-0.86,-0.866188,0.0197028,1.72619e-20,-0,6.86767e-06,275,0,344.646,-68.9599,-0,0,2.364
0.0165619,0.0791458,-0.86,-0.866188,0.0197615,1.1508e-20,-0,4.57845e-06,275,0,344.212,-69.1653,-0,0,2.368
0.016641,0.0791458,-0.86,-0.866188,0.0198203,7.67197e-21,-0,3.0523e-06,274,0,343.776,-69.3709,-0,0,2.372
0.0167204,0.0791458,-0.86,-0.866188,0.0198791,5.11465e-21,-0,2.03486e-06,273,0,343.34,-69.5767,-0,0,2.376
0.0168,0.0791458,-0.86,-0.866188,0.0199379,3.40977e-21,-0,1.35658e-06,273,0,342.902,-69.7827,-0,0,2.38
0.0168799,0.0791458,-0.86,-0.866188,0.0199968,2.27318e-21,-0,9.04384e-07,272,0,342.462,-69.9889,-0,0,2.384
0.01696,0.0791458,-0.86,-0.866188,0.0200558,1.51545e-21,-0,6.02923e-07,271,0,342.022,-70.1953,-0,0,2.388
0.0170404,0.0791458,-0.86,-0.866188,0.0201148,1.0103e-21,-0,-2.8389e-05,271,0,341.58,-70.402,-0,-0,2.392
0.0171209,0.0791458,-0.86,-0.866188,0.0201739,6.73534e-22,-0,9.86494e-06,270,0,341.137,-70.6088,-0,0,2.396
0.0172018,0.0791458,-0.86,-0.866188,0.0202331,4.49023e-22,-0,6.57663e-06,269,0,340.692,-70.8158,-0,0,2.4
0.0172828,0.0791458,-0.86,-0.866188,0.0202923,2.99348e-22,-0,4.38442e-06,269,0,340.246,-71.0231,-0,0,2.404
0.0173641,0.0791458,-0.86,-0.866188,0.0203516,1.99566e-22,-0,2.92295e-06,268,0,339.799,-71.2305,-0,0,2.408
0.0174456,0.0791458,-0.86,-0.866188,0.0204109,1.33044e-22,-0,1.94863e-06,267,0,339.351,-71.4382,-0,0,2.412
0.0175274,0.0791458,-0.86,-0.866188,0.0204703,8.86958e-23,-0,1.29909e-06,267,0,338.901,-71.6461,-0,0,2.416
0.0176094,0.0791458,-0.86,-0.866188,0.0205298,5.91306e-23,-0,8.66058e-07,266,0,338.45,-71.8542,-0,0,2.42
0.0176916,0.0791458,-0.86,-0.866188,0.0205893,3.94204e-23,-0,5.77372e-07,265,0,337.998,-72.0624,-0,0,2.424
0.0177741,0.0791458,-0.86,-0.866189,0.0206488,2.62803e-23,-0,-5.71969e-05,265,0,337.544,-72.2709,-0,-0,2.428
0.0178568,0.0791458,-0.86,-0.866188,0.0207085,1.75202e-23,-0,1.94506e-05,264,0,337.089,-72.4796,-0,0,2.432
0.0179398,0.0791458,-0.86,-0.866188,0.0207681,1.16801e-23,-0,1.2967e-05,263,0,336.633,-72.6885,-0,0,2.436
0.018023,0.0791458,-0.86,-0.866188,0.0208279,7.78674e-24,-0,8.64469e-06,263,0,336.176,-72.8976,-0,0,2.44
0.0181064,0.0791458,-0.86,-0.866188,0.0208877,5.19116e-24,-0,5.76313e-06,262,0,335.717,-73.1069,-0,0,2.444
0.0181901,0.0791458,-0.86,-0.866188,0.0209475,3.46077e-24,-0,3.84209e-06,261,0,335.257,-73.3164,-0,0,2.448
0.018274,0.0791458,-0.86,-0.866188,0.0210074,2.30718e-24,-0,2.56139e-06,261,0,334.795,-73.5261,-0,0,2.452
0.0183581,0.0791458,-0.86,-0.866188,0.0210674,1.53812e-24,-0,1.70759e-06,260,0,334.332,-73.736,-0,0,2.456
0.0184425,0.0791458,-0.86,-0.866188,0.0211274,1.02541e-24,-0,1.1384e-06,259,0,333.868,-73.9461,-0,0,2.46
0.0185271,0.0791458,-0.86,-0.866188,0.0211875,6.8361e-25,-0,7.58931e-07,259,0,333.403,-74.1564,-0,0,2.464
0.018612,0.0791458,-0.86,-0.866188,0.0212477,4.5574e-25,-0,5.05954e-07,258,0,332.936,-74.3669,-0,0,2.468
0.0186971,0.0791458,-0.86,-0.866188,0.0213079,3.03827e-25,-0,3.37302e-07,257,0,332.468,-74.5776,-0,0,2.472
0.0187825,0.0791458,-0.86,-0.866188,0.0213681,2.02551e-25,-0,2.24868e-07,257,0,331.998,-74.7885,-0,0,2.476
0.0188681,0.0791458,-0.86,-0.866188,0.0214284,1.35034e-25,-0,1.49912e-07,256,0,331.528,-74.9996,-0,0,2.48
0.0189539,0.0791458,-0.86,-0.866188,0.0214888,9.00227e-26,-0,9.99415e-08,255,0,331.055,-75.2109,-0,0,2.484
0.01904,0.0791458,-0.86,-0.866188,0.0215492,6.00151e-26,-0,6.66276e-08,255,0,330.582,-75.4224,-0,0,2.488
0.0191263,0.0791458,-0.86,-0.866188,0.0216097,4.00101e-26,-0,4.44184e-08,254,0,330.107,-75.634,-0,0,2.492
0.0192129,0.0791458,-0.86,-0.866188,0.0216703,2.66734e-26,-0,2.96123e-08,253,0,329.631,-75.8459,-0,0,2.496
0.0192997,0.0791458,-0.86,-0.866188,0.0217309,1.77823e-26,-0,1.97415e-08,253,0,329.154,-76.058,-0,0,2.5
0.0193867,0.0791458,-0.86,-0.866188,0.0217915,1.18548e-26,-0,1.3161e-08,252,0,328.675,-76.2703,-0,0,2.504
0.019474,0.0791458,-0.86,-0.866188,0.0218522,7.90322e-27,-0,8.77401e-09,251,0,328.195,-76.4828,-0,0,2.508
0.0195615,0.0791458,-0.86,-0.866188,0.021913,5.26882e-27,-0,2.87968e-05,251,0,327.714,-76.6954,-0,0,2.512
0.0196493,0.0791458,-0.86,-0.866188,0.0219738,3.51254e-27,-0,-9.59308e-06,250,0,327.231,-76.9083,-0,-0,2.516
0.0197373,0.0791458,-0.86,-0.866188,0.0220347,2.3417e-27,-0,-6.39538e-06,249,0,326.747,-77.1214,-0,-0,2.52
0.0198256,0.0791458,-0.86,-0.866189,0.0220956,1.56113e-27,-0,-6.18454e-05,248,0,326.261,-77.3346,-0,-0,2.524
0.0199141,0.0791458,-0.86,-0.866188,0.0221566,1.04075e-27,-0,4.51425e-05,248,0,325.774,-77.5481,-0,0,2.528
0.0200028,0.0791458,-0.86,-0.866188,0.0222176,6.93836e-28,-0,1.30406e-06,247,0,325.286,-77.7617,-0,0,2.532
0.0200918,0.0791458,-0.86,-0.866188,0.0222787,4.62557e-28,-0,8.69375e-07,246,0,324.797,-77.9756,-0,0,2.536
0.0201811,0.0791458,-0.86,-0.866188,0.0223399,3.08372e-28,-0,5.79584e-07,246,0,324.306,-78.1896,-0,0,2.54
0.0202705,0.0791458,-0.86,-0.866188,0.0224011,2.05581e-28,-0,2.91773e-05,245,0,323.814,-78.4038,-0,0,2.544
0.0203603,0.0791458,-0.86,-0.866188,0.0224623,1.37054e-28,-0,1.94515e-05,244,0,323.32,-78.6182,-0,0,2.548
0.0204502,0.0791458,-0.86,-0.866188,0.0225237,9.13693e-29,-0,-1.58232e-05,243,0,322.826,-78.8328,-0,-0,2.552
0.0205404,0.0791458,-0.86,-0.866188,0.022585,6.09129e-29,-0,-1.05488e-05,243,0,322.329,-79.0476,-0,-0,2.556
0.0206309,0.0791458,-0.86,-0.866188,0.0226465,4.06086e-29,-0,-7.03255e-06,242,0,321.832,-79.2626,-0,-0,2.56
0.0207216,0.0791458,-0.86,-0.866188,0.0227079,2.70724e-29,-0,-4.68836e-06,241,0,321.333,-79.4778,-0,-0,2.564
0.0208126,0.0791458,-0.86,-0.866188,0.0227695,1.80483e-29,-0,-3.12558e-06,241,0,320.833,-79.6931,-0,-0,2.568
0.0209038,0.0791465,-0.86,-0.866188,0.022831,5.75818e-05,-0,-2.08372e-06,240,0,320.335,-79.7071,-0,-0,2.572
0.0209952,0.0791458,-0.86,-0.866188,0.0228927,-1.91939e-05,-0,-1.38914e-06,239,0,319.828,-80.1916,-0,-0,2.576
0.0210869,0.0791465,-0.86,-0.866188,0.0229544,4.47859e-05,-0,-9.26097e-07,239,0,319.328,-80.1836,-0,-0,2.58
0.0211789,0.0791458,-0.86,-0.866189,0.0230161,-2.77246e-05,-0,-5.81992e-05,238,0,318.818,-80.6535,-0,-0,2.584
0.021271,0.0791454,-0.86,-0.866188,0.0230779,-4.7274e-05,-0,1.87824e-05,237,0,318.309,-80.9382,-0,0,2.588
0.0213635,0.0791458,-0.86,-0.866188,0.0231398,-2.72507e-06,-0,1.25216e-05,236,0,317.803,-80.9988,-0,0,2.592
0.0214562,0.0791458,-0.86,-0.866188,0.0232017,-1.81671e-06,-0,8.34771e-06,236,0,317.293,-81.2123,-0,0,2.596
0.0215491,0.0791461,-0.86,-0.866188,0.0232637,2.75798e-05,-0,5.56514e-06,235,0,316.784,-81.3263,-0,0,2.6
0.0216423,0.0791458,-0.86,-0.866188,0.0233257,-1.04044e-05,-0,3.71009e-06,234,0,316.269,-81.6762,-0,0,2.604
0.0217357,0.0791458,-0.86,-0.866188,0.0233877,-6.93627e-06,-0,2.4734e-06,233,0,315.755,-81.8813,-0,0,2.608
0.0218294,0.0791458,-0.86,-0.866188,0.0234499,-4.62418e-06,-0,1.64893e-06,233,0,315.24,-82.0907,-0,0,2.612
0.0219233,0.0791458,-0.86,-0.866188,0.023512,-3.08279e-06,-0,1.09929e-06,232,0,314.724,-82.3029,-0,0,2.616
0.0220175,0.0791458,-0.86,-0.866188,0.0235742,-2.05519e-06,-0,7.32858e-07,231,0,314.206,-82.5171,-0,0,2.62
0.0221119,0.0791461,-0.86,-0.866188,0.0236365,2.74208e-05,-0,4.88572e-07,231,0,313.688,-82.6319,-0,0,2.624
0.0222066,0.0791458,-0.86,-0.866188,0.0236989,-1.05104e-05,-0,3.25715e-07,230,0,313.166,-82.9828,-0,0,2.628
0.0223015,0.0791461,-0.86,-0.866188,0.0237612,2.1784e-05,-0,2.17143e-07,229,0,312.646,-83.0881,-0,0,2.632
0.0223967,0.0791461,-0.86,-0.866188,0.0238237,1.45227e-05,-0,1.44762e-07,228,0,312.122,-83.332,-0,0,2.636
0.0224921,0.0791461,-0.86,-0.866188,0.0238862,9.68178e-06,-0,9.65081e-08,228,0,311.597,-83.5677,-0,0,2.64
0.0225877,0.0791461,-0.86,-0.866188,0.0239487,6.45452e-06,-0,6.43387e-08,227,0,311.071,-83.7978,-0,0,2.644
0.0226837,0.0791454,-0.86,-0.866188,0.0240113,-5.32788e-05,-0,4.28925e-08,226,0,310.54,-84.226,-0,0,2.648
0.0227798,0.0791461,-0.86,-0.866188,0.0240739,2.20626e-05,-0,2.8595e-08,225,0,310.015,-84.1815,-0,0,2.652
0.0228763,0.0791461,-0.86,-0.866188,0.0241366,1.47084e-05,-0,1.90633e-08,225,0,309.484,-84.4267,-0,0,2.656
0.0229729,0.0791461,-0.86,-0.866189,0.0241994,9.80561e-06,-0,-5.75691e-05,224,0,308.953,-84.6635,-0,-0,2.66
0.0230699,0.0791461,-0.86,-0.866188,0.0242622,6.53707e-06,-0,1.92024e-05,223,0,308.42,-84.8947,-0,0,2.664
0.023167,0.0791461,-0.86,-0.866188,0.024325,4.35805e-06,-0,1.28016e-05,222,0,307.885,-85.1223,-0,0,2.668
0.0232645,0.0791461,-0.86,-0.866188,0.0243879,2.90537e-06,-0,8.53441e-06,222,0,307.349,-85.3475,-0,0,2.672
0.0233621,0.0791461,-0.86,-0.866188,0.0244509,1.93691e-06,-0,5.68961e-06,221,0,306.812,-85.5712,-0,0,2.676
0.0234601,0.0791461,-0.86,-0.866188,0.0245139,1.29127e-06,-0,3.79307e-06,220,0,306.273,-85.794,-0,0,2.68
0.0235582,0.0791461,-0.86,-0.866188,0.0245769,8.60849e-07,-0,2.52871e-06,219,0,305.733,-86.0161,-0,0,2.684
0.0236567,0.0791461,-0.86,-0.866188,0.02464,5.73899e-07,-0,1.68581e-06,218,0,305.192,-86.238,-0,0,2.688
0.0237554,0.0791461,-0.86,-0.866188,0.0247032,3.826e-07,-0,1.12387e-06,218,0,304.649,-86.4597,-0,0,2.692
0.0238543,0.0791461,-0.86,-0.866188,0.0247664,2.55066e-07,-0,7.49249e-07,217,0,304.105,-86.6814,-0,0,2.696
0.0239535,0.0791461,-0.86,-0.866188,0.0248296,1.70044e-07,-0,4.99499e-07,216,0,303.56,-86.903,-0,0,2.7
0.0240529,0.0791461,-0.86,-0.866188,0.0248929,1.13363e-07,-0,3.32999e-07,215,0,303.013,-87.1248,-0,0,2.704
0.0241526,0.0791461,-0.86,-0.866188,0.0249563,7.55752e-08,-0,2.22e-07,215,0,302.464,-87.3467,-0,0,2.708
0.0242526,0.0791461,-0.86,-0.866189,0.0250197,5.03835e-08,-0,-5.74338e-05,214,0,301.915,-87.5687,-0,-0,2.712
0.0243528,0.0791461,-0.86,-0.866188,0.0250831,3.3589e-08,-0,1.92926e-05,213,0,301.363,-87.7908,-0,0,2.716
0.0244533,0.0791461,-0.86,-0.866188,0.0251466,2.23927e-08,-0,1.28617e-05,212,0,300.811,-88.0131,-0,0,2.72
0.024554,0.0791461,-0.86,-0.866188,0.0252102,1.49284e-08,-0,8.5745e-06,212,0,300.257,-88.2355,-0,0,2.724
0.0246549,0.0791461,-0.86,-0.866188,0.0252738,9.9523e-09,-0,5.71633e-06,211,0,299.702,-88.4582,-0,0,2.728
0.0247562,0.0791461,-0.86,-0.866188,0.0253374,6.63486e-09,-0,3.81089e-06,210,0,299.145,-88.6809,-0,0,2.732
0.0248576,0.0791461,-0.86,-0.866189,0.0254011,4.42324e-09,-0,-5.50413e-05,209,0,298.587,-88.9039,-0,-0,2.736
0.0249594,0.0791468,-0.86,-0.866188,0.0254649,5.75848e-05,-0,2.08877e-05,209,0,298.031,-88.9255,-0,0,2.74
0.0250614,0.0791461,-0.86,-0.866188,0.0255287,-1.9192e-05,-0,1.39251e-05,208,0,297.466,-89.4175,-0,0,2.744
0.0251636,0.0791461,-0.86,-0.866188,0.0255925,-1.27947e-05,-0,9.28341e-06,207,0,296.904,-89.6186,-0,0,2.748
0.0252661,0.0791461,-0.86,-0.866188,0.0256564,-8.52977e-06,-0,6.18894e-06,206,0,296.34,-89.8273,-0,0,2.752
0.0253688,0.0791465,-0.86,-0.866188,0.0257203,2.31044e-05,-0,4.12596e-06,205,0,295.777,-89.9404,-0,0,2.756
0.0254719,0.0791465,-0.86,-0.866189,0.0257843,1.54029e-05,-0,-5.48312e-05,205,0,295.21,-90.1913,-0,-0,2.76
0.0255751,0.0791465,-0.86,-0.866188,0.0258484,1.02686e-05,-0,2.10277e-05,204,0,294.643,-90.4334,-0,0,2.764
0.0256786,0.0791465,-0.86,-0.866188,0.0259125,6.84575e-06,-0,1.40185e-05,203,0,294.073,-90.6697,-0,0,2.768
0.0257824,0.0791465,-0.86,-0.866188,0.0259766,4.56383e-06,-0,9.34565e-06,202,0,293.502,-90.9021,-0,0,2.772
0.0258865,0.0791465,-0.86,-0.866188,0.0260408,3.04256e-06,-0,6.23043e-06,201,0,292.93,-91.1321,-0,0,2.776
0.0259907,0.0791465,-0.86,-0.866188,0.026105,2.02837e-06,-0,-2.46373e-05,200,0,292.357,-91.3605,-0,-0,2.78
0.0260953,0.0791465,-0.86,-0.866188,0.0261693,1.35225e-06,-0,1.23661e-05,200,0,291.782,-91.5878,-0,0,2.784
0.0262001,0.0791465,-0.86,-0.866188,0.0262336,9.01498e-07,-0,8.24404e-06,199,0,291.205,-91.8146,-0,0,2.788
0.0263052,0.0791465,-0.86,-0.866188,0.026298,6.00999e-07,-0,5.49602e-06,198,0,290.627,-92.0409,-0,0,2.792
0.0264105,0.0791465,-0.86,-0.866188,0.0263624,4.00666e-07,-0,3.66402e-06,197,0,290.048,-92.2671,-0,0,2.796
0.0265161,0.0791461,-0.86,-0.866188,0.0264269,-2.85238e-05,-0,2.44268e-06,196,0,289.465,-92.594,-0,0,2.8
0.0266219,0.0791468,-0.86,-0.866188,0.0264914,3.8566e-05,-0,1.62845e-06,196,0,288.887,-92.585,-0,0,2.804
0.026728,0.0791468,-0.86,-0.866188,0.026556,2.57106e-05,-0,1.08563e-06,195,0,288.304,-92.856,-0,0,2.808
0.0268343,0.0791468,-0.86,-0.866189,0.0266206,1.71404e-05,-0,-5.68581e-05,194,0,287.719,-93.1121,-0,-0,2.812
0.026941,0.0791468,-0.86,-0.866188,0.0266853,1.1427e-05,-0,1.96765e-05,193,0,287.132,-93.3584,-0,0,2.816
0.0270478,0.0791468,-0.86,-0.866188,0.02675,7.61797e-06,-0,1.31176e-05,192,0,286.544,-93.5982,-0,0,2.82
0.027155,0.0791468,-0.86,-0.866188,0.0268147,5.07865e-06,-0,8.74509e-06,192,0,285.955,-93.8337,-0,0,2.824
0.0272623,0.0791468,-0.86,-0.866189,0.0268795,3.38576e-06,-0,-5.17518e-05,191,0,285.365,-94.0664,-0,-0,2.828
0.02737,0.0791468,-0.86,-0.866188,0.0269444,2.25718e-06,-0,2.30807e-05,190,0,284.773,-94.2974,-0,0,2.832
0.0274779,0.0791468,-0.86,-0.866188,0.0270092,1.50478e-06,-0,1.53871e-05,189,0,284.179,-94.5271,-0,0,2.836
0.0275861,0.0791472,-0.86,-0.866188,0.0270742,2.97941e-05,-0,1.02581e-05,188,0,283.586,-94.6554,-0,0,2.84
0.0276945,0.0791472,-0.86,-0.866188,0.0271392,1.98627e-05,-0,6.83871e-06,188,0,282.99,-94.9176,-0,0,2.844
0.0278032,0.0791472,-0.86,-0.866188,0.0272042,1.32418e-05,-0,4.55914e-06,187,0,282.392,-95.1684,-0,0,2.848
0.0279121,0.0791472,-0.86,-0.866188,0.0272693,8.82789e-06,-0,3.03943e-06,186,0,281.793,-95.4116,-0,0,2.852
0.0280213,0.0791472,-0.86,-0.866188,0.0273344,5.88526e-06,-0,2.02629e-06,185,0,281.192,-95.6498,-0,0,2.856
0.0281308,0.0791475,-0.86,-0.866188,0.0273996,3.27144e-05,-0,1.35086e-06,184,0,280.592,-95.784,-0,0,2.86
0.0282405,0.0791475,-0.86,-0.866188,0.0274648,2.18096e-05,-0,9.00571e-07,183,0,279.988,-96.0504,-0,0,2.864
0.0283505,0.0791475,-0.86,-0.866188,0.02753,1.45397e-05,-0,6.00381e-07,183,0,279.383,-96.3042,-0,0,2.868
0.0284608,0.0791472,-0.86,-0.866188,0.0275953,-1.90978e-05,-0,4.00254e-07,182,0,278.775,-96.6505,-0,0,2.872
0.0285713,0.0791479,-0.86,-0.866188,0.0276607,4.485e-05,-0,2.66836e-07,181,0,278.171,-96.6554,-0,0,2.876
0.0286821,0.0791479,-0.86,-0.866188,0.0277261,2.99e-05,-0,1.77891e-07,180,0,277.562,-96.9366,-0,0,2.88
0.0287931,0.0791479,-0.86,-0.866188,0.0277915,1.99333e-05,-0,2.89095e-05,179,0,276.951,-97.2006,-0,0,2.884
0.0289044,0.0791482,-0.86,-0.866188,0.027857,4.20798e-05,-0,-9.51791e-06,178,0,276.341,-97.3522,-0,-0,2.888
0.0290159,0.0791482,-0.86,-0.866188,0.0279225,2.80532e-05,-0,-6.34527e-06,178,0,275.727,-97.6307,-0,-0,2.892
0.0291278,0.0791489,-0.86,-0.866188,0.0279881,7.6284e-05,-0,-4.23018e-06,177,0,275.116,-97.6914,-0,-0,2.896
0.0292399,0.0791486,-0.86,-0.866188,0.0280537,2.20651e-05,-0,-2.82012e-06,176,0,274.498,-98.1108,-0,-0,2.9
0.0293522,0.0791486,-0.86,-0.866188,0.0281194,1.471e-05,-0,-1.88008e-06,175,0,273.88,-98.3664,-0,-0,2.904
0.0294648,0.0791486,-0.86,-0.866188,0.0281851,9.8067e-06,-0,-1.25339e-06,174,0,273.261,-98.6135,-0,-0,2.908
0.0295777,0.0791489,-0.86,-0.866188,0.0282508,3.53287e-05,-0,-8.35592e-07,173,0,272.642,-98.7543,-0,-0,2.912
0.0296908,0.0791489,-0.86,-0.866188,0.0283166,2.35525e-05,-0,-5.57061e-07,172,0,272.019,-99.0258,-0,-0,2.916
0.0298042,0.0791492,-0.86,-0.866188,0.0283825,4.44926e-05,-0,-3.71374e-07,172,0,271.398,-99.1829,-0,-0,2.92
0.0299179,0.0791492,-0.86,-0.866188,0.0284484,2.96617e-05,-0,2.85433e-05,171,0,270.773,-99.4654,-0,0,2.924
0.0300318,0.0791492,-0.86,-0.866188,0.0285143,1.97745e-05,-0,-9.76203e-06,170,0,270.146,-99.7308,-0,-0,2.928
0.030146,0.0791496,-0.86,-0.866188,0.0285802,4.19739e-05,-0,-6.50802e-06,169,0,269.52,-99.8839,-0,-0,2.932
0.0302604,0.0791496,-0.86,-0.866188,0.0286463,2.79826e-05,-0,-4.33868e-06,168,0,268.89,-100.164,-0,-0,2.936
0.0303752,0.0791496,-0.86,-0.866188,0.0287123,1.86551e-05,-0,-2.89245e-06,167,0,268.259,-100.428,-0,-0,2.94
0.0304901,0.0791499,-0.86,-0.866188,0.0287784,4.12276e-05,-0,-1.9283e-06,167,0,267.629,-100.58,-0,-0,2.944
0.0306054,0.0791499,-0.86,-0.866188,0.0288446,2.74851e-05,-0,-1.28553e-06,166,0,266.995,-100.86,-0,-0,2.948
0.0307209,0.0791503,-0.86,-0.866188,0.0289107,4.71143e-05,-0,-8.57023e-07,165,0,266.362,-101.023,-0,-0,2.952
0.0308367,0.0791503,-0.86,-0.866188,0.028977,3.14095e-05,-0,-5.71349e-07,164,0,265.725,-101.309,-0,-0,2.956
0.0309527,0.0791506,-0.86,-0.866188,0.0290432,4.97306e-05,-0,-3.80899e-07,163,0,265.089,-101.477,-0,-0,2.96
0.031069,0.079151,-0.86,-0.866188,0.0291096,6.19447e-05,-0,-2.53933e-07,162,0,264.451,-101.667,-0,-0,2.964
0.0311856,0.0791513,-0.86,-0.866188,0.0291759,7.00874e-05,-0,-1.69289e-07,161,0,263.812,-101.87,-0,-0,2.968
0.0313024,0.0791517,-0.86,-0.866188,0.0292423,7.55158e-05,-0,-1.12859e-07,161,0,263.171,-102.084,-0,-0,2.972
0.0314195,0.079152,-0.86,-0.866188,0.0293087,7.91348e-05,-0,-7.52393e-08,160,0,262.529,-102.304,-0,-0,2.976
0.0315369,0.0791524,-0.86,-0.866188,0.0293752,8.15475e-05,-0,-5.01596e-08,159,0,261.885,-102.528,-0,-0,2.98
0.0316545,0.0791527,-0.86,-0.866189,0.0294418,8.31559e-05,-0,-5.76153e-05,158,0,261.24,-102.755,-0,-0,2.984
0.0317724,0.0791527,-0.86,-0.866188,0.0295083,5.54373e-05,-0,1.91717e-05,157,0,260.591,-103.085,-0,0,2.988
0.0318906,0.079153,-0.86,-0.866188,0.0295749,6.57491e-05,-0,1.27811e-05,156,0,259.943,-103.282,-0,0,2.992
0.032009,0.0791534,-0.86,-0.866188,0.0296416,7.26237e-05,-0,8.52074e-06,155,0,259.294,-103.491,-0,0,2.996
0.0321277,0.0791534,-0.86,-0.866188,0.0297083,4.84158e-05,-0,5.68049e-06,154,0,258.641,-103.81,-0,0,3
0.0322467,0.0791537,-0.86,-0.866188,0.029775,6.10681e-05,-0,3.78699e-06,153,0,257.989,-103.999,-0,0,3.004
0.0323659,0.0791541,-0.86,-0.866188,0.0298418,6.9503e-05,-0,2.52466e-06,153,0,257.335,-104.203,-0,0,3.008
0.0324854,0.0791544,-0.86,-0.866188,0.0299086,7.51263e-05,-0,1.68311e-06,152,0,256.679,-104.417,-0,0,3.012
0.0326052,0.0791548,-0.86,-0.866188,0.0299755,7.88751e-05,-0,1.12207e-06,151,0,256.023,-104.638,-0,0,3.016
0.0327252,0.0791548,-0.86,-0.866188,0.0300424,5.25834e-05,-0,7.48048e-07,150,0,255.362,-104.964,-0,0,3.02
0.0328455,0.0791548,-0.86,-0.866188,0.0301093,3.50556e-05,-0,4.98699e-07,149,0,254.701,-105.26,-0,0,3.024
0.0329661,0.0791551,-0.86,-0.866188,0.0301763,5.21613e-05,-0,3.32466e-07,148,0,254.04,-105.434,-0,0,3.028
0.0330869,0.0791551,-0.86,-0.866188,0.0302433,3.47742e-05,-0,2.21644e-07,147,0,253.375,-105.73,-0,0,3.032
0.0332081,0.0791555,-0.86,-0.866189,0.0303104,5.19737e-05,-0,-5.74341e-05,146,0,252.711,-105.904,-0,-0,3.036
0.0333294,0.0791562,-0.86,-0.866188,0.0303775,9.2231e-05,-0,1.92925e-05,146,0,252.047,-105.998,-0,0,3.04
0.0334511,0.0791555,-0.86,-0.866188,0.0304446,3.90549e-06,-0,1.28616e-05,144,0,251.374,-106.542,-0,0,3.044
0.033573,0.0791562,-0.86,-0.866188,0.0305118,6.01855e-05,-0,8.57443e-06,144,0,250.707,-106.581,-0,0,3.048
0.0336952,0.0791565,-0.86,-0.866188,0.030579,6.89146e-05,-0,5.71628e-06,143,0,250.037,-106.785,-0,0,3.052
0.0338176,0.0791568,-0.86,-0.866188,0.0306463,7.4734e-05,-0,3.81086e-06,142,0,249.366,-107,-0,0,3.056
0.0339403,0.0791572,-0.86,-0.866188,0.0307136,7.86136e-05,-0,2.54057e-06,141,0,248.693,-107.222,-0,0,3.06
0.0340633,0.0791575,-0.86,-0.866188,0.0307809,8.12e-05,-0,1.69371e-06,140,0,248.018,-107.449,-0,0,3.064
0.0341866,0.0791579,-0.86,-0.866188,0.0308483,8.29242e-05,-0,1.12914e-06,139,0,247.342,-107.679,-0,0,3.068
0.0343101,0.0791579,-0.86,-0.866188,0.0309157,5.52828e-05,-0,7.52762e-07,138,0,246.663,-108.012,-0,0,3.072
0.0344339,0.0791582,-0.86,-0.866188,0.0309832,6.56461e-05,-0,5.01841e-07,137,0,245.984,-108.211,-0,0,3.076
0.034558,0.0791586,-0.86,-0.866188,0.0310507,7.2555e-05,-0,3.34561e-07,136,0,245.303,-108.424,-0,0,3.08
0.0346823,0.0791586,-0.86,-0.866188,0.0311182,4.837e-05,-0,2.2304e-07,135,0,244.619,-108.745,-0,0,3.084
0.0348069,0.0791589,-0.86,-0.866188,0.0311858,6.10376e-05,-0,1.48694e-07,134,0,243.936,-108.937,-0,0,3.088
0.0349318,0.0791593,-0.86,-0.866188,0.0312534,6.94827e-05,-0,9.91291e-08,134,0,243.251,-109.144,-0,0,3.092
0.035057,0.0791603,-0.86,-0.866188,0.0313211,0.000132695,-0,6.60861e-08,133,0,242.568,-109.159,-0,0,3.096
0.0351824,0.0791603,-0.86,-0.866188,0.0313888,8.8463e-05,-0,4.40574e-08,132,0,241.879,-109.551,-0,0,3.1
0.0353081,0.0791606,-0.86,-0.866188,0.0314565,8.77663e-05,-0,2.93716e-08,131,0,241.189,-109.791,-0,0,3.104
0.035434,0.079161,-0.86,-0.866188,0.0315243,8.73018e-05,-0,1.95811e-08,130,0,240.498,-110.03,-0,0,3.108
0.0355603,0.0791617,-0.86,-0.866189,0.0315921,0.000115783,-0,-5.75688e-05,129,0,239.808,-110.167,-0,-0,3.112
0.0356868,0.0791624,-0.86,-0.866188,0.03166,0.000134771,-0,1.92027e-05,128,0,239.116,-110.338,-0,0,3.116
0.0358135,0.0791631,-0.86,-0.866188,0.0317279,0.000147429,-0,1.28018e-05,127,0,238.422,-110.532,-0,0,3.12
0.0359406,0.0791634,-0.86,-0.866188,0.0317958,0.000127077,-0,8.53451e-06,126,0,237.726,-110.841,-0,0,3.124
0.0360679,0.0791638,-0.86,-0.866188,0.0318638,0.000113509,-0,5.68967e-06,125,0,237.027,-111.126,-0,0,3.128
0.0361955,0.0791641,-0.86,-0.866188,0.0319318,0.000104463,-0,3.79312e-06,124,0,236.327,-111.396,-0,0,3.132
0.0363234,0.0791648,-0.86,-0.866188,0.0319998,0.000127224,-0,-2.62622e-05,124,0,235.628,-111.554,-0,-0,3.136
0.0364515,0.0791651,-0.86,-0.866188,0.0320679,0.000113607,-0,1.12828e-05,123,0,234.925,-111.84,-0,0,3.14
0.0365799,0.0791651,-0.86,-0.866188,0.032136,7.5738e-05,-0,7.52187e-06,122,0,234.219,-112.211,-0,0,3.144
0.0367086,0.0791655,-0.86,-0.866188,0.0322042,7.92829e-05,-0,5.01458e-06,121,0,233.513,-112.437,-0,0,3.148
0.0368375,0.0791662,-0.86,-0.866188,0.0322724,0.000110437,-0,3.34305e-06,120,0,232.808,-112.567,-0,0,3.152
0.0369668,0.0791658,-0.86,-0.866188,0.0323406,4.48338e-05,-0,2.2287e-06,119,0,232.095,-113.035,-0,0,3.156
0.0370963,0.0791662,-0.86,-0.866188,0.0324089,5.86801e-05,-0,1.4858e-06,118,0,231.385,-113.226,-0,0,3.16
0.037226,0.0791665,-0.86,-0.866188,0.0324772,6.7911e-05,-0,9.90534e-07,117,0,230.673,-113.432,-0,0,3.164
0.0373561,0.0791676,-0.86,-0.866188,0.0325455,0.000131647,-0,6.60356e-07,116,0,229.963,-113.448,-0,0,3.168
0.0374864,0.0791679,-0.86,-0.866188,0.0326139,0.000116555,-0,4.40237e-07,115,0,229.248,-113.741,-0,0,3.172
0.037617,0.0791682,-0.86,-0.866188,0.0326823,0.000106495,-0,-2.84974e-05,114,0,228.532,-114.015,-0,-0,3.176
0.0377479,0.0791689,-0.86,-0.866188,0.0327507,0.000128578,-0,9.79264e-06,113,0,227.816,-114.178,-0,0,3.18
0.037879,0.0791696,-0.86,-0.866189,0.0328192,0.000143301,-0,-5.10534e-05,112,0,227.098,-114.366,-0,-0,3.184
0.0380104,0.079171,-0.86,-0.866188,0.0328878,0.000210697,-0,2.35462e-05,112,0,226.383,-114.37,-0,0,3.188
0.0381421,0.0791714,-0.86,-0.866188,0.0329563,0.000169256,-0,1.56975e-05,110,0,225.661,-114.755,-0,0,3.192
0.0382741,0.079172,-0.86,-0.866189,0.0330249,0.000170419,-0,-4.71169e-05,109,0,224.939,-114.991,-0,-0,3.196
0.0384063,0.0791731,-0.86,-0.866188,0.0330936,0.000199986,-0,2.61706e-05,109,0,224.217,-115.127,-0,0,3.2
0.0385388,0.0791734,-0.86,-0.866188,0.0331622,0.000162115,-0,-1.13439e-05,107,0,223.49,-115.5,-0,-0,3.204
0.0386716,0.0791741,-0.86,-0.866188,0.0332309,0.000165658,-0,2.12284e-05,107,0,222.764,-115.728,-0,0,3.208
0.0388047,0.0791752,-0.86,-0.866188,0.0332997,0.000196812,-0,1.41522e-05,106,0,222.038,-115.86,-0,0,3.212
0.038938,0.0791752,-0.86,-0.866188,0.0333684,0.000131208,-0,9.43483e-06,104,0,221.304,-116.33,-0,0,3.216
0.0390716,0.0791758,-0.86,-0.866188,0.0334373,0.000145054,-0,6.28988e-06,104,0,220.573,-116.523,-0,0,3.22
0.0392055,0.0791765,-0.86,-0.866188,0.0335061,0.000154284,-0,4.19326e-06,103,0,219.841,-116.731,-0,0,3.224
0.0393397,0.0791772,-0.86,-0.866188,0.033575,0.000160438,-0,2.7955e-06,102,0,219.107,-116.951,-0,0,3.228
0.0394741,0.0791783,-0.86,-0.866188,0.0336439,0.000193331,-0,3.06546e-05,101,0,218.373,-117.077,-0,0,3.232
0.0396088,0.07918,-0.86,-0.866188,0.0337129,0.000272842,-0,-8.35453e-06,100,0,217.642,-117.04,-0,-0,3.236
0.0397438,0.0791814,-0.86,-0.866188,0.0337818,0.000297059,-0,2.32212e-05,99,0,216.907,-117.197,-0,0,3.24
0.0398791,0.0791834,-0.86,-0.866188,0.0338509,0.000370785,-0,-1.33101e-05,98,0,216.174,-117.18,-0,-0,3.244
0.0400146,0.0791852,-0.86,-0.866188,0.0339199,0.000391144,-0,-8.8734e-06,98,0,215.438,-117.351,-0,-0,3.248
0.0401504,0.0791866,-0.86,-0.866188,0.033989,0.000375927,-0,-5.9156e-06,97,0,214.699,-117.646,-0,-0,3.252
0.0402865,0.0791883,-0.86,-0.866188,0.0340582,0.000394572,-0,-3.94373e-06,96,0,213.96,-117.823,-0,-0,3.256
0.0404229,0.0791904,-0.86,-0.866188,0.0341273,0.000435794,-0,-2.62916e-06,95,0,213.221,-117.92,-0,-0,3.26
0.0405595,0.0791921,-0.86,-0.866188,0.0341965,0.000434484,-0,-1.75277e-06,94,0,212.479,-118.167,-0,-0,3.264
0.0406965,0.0791935,-0.86,-0.866188,0.0342657,0.00040482,-0,-1.16851e-06,93,0,211.734,-118.513,-0,-0,3.268
0.0408337,0.0791955,-0.86,-0.866188,0.034335,0.000442625,-0,-7.79009e-07,92,0,210.99,-118.623,-0,-0,3.272
0.0409711,0.0791973,-0.86,-0.866188,0.0344043,0.000439038,-0,-5.19339e-07,91,0,210.244,-118.878,-0,-0,3.276
0.0411089,0.0791987,-0.86,-0.866188,0.0344736,0.000407856,-0,-3.46226e-07,90,0,209.494,-119.23,-0,-0,3.28
0.0412469,0.0792,-0.86,-0.866188,0.034543,0.000387068,-0,-2.30817e-07,89,0,208.742,-119.546,-0,-0,3.284
0.0413852,0.0792011,-0.86,-0.866188,0.0346124,0.000344418,-0,-1.53878e-07,88,0,207.987,-119.938,-0,-0,3.288
0.0415238,0.0792014,-0.86,-0.866188,0.0346818,0.000258403,-0,-1.02586e-07,86,0,207.227,-120.482,-0,-0,3.292
0.0416627,0.0792021,-0.86,-0.866188,0.0347513,0.00022985,-0,-6.83904e-08,85,0,206.467,-120.825,-0,-0,3.296
0.0418018,0.0792025,-0.86,-0.866188,0.0348208,0.000182025,-0,-4.55936e-08,84,0,205.703,-121.236,-0,-0,3.3
0.0419413,0.0792031,-0.86,-0.866188,0.0348903,0.000178932,-0,-3.03957e-08,83,0,204.94,-121.49,-0,-0,3.304
0.042081,0.0792038,-0.86,-0.866188,0.0349599,0.00017687,-0,-2.02638e-08,82,0,204.176,-121.741,-0,-0,3.308
0.0422209,0.0792042,-0.86,-0.866188,0.0350295,0.000146704,-0,-1.35092e-08,81,0,203.408,-122.09,-0,-0,3.312
0.0423612,0.0792049,-0.86,-0.866188,0.0350991,0.000155384,-0,-9.00614e-09,80,0,202.64,-122.303,-0,-0,3.316
0.0425017,0.0792059,-0.86,-0.866188,0.0351688,0.000189962,-0,-6.00409e-09,79,0,201.873,-122.426,-0,-0,3.32
0.0426425,0.0792069,-0.86,-0.866188,0.0352385,0.000213014,-0,-4.00273e-09,78,0,201.104,-122.589,-0,-0,3.324
0.0427836,0.079208,-0.86,-0.866188,0.0353082,0.000228382,-0,-2.66849e-09,77,0,200.334,-122.779,-0,-0,3.328
0.042925,0.0792104,-0.86,-0.866188,0.035378,0.000353791,-0,-1.77899e-09,76,0,199.57,-122.585,-0,-0,3.332
0.0430667,0.0792125,-0.86,-0.866188,0.0354478,0.000408606,-0,-2.87921e-05,76,0,198.802,-122.637,-0,-0,3.336
0.0432086,0.0792149,-0.86,-0.866188,0.0355176,0.000473941,-0,9.59618e-06,75,0,198.035,-122.653,-0,0,3.34
0.0433508,0.0792177,-0.86,-0.866188,0.0355875,0.000546288,-0,6.39746e-06,74,0,197.268,-122.644,-0,0,3.344
0.0434933,0.0792204,-0.86,-0.866188,0.0356574,0.000594519,-0,4.26497e-06,73,0,196.499,-122.72,-0,0,3.348
0.0436361,0.0792232,-0.86,-0.866188,0.0357273,0.000626674,-0,2.84331e-06,72,0,195.729,-122.852,-0,0,3.352
0.0437791,0.0792263,-0.86,-0.866188,0.0357973,0.000676901,-0,1.89554e-06,72,0,194.959,-122.921,-0,0,3.356
0.0439224,0.0792294,-0.86,-0.866188,0.0358673,0.000710385,-0,-2.75272e-05,71,0,194.188,-123.049,-0,-0,3.36
0.0440661,0.0792329,-0.86,-0.866188,0.0359373,0.0007615,-0,1.04394e-05,70,0,193.417,-123.115,-0,0,3.364
0.0442099,0.0792363,-0.86,-0.866188,0.0360073,0.000795576,-0,6.95963e-06,69,0,192.645,-123.241,-0,0,3.368
0.0443541,0.0792398,-0.86,-0.866188,0.0360774,0.000818293,-0,4.63975e-06,68,0,191.871,-123.407,-0,0,3.372
0.0444986,0.0792436,-0.86,-0.866188,0.0361475,0.000862229,-0,3.09317e-06,67,0,191.098,-123.499,-0,0,3.376
0.0446433,0.0792477,-0.86,-0.866188,0.0362177,0.00092031,-0,2.06211e-06,66,0,190.324,-123.541,-0,0,3.38
0.0447883,0.0792512,-0.86,-0.866188,0.0362878,0.000901449,-0,1.37474e-06,65,0,189.546,-123.852,-0,0,3.384
0.0449336,0.0792546,-0.86,-0.866188,0.0363581,0.000888876,-0,9.16494e-07,64,0,188.766,-124.142,-0,0,3.388
0.0450792,0.0792574,-0.86,-0.866188,0.0364283,0.000822911,-0,6.10996e-07,63,0,187.98,-124.619,-0,0,3.392
0.045225,0.0792598,-0.86,-0.866188,0.0364986,0.000750144,-0,4.07331e-07,62,0,187.191,-125.119,-0,0,3.396
0.0453712,0.0792612,-0.86,-0.866188,0.0365689,0.00061526,-0,2.71554e-07,60,0,186.395,-125.838,-0,0,3.4
0.0455176,0.0792619,-0.86,-0.866188,0.0366392,0.000467755,-0,1.81036e-07,58,0,185.594,-126.6,-0,0,3.404
0.0456643,0.0792622,-0.86,-0.866188,0.0367096,0.000340628,-0,1.20691e-07,57,0,184.789,-127.291,-0,0,3.408
0.0458112,0.0792622,-0.86,-0.866188,0.0367799,0.000227085,-0,8.04604e-08,56,0,183.98,-127.935,-0,0,3.412
0.0459585,0.0792622,-0.86,-0.866188,0.0368504,0.00015139,-0,5.36402e-08,54,0,183.17,-128.446,-0,0,3.416
0.046106,0.0792626,-0.86,-0.866188,0.0369208,0.000129718,-0,3.57602e-08,53,0,182.361,-128.769,-0,0,3.42
0.0462539,0.0792626,-0.86,-0.866188,0.0369913,8.64784e-05,-0,2.38401e-08,52,0,181.548,-129.167,-0,0,3.424
0.046402,0.0792633,-0.86,-0.866188,0.0370618,0.000115234,-0,1.58934e-08,51,0,180.737,-129.313,-0,0,3.428
0.0465504,0.0792639,-0.86,-0.866188,0.0371324,0.000134405,-0,1.05956e-08,50,0,179.925,-129.493,-0,0,3.432
0.046699,0.079265,-0.86,-0.866188,0.0372029,0.000175976,-0,-2.87839e-05,49,0,179.113,-129.594,-0,-0,3.436
0.046848,0.0792664,-0.86,-0.866188,0.0372735,0.000232481,-0,9.60168e-06,48,0,178.301,-129.644,-0,0,3.44
0.0469972,0.0792684,-0.86,-0.866188,0.0373442,0.000327733,-0,6.40112e-06,47,0,177.492,-129.558,-0,0,3.444
0.0471467,0.0792705,-0.86,-0.866188,0.0374148,0.000391234,-0,4.26742e-06,47,0,176.681,-129.583,-0,0,3.448
0.0472965,0.0792729,-0.86,-0.866188,0.0374855,0.000462359,-0,2.84494e-06,46,0,175.87,-129.581,-0,0,3.452
0.0474466,0.0792754,-0.86,-0.866188,0.0375562,0.000509776,-0,-2.68943e-05,45,0,175.058,-129.663,-0,-0,3.456
0.047597,0.0792774,-0.86,-0.866188,0.037627,0.000512596,-0,1.08614e-05,44,0,174.242,-129.9,-0,0,3.46
0.0477476,0.0792792,-0.86,-0.866188,0.0376978,0.000485685,-0,7.24093e-06,43,0,173.423,-130.242,-0,0,3.464
0.0478986,0.0792809,-0.86,-0.866188,0.0377686,0.000467745,-0,4.82729e-06,42,0,172.603,-130.553,-0,0,3.468
0.0480498,0.0792823,-0.86,-0.866188,0.0378394,0.000426994,-0,3.21819e-06,40,0,171.779,-130.943,-0,0,3.472
0.0482013,0.0792836,-0.86,-0.866188,0.0379103,0.000399826,-0,2.14546e-06,39,0,170.953,-131.287,-0,0,3.476
0.0483531,0.079285,-0.86,-0.866188,0.0379812,0.000381714,-0,1.43031e-06,38,0,170.126,-131.598,-0,0,3.48
0.0485051,0.0792861,-0.86,-0.866188,0.0380521,0.000340849,-0,9.53538e-07,37,0,169.295,-131.989,-0,0,3.484
0.0486575,0.0792871,-0.86,-0.866188,0.038123,0.000313605,-0,6.35692e-07,36,0,168.463,-132.333,-0,0,3.488
0.0488101,0.0792881,-0.86,-0.866188,0.038194,0.000295443,-0,4.23795e-07,34,0,167.629,-132.645,-0,0,3.492
0.048963,0.0792895,-0.86,-0.866188,0.038265,0.000312126,-0,2.8253e-07,33,0,166.796,-132.835,-0,0,3.496
0.0491162,0.0792909,-0.86,-0.866188,0.038336,0.000323248,-0,1.88353e-07,32,0,165.961,-133.045,-0,0,3.5
0.0492697,0.079293,-0.86,-0.866188,0.0384071,0.000388244,-0,1.25569e-07,32,0,165.128,-133.066,-0,0,3.504
0.0494235,0.079295,-0.86,-0.866188,0.0384782,0.000431575,-0,8.37125e-08,31,0,164.293,-133.163,-0,0,3.508
0.0495776,0.0792978,-0.86,-0.866188,0.0385493,0.000518044,-0,5.58084e-08,30,0,163.461,-133.109,-0,0,3.512
0.0497319,0.0793006,-0.86,-0.866188,0.0386205,0.00057569,-0,3.72056e-08,29,0,162.628,-133.157,-0,0,3.516
0.0498865,0.0793037,-0.86,-0.866188,0.0386916,0.000642912,-0,2.48037e-08,28,0,161.794,-133.171,-0,0,3.52
0.0500414,0.0793071,-0.86,-0.866188,0.0387628,0.000716517,-0,1.65358e-08,27,0,160.961,-133.162,-0,0,3.524
0.0501966,0.0793106,-0.86,-0.866188,0.0388341,0.000765587,-0,1.10239e-08,26,0,160.127,-133.24,-0,0,3.528
0.0503521,0.0793144,-0.86,-0.866188,0.0389053,0.000827092,-0,7.34925e-09,26,0,159.293,-133.274,-0,0,3.532
0.0505079,0.0793182,-0.86,-0.866188,0.0389766,0.000868095,-0,4.8995e-09,25,0,158.457,-133.38,-0,0,3.536
0.0506639,0.0793216,-0.86,-0.866188,0.0390479,0.000866639,-0,3.26633e-09,23,0,157.618,-133.634,-0,0,3.54
0.0508202,0.0793254,-0.86,-0.866188,0.0391192,0.00089446,-0,2.17756e-09,22,0,156.779,-133.787,-0,0,3.544
0.0509769,0.0793296,-0.86,-0.866188,0.0391906,0.000941797,-0,1.4517e-09,22,0,155.94,-133.871,-0,0,3.548
0.0511338,0.0793344,-0.86,-0.866188,0.039262,0.00103094,-0,9.67802e-10,21,0,155.104,-133.809,-0,0,3.552
0.051291,0.0793413,-0.86,-0.866188,0.0393334,0.00126311,-0,6.45201e-10,21,0,154.277,-133.246,-0,0,3.556
0.0514484,0.07935,-0.86,-0.866188,0.0394048,0.00156185,-0,4.30134e-10,21,0,153.458,-132.45,-0,0,3.56
0.0516062,0.0793603,-0.86,-0.866188,0.0394763,0.00190496,-0,2.86756e-10,21,0,152.648,-131.5,-0,0,3.564
0.0517643,0.0793721,-0.86,-0.866188,0.0395478,0.00224886,-0,1.91171e-10,21,0,151.843,-130.546,-0,0,3.568
0.0519226,0.0793852,-0.86,-0.866188,0.0396193,0.0025933,-0,1.27447e-10,21,0,151.044,-129.591,-0,0,3.572
0.0520812,0.0793983,-0.86,-0.866188,0.0396909,0.00282292,-0,8.49648e-11,21,0,150.244,-129.038,-0,0,3.576
0.0522401,0.0794118,-0.86,-0.866188,0.0397624,0.00300479,-0,5.66432e-11,20,0,149.444,-128.652,-0,0,3.58
0.0523993,0.079426,-0.86,-0.866188,0.039834,0.00318362,-0,3.77621e-11,20,0,148.647,-128.276,-0,0,3.584
0.0525588,0.0794395,-0.86,-0.866188,0.0399057,0.00324526,-0,2.51748e-11,19,0,147.844,-128.311,-0,0,3.588
0.0527186,0.0794509,-0.86,-0.866188,0.0399773,0.00311361,-0,1.67832e-11,18,0,147.028,-129.023,-0,0,3.592
0.0528786,0.0794616,-0.86,-0.866188,0.040049,0.00296826,-0,1.11888e-11,16,0,146.206,-129.783,-0,0,3.596
0.0530389,0.0794709,-0.86,-0.866188,0.0401207,0.00275619,-0,7.45919e-12,14,0,145.376,-130.776,-0,0,3.6
0.0531996,0.0794799,-0.86,-0.866188,0.0401924,0.00258603,-0,4.97279e-12,12,0,144.542,-131.622,-0,0,3.604
0.0533605,0.0794882,-0.86,-0.866188,0.0402642,0.002415,-0,3.31519e-12,11,0,143.702,-132.472,-0,0,3.608
0.0535217,0.0794947,-0.86,-0.866188,0.0403359,0.00215703,-0,2.21013e-12,9,0,142.852,-133.626,-0,0,3.612
0.0536832,0.0794985,-0.86,-0.866188,0.0404077,0.00175472,-0,1.47342e-12,6,0,141.985,-135.286,-0,0,3.616
0.0538449,0.0795006,-0.86,-0.866188,0.0404796,0.00134256,-0,9.8228e-13,4,0,141.106,-136.98,-0,0,3.62
0.054007,0.079502,-0.86,-0.866188,0.0405514,0.0010102,-0,6.54853e-13,1,0,140.222,-138.394,-0,0,3.624
0.0541694,0.0795027,-0.86,-0.866188,0.0406233,0.00073105,-0,4.36569e-13,0,0,139.333,-139.623,-0,0,3.628
0.054332,0.079503,-0.86,-0.866188,0.0406952,0.000516158,-0,2.91046e-13,-2,0,138.441,-140.627,-0,0,3.632
0.0544949,0.0795034,-0.86,-0.866188,0.0407671,0.000372896,-0,1.94031e-13,-3,0,137.547,-141.38,-0,0,3.636
0.0546581,0.0795041,-0.86,-0.866188,0.0408391,0.000306179,-0,1.29354e-13,-5,0,136.653,-141.865,-0,0,3.64
0.0548216,0.0795044,-0.86,-0.866188,0.040911,0.00023291,-0,8.62358e-14,-6,0,135.755,-142.373,-0,0,3.644
0.0549854,0.0795054,-0.86,-0.866188,0.040983,0.000241646,-0,5.74905e-14,-7,0,134.86,-142.595,-0,0,3.648
0.0551495,0.0795061,-0.86,-0.866188,0.0410551,0.000218679,-0,3.8327e-14,-8,0,133.962,-142.927,-0,0,3.652
0.0553139,0.0795079,-0.86,-0.866188,0.0411271,0.000289741,-0,2.55514e-14,-9,0,133.067,-142.931,-0,0,3.656
0.0554785,0.0795099,-0.86,-0.866188,0.0411992,0.000365906,-0,1.70342e-14,-10,0,132.173,-142.916,-0,0,3.66
0.0556435,0.0795127,-0.86,-0.866188,0.0412713,0.000474265,-0,1.13562e-14,-11,0,131.281,-142.79,-0,0,3.664
0.0558087,0.0795165,-0.86,-0.866188,0.0413434,0.000632877,-0,7.57077e-15,-12,0,130.393,-142.487,-0,0,3.668
0.0559742,0.0795206,-0.86,-0.866188,0.0414155,0.000767409,-0,5.04718e-15,-12,0,129.505,-142.268,-0,0,3.672
0.05614,0.0795262,-0.86,-0.866188,0.0414877,0.000972261,-0,3.36479e-15,-13,0,128.624,-141.804,-0,0,3.676
0.0563061,0.0795324,-0.86,-0.866188,0.0415599,0.00116641,-0,2.24319e-15,-13,0,127.745,-141.377,-0,0,3.68
0.0564725,0.0795393,-0.86,-0.866188,0.0416321,0.00135343,-0,1.49546e-15,-14,0,126.868,-140.975,-0,0,3.684
0.0566392,0.0795473,-0.86,-0.866188,0.0417043,0.00156447,-0,9.96974e-16,-14,0,125.995,-140.489,-0,0,3.688
0.0568061,0.0795555,-0.86,-0.866188,0.0417766,0.00173397,-0,6.64649e-16,-15,0,125.122,-140.149,-0,0,3.692
0.0569734,0.0795638,-0.86,-0.866188,0.0418489,0.00184696,-0,4.431e-16,-15,0,124.248,-140.007,-0,0,3.696
0.0571409,0.0795728,-0.86,-0.866188,0.0419212,0.00197987,-0,2.954e-16,-16,0,123.375,-139.795,-0,0,3.7
0.0573087,0.0795808,-0.86,-0.866188,0.0419935,0.0019821,-0,1.96933e-16,-17,0,122.496,-140.04,-0,0,3.704
0.0574769,0.0795901,-0.86,-0.866188,0.0420658,0.00209876,-0,1.31289e-16,-18,0,121.623,-139.885,-0,0,3.708
