peachynonah/Fire_monitor_/csv_datas/trial11/cdsl_data_t11_9.csv
joint1_pos_desired, joint1_pos, joint2_pos_desired, joint2_pos, joint1_vel_desired, joint1_vel_filtered, joint2_vel_desired, joint2_vel_filtered, target_torque_joint1, target_torque_joint2, nonlinear_term_torque_joint1, PD_term_torque_joint1, nonlinear_term_torque_joint2, PD_term_torque_joint2, current_time
1.4778,1.47636,0.2044,0.203795,0,0,0.0999999,0,-9,-182,0,-9,-96.3141,-85.6859,0.004
1.4778,1.47636,0.2048,0.203795,0,0,0.0999996,0,-9,-185,0,-9,-96.3141,-88.6859,0.008
1.4778,1.47636,0.2052,0.203795,0,0,0.0999991,0,-9,-188,0,-9,-96.3141,-91.6859,0.012
1.4778,1.47636,0.2056,0.203806,0,0,0.0999984,0.000892519,-9,-190,0,-9,-96.3139,-93.6861,0.016
1.4778,1.47636,0.206,0.20383,0,0,0.0999975,0.00261038,-9,-191,0,-9,-96.3135,-94.6865,0.02
1.4778,1.47636,0.2064,0.203868,0,0,0.0999964,0.00496484,-9,-191,0,-9,-96.3127,-94.6873,0.024
1.4778,1.47636,0.2068,0.203921,0,0,0.0999951,0.0077149,-9,-191,0,-9,-96.3116,-94.6884,0.028
1.4778,1.47636,0.2072,0.203987,0,2.87909e-05,0.0999937,0.0105848,-9,-191,3.31365e-07,-9,-96.3103,-94.6897,0.032
1.4778,1.47636,0.2076,0.204064,0,1.91939e-05,0.099992,0.0135057,-9,-191,2.81972e-07,-9,-96.3088,-94.6912,0.036
1.4778,1.47636,0.208,0.204156,0,1.2796e-05,0.0999901,0.0166334,-9,-191,2.31613e-07,-9,-96.307,-94.693,0.04
1.4778,1.47636,0.2084,0.20426,0,8.53064e-06,0.099988,0.0198126,-9,-190,1.8401e-07,-9,-96.3049,-93.6951,0.044
1.4778,1.47636,0.2088,0.204375,0,5.6871e-06,0.0999858,0.022767,-9,-190,1.41041e-07,-9,-96.3026,-93.6974,0.048
1.4778,1.47636,0.2092,0.204502,0,3.7914e-06,0.0999833,0.025773,-9,-189,1.06505e-07,-9,-96.3,-92.7,0.052
1.4778,1.47636,0.2096,0.204641,0,2.5276e-06,0.0999806,0.0287848,-9,-188,7.93513e-08,-9,-96.2973,-91.7027,0.056
1.4778,1.47636,0.21,0.204789,0,1.68507e-06,0.0999778,0.0315124,-9,-188,5.79531e-08,-9,-96.2943,-91.7057,0.06
1.4778,1.47636,0.210399,0.204946,0,1.12338e-06,0.0999747,0.0340505,-9,-187,4.17774e-08,-9,-96.2912,-90.7088,0.064
1.4778,1.47636,0.210799,0.205105,0,7.48918e-07,0.0999715,0.035973,-9,-187,2.94456e-08,-9,-96.288,-90.712,0.068
1.4778,1.47636,0.211199,0.205264,0,4.99279e-07,0.0999681,0.0372258,-9,-188,2.03289e-08,-9,-96.2848,-91.7152,0.072
1.4778,1.47636,0.211599,0.205418,0,3.32852e-07,0.0999644,0.0376292,-9,-189,1.37092e-08,-9,-96.2817,-92.7183,0.076
1.4778,1.47636,0.211999,0.205562,0,2.21902e-07,0.0999606,0.0371207,-9,-192,9.02192e-09,-9,-96.2788,-95.7212,0.08
1.4778,1.47636,0.212399,0.205698,0,1.47934e-07,0.0999566,0.0361196,-9,-194,5.85606e-09,-9,-96.2761,-97.7239,0.084
1.4778,1.47636,0.212799,0.205821,0,9.86229e-08,0.0999524,0.0343005,-9,-198,3.70951e-09,-9,-96.2736,-101.726,0.088
1.4778,1.47636,0.213198,0.205932,0,6.57486e-08,0.099948,0.0321377,-9,-201,2.31825e-09,-9,-96.2714,-104.729,0.092
1.4778,1.47636,0.213598,0.206032,0,4.38324e-08,0.0999434,0.0297169,-9,-205,1.42974e-09,-9,-96.2694,-108.731,0.096
1.4778,1.47636,0.213998,0.206116,0,2.92216e-08,0.0999387,0.0268363,-9,-210,8.61094e-10,-9,-96.2677,-113.732,0.1
1.4778,1.47636,0.214398,0.206184,0,1.94811e-08,0.0999337,0.0235626,-9,-215,5.04193e-10,-9,-96.2663,-118.734,0.104
1.4778,1.47636,0.214797,0.206238,0,1.29874e-08,0.0999285,0.0201998,-9,-220,2.88228e-10,-9,-96.2652,-123.735,0.108
1.4778,1.47636,0.215197,0.206277,0,8.65826e-09,0.0999232,0.0167199,-9,-225,1.59077e-10,-9,-96.2644,-128.736,0.112
1.4778,1.47636,0.215597,0.206303,0,5.77217e-09,0.0999176,0.0133347,-9,-231,8.45901e-11,-9,-96.2639,-134.736,0.116
1.4778,1.47636,0.215996,0.206318,0,3.84811e-09,0.0999119,0.010099,-9,-236,4.27123e-11,-9,-96.2636,-139.736,0.12
1.4778,1.47636,0.216396,0.206322,0,2.56541e-09,0.099906,0.00710697,-9,-241,2.0039e-11,-9,-96.2635,-144.736,0.124
1.4778,1.47636,0.216796,0.206322,0,1.71027e-09,0.0998999,0.0046804,-9,-246,8.79794e-12,-9,-96.2635,-149.736,0.128
1.4778,1.47636,0.217195,0.206322,0,1.14018e-09,0.0998936,0.00312027,-9,-250,3.91019e-12,-9,-96.2635,-153.736,0.132
1.4778,1.47636,0.217595,0.206322,0,7.60121e-10,0.0998871,0.00208018,-9,-253,1.73786e-12,-9,-96.2635,-156.736,0.136
1.4778,1.47636,0.217994,0.206322,0,5.06748e-10,0.0998804,0.00138678,-9,-257,7.72384e-13,-9,-96.2635,-160.736,0.14
1.4778,1.47636,0.218394,0.206322,0,3.37832e-10,0.0998735,0.000924523,-9,-260,3.43282e-13,-9,-96.2635,-163.736,0.144
1.4778,1.47636,0.218793,0.206322,0,2.25221e-10,0.0998665,0.000616349,-9,-263,1.5257e-13,-9,-96.2635,-166.736,0.148
1.4778,1.47636,0.219193,0.206322,0,1.50147e-10,0.0998593,0.000410899,-9,-266,6.78087e-14,-9,-96.2635,-169.736,0.152
1.4778,1.47636,0.219592,0.206322,0,1.00098e-10,0.0998518,0.000273933,-9,-269,3.01372e-14,-9,-96.2635,-172.736,0.156
1.4778,1.47636,0.219992,0.206322,0,6.67322e-11,0.0998442,0.000182622,-9,-271,1.33943e-14,-9,-96.2635,-174.736,0.16
1.4778,1.47636,0.220391,0.206322,0,4.44881e-11,0.0998364,0.000121748,-9,-274,5.95303e-15,-9,-96.2635,-177.736,0.164
1.4778,1.47636,0.22079,0.206322,0,2.96587e-11,0.0998284,8.11653e-05,-9,-277,2.64579e-15,-9,-96.2635,-180.736,0.168
1.4778,1.47636,0.22119,0.206322,0,1.97725e-11,0.0998203,5.41102e-05,-9,-280,1.17591e-15,-9,-96.2635,-183.736,0.172
1.4778,1.47636,0.221589,0.206322,0,1.31817e-11,0.0998119,3.60735e-05,-9,-282,5.22626e-16,-9,-96.2635,-185.736,0.176
1.4778,1.47636,0.221988,0.206322,0,8.78778e-12,0.0998034,2.4049e-05,-9,-285,2.32278e-16,-9,-96.2635,-188.736,0.18
1.4778,1.47636,0.222387,0.206322,0,5.85852e-12,0.0997947,1.60326e-05,-9,-288,1.03235e-16,-9,-96.2635,-191.736,0.184
1.4778,1.47636,0.222786,0.206322,0,3.90568e-12,0.0997858,1.06884e-05,-9,-291,4.58821e-17,-9,-96.2635,-194.736,0.188
1.4778,1.47636,0.223186,0.206322,0,2.60379e-12,0.0997767,7.12562e-06,-9,-293,2.0392e-17,-9,-96.2635,-196.736,0.192
1.4778,1.47636,0.223585,0.206322,0,1.73586e-12,0.0997674,4.75041e-06,-9,-296,9.06313e-18,-9,-96.2635,-199.736,0.196
1.4778,1.47636,0.223984,0.206322,0,1.15724e-12,0.0997579,3.16694e-06,-9,-299,4.02806e-18,-9,-96.2635,-202.736,0.2
1.4778,1.47636,0.224383,0.206322,0,7.71492e-13,0.0997483,2.1113e-06,-9,-302,1.79025e-18,-9,-96.2635,-205.736,0.204
1.4778,1.47636,0.224782,0.206322,0,5.14328e-13,0.0997385,1.40753e-06,-9,-304,7.95665e-19,-9,-96.2635,-207.736,0.208
1.4778,1.47636,0.225181,0.206322,0,3.42885e-13,0.0997285,9.38353e-07,-9,-307,3.53629e-19,-9,-96.2635,-210.736,0.212
1.4778,1.47636,0.22558,0.206322,0,2.2859e-13,0.0997183,6.25569e-07,-9,-310,1.57168e-19,-9,-96.2635,-213.736,0.216
1.4778,1.47636,0.225978,0.206322,0,1.52393e-13,0.0997079,4.17046e-07,-9,-312,6.98527e-20,-9,-96.2635,-215.736,0.22
1.4778,1.47636,0.226377,0.206322,0,1.01596e-13,0.0996974,2.9069e-05,-9,-315,3.24592e-18,-9,-96.2635,-218.736,0.224
1.4778,1.47636,0.226776,0.206322,0,6.77304e-14,0.0996866,1.93793e-05,-9,-318,1.44263e-18,-9,-96.2635,-221.736,0.228
1.4778,1.47636,0.227175,0.206322,0,4.51536e-14,0.0996757,1.29195e-05,-9,-321,6.41169e-19,-9,-96.2635,-224.736,0.232
1.4778,1.47636,0.227573,0.206322,0,3.01024e-14,0.0996646,8.61302e-06,-9,-323,2.84964e-19,-9,-96.2635,-226.736,0.236
1.4778,1.47636,0.227972,0.206322,0,2.00683e-14,0.0996533,5.74202e-06,-9,-326,1.26651e-19,-9,-96.2635,-229.736,0.24
1.4778,1.47636,0.228371,0.206322,0,1.33789e-14,0.0996419,3.26189e-05,-9,-329,4.79648e-19,-9,-96.2635,-232.736,0.244
1.4778,1.47636,0.228769,0.206322,0,8.91924e-15,0.0996303,2.1746e-05,-9,-331,2.13177e-19,-9,-96.2635,-234.736,0.248
1.4778,1.47636,0.229168,0.206322,0,5.94616e-15,0.0996184,1.44973e-05,-9,-334,9.47453e-20,-9,-96.2635,-237.736,0.252
1.4778,1.47636,0.229566,0.206322,0,3.9641e-15,0.0996064,9.66487e-06,-9,-337,4.2109e-20,-9,-96.2635,-240.736,0.256
1.4778,1.47636,0.229965,0.206323,0,2.64274e-15,0.0995943,3.52342e-05,-9,-340,1.02342e-19,-9,-96.2635,-243.736,0.26
1.4778,1.47636,0.230363,0.206323,0,1.76182e-15,0.0995819,5.22804e-05,-9,-342,1.01236e-19,-9,-96.2635,-245.736,0.264
1.4778,1.47636,0.230761,0.206323,0,1.17455e-15,0.0995694,3.48536e-05,-9,-345,4.49939e-20,-9,-96.2635,-248.736,0.268
1.4778,1.47636,0.231159,0.206323,0,7.83033e-16,0.0995567,5.20266e-05,-9,-348,4.47756e-20,-9,-96.2635,-251.736,0.272
1.4778,1.47636,0.231558,0.206324,0,5.22022e-16,0.0995438,6.34754e-05,-9,-350,3.64192e-20,-9,-96.2635,-253.736,0.276
1.4778,1.47636,0.231956,0.206325,0,3.48015e-16,0.0995308,9.98988e-05,-9,-353,3.82116e-20,-9,-96.2635,-256.737,0.28
1.4778,1.47636,0.232354,0.206325,0,2.3201e-16,0.0995175,0.000124181,-9,-356,3.16666e-20,-9,-96.2635,-259.737,0.284
1.4778,1.47636,0.232752,0.206326,0,1.54673e-16,0.0995041,0.00016916,-9,-358,2.87577e-20,-9,-96.2635,-261.737,0.288
1.4778,1.47636,0.23315,0.206327,0,1.03115e-16,0.0994905,0.000199146,-9,-361,2.25704e-20,-9,-96.2634,-264.737,0.292
1.4778,1.47636,0.233548,0.206328,0,6.87436e-17,0.0994768,0.000219137,-9,-364,1.65575e-20,-9,-96.2634,-267.737,0.296
1.4778,1.47636,0.233946,0.20633,0,4.58291e-17,0.0994628,0.000261255,-9,-367,1.31599e-20,-9,-96.2634,-270.737,0.3
1.4778,1.47636,0.234344,0.206331,0,3.05527e-17,0.0994487,0.000289334,-9,-369,9.71628e-21,-9,-96.2634,-272.737,0.304
1.4778,1.47636,0.234741,0.206333,0,2.03685e-17,0.0994344,0.000336844,-9,-372,7.54122e-21,-9,-96.2633,-275.737,0.308
1.4778,1.47636,0.235139,0.206334,0,1.3579e-17,0.0994199,0.000339726,-9,-375,5.07053e-21,-9,-96.2633,-278.737,0.312
1.4778,1.47636,0.235537,0.206336,0,9.05266e-18,0.0994053,0.000370439,-9,-377,3.68598e-21,-9,-96.2633,-280.737,0.316
1.4778,1.47636,0.235934,0.206339,0,6.03511e-18,0.0993905,0.000477287,-9,-380,3.16614e-21,-9,-96.2632,-283.737,0.32
1.4778,1.47636,0.236332,0.206342,0,4.0234e-18,0.0993755,0.000577309,-9,-382,2.55314e-21,-9,-96.2631,-285.737,0.324
1.4778,1.47636,0.236729,0.206346,0,2.68227e-18,0.0993603,0.000759155,-9,-385,2.23828e-21,-9,-96.2631,-288.737,0.328
1.4778,1.47636,0.237127,0.206353,0,1.78818e-18,0.099345,0.00102434,-9,-387,2.01349e-21,-9,-96.2629,-290.737,0.332
1.4778,1.47636,0.237524,0.20636,0,1.19212e-18,0.0993295,0.0012875,-9,-390,1.68724e-21,-9,-96.2628,-293.737,0.336
1.4778,1.47636,0.237921,0.206367,0,7.94747e-19,0.0993138,0.00149174,-9,-392,1.3033e-21,-9,-96.2626,-295.737,0.34
1.4778,1.47636,0.238319,0.206376,0,5.29831e-19,0.099298,0.00168547,-9,-395,9.81745e-22,-9,-96.2625,-298.738,0.344
1.4778,1.47636,0.238716,0.206383,0,3.53221e-19,0.0992819,0.00175705,-9,-397,6.82314e-22,-9,-96.2623,-300.738,0.348
1.4778,1.47636,0.239113,0.206392,0,2.3548e-19,0.0992657,0.00191993,-9,-400,4.97064e-22,-9,-96.2621,-303.738,0.352
1.4778,1.47636,0.23951,0.206401,0,1.56987e-19,0.0992494,0.00202852,-9,-403,3.50133e-22,-9,-96.2619,-306.738,0.356
1.4778,1.47636,0.239907,0.206411,0,1.04658e-19,0.0992328,0.00218728,-9,-405,2.51702e-22,-9,-96.2617,-308.738,0.36
1.4778,1.47636,0.240304,0.206423,0,6.9772e-20,0.0992161,0.00243708,-9,-407,1.86975e-22,-9,-96.2615,-310.738,0.364
1.4778,1.47636,0.240701,0.206437,0,4.65147e-20,0.0991993,0.00277636,-9,-410,1.42012e-22,-9,-96.2612,-313.739,0.368
1.4778,1.47636,0.241097,0.206451,0,3.10098e-20,0.0991822,0.00303133,-9,-412,1.03376e-22,-9,-96.2609,-315.739,0.372
1.4778,1.47636,0.241494,0.206467,0,2.06732e-20,0.099165,0.00331648,-9,-415,7.54057e-23,-9,-96.2606,-318.739,0.376
1.4778,1.47636,0.241891,0.206482,0,1.37821e-20,0.0991476,0.00353537,-9,-417,5.35923e-23,-9,-96.2603,-320.74,0.38
1.4778,1.47636,0.242287,0.206499,0,9.18808e-21,0.09913,0.00376767,-9,-419,3.80787e-23,-9,-96.26,-322.74,0.384
1.4778,1.47636,0.242684,0.206517,0,6.12539e-21,0.0991123,0.00400891,-9,-422,2.70134e-23,-9,-96.2596,-325.74,0.388
1.4778,1.47636,0.24308,0.206536,0,4.08359e-21,0.0990944,0.00422731,-9,-424,1.89917e-23,-9,-96.2592,-327.741,0.392
1.4778,1.47636,0.243476,0.206555,0,2.72239e-21,0.0990764,0.00437292,-9,-427,1.30984e-23,-9,-96.2589,-330.741,0.396
1.4778,1.47636,0.243873,0.206572,0,1.81493e-21,0.0990581,0.00438362,-9,-429,8.7543e-24,-9,-96.2585,-332.742,0.4
1.4778,1.47636,0.244269,0.206589,0,1.20995e-21,0.0990397,0.00430438,-9,-432,5.73114e-24,-9,-96.2582,-335.742,0.404
1.4778,1.47636,0.244665,0.206605,0,8.06635e-22,0.0990212,0.00422276,-9,-434,3.74859e-24,-9,-96.2578,-337.742,0.408
1.4778,1.47636,0.245061,0.206621,0,5.37757e-22,0.0990024,0.00413955,-9,-437,2.45e-24,-9,-96.2575,-340.742,0.412
1.4778,1.47636,0.245457,0.206636,0,3.58505e-22,0.0989835,0.00399771,-9,-440,1.57747e-24,-9,-96.2572,-343.743,0.416
1.4778,1.47636,0.245853,0.206649,0,2.39003e-22,0.0989645,0.00373041,-9,-443,9.81386e-25,-9,-96.257,-346.743,0.42
1.4778,1.47636,0.246249,0.206659,0,1.59335e-22,0.0989452,0.00335066,-9,-446,5.87684e-25,-9,-96.2567,-349.743,0.424
1.4778,1.47636,0.246644,0.206667,0,1.06224e-22,0.0989259,0.00286718,-9,-449,3.35268e-25,-9,-96.2566,-352.743,0.428
1.4778,1.47636,0.24704,0.206673,0,7.08157e-23,0.0989063,0.00248727,-9,-452,1.93902e-25,-9,-96.2565,-355.744,0.432
1.4778,1.47636,0.247436,0.206678,0,4.72105e-23,0.0988866,0.00200367,-9,-455,1.04136e-25,-9,-96.2564,-358.744,0.436
1.4778,1.47636,0.247831,0.206681,0,3.14737e-23,0.0988667,0.00165248,-9,-458,5.72571e-26,-9,-96.2563,-361.744,0.44
1.4778,1.47636,0.248227,0.206684,0,2.09824e-23,0.0988466,0.00130319,-9,-461,3.01033e-26,-9,-96.2562,-364.744,0.444
1.4778,1.47636,0.248622,0.206686,0,1.39883e-23,0.0988264,0.00101275,-9,-463,1.55962e-26,-9,-96.2562,-366.744,0.448
1.4778,1.47636,0.249017,0.206687,0,9.32553e-24,0.098806,0.00081912,-9,-466,8.40965e-27,-9,-96.2562,-369.744,0.452
1.4778,1.47636,0.249412,0.206688,0,6.21702e-24,0.0987855,0.000632453,-9,-469,4.32882e-27,-9,-96.2562,-372.744,0.456
1.4778,1.47636,0.249808,0.20669,0,4.14468e-24,0.0987647,0.000536799,-9,-472,2.44943e-27,-9,-96.2561,-375.744,0.46
1.4778,1.47636,0.250203,0.206691,0,2.76312e-24,0.0987439,0.000501821,-9,-475,1.52656e-27,-9,-96.2561,-378.744,0.464
1.4778,1.47636,0.250597,0.206694,0,1.84208e-24,0.0987228,0.000507293,-9,-477,1.02881e-27,-9,-96.256,-380.744,0.468
1.4778,1.47636,0.250992,0.206696,0,1.22805e-24,0.0987016,0.000568522,-9,-480,7.68669e-28,-9,-96.256,-383.744,0.472
1.4778,1.47636,0.251387,0.2067,0,8.18702e-25,0.0986803,0.000695715,-9,-482,6.27104e-28,-9,-96.2559,-385.744,0.476
1.4778,1.47636,0.251782,0.206705,0,5.45801e-25,0.0986587,0.000838092,-9,-485,5.03637e-28,-9,-96.2558,-388.744,0.48
1.4778,1.47636,0.252176,0.20671,0,3.63868e-25,0.0986371,0.000990592,-9,-488,3.96862e-28,-9,-96.2557,-391.744,0.484
1.4778,1.47636,0.252571,0.206716,0,2.42578e-25,0.0986152,0.00117863,-9,-490,3.14807e-28,-9,-96.2556,-393.744,0.488
1.4778,1.47636,0.252965,0.206723,0,1.61719e-25,0.0985932,0.00133278,-9,-493,2.37327e-28,-9,-96.2555,-396.745,0.492
1.4778,1.47636,0.25336,0.206729,0,1.07813e-25,0.098571,0.00143555,-9,-495,1.70423e-28,-9,-96.2553,-398.745,0.496
1.4778,1.47636,0.253754,0.206736,0,7.18751e-26,0.0985487,0.00153285,-9,-498,1.2132e-28,-9,-96.2552,-401.745,0.5
1.4778,1.47636,0.254148,0.206742,0,4.79167e-26,0.0985262,0.00154014,-9,-500,8.12666e-29,-9,-96.2551,-403.745,0.504
1.4778,1.47636,0.254542,0.206747,0,3.19445e-26,0.0985036,0.00145862,-9,-503,5.13115e-29,-9,-96.255,-406.745,0.508
1.4778,1.47636,0.254936,0.20675,0,2.12963e-26,0.0984808,0.00120274,-9,-506,2.82071e-29,-9,-96.2549,-409.745,0.512
1.4778,1.47636,0.25533,0.206752,0,1.41975e-26,0.0984578,0.000916992,-9,-509,1.43372e-29,-9,-96.2549,-412.745,0.516
1.4778,1.47636,0.255724,0.206752,0,9.46503e-27,0.0984347,0.000640119,-9,-512,6.67218e-30,-9,-96.2549,-415.745,0.52
1.4778,1.47636,0.256117,0.206752,0,6.31002e-27,0.0984114,0.000426746,-9,-515,2.96541e-30,-9,-96.2549,-418.745,0.524
1.4778,1.47636,0.256511,0.206752,0,4.20668e-27,0.0983879,0.000313288,-9,-517,1.45134e-30,-9,-96.2549,-420.745,0.528
1.4778,1.47636,0.256904,0.206753,0,2.80445e-27,0.0983643,0.00023765,-9,-520,7.33959e-31,-9,-96.2549,-423.745,0.532
1.4778,1.47636,0.257298,0.206753,0,1.86964e-27,0.0983406,0.000216015,-9,-523,4.44763e-31,-9,-96.2548,-426.745,0.536
1.4778,1.47636,0.257691,0.206754,0,1.24642e-27,0.0983167,0.000172801,-9,-525,2.37192e-31,-9,-96.2548,-428.745,0.54
1.4778,1.47636,0.258084,0.206755,0,8.30949e-28,0.0982926,0.000230364,-9,-528,2.10805e-31,-9,-96.2548,-431.745,0.544
1.4778,1.47636,0.258478,0.206756,0,5.53966e-28,0.0982684,0.00026874,-9,-531,1.63949e-31,-9,-96.2548,-434.745,0.548
1.4778,1.47636,0.258871,0.206758,0,3.69311e-28,0.098244,0.000351905,-9,-533,1.43125e-31,-9,-96.2547,-436.745,0.552
1.4778,1.47636,0.259264,0.206761,0,2.46207e-28,0.0982194,0.000464931,-9,-536,1.26064e-31,-9,-96.2547,-439.745,0.556
1.4778,1.47636,0.259656,0.206765,0,1.64138e-28,0.0981947,0.000655445,-9,-538,1.18483e-31,-9,-96.2546,-441.745,0.56
1.4778,1.47636,0.260049,0.206771,0,1.09425e-28,0.0981699,0.000926409,-9,-541,1.11646e-31,-9,-96.2545,-444.746,0.564
1.4778,1.47636,0.260442,0.206778,0,7.29503e-29,0.0981449,0.00119342,-9,-543,9.58868e-32,-9,-96.2543,-446.746,0.568
1.4778,1.47636,0.260834,0.206787,0,4.86335e-29,0.0981197,0.00157297,-9,-545,8.42581e-32,-9,-96.2542,-448.746,0.572
1.4778,1.47636,0.261227,0.2068,0,3.24223e-29,0.0980944,0.00205633,-9,-548,7.34373e-32,-9,-96.2539,-451.746,0.576
1.4778,1.47636,0.261619,0.206815,0,2.16149e-29,0.0980689,0.00263769,-9,-550,6.28038e-32,-9,-96.2536,-453.746,0.58
1.4778,1.47636,0.262011,0.206834,0,1.44099e-29,0.0980433,0.00337075,-9,-552,5.35101e-32,-9,-96.2532,-455.747,0.584
1.4778,1.47636,0.262403,0.206857,0,9.60662e-30,0.0980175,0.00417616,-9,-553,4.42019e-32,-9,-96.2527,-456.747,0.588
1.4778,1.47636,0.262795,0.206884,0,6.40441e-30,0.0979916,0.00497222,-9,-555,3.50893e-32,-9,-96.2522,-458.748,0.592
1.4778,1.47636,0.263187,0.206913,0,4.26961e-30,0.0979655,0.00576204,-9,-557,2.71124e-32,-9,-96.2516,-460.748,0.596
1.4778,1.47636,0.263579,0.206945,0,2.84641e-30,0.0979392,0.00654771,-9,-559,2.05425e-32,-9,-96.251,-462.749,0.6
1.4778,1.47636,0.263971,0.206981,0,1.8976e-30,0.0979128,0.0073306,-9,-561,1.5335e-32,-9,-96.2502,-464.75,0.604
1.4778,1.47636,0.264362,0.207017,0,1.26507e-30,0.0978863,0.00785253,-9,-563,1.0953e-32,-9,-96.2495,-466.75,0.608
1.4778,1.47636,0.264754,0.207054,0,8.4338e-31,0.0978596,0.00837323,-9,-565,7.78752e-33,-9,-96.2488,-468.751,0.612
1.4778,1.47636,0.265145,0.207093,0,5.62253e-31,0.0978328,0.00883553,-9,-567,5.47929e-33,-9,-96.248,-470.752,0.616
1.4778,1.47636,0.265537,0.207134,0,3.74835e-31,0.0978058,0.00931647,-9,-569,3.85242e-33,-9,-96.2471,-472.753,0.62
1.4778,1.47636,0.265928,0.207177,0,2.4989e-31,0.0977786,0.00975227,-9,-571,2.68893e-33,-9,-96.2463,-474.754,0.624
1.4778,1.47636,0.266319,0.207219,0,1.66593e-31,0.0977513,0.010014,-9,-573,1.84109e-33,-9,-96.2454,-476.755,0.628
1.4778,1.47636,0.26671,0.207261,0,1.11062e-31,0.0977238,0.0101885,-9,-575,1.24902e-33,-9,-96.2446,-478.755,0.632
1.4778,1.47636,0.267101,0.207301,0,7.40415e-32,0.0976962,0.0101033,-9,-577,8.25863e-34,-9,-96.2438,-480.756,0.636
1.4778,1.47636,0.267491,0.20734,0,4.9361e-32,0.0976685,0.0100177,-9,-580,5.46009e-34,-9,-96.243,-483.757,0.64
1.4778,1.47636,0.267882,0.207377,0,3.29074e-32,0.0976406,0.00970151,-9,-583,3.52575e-34,-9,-96.2422,-486.758,0.644
1.4778,1.47636,0.268272,0.20741,0,2.19382e-32,0.0976125,0.0092316,-9,-585,2.23699e-34,-9,-96.2416,-488.758,0.648
1.4778,1.47636,0.268663,0.207441,0,1.46255e-32,0.0975843,0.00880317,-9,-588,1.42232e-34,-9,-96.2409,-491.759,0.652
1.4778,1.47636,0.269053,0.207469,0,9.75033e-33,0.097556,0.00820084,-9,-591,8.83447e-35,-9,-96.2404,-494.76,0.656
1.4778,1.47636,0.269443,0.207492,0,6.50022e-33,0.0975275,0.00733864,-9,-594,5.27097e-35,-9,-96.2399,-497.76,0.66
1.4778,1.47636,0.269833,0.207509,0,4.33348e-33,0.0974988,0.00627439,-9,-598,3.00461e-35,-9,-96.2396,-501.76,0.664
1.4778,1.47636,0.270223,0.20752,0,2.88899e-33,0.09747,0.00516182,-9,-601,1.64798e-35,-9,-96.2393,-504.761,0.668
1.4778,1.47636,0.270613,0.207526,0,1.92599e-33,0.0974411,0.00395945,-9,-605,8.4276e-36,-9,-96.2392,-508.761,0.672
1.4778,1.47636,0.271003,0.207529,0,1.28399e-33,0.097412,0.00284117,-9,-608,4.03162e-36,-9,-96.2392,-511.761,0.676
1.4778,1.47636,0.271392,0.207529,0,8.55996e-34,0.0973828,0.00189411,-9,-612,1.79183e-36,-9,-96.2392,-515.761,0.68
1.4778,1.47636,0.271782,0.207529,0,5.70664e-34,0.0973534,0.00126274,-9,-615,7.9637e-37,-9,-96.2392,-518.761,0.684
1.4778,1.47636,0.272171,0.207529,0,3.80443e-34,0.0973238,0.000841828,-9,-618,3.53942e-37,-9,-96.2392,-521.761,0.688
1.4778,1.47636,0.27256,0.207529,0,2.53628e-34,0.0972942,0.000561219,-9,-621,1.57308e-37,-9,-96.2392,-524.761,0.692
1.4778,1.47636,0.27295,0.207529,0,1.69086e-34,0.0972643,0.000402937,-9,-624,7.52946e-38,-9,-96.2391,-527.761,0.696
1.4778,1.47636,0.273339,0.207529,0,1.12724e-34,0.0972344,0.000268624,-9,-626,3.34643e-38,-9,-96.2391,-529.761,0.7
1.4778,1.47636,0.273727,0.20753,0,7.51492e-35,0.0972043,0.000207874,-9,-629,1.72641e-38,-9,-96.2391,-532.761,0.704
1.4778,1.47636,0.274116,0.20753,0,5.00994e-35,0.097174,0.000167374,-9,-632,9.26705e-39,-9,-96.2391,-535.761,0.708
1.4778,1.47636,0.274505,0.20753,0,3.33996e-35,0.0971436,0.000140373,-9,-634,5.18142e-39,-9,-96.2391,-537.761,0.712
1.4778,1.47636,0.274893,0.207531,0,2.22664e-35,0.097113,0.000122373,-9,-637,3.01134e-39,-9,-96.2391,-540.761,0.716
1.4778,1.47636,0.275282,0.207531,0,1.48443e-35,0.0970824,0.000110373,-9,-640,1.8107e-39,-9,-96.2391,-543.761,0.72
1.4778,1.47636,0.27567,0.207531,0,9.89618e-36,0.0970515,0.000102373,-9,-642,1.11964e-39,-9,-96.2391,-545.761,0.724
1.4778,1.47636,0.276058,0.207532,0,6.59746e-36,0.0970205,9.70395e-05,-9,-645,7.07539e-40,-9,-96.2391,-548.761,0.728
1.4778,1.47636,0.276446,0.207532,0,4.3983e-36,0.0969894,0.000122275,-9,-648,5.94359e-40,-9,-96.2391,-551.761,0.732
1.4778,1.47636,0.276834,0.207533,0,2.9322e-36,0.0969581,0.000110308,-9,-650,3.57459e-40,-9,-96.2391,-553.761,0.736
1.4778,1.47636,0.277222,0.207533,0,1.9548e-36,0.0969267,0.00013112,-9,-653,2.8327e-40,-9,-96.2391,-556.761,0.74
1.4778,1.47636,0.277609,0.207535,0,1.3032e-36,0.0968952,0.000202577,-9,-655,2.91765e-40,-9,-96.239,-558.761,0.744
1.4778,1.47636,0.277997,0.207537,0,8.68801e-37,0.0968635,0.000279006,-9,-658,2.67898e-40,-9,-96.239,-561.761,0.748
1.4778,1.47636,0.278384,0.207539,0,5.79201e-37,0.0968317,0.00035875,-9,-660,2.29646e-40,-9,-96.239,-563.761,0.752
1.4778,1.47636,0.278772,0.207541,0,3.86134e-37,0.0967997,0.000440703,-9,-663,1.88073e-40,-9,-96.2389,-566.761,0.756
1.4778,1.47636,0.279159,0.207544,0,2.57422e-37,0.0967676,0.000524129,-9,-666,1.49119e-40,-9,-96.2389,-569.761,0.76
1.4778,1.47636,0.279546,0.207546,0,1.71615e-37,0.0967353,0.000522165,-9,-668,9.90413e-41,-9,-96.2388,-571.761,0.764
1.4778,1.47636,0.279933,0.207548,0,1.1441e-37,0.0967029,0.000520856,-9,-671,6.58626e-41,-9,-96.2388,-574.761,0.768
1.4778,1.47636,0.280319,0.207549,0,7.62733e-38,0.0966704,0.000462401,-9,-673,3.89808e-41,-9,-96.2387,-576.761,0.772
1.4778,1.47636,0.280706,0.20755,0,5.08489e-38,0.0966377,0.000337058,-9,-676,1.89429e-41,-9,-96.2387,-579.761,0.776
1.4778,1.47636,0.281092,0.20755,0,3.38993e-38,0.0966049,0.000282287,-9,-679,1.05765e-41,-9,-96.2387,-582.761,0.78
1.4778,1.47636,0.281479,0.207551,0,2.25995e-38,0.0965719,0.000216982,-9,-681,5.41984e-42,-9,-96.2387,-584.761,0.784
1.4778,1.47636,0.281865,0.207551,0,1.50663e-38,0.0965388,0.000202237,-9,-684,3.36769e-42,-9,-96.2387,-587.761,0.788
1.4778,1.47636,0.282251,0.207552,0,1.00442e-38,0.0965056,0.000221197,-9,-687,2.45563e-42,-9,-96.2387,-590.761,0.792
1.4778,1.47636,0.282637,0.207554,0,6.69615e-39,0.0964722,0.000291419,-9,-689,2.15682e-42,-9,-96.2386,-592.761,0.796
1.4778,1.47636,0.283023,0.207557,0,4.4641e-39,0.0964387,0.000424607,-9,-692,2.09506e-42,-9,-96.2386,-595.761,0.8
1.4778,1.47636,0.283409,0.20756,0,2.97607e-39,0.096405,0.000570981,-9,-694,1.87822e-42,-9,-96.2385,-597.761,0.804
1.4778,1.47636,0.283794,0.207565,0,1.98404e-39,0.0963712,0.000754936,-9,-697,1.65559e-42,-9,-96.2384,-600.762,0.808
1.4778,1.47636,0.28418,0.20757,0,1.3227e-39,0.0963373,0.000906363,-9,-699,1.32514e-42,-9,-96.2383,-602.762,0.812
1.4778,1.47636,0.284565,0.207576,0,8.81797e-40,0.0963032,0.00112248,-9,-701,1.09411e-42,-9,-96.2382,-604.762,0.816
1.4778,1.47636,0.28495,0.207582,0,5.87865e-40,0.096269,0.00129535,-9,-704,8.41761e-43,-9,-96.2381,-607.762,0.82
1.4778,1.47636,0.285335,0.207589,0,3.9191e-40,0.0962347,0.00141059,-9,-706,6.11119e-43,-9,-96.2379,-609.762,0.824
1.4778,1.47636,0.28572,0.207594,0,2.61273e-40,0.0962002,0.00137226,-9,-709,3.96351e-43,-9,-96.2378,-612.762,0.828
1.4778,1.47636,0.286105,0.207601,0,1.74182e-40,0.0961656,0.00151945,-9,-711,2.92585e-43,-9,-96.2377,-614.762,0.832
1.4778,1.47636,0.286489,0.207611,0,1.16121e-40,0.0961308,0.00179032,-9,-714,2.29839e-43,-9,-96.2375,-617.763,0.836
1.4778,1.47636,0.286874,0.207623,0,7.74143e-41,0.096096,0.00220123,-9,-716,1.88405e-43,-9,-96.2372,-619.763,0.84
1.4778,1.47636,0.287258,0.207637,0,5.16095e-41,0.0960609,0.00267671,-9,-718,1.52744e-43,-9,-96.237,-621.763,0.844
1.4778,1.47636,0.287642,0.207655,0,3.44064e-41,0.0960258,0.0032816,-9,-720,1.24851e-43,-9,-96.2366,-623.763,0.848
1.4778,1.47636,0.288026,0.207676,0,2.29376e-41,0.0959905,0.00391519,-9,-722,9.93139e-44,-9,-96.2362,-625.764,0.852
1.4778,1.47636,0.28841,0.207701,0,1.52917e-41,0.0959551,0.00465428,-9,-724,7.87167e-44,-9,-96.2357,-627.764,0.856
1.4778,1.47636,0.288794,0.207728,0,1.01945e-41,0.0959195,0.00537734,-9,-726,6.06379e-44,-9,-96.2351,-629.765,0.86
1.4778,1.47636,0.289177,0.207758,0,6.79632e-42,0.0958838,0.00606091,-9,-727,4.55703e-44,-9,-96.2345,-630.765,0.864
1.4778,1.47636,0.289561,0.20779,0,4.53088e-42,0.095848,0.00674695,-9,-729,3.3824e-44,-9,-96.2339,-632.766,0.868
1.4778,1.47636,0.289944,0.207824,0,3.02059e-42,0.095812,0.00734827,-9,-731,2.45628e-44,-9,-96.2332,-634.767,0.872
1.4778,1.47636,0.290327,0.207862,0,2.01372e-42,0.0957759,0.00803706,-9,-733,1.79132e-44,-9,-96.2324,-636.768,0.876
1.4778,1.47636,0.29071,0.207901,0,1.34248e-42,0.0957397,0.00858262,-9,-735,1.2755e-44,-9,-96.2316,-638.768,0.88
1.4778,1.47636,0.291093,0.207944,0,8.94988e-43,0.0957034,0.0093494,-9,-736,9.26486e-45,-9,-96.2307,-639.769,0.884
1.4778,1.47636,0.291476,0.207989,0,5.96659e-43,0.0956669,0.0100045,-9,-738,6.61074e-45,-9,-96.2298,-641.77,0.888
1.4778,1.47636,0.291859,0.208038,0,3.97773e-43,0.0956302,0.0107292,-9,-740,4.72743e-45,-9,-96.2288,-643.771,0.892
1.4778,1.47636,0.292241,0.20809,0,2.65182e-43,0.0955935,0.0115002,-9,-741,3.3789e-45,-9,-96.2278,-644.772,0.896
1.4778,1.47636,0.292623,0.208145,0,1.76788e-43,0.0955566,0.0122158,-9,-743,2.39335e-45,-9,-96.2267,-646.773,0.9
1.4778,1.47636,0.293006,0.208203,0,1.17859e-43,0.0955196,0.0129519,-9,-745,1.69216e-45,-9,-96.2255,-648.775,0.904
1.4778,1.47636,0.293388,0.208263,0,7.85724e-44,0.0954824,0.0136443,-9,-746,1.18873e-45,-9,-96.2243,-649.776,0.908
1.4778,1.47636,0.293769,0.208327,0,5.23816e-44,0.0954452,0.0144225,-9,-748,8.3793e-46,-9,-96.223,-651.777,0.912
1.4778,1.47636,0.294151,0.208396,0,3.49211e-44,0.0954078,0.0153732,-9,-749,5.95628e-46,-9,-96.2216,-652.778,0.916
1.4778,1.47636,0.294533,0.20847,0,2.32807e-44,0.0953702,0.0164676,-9,-750,4.25498e-46,-9,-96.22,-653.78,0.92
1.4778,1.47636,0.294914,0.208548,0,1.55205e-44,0.0953325,0.0174564,-9,-751,3.00803e-46,-9,-96.2184,-654.782,0.924
1.4778,1.47636,0.295295,0.20863,0,1.0347e-44,0.0952948,0.0184898,-9,-753,2.12486e-46,-9,-96.2168,-656.783,0.928
1.4778,1.47636,0.295676,0.208717,0,6.89799e-45,0.0952568,0.0195531,-9,-754,1.49862e-46,-9,-96.215,-657.785,0.932
1.4778,1.47636,0.296057,0.208809,0,4.59866e-45,0.0952188,0.020665,-9,-755,1.05633e-46,-9,-96.2131,-658.787,0.936
1.4778,1.47636,0.296438,0.208904,0,3.06577e-45,0.0951806,0.0216942,-9,-756,7.39609e-47,-9,-96.2112,-659.789,0.94
1.4778,1.47636,0.296819,0.209001,0,2.04385e-45,0.0951423,0.022553,-9,-757,5.12817e-47,-9,-96.2092,-660.791,0.944
1.4778,1.47636,0.297199,0.2091,0,1.36257e-45,0.0951038,0.0232983,-9,-758,3.53334e-47,-9,-96.2072,-661.793,0.948
1.4778,1.47636,0.29758,0.209201,0,9.08377e-46,0.0950653,0.0239392,-9,-760,2.42145e-47,-9,-96.2051,-663.795,0.952
1.4778,1.47636,0.29796,0.209304,0,6.05585e-46,0.0950266,0.0245391,-9,-761,1.65552e-47,-9,-96.203,-664.797,0.956
1.4778,1.47636,0.29834,0.20941,0,4.03723e-46,0.0949877,0.0251982,-9,-762,1.13387e-47,-9,-96.2009,-665.799,0.96
1.4778,1.47636,0.29872,0.209519,0,2.69149e-46,0.0949488,0.0259256,-9,-764,7.78112e-48,-9,-96.1986,-667.801,0.964
1.4778,1.47636,0.299099,0.209629,0,1.79432e-46,0.0949097,0.0264392,-9,-765,5.2928e-48,-9,-96.1964,-668.804,0.968
1.4778,1.47636,0.299479,0.209734,0,1.19622e-46,0.0948705,0.0263498,-9,-767,3.51825e-48,-9,-96.1942,-670.806,0.972
1.4778,1.47636,0.299858,0.209839,0,7.97478e-47,0.0948312,0.026319,-9,-769,2.34386e-48,-9,-96.1921,-672.808,0.976
1.4778,1.47636,0.300238,0.209943,0,5.31652e-47,0.0947917,0.026212,-9,-771,1.55695e-48,-9,-96.19,-674.81,0.98
1.4778,1.47636,0.300617,0.210045,0,3.54434e-47,0.0947522,0.0260256,-9,-773,1.03106e-48,-9,-96.1879,-676.812,0.984
1.4778,1.47636,0.300996,0.210146,0,2.3629e-47,0.0947125,0.0256998,-9,-775,6.79071e-49,-9,-96.1858,-678.814,0.988
1.4778,1.47636,0.301374,0.210244,0,1.57526e-47,0.0946726,0.0253098,-9,-777,4.46041e-49,-9,-96.1838,-680.816,0.992
1.4778,1.47636,0.301753,0.21034,0,1.05018e-47,0.0946327,0.0249059,-9,-779,2.92741e-49,-9,-96.1818,-682.818,0.996
1.4778,1.47636,0.302132,0.210432,0,7.00117e-48,0.0945926,0.0242623,-9,-782,1.90196e-49,-9,-96.1799,-685.82,1
1.4778,1.47636,0.30251,0.210522,0,4.66745e-48,0.0945524,0.0236893,-9,-784,1.23852e-49,-9,-96.1781,-687.822,1.004
1.4778,1.47636,0.302888,0.21061,0,3.11163e-48,0.0945121,0.0231346,-9,-787,8.06664e-50,-9,-96.1763,-690.824,1.008
1.4778,1.47636,0.303266,0.210695,0,2.07442e-48,0.0944716,0.0225056,-9,-789,5.23354e-50,-9,-96.1745,-692.825,1.012
1.4778,1.47636,0.303644,0.210777,0,1.38295e-48,0.094431,0.0217696,-9,-792,3.37615e-50,-9,-96.1728,-695.827,1.016
1.4778,1.47636,0.304021,0.210855,0,9.21965e-49,0.0943903,0.0210486,-9,-794,2.17698e-50,-9,-96.1712,-697.829,1.02
1.4778,1.47636,0.304399,0.210932,0,6.14644e-49,0.0943495,0.0204816,-9,-797,1.41271e-50,-9,-96.1696,-700.83,1.024
1.4778,1.47636,0.304776,0.211005,0,4.09762e-49,0.0943086,0.0197293,-9,-799,9.0751e-51,-9,-96.1681,-702.832,1.028
1.4778,1.47636,0.305153,0.211074,0,2.73175e-49,0.0942675,0.018911,-9,-802,5.80093e-51,-9,-96.1667,-705.833,1.032
1.4778,1.47636,0.30553,0.211141,0,1.82117e-49,0.0942263,0.018164,-9,-805,3.71563e-51,-9,-96.1653,-708.835,1.036
1.4778,1.47636,0.305907,0.211207,0,1.21411e-49,0.094185,0.0175796,-9,-807,2.39809e-51,-9,-96.164,-710.836,1.04
1.4778,1.47636,0.306284,0.21127,0,8.09407e-50,0.0941436,0.0169597,-9,-810,1.54278e-51,-9,-96.1627,-713.837,1.044
1.4778,1.47636,0.30666,0.211329,0,5.39605e-50,0.094102,0.0162297,-9,-813,9.84509e-52,-9,-96.1615,-716.839,1.048
1.4778,1.47636,0.307037,0.211384,0,3.59737e-50,0.0940604,0.0154264,-9,-816,6.24005e-52,-9,-96.1603,-719.84,1.052
1.4778,1.47636,0.307413,0.211437,0,2.39824e-50,0.0940186,0.014718,-9,-818,3.96996e-52,-9,-96.1592,-721.841,1.056
1.4778,1.47636,0.307789,0.211489,0,1.59883e-50,0.0939766,0.0141019,-9,-821,2.53642e-52,-9,-96.1582,-724.842,1.06
1.4778,1.47636,0.308165,0.211539,0,1.06589e-50,0.0939346,0.0135759,-9,-824,1.62824e-52,-9,-96.1571,-727.843,1.064
1.4778,1.47636,0.30854,0.211588,0,7.10591e-51,0.0938925,0.0131389,-9,-826,1.05078e-52,-9,-96.1561,-729.844,1.068
1.4778,1.47636,0.308916,0.211638,0,4.73727e-51,0.0938502,0.0129628,-9,-829,6.91284e-53,-9,-96.1551,-732.845,1.072
1.4778,1.47636,0.309291,0.211689,0,3.15818e-51,0.0938078,0.0128453,-9,-831,4.56783e-53,-9,-96.154,-734.846,1.076
1.4778,1.47636,0.309666,0.211739,0,2.10545e-51,0.0937653,0.012767,-9,-833,3.02733e-53,-9,-96.153,-736.847,1.08
1.4778,1.47636,0.310041,0.211788,0,1.40364e-51,0.0937227,0.0126284,-9,-835,1.99675e-53,-9,-96.152,-738.848,1.084
1.4778,1.47636,0.310416,0.211836,0,9.35757e-52,0.0936799,0.0123921,-9,-838,1.30653e-53,-9,-96.151,-741.849,1.088
1.4778,1.47636,0.310791,0.211884,0,6.23838e-52,0.093637,0.0122346,-9,-840,8.6013e-54,-9,-96.15,-743.85,1.092
1.4778,1.47636,0.311165,0.21193,0,4.15892e-52,0.0935941,0.0120144,-9,-843,5.63215e-54,-9,-96.149,-746.851,1.096
1.4778,1.47636,0.311539,0.211976,0,2.77261e-52,0.093551,0.0118676,-9,-845,3.70965e-54,-9,-96.1481,-748.852,1.1
1.4778,1.47636,0.311913,0.212025,0,1.84841e-52,0.0935077,0.0119424,-9,-847,2.48924e-54,-9,-96.1471,-750.853,1.104
1.4778,1.47636,0.312287,0.212073,0,1.23227e-52,0.0934644,0.0119636,-9,-849,1.66278e-54,-9,-96.1461,-752.854,1.108
1.4778,1.47636,0.312661,0.212122,0,8.21515e-53,0.0934209,0.0120352,-9,-851,1.1154e-54,-9,-96.1451,-754.855,1.112
1.4778,1.47636,0.313035,0.21217,0,5.47677e-53,0.0933774,0.012083,-9,-854,7.46714e-55,-9,-96.1441,-757.856,1.116
1.4778,1.47636,0.313408,0.212223,0,3.65118e-53,0.0933337,0.0124603,-9,-855,5.13476e-55,-9,-96.143,-758.857,1.12
1.4778,1.47636,0.313781,0.212276,0,2.43412e-53,0.0932899,0.0127119,-9,-857,3.4931e-55,-9,-96.1419,-760.858,1.124
1.4778,1.47636,0.314154,0.212329,0,1.62275e-53,0.093246,0.0129372,-9,-859,2.37057e-55,-9,-96.1408,-762.859,1.128
1.4778,1.47636,0.314527,0.212385,0,-2.87909e-05,0.0932019,0.0132889,-9,-861,-4.3213e-07,-9,-96.1396,-764.86,1.132
1.4778,1.47636,0.3149,0.212439,0,9.59697e-06,0.0931578,0.0132931,-9,-863,1.44122e-07,-9,-96.1385,-766.861,1.136
1.4778,1.47636,0.315273,0.21249,0,6.39798e-06,0.0931135,0.0131519,-9,-866,9.50827e-08,-9,-96.1374,-769.863,1.14
1.4778,1.47636,0.315645,0.212542,0,4.26532e-06,0.0930691,0.0130866,-9,-868,6.3088e-08,-9,-96.1364,-771.864,1.144
1.4778,1.47636,0.316017,0.212593,0,2.84355e-06,0.0930246,0.0129854,-9,-870,4.17431e-08,-9,-96.1353,-773.865,1.148
1.4778,1.47636,0.316389,0.212646,0,1.8957e-06,0.09298,0.013062,-9,-872,2.79993e-08,-9,-96.1342,-775.866,1.152
1.4778,1.47636,0.316761,0.212697,0,1.2638e-06,0.0929353,0.0129978,-9,-874,1.85787e-08,-9,-96.1331,-777.867,1.156
1.4778,1.47636,0.317133,0.21275,0,8.42533e-07,0.0928905,0.0130126,-9,-876,1.24028e-08,-9,-96.132,-779.868,1.16
1.4778,1.47636,0.317504,0.212799,0,5.61689e-07,0.0928455,0.0127634,-9,-879,8.11192e-09,-9,-96.131,-782.869,1.164
1.4778,1.47636,0.317875,0.212851,0,3.74459e-07,0.0928005,0.0128852,-9,-881,5.4608e-09,-9,-96.1299,-784.87,1.168
1.4778,1.47636,0.318247,0.212901,0,2.49639e-07,0.0927553,0.0127648,-9,-883,3.60732e-09,-9,-96.1289,-786.871,1.172
1.4778,1.47636,0.318617,0.212949,0,1.66426e-07,0.09271,0.0125118,-9,-886,2.35771e-09,-9,-96.1279,-789.872,1.176
1.4778,1.47636,0.318988,0.212994,0,1.10951e-07,0.0926646,0.0120264,-9,-888,1.51113e-09,-9,-96.127,-791.873,1.18
1.4778,1.47636,0.319359,0.213036,0,7.39672e-08,0.0926191,0.0115877,-9,-891,9.70852e-10,-9,-96.1261,-794.874,1.184
1.4778,1.47636,0.319729,0.213076,0,4.93115e-08,0.0925735,0.0110361,-9,-893,6.16532e-10,-9,-96.1253,-796.875,1.188
1.4778,1.47636,0.320099,0.213111,0,3.28743e-08,0.0925277,0.0102941,-9,-896,3.83445e-10,-9,-96.1245,-799.875,1.192
1.4778,1.47636,0.320469,0.213143,0,2.19162e-08,0.0924819,0.00948269,-9,-899,2.35514e-10,-9,-96.1239,-802.876,1.196
1.4778,1.47636,0.320839,0.213173,0,1.46108e-08,0.0924359,0.00885539,-9,-902,1.46643e-10,-9,-96.1232,-805.877,1.2
1.4778,1.47636,0.321209,0.213202,0,9.74054e-09,0.0923899,0.00829324,-9,-905,9.15672e-11,-9,-96.1226,-808.877,1.204
1.4778,1.47636,0.321578,0.213226,0,6.49369e-09,0.0923437,0.00757298,-9,-908,5.57492e-11,-9,-96.1221,-811.878,1.208
1.4778,1.47636,0.321948,0.213246,0,4.32913e-09,0.0922974,0.00668974,-9,-911,3.28342e-11,-9,-96.1217,-814.878,1.212
1.4778,1.47636,0.322317,0.213262,0,5.75847e-05,0.092251,0.00575542,-8,-914,3.75778e-07,-8,-96.1214,-817.879,1.216
1.4778,1.47636,0.322686,0.213277,0,-1.9192e-05,0.0922045,0.00510375,-9,-917,-1.11067e-07,-9,-96.1211,-820.879,1.22
1.4778,1.47636,0.323054,0.21329,0,-1.27947e-05,0.0921579,0.00452534,-9,-920,-6.56573e-08,-9,-96.1208,-823.879,1.224
1.4778,1.47636,0.323423,0.213302,0,-8.52979e-06,0.0921112,0.003967,-9,-923,-3.83728e-08,-9,-96.1206,-826.879,1.228
1.4778,1.47636,0.323791,0.213308,0,-5.68653e-06,0.0920643,0.00319169,-9,-926,-2.05828e-08,-9,-96.1204,-829.88,1.232
1.4778,1.47636,0.324159,0.213309,0,-3.79102e-06,0.0920174,0.00221417,-9,-929,-9.51929e-09,-9,-96.1204,-832.88,1.236
1.4778,1.47636,0.324527,0.213309,0,-2.52734e-06,0.0919703,0.00147611,-9,-932,-4.23079e-09,-9,-96.1204,-835.88,1.24
1.4778,1.47636,0.324895,0.213309,0,-1.6849e-06,0.0919232,0.000984074,-9,-935,-1.88035e-09,-9,-96.1204,-838.88,1.244
1.4778,1.47636,0.325263,0.213309,0,-1.12326e-06,0.0918759,0.00065605,-9,-938,-8.35712e-10,-9,-96.1204,-841.88,1.248
1.4778,1.47636,0.32563,0.213309,0,-7.48843e-07,0.0918285,0.000408575,-9,-940,-3.46977e-10,-9,-96.1204,-843.88,1.252
1.4778,1.47636,0.325997,0.21331,0,-4.99229e-07,0.0917811,0.000329965,-9,-943,-1.86813e-10,-9,-96.1204,-846.88,1.256
1.4778,1.47636,0.326364,0.21331,0,-3.32819e-07,0.0917335,0.000219977,-9,-945,-8.3028e-11,-9,-96.1204,-848.88,1.26
1.4778,1.47636,0.326731,0.21331,0,-2.21879e-07,0.0916858,0.000146651,-9,-948,-3.69013e-11,-9,-96.1204,-851.88,1.264
1.4778,1.47636,0.327098,0.21331,0,-1.4792e-07,0.091638,9.77675e-05,-9,-950,-1.64006e-11,-9,-96.1204,-853.88,1.268
1.4778,1.47636,0.327464,0.21331,0,-9.86131e-08,0.0915901,0.00012276,-9,-953,-1.37288e-11,-9,-96.1204,-856.88,1.272
1.4778,1.47636,0.327831,0.21331,0,-6.5742e-08,0.091542,5.30492e-05,-9,-955,-3.95514e-12,-9,-96.1204,-858.88,1.276
1.4778,1.47636,0.328197,0.213311,0,-4.3828e-08,0.0914939,9.2948e-05,-9,-958,-4.6199e-12,-9,-96.1204,-861.88,1.28
1.4778,1.47636,0.328563,0.21331,0,-2.92187e-08,0.0914457,3.31744e-05,-9,-960,-1.09927e-12,-9,-96.1204,-863.88,1.284
1.4778,1.47636,0.328928,0.213311,0,-1.94791e-08,0.0913974,5.09072e-05,-9,-963,-1.12458e-12,-9,-96.1204,-866.88,1.288
1.4778,1.47636,0.329294,0.213311,0,-1.29861e-08,0.0913489,6.27291e-05,-9,-965,-9.23822e-13,-9,-96.1204,-868.88,1.292
1.4778,1.47636,0.329659,0.213311,0,-8.65739e-09,0.0913004,7.06103e-05,-9,-968,-6.93262e-13,-9,-96.1204,-871.88,1.296
1.4778,1.47636,0.330024,0.213312,0,-5.77159e-09,0.0912517,7.58645e-05,-9,-970,-4.96566e-13,-9,-96.1204,-873.88,1.3
1.4778,1.47636,0.330389,0.213313,0,-3.84773e-09,0.091203,0.000136949,-9,-973,-5.97597e-13,-9,-96.1203,-876.88,1.304
1.4778,1.47636,0.330754,0.213313,0,-2.56515e-09,0.0911541,9.12994e-05,-9,-975,-2.65599e-13,-9,-96.1203,-878.88,1.308
1.4778,1.47636,0.331118,0.213313,0,-1.7101e-09,0.0911052,0.000118448,-9,-978,-2.29719e-13,-9,-96.1203,-881.88,1.312
1.4778,1.47636,0.331483,0.213314,0,-1.14007e-09,0.0910561,0.000136547,-9,-980,-1.76547e-13,-9,-96.1203,-883.88,1.316
1.4778,1.47636,0.331847,0.213315,0,-7.60045e-10,0.091007,0.000148613,-9,-982,-1.28099e-13,-9,-96.1203,-885.88,1.32
1.4778,1.47636,0.332211,0.213316,0,-5.06697e-10,0.0909577,0.000185448,-9,-985,-1.06567e-13,-9,-96.1203,-888.88,1.324
1.4778,1.47636,0.332574,0.213318,0,-3.37798e-10,0.0909083,0.000267587,-9,-987,-1.02512e-13,-9,-96.1202,-890.88,1.328
1.4778,1.47636,0.332938,0.213319,0,-2.25199e-10,0.0908589,0.000293555,-9,-990,-7.49742e-14,-9,-96.1202,-893.88,1.332
1.4778,1.47636,0.333301,0.213321,0,-1.50132e-10,0.0908093,0.000339658,-9,-992,-5.7833e-14,-9,-96.1202,-895.88,1.336
1.4778,1.47636,0.333664,0.213321,0,-1.00088e-10,0.0907596,0.00028402,-9,-995,-3.22399e-14,-9,-96.1202,-898.88,1.34
1.4778,1.47636,0.334027,0.213323,0,-6.67255e-11,0.0907098,0.000362093,-9,-997,-2.74016e-14,-9,-96.1201,-900.88,1.344
1.4778,1.47636,0.33439,0.213325,0,-4.44837e-11,0.09066,0.000356559,-9,-999,-1.79887e-14,-9,-96.1201,-902.88,1.348
1.4778,1.47636,0.334753,0.213325,0,-2.96558e-11,0.09061,0.000266497,-9,-1002,-8.96334e-15,-9,-96.1201,-905.88,1.352
1.4778,1.47636,0.335115,0.213326,0,-1.97705e-11,0.0905599,0.000235246,-9,-1004,-5.27486e-15,-9,-96.1201,-907.88,1.356
1.4778,1.47636,0.335477,0.213327,0,-1.31803e-11,0.0905097,0.000214413,-9,-1007,-3.20515e-15,-9,-96.1201,-910.88,1.36
1.4778,1.47636,0.335839,0.213326,0,-8.7869e-12,0.0904594,0.000114151,-9,-1009,-1.13759e-15,-9,-96.1201,-912.88,1.364
1.4778,1.47636,0.336201,0.213326,0,-5.85793e-12,0.0904091,7.61006e-05,-9,-1012,-5.05595e-16,-9,-96.1201,-915.88,1.368
1.4778,1.47636,0.336562,0.213327,0,-3.90529e-12,0.0903586,7.95247e-05,-9,-1014,-3.5223e-16,-9,-96.1201,-917.88,1.372
1.4778,1.47636,0.336924,0.213327,0,-2.60352e-12,0.090308,0.000110598,-9,-1017,-3.26575e-16,-9,-96.12,-920.88,1.376
1.4778,1.47636,0.337285,0.213327,0,-1.73568e-12,0.0902573,4.49413e-05,-9,-1019,-8.84683e-17,-9,-96.12,-922.88,1.38
1.4778,1.47636,0.337646,0.213327,0,-1.15712e-12,0.0902065,5.87518e-05,-9,-1021,-7.71033e-17,-9,-96.12,-924.88,1.384
1.4778,1.47636,0.338006,0.213328,0,-7.71415e-13,0.0901557,0.000125541,-9,-1024,-1.09837e-16,-9,-96.12,-927.88,1.388
1.4778,1.47636,0.338367,0.213329,0,-5.14276e-13,0.0901047,0.000112485,-9,-1026,-6.56093e-17,-9,-96.12,-929.88,1.392
1.4778,1.47636,0.338727,0.21333,0,-3.42851e-13,0.0900536,0.000218944,-9,-1029,-8.51369e-17,-9,-96.12,-932.88,1.396
1.4778,1.47636,0.339087,0.213332,0,-2.28567e-13,0.0900024,0.000318708,-9,-1031,-8.2621e-17,-9,-96.1199,-934.88,1.4
1.4778,1.47636,0.339447,0.213336,0,-1.52378e-13,0.0899512,0.000500382,-9,-1033,-8.64795e-17,-9,-96.1199,-936.88,1.404
1.4778,1.47636,0.339807,0.213341,0,-1.01585e-13,0.0898998,0.000765452,-9,-1035,-8.81959e-17,-9,-96.1197,-938.88,1.408
1.4778,1.47636,0.340167,0.213349,0,-6.77237e-14,0.0898483,0.0011437,-9,-1037,-8.7855e-17,-9,-96.1196,-940.88,1.412
1.4778,1.47636,0.340526,0.213359,0,-4.51491e-14,0.0897968,0.00165499,-9,-1039,-8.47574e-17,-9,-96.1194,-942.881,1.416
1.4778,1.47636,0.340885,0.213376,0,-3.00994e-14,0.0897451,0.00251408,-9,-1041,-8.58427e-17,-9,-96.119,-944.881,1.42
1.4778,1.47636,0.341244,0.213399,0,-2.00663e-14,0.0896934,0.00360504,-9,-1042,-8.20706e-17,-9,-96.1185,-945.881,1.424
1.4778,1.47636,0.341602,0.21343,0,-1.33775e-14,0.0896415,0.00496576,-9,-1043,-7.53755e-17,-9,-96.1179,-946.882,1.428
1.4778,1.47636,0.341961,0.213465,0,-8.91834e-15,0.0895896,0.0061896,-9,-1045,-6.26443e-17,-9,-96.1172,-948.883,1.432
1.4778,1.47636,0.342319,0.213506,0,-5.94556e-15,0.0895375,0.00752373,-9,-1046,-5.07737e-17,-9,-96.1163,-949.884,1.436
1.4778,1.47636,0.342677,0.213553,0,-3.96371e-15,0.0894854,0.00896017,-9,-1046,-4.03201e-17,-9,-96.1153,-949.885,1.44
1.4778,1.47636,0.343035,0.213606,0,-2.64247e-15,0.0894332,0.0104073,-9,-1047,-3.12285e-17,-9,-96.1142,-950.886,1.444
1.4778,1.47636,0.343393,0.213668,0,-1.76165e-15,0.0893808,0.012063,-9,-1048,-2.41376e-17,-9,-96.1129,-951.887,1.448
1.4778,1.47636,0.34375,0.213739,0,-1.17443e-15,0.0893284,0.0139729,-9,-1048,-1.86454e-17,-9,-96.1115,-951.889,1.452
1.4778,1.47636,0.344107,0.21382,0,-7.82955e-16,0.0892759,0.0160523,-9,-1048,-1.42852e-17,-9,-96.1098,-951.89,1.456
1.4778,1.47636,0.344464,0.213908,0,-5.2197e-16,0.0892233,0.018072,-9,-1049,-1.07259e-17,-9,-96.1079,-952.892,1.46
1.4778,1.47636,0.344821,0.214006,0,-3.4798e-16,0.0891706,0.0202246,-9,-1049,-8.00576e-18,-9,-96.1059,-952.894,1.464
1.4778,1.47636,0.345178,0.214118,0,-2.31987e-16,0.0891178,0.0228401,-9,-1048,-6.03035e-18,-9,-96.1035,-951.896,1.468
1.4778,1.47636,0.345534,0.214238,0,-1.54658e-16,0.0890649,0.0251884,-9,-1048,-4.43589e-18,-9,-96.101,-951.899,1.472
1.4778,1.47636,0.34589,0.214365,0,-1.03105e-16,0.0890119,0.0273586,-9,-1047,-3.21383e-18,-9,-96.0984,-950.902,1.476
1.4778,1.47636,0.346246,0.214502,0,-6.87367e-17,0.0889588,0.0296978,-9,-1047,-2.32715e-18,-9,-96.0955,-950.904,1.48
1.4778,1.47636,0.346602,0.214649,0,-4.58245e-17,0.0889057,0.0320059,-9,-1046,-1.67308e-18,-9,-96.0924,-949.908,1.484
1.4778,1.47636,0.346957,0.214804,0,-3.05497e-17,0.0888524,0.0342356,-9,-1046,-1.1939e-18,-9,-96.0892,-949.911,1.488
1.4778,1.47636,0.347313,0.214966,0,-2.03664e-17,0.0887991,0.0363267,-9,-1045,-8.45143e-19,-9,-96.0858,-948.914,1.492
1.4778,1.47636,0.347668,0.215137,0,-1.35776e-17,0.0887456,0.0385269,-9,-1045,-5.98002e-19,-9,-96.0822,-948.918,1.496
1.4778,1.47636,0.348023,0.215319,0,-9.05175e-18,0.0886921,0.0407998,-9,-1044,-4.22521e-19,-9,-96.0784,-947.922,1.5
1.4778,1.47636,0.348377,0.215503,0,-6.0345e-18,0.0886384,0.0425454,-9,-1044,-2.93968e-19,-9,-96.0745,-947.925,1.504
1.4778,1.47636,0.348732,0.215694,0,-4.023e-18,0.0885847,0.0443138,-9,-1043,-2.04294e-19,-9,-96.0705,-946.93,1.508
1.4778,1.47636,0.349086,0.215894,0,-2.682e-18,0.0885309,0.0462125,-9,-1043,-1.42155e-19,-9,-96.0663,-946.934,1.512
1.4778,1.47636,0.34944,0.216098,0,5.75818e-05,0.088477,0.0478238,-8,-1043,3.16125e-06,-8,-96.062,-946.938,1.516
1.4778,1.47636,0.349794,0.216305,0,-1.91939e-05,0.088423,0.0491283,-9,-1042,-1.08346e-06,-9,-96.0576,-945.942,1.52
1.4778,1.47636,0.350147,0.216515,0,-1.2796e-05,0.0883689,0.0502571,-9,-1042,-7.39577e-07,-9,-96.0532,-945.947,1.524
1.4778,1.47636,0.350501,0.216728,0,-8.53064e-06,0.0883148,0.0512111,-9,-1043,-5.02873e-07,-9,-96.0487,-946.951,1.528
1.4778,1.47636,0.350854,0.216942,0,-5.6871e-06,0.0882605,0.0519623,-9,-1043,-3.40481e-07,-9,-96.0441,-946.956,1.532
1.4778,1.47636,0.351207,0.217155,0,-3.25823e-05,0.0882061,0.0523768,-9,-1043,-1.96804e-06,-9,-96.0396,-946.96,1.536
1.4778,1.47636,0.35156,0.217373,0,7.06938e-06,0.0881517,0.0530849,-9,-1044,4.33184e-07,-9,-96.035,-947.965,1.54
1.4778,1.47636,0.351912,0.217593,0,4.71292e-06,0.0880972,0.0537873,-9,-1044,2.92889e-07,-9,-96.0303,-947.97,1.544
1.4778,1.47636,0.352264,0.217818,0,3.14195e-06,0.0880426,0.0545435,-9,-1044,1.98195e-07,-9,-96.0256,-947.974,1.548
1.4778,1.47636,0.352616,0.218049,0,2.09463e-06,0.0879878,0.0556235,-9,-1044,1.3488e-07,-9,-96.0207,-947.979,1.552
1.4778,1.47636,0.352968,0.218279,0,1.39642e-06,0.0879331,0.0562859,-9,-1044,9.10809e-08,-9,-96.0158,-947.984,1.556
1.4778,1.47636,0.35332,0.218511,0,9.30947e-07,0.0878782,0.0568138,-9,-1045,6.1351e-08,-9,-96.0108,-948.989,1.56
1.4778,1.47636,0.353671,0.218741,0,6.20631e-07,0.0878232,0.0570506,-9,-1045,4.11116e-08,-9,-96.0059,-948.994,1.564
1.4778,1.47636,0.354022,0.218966,0,4.13754e-07,0.0877681,0.0568054,-9,-1046,2.73162e-08,-9,-96.0011,-949.999,1.568
1.4778,1.47636,0.354373,0.219189,0,2.75836e-07,0.087713,0.0564404,-9,-1047,1.8111e-08,-9,-95.9963,-951.004,1.572
1.4778,1.47636,0.354724,0.219409,0,1.83891e-07,0.0876578,0.0559956,-9,-1049,1.19901e-08,-9,-95.9916,-953.008,1.576
1.4778,1.47636,0.355075,0.219626,0,1.22594e-07,0.0876024,0.0553535,-9,-1050,7.90903e-09,-9,-95.987,-954.013,1.58
1.4778,1.47636,0.355425,0.21984,0,8.17292e-08,0.087547,0.0547815,-9,-1051,5.22297e-09,-9,-95.9824,-955.018,1.584
1.4778,1.47636,0.355775,0.220054,0,5.44861e-08,0.0874915,0.0543714,-9,-1053,3.45906e-09,-9,-95.9778,-957.022,1.588
1.4778,1.47636,0.356125,0.22027,0,3.63241e-08,0.087436,0.0542131,-9,-1054,2.30143e-09,-9,-95.9732,-958.027,1.592
1.4778,1.47636,0.356475,0.22048,0,2.42161e-08,0.0873803,0.0536758,-9,-1055,1.52043e-09,-9,-95.9686,-959.031,1.596
1.4778,1.47636,0.356824,0.220691,0,1.6144e-08,0.0873246,0.0533751,-9,-1056,1.00885e-09,-9,-95.9641,-960.036,1.6
1.4778,1.47636,0.357173,0.22091,0,1.07627e-08,0.0872687,0.053808,-9,-1057,6.78648e-10,-9,-95.9594,-961.041,1.604
1.4778,1.47636,0.357522,0.221121,0,2.87981e-05,0.0872128,0.0534633,-9,-1058,1.80586e-06,-9,-95.9548,-962.045,1.608
1.4778,1.47636,0.357871,0.221332,0,-9.59219e-06,0.0871568,0.0531759,-9,-1059,-5.988e-07,-9,-95.9503,-963.05,1.612
1.4778,1.47636,0.358219,0.221536,0,-6.39479e-06,0.0871007,0.0525236,-9,-1060,-3.94644e-07,-9,-95.9459,-964.054,1.616
1.4778,1.47636,0.358568,0.221737,0,-4.2632e-06,0.0870445,0.0517433,-9,-1062,-2.59407e-07,-9,-95.9415,-966.058,1.62
1.4778,1.47636,0.358916,0.22193,0,-2.84213e-06,0.0869883,0.050532,-9,-1064,-1.69026e-07,-9,-95.9374,-968.063,1.624
1.4778,1.47636,0.359264,0.222117,0,-1.89475e-06,0.0869319,0.0493215,-9,-1066,-1.10072e-07,-9,-95.9333,-970.067,1.628
1.4778,1.47636,0.359611,0.222302,0,-1.26317e-06,0.0868755,0.0482841,-9,-1068,-7.18935e-08,-9,-95.9293,-972.071,1.632
1.4778,1.47636,0.359959,0.222478,0,-8.42113e-07,0.086819,0.0468728,-9,-1070,-4.65624e-08,-9,-95.9255,-974.075,1.636
1.4778,1.47636,0.360306,0.222654,0,-5.61409e-07,0.0867624,0.0458743,-9,-1072,-3.04027e-08,-9,-95.9217,-976.078,1.64
1.4778,1.47636,0.360653,0.222825,0,-3.74272e-07,0.0867057,0.0448344,-9,-1074,-1.98232e-08,-9,-95.9179,-978.082,1.644
1.4778,1.47636,0.360999,0.223,0,-2.49515e-07,0.086649,0.0444866,-9,-1076,-1.31226e-08,-9,-95.9141,-980.086,1.648
1.4778,1.47636,0.361346,0.223174,0,-1.66343e-07,0.0865922,0.0441396,-9,-1077,-8.68645e-09,-9,-95.9104,-981.09,1.652
1.4778,1.47636,0.361692,0.223345,0,-1.10896e-07,0.0865352,0.0437355,-9,-1078,-5.74207e-09,-9,-95.9066,-982.093,1.656
1.4778,1.47636,0.362038,0.223513,0,-7.39303e-08,0.0864782,0.0430918,-9,-1080,-3.77434e-09,-9,-95.903,-984.097,1.66
1.4778,1.47636,0.362384,0.223688,0,-4.92869e-08,0.0864211,0.0432961,-9,-1081,-2.53e-09,-9,-95.8992,-985.101,1.664
1.4778,1.47636,0.362729,0.223856,0,-3.28579e-08,0.086364,0.0428852,-9,-1083,-1.67183e-09,-9,-95.8955,-987.105,1.668
1.4778,1.47636,0.363075,0.224023,0,-2.19053e-08,0.0863067,0.0425537,-9,-1084,-1.10671e-09,-9,-95.8918,-988.108,1.672
1.4778,1.47636,0.36342,0.22419,0,-1.46035e-08,0.0862494,0.0422176,-9,-1086,-7.32485e-10,-9,-95.8882,-990.112,1.676
1.4778,1.47636,0.363765,0.224354,0,-9.73568e-09,0.086192,0.0418208,-9,-1087,-4.84063e-10,-9,-95.8846,-991.115,1.68
1.4778,1.47636,0.364109,0.224518,0,-6.49046e-09,0.0861345,0.0415562,-9,-1088,-3.20886e-10,-9,-95.881,-992.119,1.684
1.4778,1.47636,0.364454,0.224677,0,-4.32697e-09,0.086077,0.0410055,-9,-1090,-2.11229e-10,-9,-95.8775,-994.122,1.688
1.4778,1.47636,0.364798,0.224837,0,-2.88465e-09,0.0860193,0.0406672,-9,-1092,-1.3975e-10,-9,-95.874,-996.126,1.692
1.4778,1.47636,0.365142,0.225,0,-1.9231e-09,0.0859616,0.0406432,-9,-1093,-9.31745e-11,-9,-95.8705,-997.13,1.696
1.4778,1.47636,0.365486,0.225163,0,-1.28207e-09,0.0859038,0.0406848,-9,-1094,-6.22218e-11,-9,-95.8669,-998.133,1.7
1.4778,1.47636,0.365829,0.225322,0,-8.5471e-10,0.0858459,0.040367,-9,-1095,-4.11843e-11,-9,-95.8634,-999.137,1.704
1.4778,1.47636,0.366173,0.225485,0,5.75813e-05,0.0857879,0.0405295,-8,-1096,2.78761e-06,-8,-95.8598,-1000.14,1.708
1.4778,1.47636,0.366516,0.225641,0,-1.91943e-05,0.0857299,0.0400043,-9,-1098,-9.1778e-07,-9,-95.8564,-1002.14,1.712
1.4778,1.47636,0.366858,0.225796,0,-1.27962e-05,0.0856718,0.0395967,-9,-1100,-6.06006e-07,-9,-95.8529,-1004.15,1.716
1.4778,1.47636,0.367201,0.225948,0,-8.53081e-06,0.0856136,0.039037,-9,-1101,-3.98543e-07,-9,-95.8496,-1005.15,1.72
1.4778,1.47636,0.367543,0.226096,0,-5.68721e-06,0.0855553,0.0383472,-9,-1103,-2.61159e-07,-9,-95.8463,-1007.15,1.724
1.4778,1.47636,0.367885,0.226241,0,-3.79147e-06,0.0854969,0.037657,-9,-1105,-1.71075e-07,-9,-95.8431,-1009.16,1.728
1.4778,1.47636,0.368227,0.22638,0,-2.52765e-06,0.0854385,0.0367362,-9,-1107,-1.11325e-07,-9,-95.8401,-1011.16,1.732
1.4778,1.47636,0.368569,0.226517,0,-1.6851e-06,0.08538,0.0358632,-9,-1109,-7.24935e-08,-9,-95.8371,-1013.16,1.736
1.4778,1.47636,0.36891,0.226647,0,-1.1234e-06,0.0853214,0.0347342,-9,-1112,-4.68326e-08,-9,-95.8342,-1016.17,1.74
1.4778,1.47636,0.369251,0.226769,0,-7.48933e-07,0.0852627,0.0333193,-9,-1114,-2.99649e-08,-9,-95.8315,-1018.17,1.744
1.4778,1.47636,0.369592,0.226885,0,-4.99289e-07,0.085204,0.0319442,-9,-1117,-1.91613e-08,-9,-95.8289,-1021.17,1.748
1.4778,1.47636,0.369933,0.226995,0,-3.32859e-07,0.0851452,0.0304229,-9,-1120,-1.21713e-08,-9,-95.8265,-1024.17,1.752
1.4778,1.47636,0.370274,0.227097,0,-2.21906e-07,0.0850863,0.028804,-9,-1123,-7.68566e-09,-9,-95.8242,-1027.18,1.756
1.4778,1.47636,0.370614,0.227194,0,-1.47937e-07,0.0850273,0.0272354,-9,-1125,-4.84664e-09,-9,-95.8221,-1029.18,1.76
1.4778,1.47636,0.370954,0.227282,0,-9.86249e-08,0.0849683,0.0255562,-9,-1129,-3.03299e-09,-9,-95.8201,-1033.18,1.764
1.4778,1.47636,0.371294,0.227359,0,-6.57499e-08,0.0849091,0.0234578,-9,-1132,-1.85656e-09,-9,-95.8184,-1036.18,1.768
1.4778,1.47636,0.371633,0.227425,0,-4.38333e-08,0.08485,0.0211088,-9,-1136,-1.11406e-09,-9,-95.817,-1040.18,1.772
1.4778,1.47636,0.371972,0.227482,0,-2.92222e-08,0.0847907,0.0188231,-9,-1140,-6.62439e-10,-9,-95.8157,-1044.18,1.776
1.4778,1.47636,0.372311,0.227528,0,-1.94815e-08,0.0847313,0.0164067,-9,-1143,-3.85006e-10,-9,-95.8147,-1047.19,1.78
1.4778,1.47636,0.37265,0.227565,0,-1.29876e-08,0.0846719,0.0140184,-9,-1147,-2.19341e-10,-9,-95.8138,-1051.19,1.784
1.4778,1.47636,0.372989,0.227594,0,-8.65843e-09,0.0846124,0.0117065,-9,-1151,-1.22125e-10,-9,-95.8132,-1055.19,1.788
1.4778,1.47636,0.373327,0.227609,0,-5.77229e-09,0.0845529,0.0090999,-9,-1156,-6.32926e-11,-9,-95.8129,-1060.19,1.792
1.4778,1.47636,0.373665,0.227613,0,-3.84819e-09,0.0844932,0.00635451,-9,-1160,-2.94655e-11,-9,-95.8128,-1064.19,1.796
1.4778,1.47636,0.374003,0.227613,0,-2.56546e-09,0.0844335,0.00423634,-9,-1164,-1.30958e-11,-9,-95.8128,-1068.19,1.8
1.4778,1.47636,0.374341,0.227613,0,-1.71031e-09,0.0843737,0.00282423,-9,-1168,-5.82034e-12,-9,-95.8128,-1072.19,1.804
1.4778,1.47636,0.374678,0.227613,0,-1.1402e-09,0.0843139,0.00188282,-9,-1171,-2.58682e-12,-9,-95.8128,-1075.19,1.808
1.4778,1.47636,0.375015,0.227613,0,-7.60136e-10,0.0842539,0.00125521,-9,-1173,-1.1497e-12,-9,-95.8128,-1077.19,1.812
1.4778,1.47636,0.375352,0.227613,0,-5.06758e-10,0.0841939,0.000836808,-9,-1176,-5.10976e-13,-9,-95.8128,-1080.19,1.816
1.4778,1.47636,0.375689,0.227613,0,-3.37838e-10,0.0841338,0.000557872,-9,-1179,-2.27101e-13,-9,-95.8128,-1083.19,1.82
1.4778,1.47636,0.376025,0.227613,0,-2.25226e-10,0.0840737,0.000371915,-9,-1181,-1.00934e-13,-9,-95.8128,-1085.19,1.824
1.4778,1.47636,0.376361,0.227613,0,-1.5015e-10,0.0840135,0.000247943,-9,-1183,-4.48594e-14,-9,-95.8128,-1087.19,1.828
1.4778,1.47636,0.376697,0.227613,0,-1.001e-10,0.0839532,0.000165295,-9,-1186,-1.99375e-14,-9,-95.8128,-1090.19,1.832
1.4778,1.47636,0.377033,0.227613,0,-6.67335e-11,0.0838928,0.000110197,-9,-1188,-8.86111e-15,-9,-95.8128,-1092.19,1.836
1.4778,1.47636,0.377368,0.227613,0,-4.4489e-11,0.0838324,7.34646e-05,-9,-1190,-3.93827e-15,-9,-95.8128,-1094.19,1.84
1.4778,1.47636,0.377704,0.227613,0,-2.96593e-11,0.0837719,4.89764e-05,-9,-1192,-1.75034e-15,-9,-95.8128,-1096.19,1.844
1.4778,1.47636,0.378039,0.227613,0,-1.97729e-11,0.0837113,3.2651e-05,-9,-1195,-7.7793e-16,-9,-95.8128,-1099.19,1.848
1.4778,1.47636,0.378373,0.227613,0,-1.31819e-11,0.0836506,2.17673e-05,-9,-1197,-3.45747e-16,-9,-95.8128,-1101.19,1.852
1.4778,1.47636,0.378708,0.227613,0,-8.78795e-12,0.0835899,1.45115e-05,-9,-1199,-1.53665e-16,-9,-95.8128,-1103.19,1.856
1.4778,1.47636,0.379042,0.227613,0,-5.85863e-12,0.0835291,9.67436e-06,-9,-1201,-6.82957e-17,-9,-95.8128,-1105.19,1.86
1.4778,1.47636,0.379376,0.227613,0,-3.90576e-12,0.0834683,6.44957e-06,-9,-1204,-3.03536e-17,-9,-95.8128,-1108.19,1.864
1.4778,1.47636,0.37971,0.227613,0,-2.60384e-12,0.0834074,4.29971e-06,-9,-1206,-1.34905e-17,-9,-95.8128,-1110.19,1.868
1.4778,1.47636,0.380043,0.227613,0,-1.73589e-12,0.0833464,2.86648e-06,-9,-1208,-5.99578e-18,-9,-95.8128,-1112.19,1.872
1.4778,1.47636,0.380377,0.227613,0,-1.15726e-12,0.0832853,1.91098e-06,-9,-1210,-2.66479e-18,-9,-95.8128,-1114.19,1.876
1.4778,1.47636,0.38071,0.227613,0,-7.71507e-13,0.0832242,1.27399e-06,-9,-1213,-1.18435e-18,-9,-95.8128,-1117.19,1.88
1.4778,1.47636,0.381042,0.227613,0,-5.14338e-13,0.083163,8.49326e-07,-9,-1215,-5.26378e-19,-9,-95.8128,-1119.19,1.884
1.4778,1.47636,0.381375,0.227613,0,-3.42892e-13,0.0831017,5.66217e-07,-9,-1217,-2.33946e-19,-9,-95.8128,-1121.19,1.888
1.4778,1.47636,0.381707,0.227613,0,-2.28595e-13,0.0830403,3.77478e-07,-9,-1219,-1.03976e-19,-9,-95.8128,-1123.19,1.892
1.4778,1.47636,0.382039,0.227613,0,-1.52397e-13,0.0829789,2.51652e-07,-9,-1222,-4.62115e-20,-9,-95.8128,-1126.19,1.896
1.4778,1.47636,0.382371,0.227613,0,-1.01598e-13,0.0829175,1.67768e-07,-9,-1224,-2.05385e-20,-9,-95.8128,-1128.19,1.9
1.4778,1.47636,0.382703,0.227613,0,-6.77318e-14,0.0828559,1.11845e-07,-9,-1226,-9.12821e-21,-9,-95.8128,-1130.19,1.904
1.4778,1.47636,0.383034,0.227613,0,-4.51545e-14,0.0827943,7.45636e-08,-9,-1228,-4.05698e-21,-9,-95.8128,-1132.19,1.908
1.4778,1.47636,0.383365,0.227613,0,-3.0103e-14,0.0827326,4.97091e-08,-9,-1230,-1.8031e-21,-9,-95.8128,-1134.19,1.912
1.4778,1.47636,0.383696,0.227613,0,-2.00687e-14,0.0826709,3.31394e-08,-9,-1233,-8.01379e-22,-9,-95.8128,-1137.19,1.916
1.4778,1.47636,0.384026,0.227613,0,-1.33791e-14,0.0826091,2.8813e-05,-9,-1235,-4.64506e-19,-9,-95.8128,-1139.19,1.92
1.4778,1.47636,0.384357,0.227613,0,-8.91941e-15,0.0825472,1.92087e-05,-9,-1237,-2.06447e-19,-9,-95.8128,-1141.19,1.924
1.4778,1.47636,0.384687,0.227613,0,-5.94627e-15,0.0824853,1.28058e-05,-9,-1239,-9.17543e-20,-9,-95.8128,-1143.19,1.928
1.4778,1.47636,0.385016,0.227613,0,-3.96418e-15,0.0824233,8.53719e-06,-9,-1241,-4.07797e-20,-9,-95.8128,-1145.19,1.932
1.4778,1.47636,0.385346,0.227613,0,-2.64279e-15,0.0823612,5.69146e-06,-9,-1244,-1.81243e-20,-9,-95.8128,-1148.19,1.936
1.4778,1.47636,0.385675,0.227613,0,-1.76186e-15,0.0822991,3.79431e-06,-9,-1246,-8.05525e-21,-9,-95.8128,-1150.19,1.94
1.4778,1.47636,0.386004,0.227613,0,-1.17457e-15,0.0822368,2.52954e-06,-9,-1248,-3.58011e-21,-9,-95.8128,-1152.19,1.944
1.4778,1.47636,0.386333,0.227613,0,-7.83049e-16,0.0821746,1.68636e-06,-9,-1250,-1.59116e-21,-9,-95.8128,-1154.19,1.948
1.4778,1.47636,0.386662,0.227613,0,-5.22032e-16,0.0821122,1.12424e-06,-9,-1253,-7.07182e-22,-9,-95.8128,-1157.19,1.952
1.4778,1.47636,0.38699,0.227613,0,-3.48022e-16,0.0820498,7.49493e-07,-9,-1255,-3.14303e-22,-9,-95.8128,-1159.19,1.956
1.4778,1.47636,0.387318,0.227613,0,-2.32014e-16,0.0819874,2.92906e-05,-9,-1257,-8.18877e-21,-9,-95.8128,-1161.19,1.96
1.4778,1.47636,0.387646,0.227613,0,-1.54676e-16,0.0819249,1.95271e-05,-9,-1259,-3.63946e-21,-9,-95.8128,-1163.19,1.964
1.4778,1.47636,0.387974,0.227613,0,-1.03117e-16,0.0818623,1.3018e-05,-9,-1261,-1.61754e-21,-9,-95.8128,-1165.19,1.968
1.4778,1.47636,0.388301,0.227613,0,-6.8745e-17,0.0817996,8.67869e-06,-9,-1263,-7.18905e-22,-9,-95.8128,-1167.19,1.972
1.4778,1.47636,0.388628,0.227613,0,-4.583e-17,0.0817369,5.78579e-06,-9,-1266,-3.19513e-22,-9,-95.8128,-1170.19,1.976
1.4778,1.47636,0.388955,0.227613,0,-3.05533e-17,0.0816741,3.8572e-06,-9,-1268,-1.42006e-22,-9,-95.8128,-1172.19,1.98
1.4778,1.47636,0.389281,0.227614,0,-2.03689e-17,0.0816113,3.13624e-05,-9,-1270,-7.69756e-22,-9,-95.8128,-1174.19,1.984
1.4778,1.47636,0.389608,0.227614,0,-1.35793e-17,0.0815484,2.09083e-05,-9,-1272,-3.42114e-22,-9,-95.8128,-1176.19,1.988
1.4778,1.47636,0.389934,0.227614,0,-9.05284e-18,0.0814854,1.39388e-05,-9,-1274,-1.52051e-22,-9,-95.8128,-1178.19,1.992
1.4778,1.47636,0.39026,0.227614,0,-6.03523e-18,0.0814224,9.29256e-06,-9,-1277,-6.7578e-23,-9,-95.8128,-1181.19,1.996
1.4778,1.47636,0.390585,0.227614,0,-4.02348e-18,0.0813593,3.4986e-05,-9,-1279,-1.69619e-22,-9,-95.8128,-1183.19,2
1.4778,1.47636,0.39091,0.227614,0,-2.68232e-18,0.0812961,5.21149e-05,-9,-1281,-1.68442e-22,-9,-95.8128,-1185.19,2.004
1.4778,1.47636,0.391235,0.227614,0,-1.78822e-18,0.0812329,3.47433e-05,-9,-1283,-7.48632e-23,-9,-95.8128,-1187.19,2.008
1.4778,1.47636,0.39156,0.227615,0,-1.19214e-18,0.0811696,5.19531e-05,-9,-1285,-7.46309e-23,-9,-95.8127,-1189.19,2.012
1.4778,1.47636,0.391885,0.227615,0,-7.94762e-19,0.0811063,6.34263e-05,-9,-1287,-6.07415e-23,-9,-95.8127,-1191.19,2.016
1.4778,1.47636,0.392209,0.227615,0,-5.29842e-19,0.0810429,7.10751e-05,-9,-1290,-4.53778e-23,-9,-95.8127,-1194.19,2.02
1.4778,1.47636,0.392533,0.227616,0,-3.53228e-19,0.0809795,0.000104965,-9,-1292,-4.46767e-23,-9,-95.8127,-1196.19,2.024
1.4778,1.47636,0.392857,0.227617,0,-2.35485e-19,0.0809159,0.000185141,-9,-1294,-5.2535e-23,-9,-95.8127,-1198.19,2.028
1.4778,1.47636,0.393181,0.22762,0,-1.5699e-19,0.0808524,0.000324964,-9,-1296,-6.14744e-23,-9,-95.8126,-1200.19,2.032
1.4778,1.47636,0.393504,0.227624,0,-1.0466e-19,0.0807887,0.000533343,-9,-1298,-6.72638e-23,-9,-95.8125,-1202.19,2.036
1.4778,1.47636,0.393827,0.227629,0,-6.97734e-20,0.080725,0.000758635,-9,-1300,-6.3786e-23,-9,-95.8124,-1204.19,2.04
1.4778,1.47636,0.39415,0.227634,0,-4.65156e-20,0.0806613,0.00093762,-9,-1302,-5.25578e-23,-9,-95.8123,-1206.19,2.044
1.4778,1.47636,0.394472,0.227638,0,-3.10104e-20,0.0805974,0.000970571,-9,-1304,-3.62705e-23,-9,-95.8122,-1208.19,2.048
1.4778,1.47636,0.394794,0.227645,0,-2.06736e-20,0.0805336,0.00128045,-9,-1306,-3.19015e-23,-9,-95.8121,-1210.19,2.052
1.4778,1.47636,0.395116,0.227657,0,-1.37824e-20,0.0804696,0.00180373,-9,-1307,-2.99606e-23,-9,-95.8118,-1211.19,2.056
1.4778,1.47636,0.395438,0.227671,0,-9.18826e-21,0.0804056,0.00241171,-9,-1309,-2.67077e-23,-9,-95.8115,-1213.19,2.06
1.4778,1.47636,0.39576,0.227692,0,-6.12551e-21,0.0803416,0.00336405,-9,-1310,-2.48383e-23,-9,-95.811,-1214.19,2.064
1.4778,1.47636,0.396081,0.227719,0,-4.08367e-21,0.0802775,0.00448839,-9,-1311,-2.20956e-23,-9,-95.8104,-1215.19,2.068
1.4778,1.47636,0.396402,0.227752,0,-2.72245e-21,0.0802133,0.00569861,-9,-1312,-1.87047e-23,-9,-95.8097,-1216.19,2.072
1.4778,1.47636,0.396723,0.227789,0,-1.81497e-21,0.0801491,0.00690849,-9,-1313,-1.51196e-23,-9,-95.8089,-1217.19,2.076
1.4778,1.47636,0.397043,0.227832,0,-1.20998e-21,0.0800848,0.00814695,-9,-1314,-1.18887e-23,-9,-95.8079,-1218.19,2.08
1.4778,1.47636,0.397363,0.227882,0,-8.06651e-22,0.0800205,0.00963477,-9,-1314,-9.37519e-24,-9,-95.8068,-1218.19,2.084
1.4778,1.47636,0.397683,0.227937,0,-5.37768e-22,0.0799561,0.0110297,-9,-1315,-7.15665e-24,-9,-95.8056,-1219.19,2.088
1.4778,1.47636,0.398003,0.228002,0,-3.58512e-22,0.0798916,0.0127371,-9,-1315,-5.51109e-24,-9,-95.8041,-1219.2,2.092
1.4778,1.47636,0.398322,0.228075,0,-2.39008e-22,0.0798271,0.0145375,-9,-1315,-4.19463e-24,-9,-95.8025,-1219.2,2.096
1.4778,1.47636,0.398642,0.228158,0,-1.59339e-22,0.0797625,0.0166303,-9,-1315,-3.20008e-24,-9,-95.8007,-1219.2,2.1
1.4778,1.47636,0.39896,0.228254,0,-1.06226e-22,0.0796979,0.0191195,-9,-1315,-2.45368e-24,-9,-95.7985,-1219.2,2.104
1.4778,1.47636,0.399279,0.228364,0,-7.08171e-23,0.0796332,0.0218731,-9,-1314,-1.8722e-24,-9,-95.7961,-1218.2,2.108
1.4778,1.47636,0.399598,0.228481,0,-4.72114e-23,0.0795685,0.024371,-9,-1313,-1.39134e-24,-9,-95.7935,-1217.21,2.112
1.4778,1.47636,0.399916,0.228614,0,-3.14743e-23,0.0795037,0.0272742,-9,-1312,-1.03861e-24,-9,-95.7905,-1216.21,2.116
1.4778,1.47636,0.400234,0.228759,0,-2.09829e-23,0.0794389,0.0303038,-9,-1311,-7.69776e-25,-9,-95.7873,-1215.21,2.12
1.4778,1.47636,0.400551,0.22892,0,-1.39886e-23,0.079374,0.0336479,-9,-1309,-5.70189e-25,-9,-95.7837,-1213.22,2.124
1.4778,1.47636,0.400869,0.229097,0,-9.32571e-24,0.079309,0.0371729,-9,-1307,-4.2025e-25,-9,-95.7797,-1211.22,2.128
1.4778,1.47636,0.401186,0.22929,0,-6.21714e-24,0.079244,0.0408185,-9,-1305,-3.07883e-25,-9,-95.7754,-1209.22,2.132
1.4778,1.47636,0.401502,0.229499,0,-4.14476e-24,0.0791789,0.0446596,-9,-1302,-2.24761e-25,-9,-95.7708,-1206.23,2.136
1.4778,1.47636,0.401819,0.229723,0,-2.76317e-24,0.0791138,0.0484008,-9,-1300,-1.6254e-25,-9,-95.7658,-1204.23,2.14
1.4778,1.47636,0.402135,0.22996,0,-1.84212e-24,0.0790486,0.0520178,-9,-1297,-1.16569e-25,-9,-95.7604,-1201.24,2.144
1.4778,1.47636,0.402451,0.230216,0,-1.22808e-24,0.0789834,0.0560126,-9,-1294,-8.37673e-26,-9,-95.7547,-1198.25,2.148
1.4778,1.47636,0.402767,0.230488,0,-8.18718e-25,0.0789181,0.060029,-9,-1291,-5.99149e-26,-9,-95.7486,-1195.25,2.152
1.4778,1.47636,0.403083,0.230778,0,-5.45812e-25,0.0788528,0.0641749,-9,-1288,-4.27518e-26,-9,-95.7421,-1192.26,2.156
1.4778,1.47636,0.403398,0.231084,0,-3.63875e-25,0.0787874,0.0683496,-9,-1284,-3.03927e-26,-9,-95.7352,-1188.26,2.16
1.4778,1.47636,0.403713,0.23141,0,-2.42583e-25,0.078722,0.0726587,-9,-1281,-2.15673e-26,-9,-95.7278,-1185.27,2.164
1.4778,1.47636,0.404028,0.231751,0,-1.61722e-25,0.0786565,0.0769133,-9,-1277,-1.5241e-26,-9,-95.7201,-1181.28,2.168
1.4778,1.47636,0.404342,0.232106,0,-1.07815e-25,0.0785909,0.080815,-9,-1273,-1.06912e-26,-9,-95.7121,-1177.29,2.172
1.4778,1.47636,0.404657,0.232472,0,-7.18765e-26,0.0785253,0.0843951,-9,-1270,-7.45412e-27,-9,-95.7038,-1174.3,2.176
1.4778,1.47636,0.404971,0.232847,0,-4.79177e-26,0.0784597,0.0875303,-9,-1267,-5.16173e-27,-9,-95.6953,-1171.3,2.18
1.4778,1.47636,0.405284,0.233232,0,-3.19451e-26,0.078394,0.0903979,-9,-1264,-3.55933e-27,-9,-95.6866,-1168.31,2.184
1.4778,1.47636,0.405598,0.233622,0,-2.12967e-26,0.0783282,0.092799,-9,-1262,-2.43969e-27,-9,-95.6777,-1166.32,2.188
1.4778,1.47636,0.405911,0.234021,0,-1.41978e-26,0.0782624,0.0951195,-9,-1259,-1.66977e-27,-9,-95.6686,-1163.33,2.192
1.4778,1.47636,0.406224,0.234429,0,-9.46522e-27,0.0781966,0.0974151,-9,-1256,-1.14188e-27,-9,-95.6593,-1160.34,2.196
1.4778,1.47636,0.406536,0.234843,0,-6.31015e-27,0.0781307,0.0994349,-9,-1254,-7.78309e-28,-9,-95.6498,-1158.35,2.2
1.4778,1.47636,0.406849,0.235266,0,-4.20676e-27,0.0780647,0.101501,-9,-1251,-5.30537e-28,-9,-95.6401,-1155.36,2.204
1.4778,1.47636,0.407161,0.235693,0,-2.80451e-27,0.0779987,0.103311,-9,-1249,-3.60602e-28,-9,-95.6303,-1153.37,2.208
1.4778,1.47636,0.407473,0.236127,0,-1.86967e-27,0.0779327,0.105035,-9,-1247,-2.4483e-28,-9,-95.6204,-1151.38,2.212
1.4778,1.47636,0.407784,0.236571,0,-1.24645e-27,0.0778665,0.10702,-9,-1244,-1.66593e-28,-9,-95.6101,-1148.39,2.216
1.4778,1.47636,0.408096,0.237016,0,-8.30966e-28,0.0778004,0.1084,-9,-1242,-1.1269e-28,-9,-95.5999,-1146.4,2.22
1.4778,1.47636,0.408407,0.237469,0,-5.53977e-28,0.0777342,0.110041,-9,-1240,-7.63983e-29,-9,-95.5894,-1144.41,2.224
1.4778,1.47636,0.408718,0.237924,0,-3.69318e-28,0.0776679,0.111249,-9,-1238,-5.15827e-29,-9,-95.5789,-1142.42,2.228
1.4778,1.47636,0.409028,0.238376,0,-2.46212e-28,0.0776016,0.111825,-9,-1236,-3.46269e-29,-9,-95.5684,-1140.43,2.232
1.4778,1.47636,0.409338,0.238831,0,-1.64141e-28,0.0775353,0.112496,-9,-1235,-2.32642e-29,-9,-95.5578,-1139.44,2.236
1.4778,1.47636,0.409648,0.239284,0,-1.09428e-28,0.0774689,0.112742,-9,-1233,-1.55706e-29,-9,-95.5473,-1137.45,2.24
1.4778,1.47636,0.409958,0.239738,0,-7.29517e-29,0.0774024,0.112993,-9,-1232,-1.04217e-29,-9,-95.5367,-1136.46,2.244
1.4778,1.47636,0.410268,0.240198,0,-4.86345e-29,0.0773359,0.113649,-9,-1230,-7.00049e-30,-9,-95.5259,-1134.47,2.248
1.4778,1.47636,0.410577,0.240656,0,-3.2423e-29,0.0772694,0.113972,-9,-1229,-4.68847e-30,-9,-95.5152,-1133.48,2.252
1.4778,1.47636,0.410886,0.241115,0,-2.16153e-29,0.0772028,0.114187,-9,-1228,-3.13704e-30,-9,-95.5044,-1132.5,2.256
1.4778,1.47636,0.411195,0.241569,0,-1.44102e-29,0.0771361,0.114013,-9,-1227,-2.09181e-30,-9,-95.4937,-1131.51,2.26
1.4778,1.47636,0.411503,0.242021,0,-9.60681e-30,0.0770694,0.113667,-9,-1226,-1.3927e-30,-9,-95.4831,-1130.52,2.264
1.4778,1.47636,0.411811,0.242474,0,-6.40454e-30,0.0770027,0.113523,-9,-1225,-9.28888e-31,-9,-95.4724,-1129.53,2.268
1.4778,1.47636,0.412119,0.242924,0,-4.26969e-30,0.0769359,0.113168,-9,-1224,-6.18374e-31,-9,-95.4618,-1128.54,2.272
1.4778,1.47636,0.412427,0.243359,0,2.87909e-05,0.0768691,0.111722,-9,-1225,4.12326e-06,-9,-95.4515,-1129.55,2.276
1.4778,1.47636,0.412734,0.243797,0,-9.59697e-06,0.0768022,0.110931,-9,-1224,-1.36694e-06,-9,-95.4411,-1128.56,2.28
1.4778,1.47636,0.413041,0.244229,0,-6.39798e-06,0.0767353,0.109942,-9,-1224,-9.04646e-07,-9,-95.4308,-1128.57,2.284
1.4778,1.47636,0.413348,0.244653,0,-4.26532e-06,0.0766683,0.108621,-9,-1224,-5.96801e-07,-9,-95.4207,-1128.58,2.288
1.4778,1.47636,0.413654,0.245072,0,-2.84355e-06,0.0766013,0.107338,-9,-1225,-3.93784e-07,-9,-95.4107,-1129.59,2.292
1.4778,1.47636,0.413961,0.245487,0,-1.8957e-06,0.0765342,0.106136,-9,-1225,-2.59988e-07,-9,-95.4008,-1129.6,2.296
1.4778,1.47636,0.414267,0.245898,0,-1.2638e-06,0.0764671,0.105019,-9,-1225,-1.71764e-07,-9,-95.391,-1129.61,2.3
1.4778,1.47636,0.414572,0.246297,0,-8.42533e-07,0.0764,0.103324,-9,-1226,-1.12829e-07,-9,-95.3814,-1130.62,2.304
1.4778,1.47636,0.414878,0.246689,0,-5.61689e-07,0.0763328,0.101531,-9,-1226,-7.40226e-08,-9,-95.372,-1130.63,2.308
1.4778,1.47636,0.415183,0.24707,0,-3.74459e-07,0.0762655,0.0994439,-9,-1228,-4.84023e-08,-9,-95.3629,-1132.64,2.312
1.4778,1.47636,0.415488,0.247441,0,2.85413e-05,0.0761982,0.0971598,-9,-1229,3.60945e-06,-9,-95.3539,-1133.65,2.316
1.4778,1.47636,0.415793,0.247802,0,-9.7634e-06,0.0761309,0.0948597,-9,-1230,-1.2071e-06,-9,-95.3452,-1134.65,2.32
1.4778,1.47636,0.416097,0.248154,0,-6.50893e-06,0.0760635,0.0925778,-9,-1232,-7.86398e-07,-9,-95.3367,-1136.66,2.324
1.4778,1.47636,0.416401,0.248495,0,-4.33929e-06,0.0759961,0.0901352,-9,-1234,-5.11076e-07,-9,-95.3285,-1138.67,2.328
1.4778,1.47636,0.416705,0.248827,0,-2.89286e-06,0.0759286,0.0877582,-9,-1235,-3.32138e-07,-9,-95.3205,-1139.68,2.332
1.4778,1.47636,0.417009,0.249144,0,-1.92857e-06,0.0758611,0.0849643,-9,-1237,-2.14627e-07,-9,-95.3128,-1141.69,2.336
1.4778,1.47636,0.417312,0.24945,0,-1.28572e-06,0.0757936,0.0821516,-9,-1240,-1.38503e-07,-9,-95.3053,-1144.69,2.34
1.4778,1.47636,0.417615,0.249746,0,-8.57144e-07,0.075726,0.079384,-9,-1242,-8.93216e-08,-9,-95.2982,-1146.7,2.344
1.4778,1.47636,0.417918,0.250033,0,-5.71429e-07,0.0756583,0.0768479,-9,-1244,-5.7706e-08,-9,-95.2912,-1148.71,2.348
1.4778,1.47636,0.41822,0.25031,0,-3.80953e-07,0.0755906,0.0743223,-9,-1246,-3.72441e-08,-9,-95.2844,-1150.72,2.352
1.4778,1.47636,0.418522,0.250582,0,-2.53968e-07,0.0755229,0.0722066,-9,-1248,-2.41466e-08,-9,-95.2778,-1152.72,2.356
1.4778,1.47636,0.418824,0.250846,0,-1.69312e-07,0.0754551,0.070134,-9,-1250,-1.56507e-08,-9,-95.2714,-1154.73,2.36
1.4778,1.47636,0.419126,0.251102,0,-1.12875e-07,0.0753873,0.0681189,-9,-1252,-1.01435e-08,-9,-95.2651,-1156.73,2.364
1.4778,1.47636,0.419427,0.251352,0,-7.52499e-08,0.0753195,0.0662284,-9,-1254,-6.58063e-09,-9,-95.259,-1158.74,2.368
1.4778,1.47636,0.419729,0.251592,0,-5.01666e-08,0.0752516,0.064162,-9,-1256,-4.25391e-09,-9,-95.2531,-1160.75,2.372
1.4778,1.47636,0.420029,0.251822,0,-3.34444e-08,0.0751837,0.0618918,-9,-1258,-2.73788e-09,-9,-95.2475,-1162.75,2.376
1.4778,1.47636,0.42033,0.252044,0,-2.22963e-08,0.0751157,0.0597738,-9,-1260,-1.76421e-09,-9,-95.2421,-1164.76,2.38
1.4778,1.47636,0.42063,0.252252,0,-1.48642e-08,0.0750477,0.0572389,-9,-1263,-1.12712e-09,-9,-95.2369,-1167.76,2.384
1.4778,1.47636,0.42093,0.252454,0,-9.90945e-09,0.0749796,0.055002,-9,-1265,-7.22574e-10,-9,-95.232,-1169.77,2.388
1.4778,1.47636,0.42123,0.252648,0,-6.6063e-09,0.0749115,0.0528197,-9,-1268,-4.62927e-10,-9,-95.2272,-1172.77,2.392
1.4778,1.47636,0.42153,0.252835,0,-4.4042e-09,0.0748434,0.050789,-9,-1270,-2.96954e-10,-9,-95.2226,-1174.78,2.396
1.4778,1.47636,0.421829,0.253018,0,-2.93613e-09,0.0747752,0.0490609,-9,-1272,-1.91359e-10,-9,-95.2181,-1176.78,2.4
1.4778,1.47636,0.422128,0.253193,0,-1.95742e-09,0.074707,0.0473043,-9,-1275,-1.23083e-10,-9,-95.2138,-1179.79,2.404
1.4778,1.47636,0.422427,0.253367,0,-1.30495e-09,0.0746387,0.046018,-9,-1277,-7.98741e-11,-9,-95.2095,-1181.79,2.408
1.4778,1.47636,0.422725,0.253539,0,-8.69966e-10,0.0745704,0.0450166,-9,-1278,-5.21229e-11,-9,-95.2053,-1182.79,2.412
1.4778,1.47636,0.423023,0.2537,0,-5.79977e-10,0.074502,0.0434276,-9,-1280,-3.35415e-11,-9,-95.2013,-1184.8,2.416
1.4778,1.47636,0.423321,0.253857,0,-3.86651e-10,0.0744337,0.0420516,-9,-1282,-2.16647e-11,-9,-95.1974,-1186.8,2.42
1.4778,1.47636,0.423619,0.254006,0,-2.57768e-10,0.0743652,0.0405009,-9,-1285,-1.3918e-11,-9,-95.1937,-1189.81,2.424
1.4778,1.47636,0.423916,0.254153,0,-1.71845e-10,0.0742968,0.0391791,-9,-1287,-8.98058e-12,-9,-95.1901,-1191.81,2.428
1.4778,1.47636,0.424213,0.25429,0,-1.14563e-10,0.0742283,0.0375782,-9,-1289,-5.74525e-12,-9,-95.1867,-1193.81,2.432
1.4778,1.47636,0.42451,0.254423,0,-7.63756e-11,0.0741598,0.0361079,-9,-1291,-3.68205e-12,-9,-95.1834,-1195.82,2.436
1.4778,1.47636,0.424806,0.254549,0,-5.09171e-11,0.0740912,0.0346094,-9,-1294,-2.3539e-12,-9,-95.1803,-1198.82,2.44
1.4778,1.47636,0.425103,0.254674,0,-3.39447e-11,0.0740226,0.0334952,-9,-1296,-1.51943e-12,-9,-95.1772,-1200.82,2.444
1.4778,1.47636,0.425398,0.254796,0,-2.26298e-11,0.0739539,0.0324358,-9,-1298,-9.81337e-13,-9,-95.1742,-1202.83,2.448
1.4778,1.47636,0.425694,0.254911,0,-1.50865e-11,0.0738852,0.0312112,-9,-1300,-6.29785e-13,-9,-95.1714,-1204.83,2.452
1.4778,1.47636,0.42599,0.255019,0,-1.00577e-11,0.0738165,0.029819,-9,-1302,-4.01284e-13,-9,-95.1687,-1206.83,2.456
1.4778,1.47636,0.426285,0.255124,0,-6.70513e-12,0.0737477,0.0286894,-9,-1304,-2.57485e-13,-9,-95.166,-1208.83,2.46
1.4778,1.47636,0.42658,0.255229,0,-4.47009e-12,0.0736789,0.0278499,-9,-1306,-1.66696e-13,-9,-95.1634,-1210.84,2.464
1.4778,1.47636,0.426874,0.255331,0,-2.98006e-12,0.0736101,0.0270311,-9,-1308,-1.07903e-13,-9,-95.1609,-1212.84,2.468
1.4778,1.47636,0.427168,0.25543,0,-1.9867e-12,0.0735412,0.026255,-9,-1310,-6.98943e-14,-9,-95.1585,-1214.84,2.472
1.4778,1.47636,0.427462,0.25553,0,-1.32447e-12,0.0734723,0.0259103,-9,-1312,-4.6001e-14,-9,-95.156,-1216.84,2.476
1.4778,1.47636,0.427756,0.255631,0,-8.8298e-13,0.0734034,0.0256517,-9,-1313,-3.03721e-14,-9,-95.1535,-1217.85,2.48
1.4778,1.47636,0.42805,0.255733,0,-5.88653e-13,0.0733344,0.0255944,-9,-1315,-2.02103e-14,-9,-95.1509,-1219.85,2.484
1.4778,1.47636,0.428343,0.255835,0,-3.92435e-13,0.0732654,0.0256139,-9,-1316,-1.34887e-14,-9,-95.1484,-1220.85,2.488
1.4778,1.47636,0.428636,0.255939,0,-2.61624e-13,0.0731963,0.025742,-9,-1317,-9.04076e-15,-9,-95.1458,-1221.85,2.492
1.4778,1.47636,0.428928,0.256042,0,-1.74416e-13,0.0731272,0.025741,-9,-1318,-6.02916e-15,-9,-95.1432,-1222.86,2.496
1.4778,1.47636,0.429221,0.256149,0,-1.16277e-13,0.0730581,0.0260283,-9,-1319,-4.06584e-15,-9,-95.1406,-1223.86,2.5
1.4778,1.47636,0.429513,0.256259,0,-7.75181e-14,0.0729889,0.0265365,-9,-1320,-2.76456e-15,-9,-95.1378,-1224.86,2.504
1.4778,1.47636,0.429805,0.256371,0,-5.16787e-14,0.0729198,0.0269905,-9,-1321,-1.87532e-15,-9,-95.135,-1225.86,2.508
1.4778,1.47636,0.430096,0.256483,0,-3.44525e-14,0.0728505,0.0273795,-9,-1322,-1.26874e-15,-9,-95.1322,-1226.87,2.512
1.4778,1.47636,0.430388,0.256598,0,-2.29683e-14,0.0727813,0.0277828,-9,-1322,-8.58633e-16,-9,-95.1294,-1226.87,2.516
1.4778,1.47636,0.430679,0.256711,0,-1.53122e-14,0.072712,0.0279365,-9,-1323,-5.75819e-16,-9,-95.1266,-1227.87,2.52
1.4778,1.47636,0.430969,0.256825,0,-1.02081e-14,0.0726426,0.0281829,-9,-1324,-3.87423e-16,-9,-95.1237,-1228.88,2.524
1.4778,1.47636,0.43126,0.256945,0,-6.80543e-15,0.0725733,0.0287503,-9,-1325,-2.63593e-16,-9,-95.1207,-1229.88,2.528
1.4778,1.47636,0.43155,0.257066,0,-4.53695e-15,0.0725039,0.0292437,-9,-1326,-1.78821e-16,-9,-95.1177,-1230.88,2.532
1.4778,1.47636,0.43184,0.257186,0,-3.02464e-15,0.0724344,0.0294862,-9,-1327,-1.20254e-16,-9,-95.1147,-1231.89,2.536
1.4778,1.47636,0.432129,0.257309,0,-2.01642e-15,0.072365,0.0299071,-9,-1327,-8.13489e-17,-9,-95.1116,-1231.89,2.54
1.4778,1.47636,0.432419,0.257432,0,-1.34428e-15,0.0722955,0.0301876,-9,-1328,-5.47652e-17,-9,-95.1085,-1232.89,2.544
1.4778,1.47636,0.432708,0.257556,0,-8.96188e-16,0.0722259,0.0304898,-9,-1329,-3.68918e-17,-9,-95.1054,-1233.89,2.548
1.4778,1.47636,0.432996,0.257683,0,-5.97459e-16,0.0721564,0.0308928,-9,-1330,-2.49308e-17,-9,-95.1022,-1234.9,2.552
1.4778,1.47636,0.433285,0.257805,0,-3.98306e-16,0.0720868,0.030816,-9,-1331,-1.65864e-17,-9,-95.0992,-1235.9,2.556
1.4778,1.47636,0.433573,0.257931,0,-2.65537e-16,0.0720171,0.0309951,-9,-1332,-1.11268e-17,-9,-95.096,-1236.9,2.56
1.4778,1.47636,0.433861,0.25806,0,-1.77025e-16,0.0719475,0.0314024,-9,-1332,-7.51875e-18,-9,-95.0928,-1236.91,2.564
1.4778,1.47636,0.434149,0.25819,0,-1.18017e-16,0.0718778,0.0317603,-9,-1333,-5.07195e-18,-9,-95.0895,-1237.91,2.568
1.4778,1.47636,0.434436,0.258322,0,-7.86777e-17,0.071808,0.0322005,-9,-1334,-3.42976e-18,-9,-95.0862,-1238.91,2.572
1.4778,1.47636,0.434723,0.258458,0,-5.24518e-17,0.0717383,0.0328106,-9,-1334,-2.33095e-18,-9,-95.0828,-1238.92,2.576
1.4778,1.47636,0.43501,0.258597,0,-3.49679e-17,0.0716685,0.0334189,-9,-1335,-1.58354e-18,-9,-95.0793,-1239.92,2.58
1.4778,1.47636,0.435296,0.25874,0,-2.33119e-17,0.0715987,0.0342563,-9,-1335,-1.0827e-18,-9,-95.0757,-1239.92,2.584
1.4778,1.47636,0.435583,0.258884,0,-1.55413e-17,0.0715288,0.0347858,-9,-1335,-7.33323e-19,-9,-95.0721,-1239.93,2.588
1.4778,1.47636,0.435869,0.259032,0,-1.03609e-17,0.0714589,0.0355706,-9,-1336,-5.00173e-19,-9,-95.0683,-1240.93,2.592
1.4778,1.47636,0.436154,0.259183,0,-6.90724e-18,0.071389,0.0362666,-9,-1336,-3.40153e-19,-9,-95.0645,-1240.94,2.596
1.4778,1.47636,0.43644,0.259335,0,-4.60482e-18,0.0713191,0.0368457,-9,-1336,-2.30512e-19,-9,-95.0607,-1240.94,2.6
1.4778,1.47636,0.436725,0.259488,0,-3.06988e-18,0.0712491,0.037347,-9,-1337,-1.55849e-19,-9,-95.0568,-1241.94,2.604
1.4778,1.47636,0.43701,0.259641,0,-2.04659e-18,0.0711791,0.0375948,-9,-1337,-1.04645e-19,-9,-95.053,-1241.95,2.608
1.4778,1.47636,0.437294,0.259798,0,-1.36439e-18,0.0711091,0.0381919,-9,-1338,-7.09102e-20,-9,-95.049,-1242.95,2.612
1.4778,1.47636,0.437579,0.259957,0,-9.09595e-19,0.071039,0.0387051,-9,-1338,-4.79353e-20,-9,-95.045,-1242.96,2.616
1.4778,1.47636,0.437863,0.260114,0,-6.06397e-19,0.0709689,0.0388745,-9,-1339,-3.21143e-20,-9,-95.041,-1243.96,2.62
1.4778,1.47636,0.438146,0.260273,0,-4.04264e-19,0.0708988,0.0391601,-9,-1339,-2.15788e-20,-9,-95.037,-1243.96,2.624
1.4778,1.47636,0.43843,0.260436,0,-2.6951e-19,0.0708286,0.0396673,-9,-1340,-1.45805e-20,-9,-95.0329,-1244.97,2.628
1.4778,1.47636,0.438713,0.2606,0,-1.79673e-19,0.0707585,0.0401205,-9,-1340,-9.83701e-21,-9,-95.0287,-1244.97,2.632
1.4778,1.47636,0.438996,0.260766,0,-1.19782e-19,0.0706883,0.0405955,-9,-1340,-6.63948e-21,-9,-95.0245,-1244.98,2.636
1.4778,1.47636,0.439279,0.260938,0,-7.98547e-20,0.070618,0.0414303,-9,-1340,-4.52006e-21,-9,-95.0201,-1244.98,2.64
1.4778,1.47636,0.439561,0.261113,0,-5.32365e-20,0.0705478,0.0421884,-9,-1340,-3.07038e-21,-9,-95.0157,-1244.98,2.644
1.4778,1.47636,0.439843,0.261293,0,-3.5491e-20,0.0704775,0.0430969,-9,-1340,-2.0923e-21,-9,-95.0111,-1244.99,2.648
1.4778,1.47636,0.440125,0.261475,0,-2.36606e-20,0.0704071,0.0439041,-9,-1340,-1.42189e-21,-9,-95.0065,-1244.99,2.652
1.4778,1.47636,0.440406,0.261664,0,-1.57738e-20,0.0703368,0.0449892,-9,-1340,-9.71992e-22,-9,-95.0017,-1245,2.656
1.4778,1.47636,0.440687,0.261859,0,-1.05158e-20,0.0702664,0.0462885,-9,-1339,-6.6716e-22,-9,-94.9967,-1244,2.66
1.4778,1.47636,0.440968,0.262061,0,-7.01056e-21,0.070196,0.0476729,-9,-1339,-4.58396e-22,-9,-94.9916,-1244.01,2.664
1.4778,1.47636,0.441249,0.262268,0,-4.67371e-21,0.0701256,0.0490565,-9,-1338,-3.14692e-22,-9,-94.9863,-1243.01,2.668
1.4778,1.47636,0.441529,0.262472,0,-3.11581e-21,0.0700551,0.0496622,-9,-1338,-2.12534e-22,-9,-94.9811,-1243.02,2.672
1.4778,1.47636,0.441809,0.262682,0,-2.0772e-21,0.0699846,0.0506706,-9,-1338,-1.44672e-22,-9,-94.9757,-1243.02,2.676
1.4778,1.47636,0.442089,0.262893,0,-1.3848e-21,0.0699141,0.0513141,-9,-1338,-9.77436e-23,-9,-94.9704,-1243.03,2.68
1.4778,1.47636,0.442369,0.263105,0,-9.23202e-22,0.0698436,0.0518582,-9,-1337,-6.59014e-23,-9,-94.965,-1242.04,2.684
1.4778,1.47636,0.442648,0.263326,0,-6.15468e-22,0.069773,0.0530559,-9,-1337,-4.49833e-23,-9,-94.9593,-1242.04,2.688
1.4778,1.47636,0.442927,0.263542,0,-4.10312e-22,0.0697024,0.0533361,-9,-1337,-3.01696e-23,-9,-94.9538,-1242.05,2.692
1.4778,1.47636,0.443206,0.263769,0,-2.73541e-22,0.0696318,0.0544443,-9,-1336,-2.0547e-23,-9,-94.9479,-1241.05,2.696
1.4778,1.47636,0.443484,0.263995,0,-1.82361e-22,0.0695612,0.0551254,-9,-1336,-1.38801e-23,-9,-94.9421,-1241.06,2.7
1.4778,1.47636,0.443762,0.264226,0,-1.21574e-22,0.0694905,0.056069,-9,-1336,-9.41927e-24,-9,-94.9362,-1241.06,2.704
1.4778,1.47636,0.44404,0.264464,0,-8.10493e-23,0.0694198,0.0571587,-9,-1335,-6.40676e-24,-9,-94.9301,-1240.07,2.708
1.4778,1.47636,0.444317,0.264706,0,-5.40328e-23,0.0693491,0.058317,-9,-1334,-4.36134e-24,-9,-94.9239,-1239.08,2.712
1.4778,1.47636,0.444595,0.264953,0,-3.60219e-23,0.0692784,0.0594347,-9,-1333,-2.96579e-24,-9,-94.9175,-1238.08,2.716
1.4778,1.47636,0.444872,0.265205,0,-2.40146e-23,0.0692076,0.0606117,-9,-1332,-2.01808e-24,-9,-94.911,-1237.09,2.72
1.4778,1.47636,0.445148,0.26546,0,-1.60097e-23,0.0691368,0.0616843,-9,-1332,-1.37039e-24,-9,-94.9044,-1237.1,2.724
1.4778,1.47636,0.445425,0.26572,0,-1.06732e-23,0.069066,0.0627449,-9,-1331,-9.3012e-25,-9,-94.8977,-1236.1,2.728
1.4778,1.47636,0.445701,0.265982,0,-7.11543e-24,0.0689952,0.063711,-9,-1330,-6.3019e-25,-9,-94.891,-1235.11,2.732
1.4778,1.47636,0.445977,0.266251,0,-4.74362e-24,0.0689243,0.0649021,-9,-1329,-4.28373e-25,-9,-94.884,-1234.12,2.736
1.4778,1.47636,0.446252,0.266525,0,-3.16242e-24,0.0688534,0.0660993,-9,-1328,-2.9112e-25,-9,-94.8769,-1233.12,2.74
1.4778,1.47636,0.446528,0.266806,0,-2.10828e-24,0.0687825,0.0674732,-9,-1327,-1.98303e-25,-9,-94.8696,-1232.13,2.744
1.4778,1.47636,0.446803,0.267096,0,-1.40552e-24,0.0687116,0.0691377,-9,-1325,-1.35596e-25,-9,-94.8621,-1230.14,2.748
1.4778,1.47636,0.447077,0.267397,0,-9.37012e-25,0.0686406,0.0711399,-9,-1323,-9.31097e-26,-9,-94.8543,-1228.15,2.752
1.4778,1.47636,0.447352,0.267699,0,-6.24675e-25,0.0685697,0.0725899,-9,-1322,-6.34029e-26,-9,-94.8464,-1227.15,2.756
1.4778,1.47636,0.447626,0.268006,0,-4.1645e-25,0.0684987,0.0739884,-9,-1320,-4.31275e-26,-9,-94.8384,-1225.16,2.76
1.4778,1.47636,0.4479,0.268313,0,-2.77633e-25,0.0684276,0.0749495,-9,-1319,-2.91553e-26,-9,-94.8304,-1224.17,2.764
1.4778,1.47636,0.448173,0.268621,0,-1.85089e-25,0.0683566,0.0755903,-9,-1319,-1.96233e-26,-9,-94.8224,-1224.18,2.768
1.4778,1.47636,0.448447,0.268927,0,-1.23393e-25,0.0682855,0.0759023,-9,-1318,-1.31497e-26,-9,-94.8144,-1223.19,2.772
1.4778,1.47636,0.44872,0.269235,0,-8.22617e-26,0.0682144,0.076283,-9,-1317,-8.81955e-27,-9,-94.8064,-1222.19,2.776
1.4778,1.47636,0.448992,0.269545,0,-5.48411e-26,0.0681433,0.076652,-9,-1317,-5.91426e-27,-9,-94.7983,-1222.2,2.78
1.4778,1.47636,0.449265,0.269858,0,-3.65607e-26,0.0680722,0.0772435,-9,-1316,-3.97743e-27,-9,-94.79,-1221.21,2.784
1.4778,1.47636,0.449537,0.270172,0,-2.43738e-26,0.068001,0.0776378,-9,-1315,-2.66795e-27,-9,-94.7818,-1220.22,2.788
1.4778,1.47636,0.449809,0.270491,0,-1.62492e-26,0.0679299,0.0783614,-9,-1314,-1.79712e-27,-9,-94.7734,-1219.23,2.792
1.4778,1.47636,0.45008,0.270809,0,-1.08328e-26,0.0678587,0.0786998,-9,-1314,-1.20452e-27,-9,-94.7651,-1219.23,2.796
1.4778,1.47636,0.450352,0.271126,0,-7.22188e-27,0.0677874,0.0788678,-9,-1313,-8.05578e-28,-9,-94.7567,-1218.24,2.8
1.4778,1.47636,0.450623,0.271441,0,-4.81458e-27,0.0677162,0.0788359,-9,-1313,-5.37396e-28,-9,-94.7484,-1218.25,2.804
1.4778,1.47636,0.450893,0.271755,0,-3.20972e-27,0.067645,0.0787858,-9,-1312,-3.5841e-28,-9,-94.7401,-1217.26,2.808
1.4778,1.47636,0.451164,0.272071,0,-2.13982e-27,0.0675737,0.0788387,-9,-1312,-2.3935e-28,-9,-94.7318,-1217.27,2.812
1.4778,1.47636,0.451434,0.272388,0,-1.42654e-27,0.0675024,0.0789604,-9,-1312,-1.59981e-28,-9,-94.7234,-1217.28,2.816
1.4778,1.47636,0.451704,0.272709,0,-9.51029e-28,0.0674311,0.0793871,-9,-1311,-1.07344e-28,-9,-94.7149,-1216.29,2.82
1.4778,1.47636,0.451973,0.273028,0,-6.34019e-28,0.0673597,0.0794987,-9,-1310,-7.17383e-29,-9,-94.7065,-1215.29,2.824
1.4778,1.47636,0.452243,0.273348,0,-4.2268e-28,0.0672884,0.0796596,-9,-1310,-4.79728e-29,-9,-94.698,-1215.3,2.828
1.4778,1.47636,0.452512,0.273669,0,-2.81786e-28,0.067217,0.0798531,-9,-1309,-3.20934e-29,-9,-94.6894,-1214.31,2.832
1.4778,1.47636,0.45278,0.273985,0,-1.87858e-28,0.0671456,0.0796079,-9,-1309,-2.1352e-29,-9,-94.681,-1214.32,2.836
1.4778,1.47636,0.453049,0.274303,0,-1.25238e-28,0.0670742,0.0795308,-9,-1309,-1.42357e-29,-9,-94.6726,-1214.33,2.84
1.4778,1.47636,0.453317,0.274621,0,-8.34923e-29,0.0670027,0.079537,-9,-1308,-9.50107e-30,-9,-94.6641,-1213.34,2.844
1.4778,1.47636,0.453585,0.27494,0,-5.56615e-29,0.0669313,0.0795987,-9,-1308,-6.34557e-30,-9,-94.6556,-1213.34,2.848
1.4778,1.47636,0.453852,0.275259,0,-3.71077e-29,0.0668598,0.0796398,-9,-1307,-4.23697e-30,-9,-94.6471,-1212.35,2.852
1.4778,1.47636,0.45412,0.275582,0,-2.47384e-29,0.0667883,0.0800127,-9,-1306,-2.84086e-30,-9,-94.6384,-1211.36,2.856
1.4778,1.47636,0.454387,0.275904,0,-1.64923e-29,0.0667168,0.080175,-9,-1306,-1.89973e-30,-9,-94.6298,-1211.37,2.86
1.4778,1.47636,0.454653,0.276229,0,-1.09949e-29,0.0666453,0.080571,-9,-1305,-1.27409e-30,-9,-94.6211,-1210.38,2.864
1.4778,1.47636,0.45492,0.276554,0,-7.32991e-30,0.0665738,0.0807487,-9,-1305,-8.52163e-31,-9,-94.6124,-1210.39,2.868
1.4778,1.47636,0.455186,0.276878,0,-4.88661e-30,0.0665022,0.0808671,-9,-1304,-5.69539e-31,-9,-94.6037,-1209.4,2.872
1.4778,1.47636,0.455452,0.277199,0,-3.25774e-30,0.0664306,0.0806294,-9,-1304,-3.78969e-31,-9,-94.595,-1209.4,2.876
1.4778,1.47636,0.455717,0.27752,0,-2.17183e-30,0.066359,0.0805573,-9,-1303,-2.52682e-31,-9,-94.5864,-1208.41,2.88
1.4778,1.47636,0.455983,0.277841,0,-1.44788e-30,0.0662874,0.0804228,-9,-1303,-1.68348e-31,-9,-94.5777,-1208.42,2.884
1.4778,1.47636,0.456248,0.278158,0,-9.65256e-31,0.0662158,0.0800165,-9,-1303,-1.11779e-31,-9,-94.5692,-1208.43,2.888
1.4778,1.47636,0.456512,0.278478,0,-6.43504e-31,0.0661441,0.0800047,-9,-1302,-7.45848e-32,-9,-94.5605,-1207.44,2.892
1.4778,1.47636,0.456777,0.278796,0,-4.29003e-31,0.0660725,0.0798817,-9,-1302,-4.96975e-32,-9,-94.5519,-1207.45,2.896
1.4778,1.47636,0.457041,0.279115,0,-2.86002e-31,0.0660008,0.0798573,-9,-1302,-3.31555e-32,-9,-94.5433,-1207.46,2.9
1.4778,1.47636,0.457305,0.279428,0,-1.90668e-31,0.0659291,0.079294,-9,-1302,-2.19697e-32,-9,-94.5348,-1207.47,2.904
1.4778,1.47636,0.457568,0.279738,0,-1.27112e-31,0.0658574,0.0787169,-9,-1302,-1.45543e-32,-9,-94.5264,-1207.47,2.908
1.4778,1.47636,0.457832,0.280044,0,-8.47412e-32,0.0657857,0.0779291,-9,-1302,-9.61513e-33,-9,-94.5181,-1207.48,2.912
1.4778,1.47636,0.458095,0.280347,0,-5.64942e-32,0.0657139,0.0772312,-9,-1302,-6.35882e-33,-9,-94.5098,-1207.49,2.916
1.4778,1.47636,0.458357,0.280648,0,-3.76628e-32,0.0656422,0.0765643,-9,-1303,-4.20664e-33,-9,-94.5016,-1208.5,2.92
1.4778,1.47636,0.45862,0.280946,0,-2.51085e-32,0.0655704,0.0758607,-9,-1303,-2.78128e-33,-9,-94.4935,-1208.51,2.924
1.4778,1.47636,0.458882,0.281247,0,-1.6739e-32,0.0654986,0.0757083,-9,-1303,-1.85224e-33,-9,-94.4853,-1208.51,2.928
1.4778,1.47636,0.459144,0.281547,0,-1.11593e-32,0.0654268,0.0754051,-9,-1303,-1.23105e-33,-9,-94.4771,-1208.52,2.932
1.4778,1.47636,0.459405,0.281848,0,-7.43956e-33,0.065355,0.0754046,-9,-1302,-8.21476e-34,-9,-94.4689,-1207.53,2.936
1.4778,1.47636,0.459667,0.282148,0,-4.95971e-33,0.0652832,0.075289,-9,-1302,-5.47331e-34,-9,-94.4606,-1207.54,2.94
1.4778,1.47636,0.459928,0.282443,0,-3.30647e-33,0.0652113,0.0747225,-9,-1302,-3.62479e-34,-9,-94.4526,-1207.55,2.944
1.4778,1.47636,0.460188,0.282737,0,-2.20431e-33,0.0651395,0.0743737,-9,-1302,-2.40748e-34,-9,-94.4445,-1207.56,2.948
1.4778,1.47636,0.460449,0.283029,0,-1.46954e-33,0.0650676,0.0738532,-9,-1302,-1.59522e-34,-9,-94.4365,-1207.56,2.952
1.4778,1.47636,0.460709,0.283319,0,-9.79695e-34,0.0649957,0.0734198,-9,-1302,-1.0582e-34,-9,-94.4285,-1207.57,2.956
1.4778,1.47636,0.460969,0.283607,0,-6.5313e-34,0.0649238,0.0729294,-9,-1303,-7.0139e-35,-9,-94.4206,-1208.58,2.96
1.4778,1.47636,0.461228,0.283893,0,-4.3542e-34,0.0648519,0.0724873,-9,-1303,-4.65176e-35,-9,-94.4127,-1208.59,2.964
1.4778,1.47636,0.461488,0.284177,0,-2.9028e-34,0.06478,0.0719622,-9,-1303,-3.08145e-35,-9,-94.4049,-1208.6,2.968
1.4778,1.47636,0.461747,0.284457,0,-1.9352e-34,0.064708,0.071353,-9,-1303,-2.0387e-35,-9,-94.3972,-1208.6,2.972
1.4778,1.47636,0.462005,0.284738,0,-1.29013e-34,0.0646361,0.0709757,-9,-1303,-1.35313e-35,-9,-94.3894,-1208.61,2.976
1.4778,1.47636,0.462264,0.285018,0,-8.60089e-35,0.0645641,0.0706666,-9,-1303,-8.98945e-36,-9,-94.3817,-1208.62,2.98
1.4778,1.47636,0.462522,0.285297,0,-5.73393e-35,0.0644921,0.0702877,-9,-1303,-5.96601e-36,-9,-94.374,-1208.63,2.984
1.4778,1.47636,0.46278,0.285572,0,-3.82262e-35,0.0644201,0.0698337,-9,-1304,-3.95504e-36,-9,-94.3663,-1209.63,2.988
1.4778,1.47636,0.463037,0.285849,0,-2.54841e-35,0.0643481,0.0695885,-9,-1304,-2.6297e-36,-9,-94.3587,-1209.64,2.992
1.4778,1.47636,0.463294,0.286125,0,-1.69894e-35,0.0642761,0.0694251,-9,-1303,-1.75052e-36,-9,-94.351,-1208.65,2.996
1.4778,1.47636,0.463551,0.286403,0,-1.13263e-35,0.0642041,0.0694313,-9,-1303,-1.16812e-36,-9,-94.3433,-1208.66,3
1.4778,1.47636,0.463808,0.286682,0,-7.55085e-36,0.0641321,0.0695794,-9,-1303,-7.81086e-37,-9,-94.3355,-1208.66,3.004
1.4778,1.47636,0.464064,0.286966,0,-5.0339e-36,0.06406,0.0699948,-9,-1302,-5.24292e-37,-9,-94.3276,-1207.67,3.008
1.4778,1.47636,0.464321,0.287252,0,-3.35593e-36,0.0639879,0.0705021,-9,-1302,-3.52373e-37,-9,-94.3197,-1207.68,3.012
1.4778,1.47636,0.464576,0.287545,0,-2.23729e-36,0.0639159,0.0714161,-9,-1301,-2.38176e-37,-9,-94.3115,-1206.69,3.016
1.4778,1.47636,0.464832,0.287839,0,-1.49153e-36,0.0638438,0.0721118,-9,-1300,-1.60476e-37,-9,-94.3033,-1205.7,3.02
1.4778,1.47636,0.465087,0.288136,0,-9.94351e-37,0.0637717,0.0728923,-9,-1299,-1.08241e-37,-9,-94.295,-1204.71,3.024
1.4778,1.47636,0.465342,0.288437,0,-6.629e-37,0.0636996,0.0736142,-9,-1298,-7.29429e-38,-9,-94.2866,-1203.71,3.028
1.4778,1.47636,0.465597,0.28874,0,-4.41934e-37,0.0636275,0.0743834,-9,-1297,-4.91825e-38,-9,-94.2781,-1202.72,3.032
1.4778,1.47636,0.465851,0.289049,0,-2.94622e-37,0.0635554,0.0752992,-9,-1295,-3.32235e-38,-9,-94.2694,-1200.73,3.036
1.4778,1.47636,0.466105,0.289362,0,-1.96415e-37,0.0634832,0.076284,-9,-1294,-2.24602e-38,-9,-94.2607,-1199.74,3.04
1.4778,1.47636,0.466359,0.289681,0,-1.30943e-37,0.0634111,0.0774301,-9,-1293,-1.52133e-38,-9,-94.2517,-1198.75,3.044
1.4778,1.47636,0.466612,0.29,0,-8.72955e-38,0.0633389,0.0781941,-9,-1292,-1.02522e-38,-9,-94.2427,-1197.76,3.048
1.4778,1.47636,0.466866,0.29032,0,-5.8197e-38,0.0632668,0.0788186,-9,-1291,-6.89614e-39,-9,-94.2337,-1196.77,3.052
1.4778,1.47636,0.467119,0.290634,0,-3.8798e-38,0.0631946,0.0787167,-9,-1290,-4.59587e-39,-9,-94.2249,-1195.78,3.056
1.4778,1.47636,0.467371,0.290947,0,-2.58653e-38,0.0631224,0.0785336,-9,-1290,-3.0597e-39,-9,-94.2161,-1195.78,3.06
1.4778,1.47636,0.467624,0.291256,0,-1.72436e-38,0.0630502,0.0781524,-9,-1290,-2.03181e-39,-9,-94.2073,-1195.79,3.064
1.4778,1.47636,0.467876,0.291568,0,-1.14957e-38,0.062978,0.078071,-9,-1289,-1.35441e-39,-9,-94.1985,-1194.8,3.068
1.4778,1.47636,0.468127,0.291882,0,-7.6638e-39,0.0629058,0.0782471,-9,-1289,-9.05838e-40,-9,-94.1896,-1194.81,3.072
1.4778,1.47636,0.468379,0.292198,0,-5.1092e-39,0.0628336,0.0784508,-9,-1288,-6.06043e-40,-9,-94.1807,-1193.82,3.076
1.4778,1.47636,0.46863,0.292516,0,-3.40614e-39,0.0627614,0.0788458,-9,-1287,-4.06453e-40,-9,-94.1717,-1192.83,3.08
1.4778,1.47636,0.468881,0.292833,0,-2.27076e-39,0.0626891,0.0789651,-9,-1286,-2.71639e-40,-9,-94.1627,-1191.84,3.084
1.4778,1.47636,0.469132,0.293152,0,-1.51384e-39,0.0626169,0.0791887,-9,-1286,-1.81779e-40,-9,-94.1536,-1191.85,3.088
1.4778,1.47636,0.469382,0.293469,0,-1.00923e-39,0.0625446,0.0792225,-9,-1285,-1.21354e-40,-9,-94.1446,-1190.86,3.092
1.4778,1.47636,0.469632,0.293787,0,-6.72817e-40,0.0624724,0.0793602,-9,-1285,-8.11208e-41,-9,-94.1356,-1190.86,3.096
1.4778,1.47636,0.469882,0.294106,0,-4.48545e-40,0.0624001,0.0794233,-9,-1284,-5.41752e-41,-9,-94.1265,-1189.87,3.1
1.4778,1.47636,0.470131,0.294428,0,-2.9903e-40,0.0623278,0.0798108,-9,-1283,-3.63281e-41,-9,-94.1173,-1188.88,3.104
1.4778,1.47636,0.47038,0.294746,0,-1.99353e-40,0.0622556,0.0796948,-9,-1283,-2.42066e-41,-9,-94.1082,-1188.89,3.108
1.4778,1.47636,0.470629,0.295066,0,-1.32902e-40,0.0621833,0.0797903,-9,-1282,-1.61725e-41,-9,-94.0991,-1187.9,3.112
1.4778,1.47636,0.470878,0.295386,0,-8.86014e-41,0.062111,0.0799115,-9,-1281,-1.08084e-41,-9,-94.0899,-1186.91,3.116
1.4778,1.47636,0.471126,0.295703,0,-5.90676e-41,0.0620387,0.0796468,-9,-1281,-7.18849e-42,-9,-94.0808,-1186.92,3.12
1.4778,1.47636,0.471374,0.29602,0,-3.93784e-41,0.0619664,0.0795567,-9,-1281,-4.79143e-42,-9,-94.0717,-1186.93,3.124
1.4778,1.47636,0.471622,0.296337,0,-2.62523e-41,0.0618941,0.0794103,-9,-1280,-3.19141e-42,-9,-94.0626,-1185.94,3.128
1.4778,1.47636,0.471869,0.296656,0,-1.75015e-41,0.0618218,0.0795718,-9,-1279,-2.13396e-42,-9,-94.0535,-1184.95,3.132
1.4778,1.47636,0.472116,0.296976,0,-1.16677e-41,0.0617494,0.0796795,-9,-1279,-1.42591e-42,-9,-94.0443,-1184.96,3.136
1.4778,1.47636,0.472363,0.297295,0,-7.77845e-42,0.0616771,0.0797225,-9,-1278,-9.5202e-43,-9,-94.0351,-1183.96,3.14
1.4778,1.47636,0.47261,0.297611,0,-5.18563e-42,0.0616048,0.0794632,-9,-1278,-6.33207e-43,-9,-94.026,-1183.97,3.144
1.4778,1.47636,0.472856,0.297921,0,-3.45709e-42,0.0615324,0.0788585,-9,-1278,-4.1931e-43,-9,-94.017,-1183.98,3.148
1.4778,1.47636,0.473102,0.298227,0,-2.30473e-42,0.0614601,0.0780523,-9,-1278,-2.76932e-43,-9,-94.0082,-1183.99,3.152
1.4778,1.47636,0.473348,0.298523,0,-1.53648e-42,0.0613877,0.0766511,-9,-1279,-1.81464e-43,-9,-93.9996,-1185,3.156
1.4778,1.47636,0.473593,0.298816,0,-1.02432e-42,0.0613154,0.075573,-9,-1279,-1.19378e-43,-9,-93.9911,-1185.01,3.16
1.4778,1.47636,0.473838,0.299105,0,-6.82882e-43,0.061243,0.07448,-9,-1280,-7.85008e-44,-9,-93.9828,-1186.02,3.164
1.4778,1.47636,0.474083,0.299393,0,-4.55254e-43,0.0611706,0.0735786,-9,-1280,-5.1744e-44,-9,-93.9744,-1186.03,3.168
1.4778,1.47636,0.474328,0.299681,0,-3.03503e-43,0.0610983,0.073064,-9,-1280,-3.42837e-44,-9,-93.9661,-1186.03,3.172
1.4778,1.47636,0.474572,0.299968,0,-2.02335e-43,0.0610259,0.0726346,-9,-1280,-2.27406e-44,-9,-93.9577,-1186.04,3.176
1.4778,1.47636,0.474816,0.300258,0,-1.3489e-43,0.0609535,0.0725787,-9,-1280,-1.51615e-44,-9,-93.9493,-1186.05,3.18
1.4778,1.47636,0.475059,0.300549,0,-8.99268e-44,0.0608811,0.0726565,-9,-1279,-1.01271e-44,-9,-93.9408,-1185.06,3.184
1.4778,1.47636,0.475303,0.300838,0,-5.99512e-44,0.0608088,0.0725357,-9,-1279,-6.74588e-45,-9,-93.9324,-1185.07,3.188
1.4778,1.47636,0.475546,0.30113,0,-3.99675e-44,0.0607364,0.0726855,-9,-1279,-4.51037e-45,-9,-93.9239,-1185.08,3.192
1.4778,1.47636,0.475789,0.301417,0,-2.6645e-44,0.060664,0.072411,-9,-1278,-2.99806e-45,-9,-93.9155,-1184.08,3.196
1.4778,1.47636,0.476031,0.301703,0,-1.77633e-44,0.0605916,0.0720841,-9,-1278,-1.99134e-45,-9,-93.9072,-1184.09,3.2
1.4778,1.47636,0.476273,0.301983,0,-1.18422e-44,0.0605192,0.0713767,-9,-1279,-1.3156e-45,-9,-93.899,-1185.1,3.204
1.4778,1.47636,0.476515,0.302259,0,-7.89481e-45,0.0604468,0.0705596,-9,-1279,-8.67718e-46,-9,-93.8909,-1185.11,3.208
1.4778,1.47636,0.476757,0.302531,0,-5.26321e-45,0.0603744,0.069727,-9,-1279,-5.72103e-46,-9,-93.8829,-1185.12,3.212
1.4778,1.47636,0.476998,0.302801,0,-3.5088e-45,0.060302,0.0689992,-9,-1280,-3.77716e-46,-9,-93.875,-1186.12,3.216
1.4778,1.47636,0.477239,0.303073,0,-2.3392e-45,0.0602296,0.0686579,-9,-1280,-2.50762e-46,-9,-93.867,-1186.13,3.22
1.4778,1.47636,0.47748,0.303344,0,-1.55947e-45,0.0601571,0.0683728,-9,-1280,-1.66611e-46,-9,-93.8591,-1186.14,3.224
1.4778,1.47636,0.477721,0.303611,0,-1.03965e-45,0.0600847,0.0678085,-9,-1280,-1.10242e-46,-9,-93.8512,-1186.15,3.228
1.4778,1.47636,0.477961,0.303879,0,-6.93097e-46,0.0600123,0.0675186,-9,-1280,-7.32366e-47,-9,-93.8434,-1186.16,3.232
1.4778,1.47636,0.478201,0.304139,0,-4.62065e-46,0.0599399,0.066692,-9,-1280,-4.82627e-47,-9,-93.8357,-1186.16,3.236
1.4778,1.47636,0.47844,0.304397,0,-3.08043e-46,0.0598675,0.0659969,-9,-1281,-3.18634e-47,-9,-93.8281,-1187.17,3.24
1.4778,1.47636,0.47868,0.304651,0,-2.05362e-46,0.0597951,0.0651017,-9,-1281,-2.09694e-47,-9,-93.8206,-1187.18,3.244
1.4778,1.47636,0.478919,0.304899,0,-1.36908e-46,0.0597226,0.0641018,-9,-1282,-1.37747e-47,-9,-93.8133,-1188.19,3.248
1.4778,1.47636,0.479158,0.305148,0,-9.1272e-47,0.0596502,0.0634928,-9,-1282,-9.10235e-48,-9,-93.8059,-1188.19,3.252
1.4778,1.47636,0.479396,0.305397,0,-6.0848e-47,0.0595778,0.0630292,-9,-1283,-6.02821e-48,-9,-93.7986,-1189.2,3.256
1.4778,1.47636,0.479634,0.305647,0,-4.05654e-47,0.0595054,0.0628929,-9,-1283,-4.01298e-48,-9,-93.7912,-1189.21,3.26
1.4778,1.47636,0.479872,0.305903,0,-2.70436e-47,0.0594329,0.0632627,-9,-1282,-2.69302e-48,-9,-93.7836,-1188.22,3.264
1.4778,1.47636,0.48011,0.306155,0,-1.8029e-47,0.0593605,0.0631925,-9,-1282,-1.79464e-48,-9,-93.7761,-1188.22,3.268
1.4778,1.47636,0.480347,0.306406,0,-1.20194e-47,0.0592881,0.0630017,-9,-1282,-1.19367e-48,-9,-93.7687,-1188.23,3.272
1.4778,1.47636,0.480584,0.306657,0,-8.01291e-48,0.0592157,0.062961,-9,-1282,-7.95831e-49,-9,-93.7612,-1188.24,3.276
1.4778,1.47636,0.480821,0.306905,0,-5.34194e-48,0.0591432,0.0625883,-9,-1282,-5.27784e-49,-9,-93.7539,-1188.25,3.28
1.4778,1.47636,0.481057,0.307144,0,-3.56129e-48,0.0590708,0.0616488,-9,-1283,-3.4681e-49,-9,-93.7468,-1189.25,3.284
1.4778,1.47636,0.481293,0.307383,0,-2.3742e-48,0.0589984,0.0610513,-9,-1283,-2.29121e-49,-9,-93.7397,-1189.26,3.288
1.4778,1.47636,0.481529,0.307623,0,-1.5828e-48,0.058926,0.0607106,-9,-1283,-1.51998e-49,-9,-93.7325,-1189.27,3.292
1.4778,1.47636,0.481765,0.307864,0,-1.0552e-48,0.0588535,0.0605698,-9,-1283,-1.01166e-49,-9,-93.7253,-1189.27,3.296
1.4778,1.47636,0.482,0.308109,0,-7.03465e-49,0.0587811,0.060735,-9,-1283,-6.76748e-50,-9,-93.718,-1189.28,3.3
1.4778,1.47636,0.482235,0.308352,0,-4.68977e-49,0.0587087,0.0607876,-9,-1283,-4.51867e-50,-9,-93.7108,-1189.29,3.304
1.4778,1.47636,0.48247,0.308599,0,-3.12651e-49,0.0586363,0.0610818,-9,-1282,-3.02913e-50,-9,-93.7034,-1188.3,3.308
1.4778,1.47636,0.482704,0.308842,0,-2.08434e-49,0.0585639,0.0609612,-9,-1282,-2.01681e-50,-9,-93.6962,-1188.3,3.312
1.4778,1.47636,0.482938,0.309083,0,-1.38956e-49,0.0584914,0.0607369,-9,-1282,-1.3405e-50,-9,-93.6889,-1188.31,3.316
1.4778,1.47636,0.483172,0.309321,0,-9.26374e-50,0.058419,0.060357,-9,-1283,-8.88674e-51,-9,-93.6818,-1189.32,3.32
1.4778,1.47636,0.483405,0.309554,0,-6.17583e-50,0.0583466,0.0596719,-9,-1283,-5.86108e-51,-9,-93.6748,-1189.33,3.324
1.4778,1.47636,0.483639,0.309784,0,-4.11722e-50,0.0582742,0.0588696,-9,-1284,-3.85733e-51,-9,-93.668,-1190.33,3.328
1.4778,1.47636,0.483872,0.31001,0,-2.74481e-50,0.0582018,0.0581333,-9,-1284,-2.541e-51,-9,-93.6612,-1190.34,3.332
1.4778,1.47636,0.484104,0.310232,0,-1.82987e-50,0.0581294,0.0572681,-9,-1285,-1.66983e-51,-9,-93.6545,-1191.35,3.336
1.4778,1.47636,0.484337,0.31045,0,-1.21992e-50,0.058057,0.0563458,-9,-1286,-1.09596e-51,-9,-93.6479,-1192.35,3.34
1.4778,1.47636,0.484569,0.310663,0,-8.13278e-51,0.0579846,0.0552991,-9,-1287,-7.17493e-52,-9,-93.6415,-1193.36,3.344
1.4778,1.47636,0.484801,0.310876,0,5.75818e-05,0.0579122,0.05463,-8,-1287,5.02154e-06,-8.00001,-93.6351,-1193.36,3.348
1.4778,1.47636,0.485032,0.311086,0,-1.91939e-05,0.0578398,0.0538673,-9,-1288,-1.65144e-06,-9,-93.6288,-1194.37,3.352
1.4778,1.47636,0.485263,0.311293,0,-1.2796e-05,0.0577674,0.0531861,-9,-1289,-1.08767e-06,-9,-93.6226,-1195.38,3.356
1.4778,1.47636,0.485494,0.311502,0,-3.73216e-05,0.057695,0.0528471,-9,-1289,-3.15397e-06,-9,-93.6163,-1195.38,3.36
1.4778,1.47636,0.485725,0.311705,0,3.90988e-06,0.0576226,0.0521893,-8,-1290,3.26488e-07,-8,-93.6102,-1196.39,3.364
1.4778,1.47636,0.485955,0.311908,0,6.01884e-05,0.0575502,0.0517219,-8,-1290,4.98374e-06,-8,-93.604,-1196.4,3.368
1.4778,1.47636,0.486185,0.312107,0,-1.74562e-05,0.0574778,0.0510648,-9,-1291,-1.42784e-06,-9,-93.598,-1197.4,3.372
1.4778,1.47636,0.486415,0.312305,0,-1.16375e-05,0.0574054,0.0504828,-9,-1292,-9.41562e-07,-9,-93.5921,-1198.41,3.376
1.4778,1.47636,0.486644,0.312501,0,-7.75832e-06,0.0573331,0.0500373,-9,-1292,-6.22507e-07,-9,-93.5861,-1198.41,3.38
1.4778,1.47636,0.486874,0.312697,0,-5.17222e-06,0.0572607,0.0497114,-9,-1293,-4.12526e-07,-9,-93.5802,-1199.42,3.384
1.4778,1.47636,0.487103,0.312898,0,-3.44814e-06,0.0571883,0.0498685,-9,-1293,-2.7604e-07,-9,-93.5741,-1199.43,3.388
1.4778,1.47636,0.487331,0.313097,0,-2.29876e-06,0.057116,0.0498292,-9,-1293,-1.83983e-07,-9,-93.5681,-1199.43,3.392
1.4778,1.47636,0.487559,0.313297,0,-1.53251e-06,0.0570436,0.0498318,-9,-1293,-1.22729e-07,-9,-93.5621,-1199.44,3.396
1.4778,1.47636,0.487787,0.313494,0,-1.02167e-06,0.0569713,0.0497184,-9,-1293,-8.1678e-08,-9,-93.5561,-1199.44,3.4
1.4778,1.47636,0.488015,0.313694,0,-6.81115e-07,0.0568989,0.0497868,-9,-1293,-5.45569e-08,-9,-93.55,-1199.45,3.404
1.4778,1.47636,0.488243,0.313891,0,5.71278e-05,0.0568266,0.0495732,-8,-1294,4.55874e-06,-8,-93.544,-1200.46,3.408
1.4778,1.47636,0.48847,0.314085,0,-1.94967e-05,0.0567542,0.0492581,-9,-1294,-1.54675e-06,-9,-93.5381,-1200.46,3.412
1.4778,1.47636,0.488697,0.314283,0,-1.29978e-05,0.0566819,0.0493071,-9,-1294,-1.03276e-06,-9,-93.5321,-1200.47,3.416
1.4778,1.47636,0.488923,0.314476,0,-8.66519e-06,0.0566096,0.0489943,-9,-1294,-6.84502e-07,-9,-93.5262,-1200.47,3.42
1.4778,1.47636,0.48915,0.314672,0,-5.77679e-06,0.0565373,0.0489586,-9,-1295,-4.56246e-07,-9,-93.5203,-1201.48,3.424
1.4778,1.47636,0.489376,0.314865,0,-3.85119e-06,0.056465,0.0487332,-9,-1295,-3.02924e-07,-9,-93.5144,-1201.49,3.428
1.4778,1.47636,0.489601,0.31506,0,-2.56746e-06,0.0563927,0.0487269,-9,-1295,-2.02031e-07,-9,-93.5085,-1201.49,3.432
1.4778,1.47636,0.489827,0.315253,0,-1.71164e-06,0.0563204,0.0486075,-9,-1295,-1.34429e-07,-9,-93.5026,-1201.5,3.436
1.4778,1.47636,0.490052,0.315448,0,-1.14109e-06,0.0562481,0.0486143,-9,-1296,-8.96796e-08,-9,-93.4966,-1202.5,3.44
1.4778,1.47636,0.490277,0.315643,0,-7.6073e-07,0.0561758,0.0486764,-9,-1296,-5.98948e-08,-9,-93.4907,-1202.51,3.444
1.4778,1.47636,0.490501,0.315837,0,-5.07153e-07,0.0561035,0.0486314,-9,-1296,-3.99142e-08,-9,-93.4847,-1202.52,3.448
1.4778,1.47636,0.490726,0.316035,0,-3.38102e-07,0.0560312,0.0488606,-8,-1296,-2.67492e-08,-8,-93.4787,-1202.52,3.452
1.4778,1.47636,0.49095,0.31623,0,-2.25401e-07,0.055959,0.0488694,-8,-1296,-1.78456e-08,-8,-93.4727,-1202.53,3.456
1.4778,1.47636,0.491173,0.316433,0,-1.50268e-07,0.0558867,0.0494511,-8,-1295,-1.20453e-08,-8,-93.4665,-1201.53,3.46
1.4778,1.47636,0.491397,0.316637,0,-1.00178e-07,0.0558144,0.0500116,-8,-1295,-8.12575e-09,-8,-93.4603,-1201.54,3.464
