peachynonah/Fire_monitor_/csv_datas/trial11/cdsl_data_t11_8.csv
joint1_pos_desired, joint1_pos, joint2_pos_desired, joint2_pos, joint1_vel_desired, joint1_vel_filtered, joint2_vel_desired, joint2_vel_filtered, target_torque_joint1, target_torque_joint2, nonlinear_term_torque_joint1, PD_term_torque_joint1, nonlinear_term_torque_joint2, PD_term_torque_joint2, current_time
1.4778,1.47636,0.563,0.561518,0,0,-1.88345e-07,0,-7,-89,0,-7,-83.2477,-5.75234,0.004
1.4778,1.47636,0.563,0.561518,0,0,-7.52776e-07,0,-7,-89,0,-7,-83.2477,-5.75234,0.008
1.4778,1.47636,0.563,0.561518,0,0,-1.69239e-06,0,-7,-89,0,-7,-83.2477,-5.75234,0.012
1.4778,1.47636,0.563,0.561522,0,0,-3.00629e-06,0.0003167,-7,-89,0,-7,-83.2475,-5.75254,0.016
1.4778,1.47636,0.563,0.561532,0,0,-4.69356e-06,0.00104607,-7,-88,0,-7,-83.2469,-4.75307,0.02
1.4778,1.47636,0.563,0.561547,0,0,-6.75331e-06,0.00196418,-7,-87,0,-7,-83.2461,-3.75386,0.024
1.4778,1.47636,0.563,0.561567,0,2.87909e-05,-9.18463e-06,0.00295054,-6,-86,2.09873e-07,-6,-83.2451,-2.75489,0.028
1.4778,1.47636,0.563,0.561591,0,1.91939e-05,-1.19866e-05,0.00401118,-7,-85,1.90216e-07,-7,-83.2438,-1.75618,0.032
1.4778,1.47636,0.563,0.561621,0,1.2796e-05,-1.51584e-05,0.00512135,-7,-84,1.61912e-07,-7,-83.2423,-0.757717,0.036
1.4778,1.47636,0.563,0.561655,0,8.53064e-06,-1.86991e-05,0.00623574,-7,-83,1.31434e-07,-7,-83.2405,0.24051,0.04
1.4778,1.47636,0.563,0.561693,0,5.6871e-06,-2.26077e-05,0.00732416,-7,-82,1.0292e-07,-7,-83.2385,1.23852,0.044
1.4778,1.47636,0.563,0.561735,0,3.7914e-06,-2.68834e-05,0.00842406,-7,-81,7.89207e-08,-7,-83.2363,2.23629,0.048
1.4778,1.47636,0.562999,0.561781,0,2.5276e-06,-3.15253e-05,0.00947402,-7,-80,5.91742e-08,-7,-83.2339,3.23387,0.052
1.4778,1.47636,0.562999,0.561832,0,1.68507e-06,-3.65325e-05,0.0105195,-7,-79,4.38048e-08,-7,-83.2312,4.23122,0.056
1.4778,1.47636,0.562999,0.561885,0,1.12338e-06,-4.19041e-05,0.0114756,-7,-78,3.18591e-08,-7,-83.2284,5.22842,0.06
1.4778,1.47636,0.562999,0.561941,0,7.48918e-07,-4.76392e-05,0.0123145,-7,-77,2.27933e-08,-7,-83.2255,6.22549,0.064
1.4778,1.47636,0.562999,0.561999,0,4.99279e-07,-5.37369e-05,0.0130178,-7,-76,1.60642e-08,-7,-83.2225,7.22246,0.068
1.4778,1.47636,0.562999,0.562059,0,3.32852e-07,-6.01963e-05,0.0136881,-7,-75,1.12616e-08,-7,-83.2193,8.21931,0.072
1.4778,1.47636,0.562998,0.562121,0,2.21902e-07,-6.70165e-05,0.0142502,-7,-75,7.8165e-09,-7,-83.2161,8.21609,0.076
1.4778,1.47636,0.562998,0.562186,0,1.47934e-07,-7.41967e-05,0.0149128,-7,-74,5.45365e-09,-7,-83.2127,9.21268,0.08
1.4778,1.47636,0.562998,0.562253,0,9.86229e-08,-8.17359e-05,0.0155561,-7,-73,3.79284e-09,-7,-83.2092,10.2092,0.084
1.4778,1.47636,0.562997,0.562321,0,6.57486e-08,-8.96332e-05,0.0160138,-7,-72,2.60312e-09,-7,-83.2056,11.2056,0.088
1.4778,1.47636,0.562997,0.56239,0,4.38324e-08,-9.78879e-05,0.0164916,-7,-72,1.78732e-09,-7,-83.2019,11.2019,0.092
1.4778,1.47636,0.562997,0.562461,0,2.92216e-08,-0.000106499,0.0168965,-7,-71,1.22088e-09,-7,-83.1982,12.1982,0.096
1.4778,1.47636,0.562996,0.562533,0,1.94811e-08,-0.000115465,0.0172241,-7,-70,8.29758e-10,-7,-83.1945,13.1945,0.1
1.4778,1.47636,0.562996,0.562604,0,1.29874e-08,-0.000124786,0.0173849,-7,-70,5.58373e-10,-7,-83.1908,13.1908,0.104
1.4778,1.47636,0.562995,0.562669,0,8.65826e-09,-0.000134461,0.0170314,-7,-70,3.64703e-10,-7,-83.1873,13.1873,0.108
1.4778,1.47636,0.562995,0.562726,0,5.77217e-09,-0.000144489,0.016076,-7,-70,2.29508e-10,-7,-83.1844,13.1844,0.112
1.4778,1.47636,0.562994,0.562772,0,3.84811e-09,-0.000154868,0.0145753,-7,-71,1.38729e-10,-7,-83.1819,12.1819,0.116
1.4778,1.47636,0.562993,0.562806,0,2.56541e-09,-0.000165599,0.012596,-7,-73,7.99288e-11,-7,-83.1801,10.1801,0.12
1.4778,1.47636,0.562993,0.562828,0,1.71027e-09,-0.00017668,0.0102399,-7,-75,4.33198e-11,-7,-83.179,8.17896,0.124
1.4778,1.47636,0.562992,0.562837,0,1.14018e-09,-0.00018811,0.00757518,-7,-77,2.13646e-11,-7,-83.1785,6.17849,0.128
1.4778,1.47636,0.562991,0.562834,0,7.60121e-10,-0.000199888,0.004791,-7,-79,9.00817e-12,-7,-83.1787,4.17865,0.132
1.4778,1.47636,0.56299,0.562826,0,5.06748e-10,-0.000212014,0.00250302,-7,-81,3.13747e-12,-7,-83.1791,2.17909,0.136
1.4778,1.47636,0.562989,0.562817,0,3.37832e-10,-0.000224487,0.000891325,-7,-82,7.44828e-13,-7,-83.1796,1.17958,0.14
1.4778,1.47636,0.562989,0.562809,0,2.25221e-10,-0.000237305,-3.9184e-05,-7,-83,-2.1829e-14,-7,-83.18,0.179975,0.144
1.4778,1.47636,0.562988,0.562802,0,1.50147e-10,-0.000250469,-0.000601941,-7,-84,-2.23556e-13,-7,-83.1803,-0.819663,0.148
1.4778,1.47636,0.562987,0.562797,0,1.00098e-10,-0.000263976,-0.000833158,-7,-84,-2.06284e-13,-7,-83.1806,-0.819391,0.152
1.4778,1.47636,0.562985,0.562796,0,6.67322e-11,-0.000277826,-0.000670602,-7,-84,-1.10691e-13,-7,-83.1807,-0.819318,0.156
1.4778,1.47636,0.562984,0.562796,0,4.44881e-11,-0.000292019,-0.000447068,-7,-84,-4.91959e-14,-7,-83.1807,-0.819318,0.16
1.4778,1.47636,0.562983,0.562796,0,2.96587e-11,-0.000306553,-0.000298045,-7,-83,-2.18649e-14,-7,-83.1807,0.180682,0.164
1.4778,1.47636,0.562982,0.562796,0,1.97725e-11,-0.000321428,-0.000198697,-7,-83,-9.71771e-15,-7,-83.1807,0.180682,0.168
1.4778,1.47636,0.562981,0.562796,0,1.31817e-11,-0.000336642,-0.000132465,-7,-83,-4.31898e-15,-7,-83.1807,0.180682,0.172
1.4778,1.47636,0.562979,0.562796,0,8.78778e-12,-0.000352195,-8.83098e-05,-7,-83,-1.91955e-15,-7,-83.1807,0.180682,0.176
1.4778,1.47636,0.562978,0.562796,0,5.85852e-12,-0.000368086,-5.88732e-05,-7,-83,-8.53132e-16,-7,-83.1807,0.180682,0.18
1.4778,1.47636,0.562976,0.562796,0,3.90568e-12,-0.000384314,-3.92488e-05,-7,-83,-3.7917e-16,-7,-83.1807,0.180682,0.184
1.4778,1.47636,0.562975,0.562796,0,2.60379e-12,-0.000400878,-2.61659e-05,-7,-83,-1.6852e-16,-7,-83.1807,0.180682,0.188
1.4778,1.47636,0.562973,0.562796,0,1.73586e-12,-0.000417777,-1.74439e-05,-7,-83,-7.48978e-17,-7,-83.1807,0.180682,0.192
1.4778,1.47636,0.562971,0.562796,0,1.15724e-12,-0.000435011,-1.16293e-05,-7,-83,-3.32879e-17,-7,-83.1807,0.180682,0.196
1.4778,1.47636,0.56297,0.562796,0,7.71492e-13,-0.000452578,-7.75285e-06,-7,-83,-1.47946e-17,-7,-83.1807,0.180682,0.2
1.4778,1.47636,0.562968,0.562796,0,5.14328e-13,-0.000470478,-5.16856e-06,-7,-83,-6.57539e-18,-7,-83.1807,0.180682,0.204
1.4778,1.47636,0.562966,0.562796,0,3.42885e-13,-0.000488709,-3.44571e-06,-7,-83,-2.92239e-18,-7,-83.1807,0.180682,0.208
1.4778,1.47636,0.562964,0.562796,0,2.2859e-13,-0.000507272,-2.29714e-06,-7,-83,-1.29884e-18,-7,-83.1807,0.180682,0.212
1.4778,1.47636,0.562962,0.562796,0,1.52393e-13,-0.000526164,-1.53143e-06,-7,-83,-5.77263e-19,-7,-83.1807,0.180682,0.216
1.4778,1.47636,0.56296,0.562796,0,1.01596e-13,-0.000545386,-1.02095e-06,-7,-83,-2.56561e-19,-7,-83.1807,0.180682,0.22
1.4778,1.47636,0.562957,0.562796,0,6.77304e-14,-0.000564936,-6.80634e-07,-7,-83,-1.14027e-19,-7,-83.1807,0.180682,0.224
1.4778,1.47636,0.562955,0.562796,0,4.51536e-14,-0.000584814,-4.53756e-07,-7,-83,-5.06788e-20,-7,-83.1807,0.180682,0.228
1.4778,1.47636,0.562953,0.562796,0,3.01024e-14,-0.000605018,-3.02504e-07,-7,-83,-2.25239e-20,-7,-83.1807,0.180682,0.232
1.4778,1.47636,0.56295,0.562796,0,2.00683e-14,-0.000625548,-2.01669e-07,-7,-83,-1.00106e-20,-7,-83.1807,0.180682,0.236
1.4778,1.47636,0.562948,0.562796,0,1.33789e-14,-0.000646403,-1.34446e-07,-7,-83,-4.44917e-21,-7,-83.1807,0.180682,0.24
1.4778,1.47636,0.562945,0.562796,0,8.91924e-15,-0.000667582,-8.96308e-08,-7,-83,-1.97741e-21,-7,-83.1807,0.180682,0.244
1.4778,1.47636,0.562942,0.562796,0,5.94616e-15,-0.000689084,-5.97539e-08,-7,-83,-8.78848e-22,-7,-83.1807,0.180682,0.248
1.4778,1.47636,0.56294,0.562796,0,3.9641e-15,-0.000710908,-3.98359e-08,-7,-83,-3.90599e-22,-7,-83.1807,0.180682,0.252
1.4778,1.47636,0.562937,0.562796,0,2.64274e-15,-0.000733053,-2.65573e-08,-7,-83,-1.736e-22,-7,-83.1807,0.180682,0.256
1.4778,1.47636,0.562934,0.562796,0,1.76182e-15,-0.00075552,5.75641e-05,-7,-83,2.50857e-19,-7,-83.1806,0.180646,0.26
1.4778,1.47636,0.562931,0.562795,0,1.17455e-15,-0.000778306,-4.79967e-05,-7,-83,-1.39442e-19,-7,-83.1807,0.1807,0.264
1.4778,1.47636,0.562927,0.562795,0,7.83033e-16,-0.00080141,-3.19978e-05,-7,-83,-6.19742e-20,-7,-83.1807,0.1807,0.268
1.4778,1.47636,0.562924,0.562796,0,5.22022e-16,-0.000824833,7.45907e-06,-7,-83,9.63129e-21,-7,-83.1807,0.180682,0.272
1.4778,1.47636,0.562921,0.562796,0,3.48015e-16,-0.000848573,4.97271e-06,-7,-82,4.28057e-21,-7,-83.1807,1.18068,0.276
1.4778,1.47636,0.562917,0.562796,0,2.3201e-16,-0.000872629,3.21061e-05,-7,-82,1.84249e-20,-7,-83.1807,1.18066,0.28
1.4778,1.47636,0.562914,0.562796,0,1.54673e-16,-0.000897001,-7.38688e-06,-7,-82,-2.8261e-21,-7,-83.1807,1.18068,0.284
1.4778,1.47636,0.56291,0.562795,0,1.03115e-16,-0.000921687,-3.37155e-05,-7,-82,-8.59933e-21,-7,-83.1807,1.1807,0.288
1.4778,1.47636,0.562906,0.562796,0,2.87909e-05,-0.000946687,6.38958e-05,-6,-82,4.55029e-09,-6,-83.1806,1.18065,0.292
1.4778,1.47636,0.562903,0.562796,0,-9.59697e-06,-0.000972,-1.49847e-05,-7,-82,3.55707e-10,-7,-83.1807,1.18068,0.296
1.4778,1.47636,0.562899,0.562796,0,-6.39798e-06,-0.000997625,-9.98978e-06,-7,-82,1.58092e-10,-7,-83.1807,1.18068,0.3
1.4778,1.47636,0.562895,0.562796,0,-4.26532e-06,-0.00102356,5.0922e-05,-7,-82,-5.3724e-10,-7,-83.1806,1.18065,0.304
1.4778,1.47636,0.56289,0.562795,0,2.59474e-05,-0.00104981,-5.24248e-05,-6,-82,-3.36466e-09,-6,-83.1807,1.1807,0.308
1.4778,1.47636,0.562886,0.562795,0,1.72983e-05,-0.00107636,-3.49499e-05,-7,-82,-1.4954e-09,-7,-83.1807,1.1807,0.312
1.4778,1.47636,0.562882,0.562795,0,1.15322e-05,-0.00110323,-2.32999e-05,-7,-82,-6.64624e-10,-7,-83.1807,1.1807,0.316
1.4778,1.47636,0.562877,0.562795,0,-2.11028e-05,-0.0011304,-1.55333e-05,-7,-82,8.10801e-10,-7,-83.1807,1.1807,0.32
1.4778,1.47636,0.562873,0.562796,0,-1.40685e-05,-0.00115788,7.60173e-05,-7,-82,-2.64529e-09,-7,-83.1806,1.18065,0.324
1.4778,1.47636,0.562868,0.562796,0,-9.37903e-06,-0.00118566,-6.90367e-06,-7,-82,1.60158e-10,-7,-83.1807,1.18068,0.328
1.4778,1.47636,0.562863,0.562796,0,2.25382e-05,-0.00121375,5.29794e-05,-6,-82,2.95351e-09,-6,-83.1806,1.18065,0.332
1.4778,1.47636,0.562858,0.562796,0,1.50255e-05,-0.00124215,-2.22622e-05,-7,-82,-8.27387e-10,-7,-83.1807,1.18068,0.336
1.4778,1.47636,0.562853,0.562796,0,-1.87739e-05,-0.00127085,1.39494e-05,-7,-82,-6.47773e-10,-7,-83.1807,1.18066,0.34
1.4778,1.47636,0.562848,0.562795,0,-1.2516e-05,-0.00129985,-4.82822e-05,-7,-82,1.49473e-09,-7,-83.1807,1.1807,0.344
1.4778,1.47636,0.562843,0.562795,0,-8.34397e-06,-0.00132915,-3.21882e-05,-7,-82,6.64324e-10,-7,-83.1807,1.1807,0.348
1.4778,1.47636,0.562838,0.562796,0,2.32283e-05,-0.00135875,7.33215e-06,-6,-82,4.21269e-10,-6,-83.1807,1.18068,0.352
1.4778,1.47636,0.562832,0.562796,0,1.54855e-05,-0.00138866,4.8881e-06,-7,-82,1.87231e-10,-7,-83.1807,1.18068,0.356
1.4778,1.47636,0.562827,0.562796,0,1.03237e-05,-0.00141886,3.20497e-05,-7,-82,8.18407e-10,-7,-83.1807,1.18066,0.36
1.4778,1.47636,0.562821,0.562796,0,6.88245e-06,-0.00144936,5.01574e-05,-7,-82,8.53865e-10,-7,-83.1806,1.18065,0.364
1.4778,1.47636,0.562815,0.562796,0,4.5883e-06,-0.00148016,3.34382e-05,-7,-81,3.79496e-10,-7,-83.1806,2.18065,0.368
1.4778,1.47636,0.562809,0.562796,0,3.05887e-06,-0.00151126,2.22922e-05,-7,-81,1.68665e-10,-7,-83.1806,2.18065,0.372
1.4778,1.47636,0.562803,0.562796,0,2.03925e-06,-0.00154265,-1.39295e-05,-7,-81,-7.02612e-11,-7,-83.1807,2.18066,0.376
1.4778,1.47636,0.562797,0.562796,0,1.3595e-06,-0.00157434,-3.80772e-05,-7,-81,-1.28043e-10,-7,-83.1807,2.18068,0.38
1.4778,1.47636,0.56279,0.562796,0,9.06331e-07,-0.00160632,-2.53848e-05,-7,-81,-5.69079e-11,-7,-83.1807,2.18068,0.384
1.4778,1.47636,0.562784,0.562796,0,-2.81867e-05,-0.0016386,-1.69232e-05,-7,-81,1.17988e-09,-7,-83.1807,2.18068,0.388
1.4778,1.47636,0.562777,0.562796,0,9.99979e-06,-0.00167116,-1.12821e-05,-7,-81,-2.79058e-10,-7,-83.1807,2.18068,0.392
1.4778,1.47636,0.56277,0.562796,0,6.66653e-06,-0.00170402,5.00604e-05,-7,-81,8.25478e-10,-7,-83.1806,2.18065,0.396
1.4778,1.47636,0.562764,0.562795,0,4.44435e-06,-0.00173718,-5.29992e-05,-7,-81,-5.82624e-10,-7,-83.1807,2.1807,0.4
1.4778,1.47636,0.562756,0.562796,0,2.9629e-06,-0.00177062,-6.54185e-06,-7,-81,-4.79434e-11,-7,-83.1807,2.18068,0.404
1.4778,1.47636,0.562749,0.562795,0,1.97527e-06,-0.00180435,-3.31522e-05,-7,-81,-1.61975e-10,-7,-83.1807,2.1807,0.408
1.4778,1.47636,0.562742,0.562795,0,-2.74741e-05,-0.00183836,-2.21014e-05,-7,-81,1.50195e-09,-7,-83.1807,2.1807,0.412
1.4778,1.47636,0.562735,0.562796,0,1.04749e-05,-0.00187267,4.28476e-05,-7,-81,1.11016e-09,-7,-83.1807,2.18066,0.416
1.4778,1.47636,0.562727,0.562796,0,6.98325e-06,-0.00190726,5.7356e-05,-7,-81,9.90712e-10,-7,-83.1806,2.18065,0.42
1.4778,1.47636,0.562719,0.562796,0,4.6555e-06,-0.00194214,3.82373e-05,-7,-81,4.40316e-10,-7,-83.1806,2.18065,0.424
1.4778,1.47636,0.562712,0.562796,0,-2.56873e-05,-0.00197731,-3.20903e-05,-7,-81,2.03893e-09,-7,-83.1807,2.18068,0.428
1.4778,1.47636,0.562704,0.562795,0,1.16661e-05,-0.00201276,-5.01845e-05,-7,-81,-1.44812e-09,-7,-83.1807,2.1807,0.432
1.4778,1.47636,0.562695,0.562796,0,7.77739e-06,-0.00204849,2.41255e-05,-7,-81,4.64111e-10,-7,-83.1807,2.18066,0.436
1.4778,1.47636,0.562687,0.562796,0,5.18493e-06,-0.0020845,4.48746e-05,-7,-80,5.75513e-10,-7,-83.1806,3.18065,0.44
1.4778,1.47636,0.562679,0.562796,0,3.45662e-06,-0.0021208,-2.76654e-05,-7,-80,-2.36538e-10,-7,-83.1807,3.18068,0.444
1.4778,1.47636,0.56267,0.562795,0,2.30441e-06,-0.00215738,-4.72345e-05,-7,-80,-2.69235e-10,-7,-83.1807,3.1807,0.448
1.4778,1.47636,0.562662,0.562796,0,1.53627e-06,-0.00219423,5.48831e-05,-7,-80,2.08554e-10,-7,-83.1806,3.18065,0.452
1.4778,1.47636,0.562653,0.562796,0,1.02418e-06,-0.00223137,-2.09931e-05,-7,-80,-5.31822e-11,-7,-83.1807,3.18068,0.456
1.4778,1.47636,0.562644,0.562796,0,6.82789e-07,-0.00226879,1.47955e-05,-7,-80,2.49878e-11,-7,-83.1807,3.18066,0.46
1.4778,1.47636,0.562635,0.562796,0,4.55192e-07,-0.00230648,9.86367e-06,-7,-80,1.11057e-11,-7,-83.1807,3.18066,0.464
1.4778,1.47636,0.562625,0.562796,0,3.03462e-07,-0.00234445,3.53667e-05,-7,-80,2.65467e-11,-7,-83.1806,3.18065,0.468
1.4778,1.47636,0.562616,0.562796,0,-2.85886e-05,-0.0023827,-3.4004e-05,-7,-80,2.40456e-09,-7,-83.1807,3.18068,0.472
1.4778,1.47636,0.562606,0.562796,0,-1.90591e-05,-0.00242122,3.49125e-05,-7,-80,-1.64586e-09,-7,-83.1806,3.18065,0.476
1.4778,1.47636,0.562596,0.562795,0,1.60849e-05,-0.00246001,-6.30978e-05,-7,-80,-2.5104e-09,-7,-83.1807,3.1807,0.48
1.4778,1.47636,0.562586,0.562796,0,1.07232e-05,-0.00249908,4.43076e-05,-7,-80,1.17521e-09,-7,-83.1806,3.18065,0.484
1.4778,1.47636,0.562576,0.562796,0,7.14883e-06,-0.00253843,7.47465e-07,-7,-80,1.32171e-11,-7,-83.1807,3.18066,0.488
1.4778,1.47636,0.562566,0.562795,0,4.76589e-06,-0.00257804,-5.70835e-05,-7,-80,-6.72924e-10,-7,-83.1807,3.1807,0.492
1.4778,1.47636,0.562556,0.562796,0,3.17726e-06,-0.00261793,-9.26477e-06,-7,-80,-7.28112e-11,-7,-83.1807,3.18068,0.496
1.4778,1.47636,0.562545,0.562795,0,2.11817e-06,-0.00265808,-3.49674e-05,-7,-79,-1.83205e-10,-7,-83.1807,4.1807,0.5
1.4778,1.47636,0.562534,0.562796,0,1.41212e-06,-0.00269851,5.4793e-06,-7,-79,1.91384e-11,-7,-83.1807,4.18068,0.504
1.4778,1.47636,0.562524,0.562795,0,9.4141e-07,-0.0027392,-2.51381e-05,-7,-79,-5.85358e-11,-7,-83.1807,4.1807,0.508
1.4778,1.47636,0.562513,0.562795,0,-2.81633e-05,-0.00278016,-1.67587e-05,-7,-79,1.16744e-09,-7,-83.1807,4.1807,0.512
1.4778,1.47636,0.562501,0.562796,0,1.00154e-05,-0.00282139,4.64094e-05,-7,-79,1.1497e-09,-7,-83.1807,4.18066,0.516
1.4778,1.47636,0.56249,0.562796,0,6.67692e-06,-0.00286289,3.09396e-05,-7,-79,5.10978e-10,-7,-83.1807,4.18066,0.52
1.4778,1.47636,0.562478,0.562796,0,-2.43396e-05,-0.00290465,4.94173e-05,-7,-79,-2.97512e-09,-7,-83.1806,4.18065,0.524
1.4778,1.47636,0.562467,0.562796,0,-1.62264e-05,-0.00294668,3.29449e-05,-7,-79,-1.32228e-09,-7,-83.1806,4.18065,0.528
1.4778,1.47636,0.562455,0.562796,0,1.79733e-05,-0.00298897,-6.82767e-06,-7,-79,-3.03537e-10,-7,-83.1807,4.18066,0.532
1.4778,1.47636,0.562443,0.562796,0,1.19822e-05,-0.00303152,2.42391e-05,-7,-79,7.18398e-10,-7,-83.1806,4.18065,0.536
1.4778,1.47636,0.562431,0.562795,0,7.98814e-06,-0.00307433,-7.02133e-05,-7,-79,-1.38732e-09,-7,-83.1807,4.1807,0.54
1.4778,1.47636,0.562418,0.562796,0,5.32542e-06,-0.00311741,3.95639e-05,-7,-79,5.21152e-10,-7,-83.1806,4.18065,0.544
1.4778,1.47636,0.562406,0.562796,0,3.55028e-06,-0.00316075,2.63759e-05,-7,-78,2.31623e-10,-7,-83.1806,5.18065,0.548
1.4778,1.47636,0.562393,0.562796,0,2.36685e-06,-0.00320434,-3.99979e-05,-7,-78,-2.34164e-10,-7,-83.1807,5.18068,0.552
1.4778,1.47636,0.56238,0.562796,0,-2.7213e-05,-0.0032482,-2.66653e-05,-7,-78,1.79487e-09,-7,-83.1807,5.18068,0.556
1.4778,1.47636,0.562367,0.562796,0,1.06489e-05,-0.00329231,3.9805e-05,-7,-78,1.04847e-09,-7,-83.1806,5.18065,0.56
1.4778,1.47636,0.562354,0.562795,0,7.09927e-06,-0.00333669,-5.98361e-05,-7,-78,-1.05072e-09,-7,-83.1807,5.1807,0.564
1.4778,1.47636,0.56234,0.562796,0,4.73285e-06,-0.00338131,4.6482e-05,-7,-78,5.44151e-10,-7,-83.1806,5.18065,0.568
1.4778,1.47636,0.562327,0.562796,0,3.15523e-06,-0.0034262,-2.65938e-05,-7,-78,-2.0755e-10,-7,-83.1807,5.18068,0.572
1.4778,1.47636,0.562313,0.562796,0,2.10349e-06,-0.00347134,3.98526e-05,-7,-78,2.07352e-10,-7,-83.1806,5.18065,0.576
1.4778,1.47636,0.562299,0.562796,0,-2.73886e-05,-0.00351673,2.65684e-05,-7,-78,-1.79989e-09,-7,-83.1806,5.18065,0.58
1.4778,1.47636,0.562285,0.562796,0,1.05319e-05,-0.00356238,-1.10786e-05,-7,-78,-2.88604e-10,-7,-83.1807,5.18066,0.584
1.4778,1.47636,0.56227,0.562795,0,7.02124e-06,-0.00360828,-6.49676e-05,-7,-78,-1.12829e-09,-7,-83.1807,5.1807,0.588
1.4778,1.47636,0.562256,0.562796,0,4.68083e-06,-0.00365443,4.3061e-05,-7,-77,4.98561e-10,-7,-83.1806,6.18065,0.592
1.4778,1.47636,0.562241,0.562796,0,3.12055e-06,-0.00370083,-8.35694e-08,-7,-77,-6.45044e-13,-7,-83.1807,6.18066,0.596
1.4778,1.47636,0.562226,0.562796,0,2.08037e-06,-0.00374748,-2.88466e-05,-7,-77,-1.48438e-10,-7,-83.1807,6.18068,0.6
1.4778,1.47636,0.562211,0.562796,0,1.38691e-06,-0.00379438,3.83508e-05,-7,-77,1.31563e-10,-7,-83.1806,6.18065,0.604
1.4778,1.47636,0.562196,0.562795,0,9.24608e-07,-0.00384153,-6.08056e-05,-7,-77,-1.39063e-10,-7,-83.1807,6.1807,0.608
1.4778,1.47636,0.56218,0.562796,0,-2.81745e-05,-0.00388893,-1.17461e-05,-7,-77,8.18583e-10,-7,-83.1807,6.18068,0.612
1.4778,1.47636,0.562165,0.562796,0,-1.8783e-05,-0.00393658,-7.83076e-06,-7,-77,3.63815e-10,-7,-83.1807,6.18068,0.616
1.4778,1.47636,0.562149,0.562795,0,1.62689e-05,-0.00398447,-3.40114e-05,-7,-77,-1.36866e-09,-7,-83.1807,6.1807,0.62
1.4778,1.47636,0.562133,0.562796,0,-1.7945e-05,-0.0040326,3.49076e-05,-7,-77,-1.54944e-09,-7,-83.1807,6.18066,0.624
1.4778,1.47636,0.562117,0.562796,0,1.68276e-05,-0.00408098,2.32717e-05,-7,-76,9.68639e-10,-7,-83.1807,7.18066,0.628
1.4778,1.47636,0.5621,0.562796,0,1.12184e-05,-0.00412961,1.55145e-05,-7,-76,4.30506e-10,-7,-83.1807,7.18066,0.632
1.4778,1.47636,0.562084,0.562796,0,7.47894e-06,-0.00417848,-1.84479e-05,-7,-76,-3.41271e-10,-7,-83.1807,7.18068,0.636
1.4778,1.47636,0.562067,0.562795,0,-2.3805e-05,-0.00422759,-4.10896e-05,-7,-76,2.41941e-09,-7,-83.1807,7.1807,0.64
1.4778,1.47636,0.56205,0.562796,0,1.29209e-05,-0.00427694,3.01888e-05,-7,-76,9.64832e-10,-7,-83.1807,7.18066,0.644
1.4778,1.47636,0.562033,0.562796,0,8.61396e-06,-0.00432653,4.89168e-05,-7,-76,1.04225e-09,-7,-83.1806,7.18065,0.648
1.4778,1.47636,0.562015,0.562796,0,5.74264e-06,-0.00437637,-2.49706e-05,-7,-76,-3.54693e-10,-7,-83.1807,7.18068,0.652
1.4778,1.47636,0.561998,0.562796,0,-2.49625e-05,-0.00442644,-1.66471e-05,-7,-76,1.02787e-09,-7,-83.1807,7.18068,0.656
1.4778,1.47636,0.56198,0.562796,0,1.21493e-05,-0.00447675,1.76929e-05,-7,-76,5.31691e-10,-7,-83.1807,7.18066,0.66
1.4778,1.47636,0.561962,0.562796,0,-2.06914e-05,-0.0045273,1.17952e-05,-7,-75,-6.03682e-10,-7,-83.1807,8.18066,0.664
1.4778,1.47636,0.561944,0.562796,0,1.49966e-05,-0.00457808,7.86349e-06,-7,-75,2.9169e-10,-7,-83.1807,8.18066,0.668
1.4778,1.47636,0.561925,0.562796,0,9.99776e-06,-0.0046291,5.24233e-06,-7,-75,1.2964e-10,-7,-83.1807,8.18066,0.672
1.4778,1.47636,0.561907,0.562796,0,-2.21257e-05,-0.00468036,3.49489e-06,-7,-75,-1.91268e-10,-7,-83.1807,8.18066,0.676
1.4778,1.47636,0.561888,0.562796,0,1.40404e-05,-0.00473185,2.32992e-06,-7,-75,8.09158e-11,-7,-83.1807,8.18066,0.68
1.4778,1.47636,0.561869,0.562796,0,-1.94306e-05,-0.00478357,-2.72376e-05,-7,-75,1.30908e-09,-7,-83.1807,8.18068,0.684
1.4778,1.47636,0.561849,0.562796,0,1.58372e-05,-0.00483553,-1.81584e-05,-7,-75,-7.11323e-10,-7,-83.1807,8.18068,0.688
1.4778,1.47636,0.56183,0.562796,0,1.05581e-05,-0.00488772,1.66853e-05,-7,-75,4.35744e-10,-7,-83.1807,8.18066,0.692
1.4778,1.47636,0.56181,0.562796,0,7.03874e-06,-0.00494014,-1.76674e-05,-7,-75,-3.07594e-10,-7,-83.1807,8.18068,0.696
1.4778,1.47636,0.561791,0.562796,0,4.69249e-06,-0.00499279,1.70127e-05,-7,-74,1.97464e-10,-7,-83.1807,9.18066,0.7
1.4778,1.47636,0.56177,0.562796,0,3.12833e-06,-0.00504567,-1.74491e-05,-7,-74,-1.3502e-10,-7,-83.1807,9.18068,0.704
1.4778,1.47636,0.56175,0.562796,0,2.08555e-06,-0.00509878,-1.16328e-05,-7,-74,-6.00088e-11,-7,-83.1807,9.18068,0.708
1.4778,1.47636,0.56173,0.562796,0,1.39037e-06,-0.00515211,-7.75518e-06,-7,-74,-2.66706e-11,-7,-83.1807,9.18068,0.712
1.4778,1.47636,0.561709,0.562796,0,9.26912e-07,-0.00520568,-5.17012e-06,-7,-74,-1.18536e-11,-7,-83.1807,9.18068,0.716
1.4778,1.47636,0.561688,0.562796,0,6.17941e-07,-0.00525947,-3.44675e-06,-7,-74,-5.26827e-12,-7,-83.1807,9.18068,0.72
1.4778,1.47636,0.561667,0.562796,0,4.11961e-07,-0.00531349,-2.29783e-06,-7,-74,-2.34145e-12,-7,-83.1807,9.18068,0.724
1.4778,1.47636,0.561645,0.562796,0,2.74641e-07,-0.00536773,-1.53189e-06,-7,-74,-1.04065e-12,-7,-83.1807,9.18068,0.728
1.4778,1.47636,0.561624,0.562796,0,1.83094e-07,-0.0054222,-1.02126e-06,-7,-73,-4.62509e-13,-7,-83.1807,10.1807,0.732
1.4778,1.47636,0.561602,0.562796,0,1.22063e-07,-0.00547689,2.81101e-05,-7,-73,8.48703e-12,-7,-83.1807,10.1807,0.736
1.4778,1.47636,0.56158,0.562796,0,8.1375e-08,-0.0055318,-1.00509e-05,-7,-73,-2.02305e-12,-7,-83.1807,10.1807,0.74
1.4778,1.47636,0.561558,0.562796,0,5.425e-08,-0.00558694,-6.70058e-06,-7,-73,-8.99132e-13,-7,-83.1807,10.1807,0.744
1.4778,1.47636,0.561535,0.562796,0,-2.87548e-05,-0.00564229,-4.46705e-06,-7,-73,3.17718e-10,-7,-83.1807,10.1807,0.748
1.4778,1.47636,0.561513,0.562796,0,9.62109e-06,-0.00569787,2.58129e-05,-7,-73,6.14288e-10,-7,-83.1807,10.1807,0.752
1.4778,1.47636,0.56149,0.562796,0,-2.23769e-05,-0.00575367,-1.15823e-05,-7,-73,6.41071e-10,-7,-83.1807,10.1807,0.756
1.4778,1.47636,0.561467,0.562796,0,1.3873e-05,-0.00580968,-7.72155e-06,-7,-72,-2.64964e-10,-7,-83.1807,11.1807,0.76
1.4778,1.47636,0.561443,0.562796,0,9.24868e-06,-0.00586591,-5.1477e-06,-7,-72,-1.17762e-10,-7,-83.1807,11.1807,0.764
1.4778,1.47636,0.56142,0.562796,0,6.16578e-06,-0.00592237,-3.4318e-06,-7,-72,-5.23385e-11,-7,-83.1807,11.1807,0.768
1.4778,1.47636,0.561396,0.562796,0,-2.46804e-05,-0.00597903,-2.28787e-06,-7,-72,1.39667e-10,-7,-83.1807,11.1807,0.772
1.4778,1.47636,0.561372,0.562796,0,-1.64536e-05,-0.00603592,-1.52525e-06,-7,-72,6.20743e-11,-7,-83.1807,11.1807,0.776
1.4778,1.47636,0.561348,0.562796,0,-1.09691e-05,-0.00609301,-1.01683e-06,-7,-72,2.75886e-11,-7,-83.1807,11.1807,0.78
1.4778,1.47636,0.561323,0.562796,0,2.14782e-05,-0.00615033,-6.77887e-07,-6,-72,-3.60136e-11,-6,-83.1807,11.1807,0.784
1.4778,1.47636,0.561298,0.562796,0,1.43188e-05,-0.00620785,-4.51925e-07,-7,-71,-1.6006e-11,-7,-83.1807,12.1807,0.788
1.4778,1.47636,0.561274,0.562796,0,9.54587e-06,-0.00626559,2.84896e-05,-7,-71,6.72688e-10,-7,-83.1807,12.1807,0.792
1.4778,1.47636,0.561248,0.562796,0,6.36391e-06,-0.00632354,1.89931e-05,-7,-71,2.98973e-10,-7,-83.1807,12.1807,0.796
1.4778,1.47636,0.561223,0.562796,0,4.24261e-06,-0.00638171,-1.61289e-05,-7,-71,-1.69258e-10,-7,-83.1807,12.1807,0.8
1.4778,1.47636,0.561197,0.562796,0,-2.59625e-05,-0.00644008,-1.07526e-05,-7,-71,6.90511e-10,-7,-83.1807,12.1807,0.804
1.4778,1.47636,0.561171,0.562796,0,-1.73083e-05,-0.00649866,-7.16838e-06,-7,-71,3.06894e-10,-7,-83.1807,12.1807,0.808
1.4778,1.47636,0.561145,0.562796,0,1.7252e-05,-0.00655745,2.4012e-05,-7,-70,1.02466e-09,-7,-83.1807,13.1807,0.812
1.4778,1.47636,0.561119,0.562796,0,1.15014e-05,-0.00661645,-1.27829e-05,-7,-70,-3.63656e-10,-7,-83.1807,13.1807,0.816
1.4778,1.47636,0.561092,0.562796,0,-2.11234e-05,-0.00667566,-8.52195e-06,-7,-70,4.45259e-10,-7,-83.1807,13.1807,0.82
1.4778,1.47636,0.561066,0.562796,0,1.47087e-05,-0.00673507,2.31096e-05,-7,-70,8.40772e-10,-7,-83.1807,13.1807,0.824
1.4778,1.47636,0.561038,0.562796,0,9.80579e-06,-0.00679469,-1.33845e-05,-7,-70,-3.24636e-10,-7,-83.1807,13.1807,0.828
1.4778,1.47636,0.561011,0.562796,0,-2.22537e-05,-0.00685452,1.98679e-05,-7,-70,-1.09362e-09,-7,-83.1807,13.1807,0.832
1.4778,1.47636,0.560984,0.562796,0,1.39551e-05,-0.00691455,-1.55456e-05,-7,-70,-5.36603e-10,-7,-83.1807,13.1807,0.836
1.4778,1.47636,0.560956,0.562796,0,9.3034e-06,-0.00697478,1.84272e-05,-7,-69,4.24045e-10,-7,-83.1807,14.1807,0.84
1.4778,1.47636,0.560928,0.562796,0,6.20227e-06,-0.00703522,-1.65062e-05,-7,-69,-2.53226e-10,-7,-83.1807,14.1807,0.844
1.4778,1.47636,0.5609,0.562796,0,-2.46561e-05,-0.00709586,1.77868e-05,-7,-69,-1.08476e-09,-7,-83.1807,14.1807,0.848
1.4778,1.47636,0.560871,0.562796,0,1.23535e-05,-0.0071567,-1.6933e-05,-7,-69,-5.17413e-10,-7,-83.1807,14.1807,0.852
1.4778,1.47636,0.560842,0.562796,0,-2.05552e-05,-0.00721774,1.75022e-05,-7,-69,-8.89871e-10,-7,-83.1807,14.1807,0.856
1.4778,1.47636,0.560813,0.562796,0,-1.37035e-05,-0.00727898,-1.71228e-05,-7,-69,5.80385e-10,-7,-83.1807,14.1807,0.86
1.4778,1.47636,0.560784,0.562796,0,1.96553e-05,-0.00734042,-1.14152e-05,-7,-68,-5.54974e-10,-7,-83.1807,15.1807,0.864
1.4778,1.47636,0.560755,0.562796,0,-1.56874e-05,-0.00740206,-7.61012e-06,-7,-68,2.95294e-10,-7,-83.1807,15.1807,0.868
1.4778,1.47636,0.560725,0.562796,0,1.83326e-05,-0.00746389,-5.07341e-06,-7,-68,-2.30058e-10,-7,-83.1807,15.1807,0.872
1.4778,1.47636,0.560695,0.562796,0,1.22218e-05,-0.00752593,-3.38228e-06,-7,-68,-1.02248e-10,-7,-83.1807,15.1807,0.876
1.4778,1.47636,0.560665,0.562796,0,8.14784e-06,-0.00758815,2.65361e-05,-7,-68,5.34799e-10,-7,-83.1807,15.1807,0.88
1.4778,1.47636,0.560634,0.562796,0,5.4319e-06,-0.00765058,-1.11002e-05,-7,-67,-1.4914e-10,-7,-83.1807,16.1807,0.884
1.4778,1.47636,0.560603,0.562796,0,-2.51697e-05,-0.0077132,-7.40014e-06,-7,-67,4.60711e-10,-7,-83.1807,16.1807,0.888
1.4778,1.47636,0.560572,0.562796,0,1.20112e-05,-0.00777601,-4.93343e-06,-7,-67,-1.4657e-10,-7,-83.1807,16.1807,0.892
1.4778,1.47636,0.560541,0.562796,0,-2.07835e-05,-0.00783902,2.5502e-05,-7,-67,-1.311e-09,-7,-83.1807,16.1807,0.896
1.4778,1.47636,0.56051,0.562796,0,-1.38557e-05,-0.00790222,-1.17896e-05,-7,-67,4.04052e-10,-7,-83.1807,16.1807,0.9
1.4778,1.47636,0.560478,0.562796,0,1.95538e-05,-0.00796561,2.09312e-05,-7,-67,1.01236e-09,-7,-83.1807,16.1807,0.904
1.4778,1.47636,0.560446,0.562796,0,1.30359e-05,-0.00802919,1.39541e-05,-7,-66,4.4994e-10,-7,-83.1807,17.1807,0.908
1.4778,1.47636,0.560414,0.562796,0,8.69059e-06,-0.00809296,9.30275e-06,-7,-66,1.99973e-10,-7,-83.1807,17.1807,0.912
1.4778,1.47636,0.560381,0.562796,0,5.79372e-06,-0.00815692,-2.25891e-05,-7,-66,-3.23719e-10,-7,-83.1807,17.1807,0.916
1.4778,1.47636,0.560349,0.562796,0,3.86248e-06,-0.00822107,-1.50594e-05,-7,-66,-1.43875e-10,-7,-83.1807,17.1807,0.92
1.4778,1.47636,0.560316,0.562796,0,2.57499e-06,-0.00828541,-1.00396e-05,-7,-66,-6.39444e-11,-7,-83.1807,17.1807,0.924
1.4778,1.47636,0.560282,0.562796,0,1.71666e-06,-0.00834994,-6.69306e-06,-7,-65,-2.84197e-11,-7,-83.1807,18.1807,0.928
1.4778,1.47636,0.560249,0.562796,0,1.14444e-06,-0.00841465,-4.46204e-06,-7,-65,-1.2631e-11,-7,-83.1807,18.1807,0.932
1.4778,1.47636,0.560215,0.562796,0,7.6296e-07,-0.00847955,-2.9747e-06,-7,-65,-5.61378e-12,-7,-83.1807,18.1807,0.936
1.4778,1.47636,0.560181,0.562796,0,5.0864e-07,-0.00854463,-1.98313e-06,-7,-65,-2.49501e-12,-7,-83.1807,18.1807,0.94
1.4778,1.47636,0.560147,0.562796,0,3.39093e-07,-0.0086099,-1.32209e-06,-7,-65,-1.10889e-12,-7,-83.1807,18.1807,0.944
1.4778,1.47636,0.560112,0.562796,0,2.26062e-07,-0.00867535,-8.81391e-07,-7,-64,-4.92842e-13,-7,-83.1807,19.1807,0.948
1.4778,1.47636,0.560077,0.562796,0,-2.86402e-05,-0.00874098,-5.87594e-07,-7,-64,4.1626e-11,-7,-83.1807,19.1807,0.952
1.4778,1.47636,0.560042,0.562796,0,9.69745e-06,-0.0088068,-3.91729e-07,-7,-64,-9.39625e-12,-7,-83.1807,19.1807,0.956
1.4778,1.47636,0.560007,0.562796,0,6.46496e-06,-0.0088728,-2.61153e-07,-7,-64,-4.17611e-12,-7,-83.1807,19.1807,0.96
1.4778,1.47636,0.559971,0.562796,0,4.30998e-06,-0.00893897,-1.74102e-07,-7,-64,-1.85605e-12,-7,-83.1807,19.1807,0.964
1.4778,1.47636,0.559935,0.562796,0,2.87332e-06,-0.00900533,-1.16068e-07,-7,-63,-8.24911e-13,-7,-83.1807,20.1807,0.968
1.4778,1.47636,0.559899,0.562796,0,1.91555e-06,-0.00907187,-7.73786e-08,-7,-63,-3.66627e-13,-7,-83.1807,20.1807,0.972
1.4778,1.47636,0.559863,0.562796,0,-2.75139e-05,-0.00913858,-5.15858e-08,-7,-63,3.5107e-12,-7,-83.1807,20.1807,0.976
1.4778,1.47636,0.559826,0.562796,0,1.04483e-05,-0.00920548,-3.43905e-08,-7,-63,-8.88785e-13,-7,-83.1807,20.1807,0.98
1.4778,1.47636,0.559789,0.562796,0,-2.18254e-05,-0.00927255,-2.2927e-08,-7,-63,1.23771e-12,-7,-83.1807,20.1807,0.984
1.4778,1.47636,0.559752,0.562796,0,-1.45502e-05,-0.0093398,-1.52847e-08,-7,-62,5.50095e-13,-7,-83.1807,21.1807,0.988
1.4778,1.47636,0.559714,0.562796,0,-9.70017e-06,-0.00940722,-1.01898e-08,-7,-62,2.44487e-13,-7,-83.1807,21.1807,0.992
1.4778,1.47636,0.559677,0.562796,0,2.23241e-05,-0.00947482,-6.79319e-09,-6,-62,-3.75111e-13,-6,-83.1807,21.1807,0.996
1.4778,1.47636,0.559638,0.562796,0,1.48828e-05,-0.00954259,-4.52879e-09,-7,-62,-1.66716e-13,-7,-83.1807,21.1807,1
1.4778,1.47636,0.5596,0.562796,0,-1.88691e-05,-0.00961053,-3.01919e-09,-7,-62,1.40914e-13,-7,-83.1807,21.1807,1.004
1.4778,1.47636,0.559562,0.562796,0,1.62115e-05,-0.00967865,-2.0128e-09,-7,-61,-8.07115e-14,-7,-83.1807,22.1807,1.008
1.4778,1.47636,0.559523,0.562796,0,1.08077e-05,-0.00974694,-1.34186e-09,-7,-61,-3.58718e-14,-7,-83.1807,22.1807,1.012
1.4778,1.47636,0.559484,0.562796,0,-2.15858e-05,-0.0098154,-8.94576e-10,-7,-61,4.77635e-14,-7,-83.1807,22.1807,1.016
1.4778,1.47636,0.559444,0.562796,0,1.44004e-05,-0.00988403,-5.96384e-10,-7,-61,-2.12428e-14,-7,-83.1807,22.1807,1.02
1.4778,1.47636,0.559405,0.562796,0,3.83912e-05,-0.00995283,-3.97589e-10,-6,-61,-3.77553e-14,-6,-83.1807,22.1807,1.024
1.4778,1.47636,0.559365,0.562796,0,-3.1968e-06,-0.0100218,-2.6506e-10,-7,-60,2.0959e-15,-7,-83.1807,23.1807,1.028
1.4778,1.47636,0.559324,0.562796,0,-2.1312e-06,-0.0100909,-1.76706e-10,-7,-60,9.3151e-16,-7,-83.1807,23.1807,1.032
1.4778,1.47636,0.559284,0.562796,0,-1.4208e-06,-0.0101602,-1.17804e-10,-7,-60,4.14005e-16,-7,-83.1807,23.1807,1.036
1.4778,1.47636,0.559243,0.562796,0,-9.472e-07,-0.0102297,-7.85362e-11,-7,-60,1.84002e-16,-7,-83.1807,23.1807,1.04
1.4778,1.47636,0.559202,0.562796,0,-6.31467e-07,-0.0102994,-5.23574e-11,-7,-59,8.17787e-17,-7,-83.1807,24.1807,1.044
1.4778,1.47636,0.559161,0.562796,0,-4.20978e-07,-0.0103692,-3.4905e-11,-7,-59,3.63461e-17,-7,-83.1807,24.1807,1.048
1.4778,1.47636,0.559119,0.562796,0,-2.80652e-07,-0.0104391,-2.327e-11,-7,-59,1.61538e-17,-7,-83.1807,24.1807,1.052
1.4778,1.47636,0.559077,0.562796,0,-1.87101e-07,-0.0105093,-1.55133e-11,-7,-59,7.17947e-18,-7,-83.1807,24.1807,1.056
1.4778,1.47636,0.559035,0.562796,0,-1.24734e-07,-0.0105796,-1.03422e-11,-7,-58,3.19088e-18,-7,-83.1807,25.1807,1.06
1.4778,1.47636,0.558993,0.562796,0,-8.31561e-08,-0.01065,-6.89481e-12,-7,-58,1.41817e-18,-7,-83.1807,25.1807,1.064
1.4778,1.47636,0.55895,0.562796,0,-5.54374e-08,-0.0107206,-4.59654e-12,-7,-58,6.30297e-19,-7,-83.1807,25.1807,1.068
1.4778,1.47636,0.558907,0.562796,0,-3.69583e-08,-0.0107914,-3.06436e-12,-7,-58,2.80132e-19,-7,-83.1807,25.1807,1.072
1.4778,1.47636,0.558863,0.562796,0,-2.46388e-08,-0.0108624,-2.04291e-12,-7,-58,1.24503e-19,-7,-83.1807,25.1807,1.076
1.4778,1.47636,0.55882,0.562796,0,-1.64259e-08,-0.0109335,-1.36194e-12,-7,-57,5.53347e-20,-7,-83.1807,26.1807,1.08
1.4778,1.47636,0.558776,0.562796,0,-1.09506e-08,-0.0110047,-9.07958e-13,-7,-57,2.45932e-20,-7,-83.1807,26.1807,1.084
1.4778,1.47636,0.558732,0.562796,0,-7.3004e-09,-0.0110762,-6.05306e-13,-7,-57,1.09303e-20,-7,-83.1807,26.1807,1.088
1.4778,1.47636,0.558687,0.562796,0,-4.86693e-09,-0.0111477,-4.03537e-13,-7,-57,4.85791e-21,-7,-83.1807,26.1807,1.092
1.4778,1.47636,0.558643,0.562796,0,-3.24462e-09,-0.0112195,-2.69025e-13,-7,-56,2.15907e-21,-7,-83.1807,27.1807,1.096
1.4778,1.47636,0.558598,0.562796,0,2.87888e-05,-0.0112914,-1.7935e-13,-6,-56,-1.27713e-17,-6,-83.1807,27.1807,1.1
1.4778,1.47636,0.558552,0.562796,0,-9.59842e-06,-0.0113634,-1.19567e-13,-7,-56,2.83871e-18,-7,-83.1807,27.1807,1.104
1.4778,1.47636,0.558507,0.562796,0,-6.39808e-05,-0.0114356,-7.9711e-14,-7,-56,1.26148e-17,-7,-83.1807,27.1807,1.108
1.4778,1.47636,0.558461,0.562796,0,1.4928e-05,-0.011508,-5.31407e-14,-7,-55,-1.96218e-18,-7,-83.1807,28.1807,1.112
1.4778,1.47636,0.558415,0.562796,0,-4.76299e-05,-0.0115805,-3.54271e-14,-7,-55,4.17375e-18,-7,-83.1807,28.1807,1.116
1.4778,1.47636,0.558368,0.562796,0,2.58286e-05,-0.0116531,-2.36181e-14,-6,-55,-1.50889e-18,-6,-83.1807,28.1807,1.12
1.4778,1.47636,0.558321,0.562796,0,1.72191e-05,-0.011726,-1.57454e-14,-7,-55,-6.70617e-19,-7,-83.1807,28.1807,1.124
1.4778,1.47636,0.558274,0.562796,0,1.14794e-05,-0.0117989,-1.04969e-14,-7,-54,-2.98052e-19,-7,-83.1807,29.1807,1.128
1.4778,1.47636,0.558227,0.562796,0,7.65292e-06,-0.011872,-6.99795e-15,-7,-54,-1.32467e-19,-7,-83.1807,29.1807,1.132
1.4778,1.47636,0.558179,0.562796,0,3.38929e-05,-0.0119453,-4.6653e-15,-6,-54,-3.9111e-19,-6,-83.1807,29.1807,1.136
1.4778,1.47636,0.558132,0.562796,0,-6.19568e-06,-0.0120187,-3.1102e-15,-7,-54,4.76637e-20,-7,-83.1807,29.1807,1.14
1.4778,1.47636,0.558083,0.562796,0,-4.13045e-06,-0.0120923,-2.07347e-15,-7,-53,2.11839e-20,-7,-83.1807,30.1807,1.144
1.4778,1.47636,0.558035,0.562796,0,-2.75363e-06,-0.012166,-1.38231e-15,-7,-53,9.41506e-21,-7,-83.1807,30.1807,1.148
1.4778,1.47636,0.557986,0.562796,0,-1.83576e-06,-0.0122399,-9.21541e-16,-7,-53,4.18447e-21,-7,-83.1807,30.1807,1.152
1.4778,1.47636,0.557937,0.562796,0,-1.22384e-06,-0.0123139,-6.1436e-16,-7,-53,1.85977e-21,-7,-83.1807,30.1807,1.156
1.4778,1.47636,0.557887,0.562796,0,-8.15892e-07,-0.012388,-4.09574e-16,-7,-52,8.26562e-22,-7,-83.1807,31.1807,1.16
1.4778,1.47636,0.557838,0.562796,0,2.8247e-05,-0.0124623,-2.73049e-16,-6,-52,-1.90776e-20,-6,-83.1807,31.1807,1.164
1.4778,1.47636,0.557788,0.562796,0,-6.75414e-05,-0.0125367,-1.82033e-16,-7,-52,3.0411e-20,-7,-83.1807,31.1807,1.168
1.4778,1.47636,0.557737,0.562796,0,1.25542e-05,-0.0126113,-1.21355e-16,-7,-51,-3.76842e-21,-7,-83.1807,32.1807,1.172
1.4778,1.47636,0.557687,0.562796,0,8.36948e-06,-0.0126861,-8.09034e-17,-7,-51,-1.67485e-21,-7,-83.1807,32.1807,1.176
1.4778,1.47636,0.557636,0.562796,0,5.57965e-06,-0.0127609,-5.39356e-17,-7,-51,-7.44379e-22,-7,-83.1807,32.1807,1.18
1.4778,1.47636,0.557585,0.562796,0,3.71977e-06,-0.0128359,-3.59571e-17,-7,-51,-3.30835e-22,-7,-83.1807,32.1807,1.184
1.4778,1.47636,0.557533,0.562796,0,2.47985e-06,-0.0129111,-2.39714e-17,-7,-50,-1.47038e-22,-7,-83.1807,33.1807,1.188
1.4778,1.47636,0.557481,0.562796,0,1.65323e-06,-0.0129864,-1.59809e-17,-7,-50,-6.53501e-23,-7,-83.1807,33.1807,1.192
1.4778,1.47636,0.557429,0.562796,0,1.10215e-06,-0.0130618,-1.06539e-17,-7,-50,-2.90445e-23,-7,-83.1807,33.1807,1.196
1.4778,1.47636,0.557377,0.562796,0,7.34769e-07,-0.0131374,-7.10263e-18,-7,-50,-1.29087e-23,-7,-83.1807,33.1807,1.2
1.4778,1.47636,0.557324,0.562796,0,4.89846e-07,-0.0132131,-4.73509e-18,-7,-49,-5.73719e-24,-7,-83.1807,34.1807,1.204
1.4778,1.47636,0.557271,0.562796,0,3.26564e-07,-0.0132889,-3.15673e-18,-7,-49,-2.54986e-24,-7,-83.1807,34.1807,1.208
1.4778,1.47636,0.557218,0.562796,0,2.17709e-07,-0.0133649,-2.10448e-18,-7,-49,-1.13327e-24,-7,-83.1807,34.1807,1.212
1.4778,1.47636,0.557164,0.562796,0,1.4514e-07,-0.013441,-1.40299e-18,-7,-48,-5.03676e-25,-7,-83.1807,35.1807,1.216
1.4778,1.47636,0.55711,0.562795,0,9.67597e-08,-0.0135173,-2.87909e-05,-7,-48,-6.89067e-12,-7,-83.1807,35.1807,1.22
1.4778,1.47636,0.557056,0.562795,0,6.45065e-08,-0.0135937,-1.91939e-05,-7,-48,-3.06252e-12,-7,-83.1807,35.1807,1.224
1.4778,1.47636,0.557002,0.562795,0,4.30043e-08,-0.0136702,-1.2796e-05,-7,-48,-1.36112e-12,-7,-83.1807,35.1807,1.228
1.4778,1.47636,0.556947,0.562795,0,2.86696e-08,-0.0137469,-8.53064e-06,-7,-47,-6.04942e-13,-7,-83.1807,36.1807,1.232
1.4778,1.47636,0.556892,0.562795,0,1.9113e-08,-0.0138237,-5.6871e-06,-7,-47,-2.68863e-13,-7,-83.1807,36.1807,1.236
1.4778,1.47636,0.556836,0.562795,0,-2.87782e-05,-0.0139006,-3.7914e-06,-7,-47,2.69882e-10,-7,-83.1807,36.1807,1.24
1.4778,1.47636,0.556781,0.562795,0,-4.79764e-05,-0.0139776,-2.5276e-06,-7,-46,2.99948e-10,-7,-83.1807,37.1807,1.244
1.4778,1.47636,0.556724,0.562795,0,-3.19843e-05,-0.0140548,-1.68507e-06,-7,-46,1.3331e-10,-7,-83.1807,37.1807,1.248
1.4778,1.47636,0.556668,0.562795,0,3.6259e-05,-0.0141321,-1.12338e-06,-6,-46,-1.00752e-10,-6,-83.1807,37.1807,1.252
1.4778,1.47636,0.556611,0.562795,0,-4.61825e-06,-0.0142096,-7.48918e-07,-7,-46,8.55505e-12,-7,-83.1807,37.1807,1.256
1.4778,1.47636,0.556554,0.562795,0,2.57121e-05,-0.0142871,-4.99279e-07,-6,-45,-3.17535e-11,-6,-83.1807,38.1807,1.26
1.4778,1.47636,0.556497,0.562795,0,1.71414e-05,-0.0143648,-3.32852e-07,-7,-45,-1.41127e-11,-7,-83.1807,38.1807,1.264
1.4778,1.47636,0.556439,0.562795,0,1.14276e-05,-0.0144427,-2.90128e-05,-7,-45,-8.20079e-10,-7,-83.1807,38.1807,1.268
1.4778,1.47636,0.556382,0.562795,0,7.6184e-06,-0.0145206,-1.93419e-05,-7,-44,-3.6448e-10,-7,-83.1807,39.1807,1.272
1.4778,1.47636,0.556323,0.562795,0,5.07893e-06,-0.0145987,-1.28946e-05,-7,-44,-1.61991e-10,-7,-83.1807,39.1807,1.276
1.4778,1.47636,0.556265,0.562795,0,3.38595e-06,-0.0146769,-3.73873e-05,-7,-44,-3.13124e-10,-7,-83.1807,39.1807,1.28
1.4778,1.47636,0.556206,0.562795,0,2.2573e-06,-0.0147552,-2.49249e-05,-7,-43,-1.39166e-10,-7,-83.1807,40.1807,1.284
1.4778,1.47636,0.556147,0.562794,0,1.50487e-06,-0.0148337,-4.54075e-05,-7,-43,-1.6902e-10,-7,-83.1808,40.1808,1.288
1.4778,1.47636,0.556087,0.562794,0,1.00325e-06,-0.0149122,-3.02717e-05,-7,-43,-7.51198e-11,-7,-83.1808,40.1808,1.292
1.4778,1.47636,0.556027,0.562794,0,2.94598e-05,-0.0149909,-4.8972e-05,-6,-43,-3.56852e-09,-6,-83.1808,40.1808,1.296
1.4778,1.47636,0.555967,0.562794,0,-6.67329e-05,-0.0150698,-3.2648e-05,-7,-42,5.38899e-09,-7,-83.1808,41.1808,1.3
1.4778,1.47636,0.555907,0.562794,0,1.30932e-05,-0.0151487,-2.17654e-05,-7,-42,-7.04892e-10,-7,-83.1808,41.1808,1.304
1.4778,1.47636,0.555846,0.562794,0,8.72882e-06,-0.0152278,-4.33012e-05,-7,-42,-9.349e-10,-7,-83.1808,41.1808,1.308
1.4778,1.47636,0.555785,0.562794,0,5.81921e-06,-0.0153069,-2.88674e-05,-7,-41,-4.15511e-10,-7,-83.1808,42.1808,1.312
1.4778,1.47636,0.555724,0.562793,0,3.87947e-06,-0.0153862,-4.80359e-05,-7,-41,-4.60945e-10,-7,-83.1808,42.1808,1.316
1.4778,1.47636,0.555662,0.562793,0,2.58632e-06,-0.0154657,-3.20239e-05,-7,-41,-2.04864e-10,-7,-83.1808,42.1808,1.32
1.4778,1.47636,0.5556,0.562793,0,3.05151e-05,-0.0155452,-5.01402e-05,-6,-40,-3.78453e-09,-6,-83.1808,43.1808,1.324
1.4778,1.47636,0.555538,0.562793,0,-8.4475e-06,-0.0156248,-6.22177e-05,-7,-40,1.30003e-09,-7,-83.1808,43.1808,1.328
1.4778,1.47636,0.555475,0.562793,0,-5.63167e-06,-0.0157046,-4.14785e-05,-7,-40,5.7779e-10,-7,-83.1808,43.1808,1.332
1.4778,1.47636,0.555412,0.562792,0,-3.75444e-06,-0.0157845,-5.64432e-05,-7,-39,5.24164e-10,-7,-83.1809,44.1809,1.336
1.4778,1.47636,0.555349,0.562792,0,-2.50296e-06,-0.0158645,-6.64198e-05,-7,-39,4.11208e-10,-7,-83.1809,44.1809,1.34
1.4778,1.47636,0.555285,0.562792,0,-1.66864e-06,-0.0159446,-4.42798e-05,-7,-39,1.82759e-10,-7,-83.1809,44.1809,1.344
1.4778,1.47636,0.555221,0.562791,0,-1.11243e-06,-0.0160248,-8.71017e-05,-7,-38,2.39667e-10,-7,-83.1809,45.1809,1.348
1.4778,1.47636,0.555157,0.562791,0,-7.41619e-07,-0.0161052,-8.68588e-05,-7,-38,1.59332e-10,-7,-83.1809,45.1809,1.352
1.4778,1.47636,0.555092,0.56279,0,-4.94413e-07,-0.0161856,-8.66968e-05,-7,-38,1.06023e-10,-7,-83.181,45.181,1.356
1.4778,1.47636,0.555027,0.56279,0,-3.29608e-07,-0.0162662,-0.00011538,-7,-37,9.40668e-11,-7,-83.181,46.181,1.36
1.4778,1.47636,0.554962,0.562789,0,-2.19739e-07,-0.0163469,-0.000163293,-7,-37,8.87527e-11,-7,-83.181,46.181,1.364
1.4778,1.47636,0.554897,0.562788,0,-1.46493e-07,-0.0164277,-0.000195234,-7,-37,7.07424e-11,-7,-83.1811,46.1811,1.368
1.4778,1.47636,0.554831,0.562786,0,-9.76617e-08,-0.0165086,-0.00024532,-7,-37,5.92604e-11,-7,-83.1812,46.1812,1.372
1.4778,1.47636,0.554765,0.562785,0,-6.51078e-08,-0.0165896,-0.00027871,-7,-36,4.48842e-11,-7,-83.1812,47.1812,1.376
1.4778,1.47636,0.554698,0.562783,0,-4.34052e-08,-0.0166707,-0.000358552,-7,-36,3.84947e-11,-7,-83.1814,47.1814,1.38
1.4778,1.47636,0.554631,0.562781,0,-2.89368e-08,-0.0167519,-0.000411781,-7,-36,2.94728e-11,-7,-83.1815,47.1815,1.384
1.4778,1.47636,0.554564,0.562778,0,-1.92912e-08,-0.0168333,-0.000476057,-7,-35,2.27155e-11,-7,-83.1816,48.1816,1.388
1.4778,1.47636,0.554496,0.562775,0,-1.28608e-08,-0.0169147,-0.00057649,-7,-35,1.83384e-11,-7,-83.1818,48.1818,1.392
1.4778,1.47636,0.554429,0.562772,0,-8.57387e-09,-0.0169962,-0.000672236,-7,-35,1.42561e-11,-7,-83.1819,48.1819,1.396
1.4778,1.47636,0.554361,0.56277,0,-5.71591e-09,-0.0170779,-0.000620903,-7,-35,8.77828e-12,-7,-83.182,48.182,1.4
1.4778,1.47636,0.554292,0.562767,0,-3.81061e-09,-0.0171596,-0.000615472,-7,-34,5.80098e-12,-7,-83.1822,49.1822,1.404
1.4778,1.47636,0.554223,0.562766,0,-2.54041e-09,-0.0172415,-0.000554269,-7,-34,3.48275e-12,-7,-83.1823,49.1823,1.408
1.4778,1.47636,0.554154,0.562764,0,-1.6936e-09,-0.0173235,-0.000484676,-7,-33,2.03031e-12,-7,-83.1823,50.1823,1.412
1.4778,1.47636,0.554085,0.562764,0,-1.12907e-09,-0.0174055,-0.000380699,-7,-33,1.06316e-12,-7,-83.1824,50.1824,1.416
1.4778,1.47636,0.554015,0.562763,0,-7.52713e-10,-0.0174877,-0.000311381,-7,-33,5.79722e-13,-7,-83.1824,50.1824,1.42
1.4778,1.47636,0.553945,0.562763,0,-5.01809e-10,-0.01757,-0.000236379,-7,-32,2.93389e-13,-7,-83.1824,51.1824,1.424
1.4778,1.47636,0.553874,0.562762,0,-3.34539e-10,-0.0176523,-0.000186377,-7,-32,1.54218e-13,-7,-83.1824,51.1824,1.428
1.4778,1.47636,0.553804,0.562762,0,-2.23026e-10,-0.0177348,-0.000124251,-7,-31,6.85414e-14,-7,-83.1824,52.1824,1.432
1.4778,1.47636,0.553732,0.562762,0,-1.48684e-10,-0.0178174,-0.000111625,-7,-31,4.10509e-14,-7,-83.1825,52.1825,1.436
1.4778,1.47636,0.553661,0.562762,0,-9.91227e-11,-0.0179,-7.44167e-05,-7,-31,1.82448e-14,-7,-83.1825,52.1825,1.44
1.4778,1.47636,0.553589,0.562761,0,-6.60818e-11,-0.0179828,-7.8402e-05,-7,-30,1.28146e-14,-7,-83.1825,53.1825,1.444
1.4778,1.47636,0.553517,0.562761,0,-4.40545e-11,-0.0180657,-5.2268e-05,-7,-30,5.69539e-15,-7,-83.1825,53.1825,1.448
1.4778,1.47636,0.553445,0.562761,0,-2.93697e-11,-0.0181486,-6.36363e-05,-7,-29,4.62275e-15,-7,-83.1825,54.1825,1.452
1.4778,1.47636,0.553372,0.562761,0,-1.95798e-11,-0.0182317,-4.24242e-05,-7,-29,2.05456e-15,-7,-83.1825,54.1825,1.456
1.4778,1.47636,0.553299,0.562761,0,-1.30532e-11,-0.0183148,-5.70737e-05,-7,-29,1.84268e-15,-7,-83.1825,54.1825,1.46
1.4778,1.47636,0.553225,0.56276,0,-8.70213e-12,-0.0183981,-6.68401e-05,-7,-28,1.43866e-15,-7,-83.1825,55.1825,1.464
1.4778,1.47636,0.553152,0.56276,0,-5.80142e-12,-0.0184814,-7.3351e-05,-7,-28,1.05253e-15,-7,-83.1825,55.1825,1.468
1.4778,1.47636,0.553078,0.562759,0,-3.86761e-12,-0.0185648,-0.000106482,-7,-28,1.01863e-15,-7,-83.1826,55.1826,1.472
1.4778,1.47636,0.553003,0.562759,0,-2.57841e-12,-0.0186484,-9.97793e-05,-7,-27,6.36338e-16,-7,-83.1826,56.1826,1.476
1.4778,1.47636,0.552928,0.562759,0,-1.71894e-12,-0.018732,-9.53104e-05,-7,-27,4.05225e-16,-7,-83.1826,56.1826,1.48
1.4778,1.47636,0.552853,0.562758,0,-1.14596e-12,-0.0188157,-0.000121122,-7,-27,3.43311e-16,-7,-83.1827,56.1827,1.484
1.4778,1.47636,0.552778,0.562757,0,-7.63973e-13,-0.0188995,-0.00013833,-7,-26,2.6139e-16,-7,-83.1827,57.1827,1.488
1.4778,1.47636,0.552702,0.562757,0,-5.09315e-13,-0.0189834,-0.000149802,-7,-26,1.88712e-16,-7,-83.1827,57.1827,1.492
1.4778,1.47636,0.552626,0.562756,0,-3.39543e-13,-0.0190674,-0.00015745,-7,-25,1.32231e-16,-7,-83.1828,58.1828,1.496
1.4778,1.47636,0.55255,0.562756,0,-2.26362e-13,-0.0191514,-0.000133757,-7,-25,7.48887e-17,-7,-83.1828,58.1828,1.5
1.4778,1.47636,0.552473,0.562755,0,-1.50908e-13,-0.0192356,-0.000146753,-7,-25,5.47766e-17,-7,-83.1828,58.1828,1.504
1.4778,1.47636,0.552396,0.562754,0,-1.00605e-13,-0.0193199,-0.000155417,-7,-24,3.86737e-17,-7,-83.1829,59.1829,1.508
1.4778,1.47636,0.552318,0.562754,0,-6.70703e-14,-0.0194042,-0.000161194,-7,-24,2.67406e-17,-7,-83.1829,59.1829,1.512
1.4778,1.47636,0.55224,0.562753,0,-4.47135e-14,-0.0194886,-0.000136253,-7,-23,1.50688e-17,-7,-83.1829,60.1829,1.516
1.4778,1.47636,0.552162,0.562752,0,-2.9809e-14,-0.0195731,-0.000148417,-7,-23,1.09427e-17,-7,-83.1829,60.1829,1.52
1.4778,1.47636,0.552084,0.562752,0,-1.98727e-14,-0.0196577,-0.000156527,-7,-23,7.69375e-18,-7,-83.183,60.183,1.524
1.4778,1.47636,0.552005,0.562751,0,-1.32485e-14,-0.0197424,-0.000161933,-7,-22,5.30632e-18,-7,-83.183,61.183,1.528
1.4778,1.47636,0.551926,0.562751,0,-8.8323e-15,-0.0198272,-0.000136746,-7,-22,2.98732e-18,-7,-83.183,61.183,1.532
1.4778,1.47636,0.551846,0.56275,0,-5.8882e-15,-0.019912,-0.000148746,-7,-22,2.16631e-18,-7,-83.1831,61.1831,1.536
1.4778,1.47636,0.551767,0.562749,0,-3.92547e-15,-0.0199969,-0.000156746,-7,-21,1.52188e-18,-7,-83.1831,62.1831,1.54
1.4778,1.47636,0.551686,0.562749,0,-2.61698e-15,-0.0200819,-0.000133288,-7,-21,8.62747e-19,-7,-83.1831,62.1831,1.544
1.4778,1.47636,0.551606,0.562748,0,-1.74465e-15,-0.020167,-0.000146441,-7,-20,6.3192e-19,-7,-83.1832,63.1832,1.548
1.4778,1.47636,0.551525,0.562748,0,-1.1631e-15,-0.0202522,-0.000126418,-7,-20,3.63679e-19,-7,-83.1832,63.1832,1.552
1.4778,1.47636,0.551444,0.562748,0,-7.75401e-16,-0.0203375,-0.00011307,-7,-20,2.16852e-19,-7,-83.1832,63.1832,1.556
1.4778,1.47636,0.551362,0.562747,0,-5.16934e-16,-0.0204228,-0.000132962,-7,-19,1.70001e-19,-7,-83.1832,64.1832,1.56
1.4778,1.47636,0.551281,0.562747,0,-3.44623e-16,-0.0205082,-0.000117432,-7,-19,1.00097e-19,-7,-83.1833,64.1833,1.564
1.4778,1.47636,0.551198,0.562746,0,-2.29749e-16,-0.0205937,-0.000164661,-7,-18,9.35693e-20,-7,-83.1833,65.1833,1.568
1.4778,1.47636,0.551116,0.562746,0,-1.53166e-16,-0.0206793,-0.000109774,-7,-18,4.15863e-20,-7,-83.1833,65.1833,1.572
1.4778,1.47636,0.551033,0.562745,0,-1.0211e-16,-0.0207649,-0.000130764,-7,-18,3.30255e-20,-7,-83.1833,65.1833,1.576
1.4778,1.47636,0.55095,0.562745,0,-6.80736e-17,-0.0208506,-0.000115967,-7,-17,1.95256e-20,-7,-83.1834,66.1834,1.58
1.4778,1.47636,0.550866,0.562744,0,-4.53824e-17,-0.0209364,-0.000134893,-7,-17,1.51415e-20,-7,-83.1834,66.1834,1.584
1.4778,1.47636,0.550782,0.562744,0,-3.02549e-17,-0.0210223,-6.1138e-05,-7,-16,4.57506e-21,-7,-83.1834,67.1834,1.588
1.4778,1.47636,0.550698,0.562744,0,-2.017e-17,-0.0211083,-6.95496e-05,-7,-16,3.46968e-21,-7,-83.1834,67.1834,1.592
1.4778,1.47636,0.550613,0.562744,0,-1.34466e-17,-0.0211943,-4.63664e-05,-7,-15,1.54208e-21,-7,-83.1834,68.1834,1.596
1.4778,1.47636,0.550528,0.562743,0,-8.96443e-18,-0.0212804,-5.97018e-05,-7,-15,1.32373e-21,-7,-83.1834,68.1834,1.6
1.4778,1.47636,0.550443,0.562743,0,-5.97629e-18,-0.0213666,-6.85922e-05,-7,-15,1.0139e-21,-7,-83.1834,68.1834,1.604
1.4778,1.47636,0.550357,0.562743,0,-3.98419e-18,-0.0214528,-4.57281e-05,-7,-14,4.50622e-22,-7,-83.1834,69.1834,1.608
1.4778,1.47636,0.550271,0.562743,0,-2.65613e-18,-0.0215391,-5.92763e-05,-7,-14,3.89421e-22,-7,-83.1835,69.1835,1.612
1.4778,1.47636,0.550185,0.562743,0,-1.77075e-18,-0.0216255,-3.95176e-05,-7,-13,1.73076e-22,-7,-83.1835,70.1835,1.616
1.4778,1.47636,0.550098,0.562742,0,-1.1805e-18,-0.021712,-5.5136e-05,-7,-13,1.60987e-22,-7,-83.1835,70.1835,1.62
1.4778,1.47636,0.550011,0.562742,0,-7.87001e-19,-0.0217985,-6.55482e-05,-7,-12,1.27592e-22,-7,-83.1835,71.1835,1.624
1.4778,1.47636,0.549924,0.562742,0,-5.24667e-19,-0.0218851,-7.24897e-05,-7,-12,9.40696e-23,-7,-83.1835,71.1835,1.628
1.4778,1.47636,0.549836,0.562741,0,-3.49778e-19,-0.0219718,-7.71174e-05,-7,-12,6.67166e-23,-7,-83.1835,71.1835,1.632
1.4778,1.47636,0.549748,0.56274,0,-2.33185e-19,-0.0220585,-0.000137784,-7,-11,7.94675e-23,-7,-83.1836,72.1836,1.636
1.4778,1.47636,0.54966,0.56274,0,-1.55457e-19,-0.0221453,-9.18563e-05,-7,-11,3.53189e-23,-7,-83.1836,72.1836,1.64
1.4778,1.47636,0.549571,0.56274,0,-1.03638e-19,-0.0222322,-0.000118819,-7,-10,3.04575e-23,-7,-83.1836,73.1836,1.644
1.4778,1.47636,0.549482,0.562739,0,-6.9092e-20,-0.0223191,-0.000136795,-7,-10,2.33768e-23,-7,-83.1837,73.1837,1.648
1.4778,1.47636,0.549393,0.562738,0,-4.60613e-20,-0.0224061,-0.000177569,-7,-9,2.02298e-23,-7,-83.1837,74.1837,1.652
1.4778,1.47636,0.549303,0.562738,0,-3.07075e-20,-0.0224932,-0.00011838,-7,-9,8.99102e-24,-7,-83.1837,74.1837,1.656
1.4778,1.47636,0.549213,0.562737,0,-2.04717e-20,-0.0225803,-0.000136502,-7,-9,6.91159e-24,-7,-83.1837,74.1837,1.66
1.4778,1.47636,0.549122,0.562737,0,-1.36478e-20,-0.0226675,-0.000119792,-7,-8,4.04368e-24,-7,-83.1838,75.1838,1.664
1.4778,1.47636,0.549031,0.562737,0,-9.09853e-21,-0.0227547,-0.000108652,-7,-8,2.4451e-24,-7,-83.1838,75.1838,1.668
1.4778,1.47636,0.54894,0.562736,0,-6.06569e-21,-0.0228421,-0.000101226,-7,-7,1.51865e-24,-7,-83.1838,76.1838,1.672
1.4778,1.47636,0.548849,0.562736,0,-4.04379e-21,-0.0229294,-9.62748e-05,-7,-7,9.62914e-25,-7,-83.1838,76.1838,1.676
1.4778,1.47636,0.548757,0.562736,0,-2.69586e-21,-0.0230169,-9.29741e-05,-7,-6,6.19934e-25,-7,-83.1838,77.1838,1.68
1.4778,1.47636,0.548664,0.562735,0,-1.79724e-21,-0.0231044,-0.000119565,-7,-6,5.31489e-25,-7,-83.1839,77.1839,1.684
1.4778,1.47636,0.548572,0.562734,0,-1.19816e-21,-0.0231919,-0.000166082,-7,-5,4.9218e-25,-7,-83.1839,78.1839,1.688
1.4778,1.47636,0.548479,0.562734,0,-7.98774e-22,-0.0232796,-0.000110722,-7,-5,2.18747e-25,-7,-83.1839,78.1839,1.692
1.4778,1.47636,0.548386,0.562733,0,-5.32516e-22,-0.0233672,-0.000160187,-7,-5,2.10982e-25,-7,-83.184,78.184,1.696
1.4778,1.47636,0.548292,0.562732,0,-3.5501e-22,-0.023455,-0.000164373,-7,-4,1.4433e-25,-7,-83.184,79.184,1.7
1.4778,1.47636,0.548198,0.562731,0,-2.36674e-22,-0.0235428,-0.000195955,-7,-4,1.14707e-25,-7,-83.1841,79.1841,1.704
1.4778,1.47636,0.548104,0.56273,0,-1.57782e-22,-0.0236306,-0.000188219,-7,-3,7.34522e-26,-7,-83.1841,80.1841,1.708
1.4778,1.47636,0.548009,0.562729,0,-1.05188e-22,-0.0237186,-0.000211852,-7,-3,5.51167e-26,-7,-83.1842,80.1842,1.712
1.4778,1.47636,0.547914,0.562729,0,-7.01255e-23,-0.0238065,-0.000198816,-7,-2,3.44835e-26,-7,-83.1842,81.1842,1.716
1.4778,1.47636,0.547818,0.562727,0,-4.67504e-23,-0.0238945,-0.000247708,-7,-2,2.86423e-26,-7,-83.1843,81.1843,1.72
1.4778,1.47636,0.547723,0.562727,0,-3.11669e-23,-0.0239826,-0.000165139,-7,-1,1.27299e-26,-7,-83.1843,82.1843,1.724
1.4778,1.47636,0.547627,0.562727,0,-2.07779e-23,-0.0240708,-0.000167674,-7,-1,8.6169e-27,-7,-83.1843,82.1843,1.728
1.4778,1.47636,0.54753,0.562726,0,-1.3852e-23,-0.0241589,-0.000169365,-7,0,5.80251e-27,-7,-83.1843,83.1843,1.732
1.4778,1.47636,0.547433,0.562726,0,-9.23464e-24,-0.0242472,-0.000141701,-7,0,3.23649e-27,-7,-83.1844,83.1844,1.736
1.4778,1.47636,0.547336,0.562726,0,-6.15642e-24,-0.0243355,-9.44671e-05,-7,0,1.43844e-27,-7,-83.1844,83.1844,1.74
1.4778,1.47636,0.547239,0.562724,0,-4.10428e-24,-0.0244238,-0.000149351,-7,0,1.5161e-27,-7,-83.1844,83.1844,1.744
1.4778,1.47636,0.547141,0.562724,0,-2.73619e-24,-0.0245122,-0.000128358,-7,0,8.68663e-28,-7,-83.1844,83.1844,1.748
1.4778,1.47636,0.547043,0.562724,0,-1.82413e-24,-0.0246007,-0.000114363,-7,1,5.15967e-28,-7,-83.1845,84.1845,1.752
1.4778,1.47636,0.546944,0.562723,0,-1.21608e-24,-0.0246891,-0.000105033,-7,1,3.15915e-28,-7,-83.1845,84.1845,1.756
1.4778,1.47636,0.546845,0.562723,0,-8.10723e-25,-0.0247777,-9.88129e-05,-7,2,1.98138e-28,-7,-83.1845,85.1845,1.76
1.4778,1.47636,0.546746,0.562723,0,-5.40482e-25,-0.0248663,-9.46662e-05,-7,2,1.26548e-28,-7,-83.1845,85.1845,1.764
1.4778,1.47636,0.546646,0.562722,0,-3.60321e-25,-0.0249549,-0.000120693,-7,3,1.0756e-28,-7,-83.1845,86.1845,1.768
1.4778,1.47636,0.546546,0.562722,0,-2.40214e-25,-0.0250436,-5.16708e-05,-7,3,3.0699e-29,-7,-83.1845,86.1845,1.772
1.4778,1.47636,0.546446,0.562722,0,-1.60143e-25,-0.0251324,-6.32381e-05,-7,4,2.50477e-29,-7,-83.1845,87.1845,1.776
1.4778,1.47636,0.546345,0.562722,0,-1.06762e-25,-0.0252211,-7.09497e-05,-7,4,1.87347e-29,-7,-83.1846,87.1846,1.78
1.4778,1.47636,0.546244,0.562721,0,-7.11745e-26,-0.02531,-0.000133673,-7,5,2.35314e-29,-7,-83.1846,88.1846,1.784
1.4778,1.47636,0.546143,0.56272,0,-4.74497e-26,-0.0253988,-0.000146697,-7,5,1.72161e-29,-7,-83.1847,88.1847,1.788
1.4778,1.47636,0.546041,0.562719,0,-3.16331e-26,-0.0254878,-0.000184171,-7,6,1.44093e-29,-7,-83.1847,89.1847,1.792
1.4778,1.47636,0.545939,0.562717,0,-2.10888e-26,-0.0255767,-0.000266735,-7,6,1.39126e-29,-7,-83.1848,89.1848,1.796
1.4778,1.47636,0.545836,0.562715,0,-1.40592e-26,-0.0256657,-0.000350569,-7,7,1.21902e-29,-7,-83.1849,90.1849,1.8
1.4778,1.47636,0.545733,0.562714,0,-9.37278e-27,-0.0257548,-0.000348876,-7,7,8.08755e-30,-7,-83.185,90.185,1.804
1.4778,1.47636,0.54563,0.562711,0,-6.24852e-27,-0.0258439,-0.000434121,-7,7,6.70909e-30,-7,-83.1851,90.1851,1.808
1.4778,1.47636,0.545527,0.562708,0,-4.16568e-27,-0.025933,-0.000548532,-7,8,5.65149e-30,-7,-83.1853,91.1853,1.812
1.4778,1.47636,0.545423,0.562705,0,-2.77712e-27,-0.0260222,-0.000596015,-7,8,4.09379e-30,-7,-83.1854,91.1854,1.816
1.4778,1.47636,0.545318,0.562703,0,-1.85141e-27,-0.0261114,-0.00059888,-7,9,2.74231e-30,-7,-83.1855,92.1855,1.82
1.4778,1.47636,0.545214,0.5627,0,-1.23428e-27,-0.0262007,-0.000629581,-7,9,1.92192e-30,-7,-83.1857,92.1857,1.824
1.4778,1.47636,0.545109,0.562698,0,-8.2285e-28,-0.02629,-0.000592466,-7,10,1.20574e-30,-7,-83.1858,93.1858,1.828
1.4778,1.47636,0.545003,0.562695,0,-5.48567e-28,-0.0263793,-0.000682887,-7,10,9.26505e-31,-7,-83.186,93.186,1.832
1.4778,1.47636,0.544898,0.562692,0,-3.65711e-28,-0.0264687,-0.000685585,-7,11,6.20109e-31,-7,-83.1861,94.1861,1.836
1.4778,1.47636,0.544792,0.562689,0,-2.43808e-28,-0.0265581,-0.000716175,-7,11,4.3185e-31,-7,-83.1863,94.1863,1.84
1.4778,1.47636,0.544685,0.562685,0,-1.62538e-28,-0.0266476,-0.000765359,-7,12,3.07671e-31,-7,-83.1865,95.1865,1.844
1.4778,1.47636,0.544579,0.562682,0,-1.08359e-28,-0.026737,-0.00082694,-7,12,2.21617e-31,-7,-83.1867,95.1867,1.848
1.4778,1.47636,0.544471,0.562678,0,-7.22393e-29,-0.0268266,-0.000867993,-7,13,1.55079e-31,-7,-83.1869,96.1869,1.852
1.4778,1.47636,0.544364,0.562674,0,-4.81595e-29,-0.0269161,-0.000866571,-7,13,1.03216e-31,-7,-83.187,96.187,1.856
1.4778,1.47636,0.544256,0.562671,0,-3.21063e-29,-0.0270057,-0.000836833,-7,14,6.64491e-32,-7,-83.1872,97.1872,1.86
1.4778,1.47636,0.544148,0.562668,0,-2.14042e-29,-0.0270954,-0.000845798,-7,14,4.47738e-32,-7,-83.1874,97.1874,1.864
1.4778,1.47636,0.544039,0.562664,0,-1.42695e-29,-0.027185,-0.000880565,-7,15,3.10761e-32,-7,-83.1876,98.1876,1.868
1.4778,1.47636,0.54393,0.56266,0,-9.51299e-30,-0.0272747,-0.000932535,-7,15,2.194e-32,-7,-83.1878,98.1878,1.872
1.4778,1.47636,0.543821,0.562655,0,-6.34199e-30,-0.0273644,-0.000995972,-7,15,1.56216e-32,-7,-83.188,98.188,1.876
1.4778,1.47636,0.543711,0.562651,0,-4.228e-30,-0.0274542,-0.00106705,-7,16,1.11576e-32,-7,-83.1883,99.1883,1.88
1.4778,1.47636,0.543601,0.562645,0,-2.81866e-30,-0.027544,-0.00114323,-7,16,7.96942e-33,-7,-83.1886,99.1886,1.884
1.4778,1.47636,0.543491,0.56264,0,-1.87911e-30,-0.0276338,-0.0012516,-7,17,5.81654e-33,-7,-83.1889,100.189,1.888
1.4778,1.47636,0.54338,0.562634,0,-1.25274e-30,-0.0277237,-0.00132385,-7,17,4.1015e-33,-7,-83.1892,100.189,1.892
1.4778,1.47636,0.543269,0.562628,0,-8.3516e-31,-0.0278136,-0.00137201,-7,18,2.83379e-33,-7,-83.1895,101.189,1.896
1.4778,1.47636,0.543158,0.562621,0,-5.56773e-31,-0.0279035,-0.0014617,-7,18,2.01268e-33,-7,-83.1898,101.19,1.9
1.4778,1.47636,0.543046,0.562615,0,-3.71182e-31,-0.0279934,-0.00152149,-7,19,1.39667e-33,-7,-83.1902,102.19,1.904
1.4778,1.47636,0.542934,0.562608,0,-2.47455e-31,-0.0280834,-0.00156136,-7,19,9.55502e-34,-7,-83.1905,102.191,1.908
1.4778,1.47636,0.542821,0.562603,0,-1.6497e-31,-0.0281734,-0.00150156,-7,20,6.12602e-34,-7,-83.1908,103.191,1.912
1.4778,1.47636,0.542709,0.562597,0,-1.0998e-31,-0.0282634,-0.0014329,-7,20,3.89726e-34,-7,-83.1911,103.191,1.916
1.4778,1.47636,0.542595,0.562594,0,-7.33199e-32,-0.0283535,-0.00127197,-7,21,2.30635e-34,-7,-83.1913,104.191,1.92
1.4778,1.47636,0.542482,0.562589,0,-4.88799e-32,-0.0284436,-0.00119347,-7,21,1.44267e-34,-7,-83.1915,104.192,1.924
1.4778,1.47636,0.542368,0.562586,0,-3.25866e-32,-0.0285337,-0.00108356,-7,22,8.73203e-35,-7,-83.1917,105.192,1.928
1.4778,1.47636,0.542253,0.562583,0,-2.17244e-32,-0.0286238,-0.00101028,-7,23,5.42766e-35,-7,-83.1919,106.192,1.932
1.4778,1.47636,0.542139,0.562579,0,-1.44829e-32,-0.0287139,-0.000932638,-7,23,3.34035e-35,-7,-83.192,106.192,1.936
1.4778,1.47636,0.542024,0.562577,0,-9.6553e-33,-0.0288041,-0.000852086,-7,24,2.03456e-35,-7,-83.1922,107.192,1.94
1.4778,1.47636,0.541908,0.562574,0,-6.43686e-33,-0.0288943,-0.000769594,-7,24,1.22505e-35,-7,-83.1923,107.192,1.944
1.4778,1.47636,0.541793,0.562572,0,-4.29124e-33,-0.0289846,-0.000685808,-7,25,7.27787e-36,-7,-83.1924,108.192,1.948
1.4778,1.47636,0.541676,0.56257,0,-2.86083e-33,-0.0290748,-0.000629951,-7,26,4.45673e-36,-7,-83.1925,109.193,1.952
1.4778,1.47636,0.54156,0.562567,0,-1.90722e-33,-0.0291651,-0.000650295,-7,26,3.0671e-36,-7,-83.1927,109.193,1.956
1.4778,1.47636,0.541443,0.562565,0,-1.27148e-33,-0.0292554,-0.000635066,-7,27,1.99684e-36,-7,-83.1928,110.193,1.96
1.4778,1.47636,0.541326,0.562563,0,-8.47653e-34,-0.0293457,-0.000567332,-7,27,1.18924e-36,-7,-83.1929,110.193,1.964
1.4778,1.47636,0.541208,0.56256,0,-5.65102e-34,-0.029436,-0.00063734,-7,28,8.90659e-37,-7,-83.193,111.193,1.968
1.4778,1.47636,0.54109,0.562558,0,-3.76735e-34,-0.0295263,-0.00062643,-7,28,5.83607e-37,-7,-83.1932,111.193,1.972
1.4778,1.47636,0.540972,0.562555,0,-2.51156e-34,-0.0296167,-0.000676738,-7,29,4.20316e-37,-7,-83.1933,112.193,1.976
1.4778,1.47636,0.540854,0.562552,0,-1.67438e-34,-0.0297071,-0.000652695,-7,29,2.70255e-37,-7,-83.1935,112.193,1.98
1.4778,1.47636,0.540735,0.562548,0,-1.11625e-34,-0.0297975,-0.000780621,-7,30,2.15482e-37,-7,-83.1937,113.194,1.984
1.4778,1.47636,0.540615,0.562544,0,-7.44167e-35,-0.0298879,-0.000837114,-7,30,1.5405e-37,-7,-83.1939,113.194,1.988
1.4778,1.47636,0.540495,0.56254,0,-4.96111e-35,-0.0299784,-0.000874776,-7,31,1.0732e-37,-7,-83.1941,114.194,1.992
1.4778,1.47636,0.540375,0.562538,0,-3.30741e-35,-0.0300688,-0.000813512,-7,32,6.65359e-38,-7,-83.1942,115.194,1.996
1.4778,1.47636,0.540255,0.562534,0,-2.20494e-35,-0.0301593,-0.00083025,-7,32,4.52698e-38,-7,-83.1944,115.194,2
1.4778,1.47636,0.540134,0.562531,0,-1.46996e-35,-0.0302498,-0.000812619,-7,33,2.95389e-38,-7,-83.1946,116.195,2.004
1.4778,1.47636,0.540013,0.562527,0,-9.79973e-36,-0.0303403,-0.000858446,-7,33,2.0803e-38,-7,-83.1948,116.195,2.008
1.4778,1.47636,0.539891,0.562523,0,-6.53315e-36,-0.0304308,-0.000888997,-7,34,1.43622e-38,-7,-83.195,117.195,2.012
1.4778,1.47636,0.539769,0.562519,0,-4.35544e-36,-0.0305213,-0.000938156,-7,34,1.01042e-38,-7,-83.1952,117.195,2.016
1.4778,1.47636,0.539647,0.562515,0,-2.90362e-36,-0.0306119,-0.000999719,-7,35,7.17816e-39,-7,-83.1954,118.195,2.02
1.4778,1.47636,0.539525,0.56251,0,-1.93575e-36,-0.0307024,-0.00106955,-7,35,5.11969e-39,-7,-83.1957,118.196,2.024
1.4778,1.47636,0.539402,0.562504,0,-1.2905e-36,-0.030793,-0.00123127,-7,36,3.92918e-39,-7,-83.196,119.196,2.028
1.4778,1.47636,0.539278,0.562498,0,-8.60333e-37,-0.0308835,-0.00131029,-7,36,2.78755e-39,-7,-83.1963,119.196,2.032
1.4778,1.47636,0.539154,0.562491,0,-5.73555e-37,-0.0309741,-0.00142056,-7,37,2.01474e-39,-7,-83.1967,120.197,2.036
1.4778,1.47636,0.53903,0.562483,0,-3.8237e-37,-0.0310647,-0.00160923,-7,37,1.52154e-39,-7,-83.1971,120.197,2.04
1.4778,1.47636,0.538906,0.562474,0,-2.54914e-37,-0.0311553,-0.00182138,-7,37,1.14808e-39,-7,-83.1975,120.198,2.044
1.4778,1.47636,0.538781,0.562465,0,-1.69942e-37,-0.031246,-0.00196282,-7,38,8.24814e-40,-7,-83.198,121.198,2.048
1.4778,1.47636,0.538656,0.562455,0,-1.13295e-37,-0.0313366,-0.00214348,-7,38,6.00483e-40,-7,-83.1985,121.199,2.052
1.4778,1.47636,0.53853,0.562445,0,-7.55299e-38,-0.0314272,-0.00229272,-7,39,4.28189e-40,-7,-83.1991,122.199,2.056
1.4778,1.47636,0.538405,0.562433,0,-5.03533e-38,-0.0315179,-0.00250737,-7,39,3.12181e-40,-7,-83.1997,122.2,2.06
1.4778,1.47636,0.538278,0.562421,0,-3.35689e-38,-0.0316085,-0.00267926,-7,39,2.22386e-40,-7,-83.2003,122.2,2.064
1.4778,1.47636,0.538152,0.562408,0,-2.23792e-38,-0.0316992,-0.00290902,-7,40,1.60969e-40,-7,-83.201,123.201,2.068
1.4778,1.47636,0.538025,0.562394,0,-1.49195e-38,-0.0317898,-0.00311977,-7,40,1.15086e-40,-7,-83.2018,123.202,2.072
1.4778,1.47636,0.537897,0.562378,0,-9.94633e-39,-0.0318805,-0.00340423,-7,40,8.37182e-41,-7,-83.2026,123.203,2.076
1.4778,1.47636,0.53777,0.562361,0,-6.63089e-39,-0.0319711,-0.00365145,-7,41,5.98643e-41,-7,-83.2035,124.203,2.08
1.4778,1.47636,0.537642,0.562343,0,-4.42059e-39,-0.0320618,-0.00390264,-7,41,4.26542e-41,-7,-83.2044,124.204,2.084
1.4778,1.47636,0.537513,0.562325,0,-2.94706e-39,-0.0321525,-0.00415647,-7,41,3.02851e-41,-7,-83.2054,124.205,2.088
1.4778,1.47636,0.537384,0.562306,0,-1.96471e-39,-0.0322432,-0.0042969,-7,42,2.08719e-41,-7,-83.2063,125.206,2.092
1.4778,1.47636,0.537255,0.562287,0,-1.3098e-39,-0.0323339,-0.0044481,-7,42,1.44039e-41,-7,-83.2073,125.207,2.096
1.4778,1.47636,0.537126,0.562267,0,-8.73203e-40,-0.0324245,-0.00466406,-7,43,1.00687e-41,-7,-83.2084,126.208,2.1
1.4778,1.47636,0.536996,0.562245,0,-5.82135e-40,-0.0325152,-0.0049232,-7,43,7.08524e-42,-7,-83.2095,126.21,2.104
1.4778,1.47636,0.536866,0.562223,0,-3.8809e-40,-0.0326059,-0.00515355,-7,43,4.94439e-42,-7,-83.2107,126.211,2.108
1.4778,1.47636,0.536735,0.5622,0,-2.58727e-40,-0.0326966,-0.00536469,-7,44,3.43123e-42,-7,-83.2119,127.212,2.112
1.4778,1.47636,0.536604,0.562177,0,-1.72485e-40,-0.0327873,-0.00547666,-7,44,2.33518e-42,-7,-83.2131,127.213,2.116
1.4778,1.47636,0.536473,0.562154,0,-1.1499e-40,-0.032878,-0.0055801,-7,44,1.58615e-42,-7,-83.2143,127.214,2.12
1.4778,1.47636,0.536341,0.562129,0,-7.66598e-41,-0.0329687,-0.00576422,-7,45,1.0923e-42,-7,-83.2156,128.216,2.124
1.4778,1.47636,0.536209,0.562105,0,-5.11065e-41,-0.0330594,-0.00588697,-7,45,7.43691e-43,-7,-83.2169,128.217,2.128
1.4778,1.47636,0.536077,0.562081,0,-3.4071e-41,-0.0331501,-0.00588243,-7,46,4.954e-43,-7,-83.2182,129.218,2.132
1.4778,1.47636,0.535944,0.562056,0,-2.2714e-41,-0.0332407,-0.00599457,-7,46,3.36555e-43,-7,-83.2195,129.219,2.136
1.4778,1.47636,0.535811,0.562031,0,-1.51427e-41,-0.0333314,-0.00606932,-7,47,2.27163e-43,-7,-83.2208,130.221,2.14
1.4778,1.47636,0.535677,0.562006,0,-1.00951e-41,-0.0334221,-0.00620554,-7,47,1.54837e-43,-7,-83.2221,130.222,2.144
1.4778,1.47636,0.535543,0.56198,0,-6.73008e-42,-0.0335128,-0.00626755,-7,47,1.04253e-43,-7,-83.2235,130.223,2.148
1.4778,1.47636,0.535409,0.561953,0,-4.48672e-42,-0.0336034,-0.00642406,-7,48,7.1236e-44,-7,-83.2249,131.225,2.152
1.4778,1.47636,0.535274,0.561925,0,-2.99115e-42,-0.0336941,-0.00661477,-7,48,4.88992e-44,-7,-83.2263,131.226,2.156
1.4778,1.47636,0.535139,0.561897,0,-1.9941e-42,-0.0337848,-0.0067707,-7,49,3.33671e-44,-7,-83.2278,132.228,2.16
1.4778,1.47636,0.535004,0.561867,0,-1.3294e-42,-0.0338754,-0.00696103,-7,49,2.28694e-44,-7,-83.2294,132.229,2.164
1.4778,1.47636,0.534868,0.561838,0,-8.86266e-43,-0.0339661,-0.00708792,-7,49,1.55237e-44,-7,-83.2309,132.231,2.168
1.4778,1.47636,0.534732,0.561808,0,-5.90844e-43,-0.0340567,-0.00725888,-7,50,1.05985e-44,-7,-83.2325,133.232,2.172
1.4778,1.47636,0.534596,0.561776,0,-3.93896e-43,-0.0341473,-0.00743044,-7,50,7.23241e-45,-7,-83.2341,133.234,2.176
1.4778,1.47636,0.534459,0.561745,0,-2.62597e-43,-0.0342379,-0.00760239,-7,50,4.93304e-45,-7,-83.2358,133.236,2.18
1.4778,1.47636,0.534322,0.561712,0,-1.75065e-43,-0.0343286,-0.00777461,-7,51,3.36309e-45,-7,-83.2375,134.237,2.184
1.4778,1.47636,0.534185,0.561681,0,-1.1671e-43,-0.0344192,-0.00780304,-7,51,2.25019e-45,-7,-83.2391,134.239,2.188
1.4778,1.47636,0.534047,0.561648,0,-7.78066e-44,-0.0345098,-0.00793717,-7,52,1.52586e-45,-7,-83.2409,135.241,2.192
1.4778,1.47636,0.533909,0.561614,0,-5.18711e-44,-0.0346003,-0.00811296,-7,52,1.03974e-45,-7,-83.2426,135.243,2.196
1.4778,1.47636,0.53377,0.561581,0,-3.45807e-44,-0.0346909,-0.00814378,-7,52,6.9577e-46,-7,-83.2443,135.244,2.2
1.4778,1.47636,0.533631,0.561549,0,-2.30538e-44,-0.0347815,-0.00813553,-7,53,4.63363e-46,-7,-83.246,136.246,2.204
1.4778,1.47636,0.533492,0.561518,0,-1.53692e-44,-0.034872,-0.00801487,-7,54,3.04318e-46,-7,-83.2477,137.248,2.208
1.4778,1.47636,0.533352,0.561491,0,-1.02461e-44,-0.0349626,-0.00753136,-7,55,1.90635e-46,-7,-83.2491,138.249,2.212
1.4778,1.47636,0.533212,0.56147,0,-6.83076e-45,-0.0350531,-0.00677715,-7,56,1.1436e-46,-7,-83.2502,139.25,2.216
1.4778,1.47636,0.533072,0.561454,0,-4.55384e-45,-0.0351436,-0.00587127,-7,57,6.60485e-47,-7,-83.251,140.251,2.22
1.4778,1.47636,0.532931,0.561444,0,-3.03589e-45,-0.0352341,-0.00477791,-7,59,3.58322e-47,-7,-83.2515,142.252,2.224
1.4778,1.47636,0.53279,0.561439,0,-2.02393e-45,-0.0353246,-0.00361714,-7,60,1.80845e-47,-7,-83.2518,143.252,2.228
1.4778,1.47636,0.532648,0.561439,0,-1.34929e-45,-0.0354151,-0.00241143,-7,62,8.03756e-48,-7,-83.2518,145.252,2.232
1.4778,1.47636,0.532506,0.56144,0,-8.99523e-46,-0.0355055,-0.00152124,-7,63,3.38033e-48,-7,-83.2518,146.252,2.236
1.4778,1.47636,0.532364,0.561439,0,-5.99682e-46,-0.035596,-0.00104295,-7,64,1.54502e-48,-7,-83.2518,147.252,2.24
1.4778,1.47636,0.532222,0.561439,0,-3.99788e-46,-0.0356864,-0.000695302,-7,65,6.86674e-49,-7,-83.2518,148.252,2.244
1.4778,1.47636,0.532079,0.561439,0,-2.66525e-46,-0.0357768,-0.000463535,-7,66,3.05188e-49,-7,-83.2518,149.252,2.248
1.4778,1.47636,0.531935,0.561439,0,-1.77684e-46,-0.0358672,-0.000309023,-7,67,1.35639e-49,-7,-83.2518,150.252,2.252
1.4778,1.47636,0.531792,0.561439,0,-1.18456e-46,-0.0359575,-0.000206016,-7,68,6.02841e-50,-7,-83.2518,151.252,2.256
1.4778,1.47636,0.531648,0.561439,0,-7.89705e-47,-0.0360479,-0.000137344,-7,68,2.6793e-50,-7,-83.2518,151.252,2.26
1.4778,1.47636,0.531503,0.561439,0,-5.2647e-47,-0.0361382,-9.15625e-05,-7,69,1.1908e-50,-7,-83.2518,152.252,2.264
1.4778,1.47636,0.531359,0.561439,0,-3.5098e-47,-0.0362285,-6.10416e-05,-7,70,5.29244e-51,-7,-83.2518,153.252,2.268
1.4778,1.47636,0.531214,0.561439,0,-2.33987e-47,-0.0363188,-4.06944e-05,-7,70,2.35219e-51,-7,-83.2518,153.252,2.272
1.4778,1.47636,0.531068,0.561439,0,-1.55991e-47,-0.0364091,-2.71296e-05,-7,71,1.04542e-51,-7,-83.2518,154.252,2.276
1.4778,1.47636,0.530922,0.561439,0,-1.03994e-47,-0.0364994,-1.80864e-05,-7,72,4.64631e-52,-7,-83.2518,155.252,2.28
1.4778,1.47636,0.530776,0.561439,0,-6.93294e-48,-0.0365896,-1.20576e-05,-7,72,2.06503e-52,-7,-83.2518,155.252,2.284
1.4778,1.47636,0.53063,0.561439,0,-4.62196e-48,-0.0366798,-8.0384e-06,-7,73,9.17789e-53,-7,-83.2518,156.252,2.288
1.4778,1.47636,0.530483,0.561439,0,-3.08131e-48,-0.03677,-3.41499e-05,-7,74,2.59939e-52,-7,-83.2518,157.252,2.292
1.4778,1.47636,0.530335,0.561439,0,-2.0542e-48,-0.0368602,6.02435e-06,-7,74,-3.05704e-53,-7,-83.2518,157.252,2.296
1.4778,1.47636,0.530188,0.561439,0,-1.36947e-48,-0.0369503,-2.47747e-05,-7,75,8.38122e-53,-7,-83.2518,158.252,2.3
1.4778,1.47636,0.53004,0.561439,0,-9.1298e-49,-0.0370404,-1.65165e-05,-7,76,3.72499e-53,-7,-83.2518,159.252,2.304
1.4778,1.47636,0.529891,0.561439,0,-6.08653e-49,-0.0371305,-1.1011e-05,-7,77,1.65555e-53,-7,-83.2518,160.252,2.308
1.4778,1.47636,0.529743,0.561439,0,-4.05769e-49,-0.0372206,2.14503e-05,-7,77,-2.1501e-53,-7,-83.2518,160.252,2.312
1.4778,1.47636,0.529594,0.561439,0,-2.70512e-49,-0.0373107,1.43002e-05,-7,78,-9.556e-54,-7,-83.2518,161.252,2.316
1.4778,1.47636,0.529444,0.561439,0,-1.80342e-49,-0.0374007,-1.92575e-05,-7,79,8.57911e-54,-7,-83.2518,162.252,2.32
1.4778,1.47636,0.529294,0.561439,0,-1.20228e-49,-0.0374907,-1.28383e-05,-7,79,3.81294e-54,-7,-83.2518,162.252,2.324
1.4778,1.47636,0.529144,0.561439,0,-8.01518e-50,-0.0375806,-8.55888e-06,-7,80,1.69464e-54,-7,-83.2518,163.252,2.328
1.4778,1.47636,0.528994,0.561439,0,-5.34346e-50,-0.0376706,-5.70592e-06,-7,81,7.53173e-55,-7,-83.2518,164.252,2.332
1.4778,1.47636,0.528843,0.561439,0,-3.5623e-50,-0.0377605,-3.80394e-06,-7,81,3.34743e-55,-7,-83.2518,164.252,2.336
1.4778,1.47636,0.528692,0.561439,0,-2.37487e-50,-0.0378504,-2.53596e-06,-7,82,1.48775e-55,-7,-83.2518,165.252,2.34
1.4778,1.47636,0.52854,0.561439,0,-1.58325e-50,-0.0379403,-1.69064e-06,-7,83,6.61222e-56,-7,-83.2518,166.252,2.344
1.4778,1.47636,0.528388,0.561439,0,-1.0555e-50,-0.0380301,-1.12709e-06,-7,83,2.93876e-56,-7,-83.2518,166.252,2.348
1.4778,1.47636,0.528236,0.561439,0,-7.03665e-51,-0.0381199,-7.51396e-07,-7,84,1.30612e-56,-7,-83.2518,167.252,2.352
1.4778,1.47636,0.528083,0.561439,0,-4.6911e-51,-0.0382097,-5.00931e-07,-7,85,5.80496e-57,-7,-83.2518,168.252,2.356
1.4778,1.47636,0.52793,0.561439,0,-3.1274e-51,-0.0382994,-3.33954e-07,-7,86,2.57998e-57,-7,-83.2518,169.252,2.36
1.4778,1.47636,0.527777,0.561439,0,-2.08493e-51,-0.0383891,-2.22636e-07,-7,86,1.14666e-57,-7,-83.2518,169.252,2.364
1.4778,1.47636,0.527623,0.561439,0,-1.38996e-51,-0.0384788,-1.48424e-07,-7,87,5.09626e-58,-7,-83.2518,170.252,2.368
1.4778,1.47636,0.527469,0.561439,0,-9.26637e-52,-0.0385684,-9.89493e-08,-7,88,2.26501e-58,-7,-83.2518,171.252,2.372
1.4778,1.47636,0.527315,0.561439,0,-6.17758e-52,-0.038658,-6.59662e-08,-7,88,1.00667e-58,-7,-83.2518,171.252,2.376
1.4778,1.47636,0.52716,0.561439,0,-4.11839e-52,-0.0387476,-4.39775e-08,-7,89,4.47409e-59,-7,-83.2518,172.252,2.38
1.4778,1.47636,0.527005,0.561439,0,-2.74559e-52,-0.0388372,-2.93183e-08,-7,90,1.98848e-59,-7,-83.2518,173.252,2.384
1.4778,1.47636,0.526849,0.561439,0,-1.83039e-52,-0.0389267,-1.95455e-08,-7,91,8.8377e-60,-7,-83.2518,174.252,2.388
1.4778,1.47636,0.526693,0.561439,0,-1.22026e-52,-0.0390162,-1.30304e-08,-7,91,3.92787e-60,-7,-83.2518,174.252,2.392
1.4778,1.47636,0.526537,0.561439,0,-8.13508e-53,-0.0391056,-8.68691e-09,-7,92,1.74572e-60,-7,-83.2518,175.252,2.396
1.4778,1.47636,0.52638,0.561439,0,-5.42339e-53,-0.039195,-5.79127e-09,-7,93,7.75875e-61,-7,-83.2518,176.252,2.4
1.4778,1.47636,0.526223,0.561439,0,-3.61559e-53,-0.0392844,-3.86085e-09,-7,93,3.44833e-61,-7,-83.2518,176.252,2.404
1.4778,1.47636,0.526066,0.561439,0,-2.4104e-53,-0.0393737,-2.5739e-09,-7,94,1.53259e-61,-7,-83.2518,177.252,2.408
1.4778,1.47636,0.525908,0.561439,0,-1.60693e-53,-0.039463,-1.71593e-09,-7,95,6.81152e-62,-7,-83.2518,178.252,2.412
1.4778,1.47636,0.52575,0.561439,0,-1.07129e-53,-0.0395523,-1.14396e-09,-7,96,3.02734e-62,-7,-83.2518,179.252,2.416
1.4778,1.47636,0.525592,0.561439,0,-7.14191e-54,-0.0396415,-7.62637e-10,-7,96,1.34549e-62,-7,-83.2518,179.252,2.42
1.4778,1.47636,0.525433,0.561439,0,-4.76128e-54,-0.0397307,-5.08424e-10,-7,97,5.97994e-63,-7,-83.2518,180.252,2.424
1.4778,1.47636,0.525274,0.561439,0,-3.17418e-54,-0.0398199,-2.87913e-05,-7,98,2.25756e-58,-7,-83.2518,181.252,2.428
1.4778,1.47636,0.525115,0.561439,0,-2.11612e-54,-0.039909,-1.91942e-05,-7,98,1.00336e-58,-7,-83.2518,181.252,2.432
1.4778,1.47636,0.524955,0.561439,0,-1.41075e-54,-0.039998,-1.27961e-05,-7,99,4.45938e-59,-7,-83.2518,182.252,2.436
1.4778,1.47636,0.524795,0.561439,0,-9.40499e-55,-0.0400871,-8.53074e-06,-7,100,1.98195e-59,-7,-83.2518,183.252,2.44
1.4778,1.47636,0.524634,0.561439,0,-6.26999e-55,-0.0401761,-5.68716e-06,-7,101,8.80865e-60,-7,-83.2518,184.252,2.444
1.4778,1.47636,0.524473,0.561439,0,-4.17999e-55,-0.040265,-3.79144e-06,-7,101,3.91496e-60,-7,-83.2518,184.252,2.448
1.4778,1.47636,0.524312,0.561439,0,-2.78666e-55,-0.0403539,-2.52763e-06,-7,102,1.73998e-60,-7,-83.2518,185.252,2.452
1.4778,1.47636,0.52415,0.561439,0,-1.85778e-55,-0.0404428,-1.68509e-06,-7,103,7.73325e-61,-7,-83.2518,186.252,2.456
1.4778,1.47636,0.523989,0.561439,0,-1.23852e-55,-0.0405316,-1.12339e-06,-7,104,3.437e-61,-7,-83.2518,187.252,2.46
1.4778,1.47636,0.523826,0.561439,0,-8.25678e-56,-0.0406204,-7.48927e-07,-7,104,1.52755e-61,-7,-83.2518,187.252,2.464
1.4778,1.47636,0.523664,0.561439,0,-5.50452e-56,-0.0407092,-4.99285e-07,-7,105,6.78913e-62,-7,-83.2518,188.252,2.468
1.4778,1.47636,0.523501,0.561438,0,-3.66968e-56,-0.0407979,-2.91238e-05,-7,106,2.64011e-60,-7,-83.2518,189.252,2.472
1.4778,1.47636,0.523337,0.561438,0,-2.44645e-56,-0.0408865,-1.94159e-05,-7,107,1.17338e-60,-7,-83.2518,190.252,2.476
1.4778,1.47636,0.523173,0.561438,0,-1.63097e-56,-0.0409751,-1.29439e-05,-7,107,5.21504e-61,-7,-83.2518,190.252,2.48
1.4778,1.47636,0.523009,0.561438,0,-1.08731e-56,-0.0410637,-8.62927e-06,-7,108,2.31779e-61,-7,-83.2518,191.252,2.484
1.4778,1.47636,0.522845,0.561438,0,-7.24875e-57,-0.0411522,-5.75285e-06,-7,109,1.03013e-61,-7,-83.2518,192.252,2.488
1.4778,1.47636,0.52268,0.561438,0,-4.8325e-57,-0.0412407,-3.83523e-06,-7,110,4.57836e-62,-7,-83.2518,193.252,2.492
1.4778,1.47636,0.522515,0.561438,0,-3.22167e-57,-0.0413291,-3.13477e-05,-7,110,2.49479e-61,-7,-83.2519,193.252,2.496
1.4778,1.47636,0.52235,0.561438,0,-2.14778e-57,-0.0414175,-2.08985e-05,-7,111,1.10879e-61,-7,-83.2519,194.252,2.5
1.4778,1.47636,0.522184,0.561438,0,-1.43185e-57,-0.0415058,-1.39323e-05,-7,112,4.92797e-62,-7,-83.2519,195.252,2.504
1.4778,1.47636,0.522017,0.561438,0,-9.54568e-58,-0.0415941,-9.28822e-06,-7,113,2.19021e-62,-7,-83.2519,196.252,2.508
1.4778,1.47636,0.521851,0.561438,0,-6.36379e-58,-0.0416823,-6.19215e-06,-7,113,9.73427e-63,-7,-83.2519,196.252,2.512
1.4778,1.47636,0.521684,0.561438,0,-4.24252e-58,-0.0417705,-3.2919e-05,-7,114,3.44999e-62,-7,-83.2519,197.252,2.516
1.4778,1.47636,0.521517,0.561438,0,-2.82835e-58,-0.0418587,-2.1946e-05,-7,115,1.53333e-62,-7,-83.2519,198.252,2.52
1.4778,1.47636,0.521349,0.561437,0,-1.88557e-58,-0.0419468,-4.34216e-05,-7,116,2.02252e-62,-7,-83.2519,199.252,2.524
1.4778,1.47636,0.521181,0.561437,0,-1.25704e-58,-0.0420348,-2.89477e-05,-7,116,8.989e-63,-7,-83.2519,199.252,2.528
1.4778,1.47636,0.521013,0.561437,0,-8.38029e-59,-0.0421228,-1.92985e-05,-7,117,3.99511e-63,-7,-83.2519,200.252,2.532
1.4778,1.47636,0.520844,0.561437,0,-5.58686e-59,-0.0422107,-1.28657e-05,-7,118,1.7756e-63,-7,-83.2519,201.252,2.536
1.4778,1.47636,0.520675,0.561437,0,-3.72458e-59,-0.0422986,-3.7368e-05,-7,119,3.43814e-63,-7,-83.2519,202.252,2.54
1.4778,1.47636,0.520506,0.561437,0,-2.48305e-59,-0.0423865,-2.4912e-05,-7,119,1.52806e-63,-7,-83.2519,202.252,2.544
1.4778,1.47636,0.520336,0.561437,0,-1.65537e-59,-0.0424742,-4.53989e-05,-7,120,1.85646e-63,-7,-83.2519,203.252,2.548
1.4778,1.47636,0.520166,0.561436,0,-1.10358e-59,-0.042562,-8.78478e-05,-7,121,2.39486e-63,-7,-83.252,204.252,2.552
1.4778,1.47636,0.519996,0.561435,0,-7.35719e-60,-0.0426497,-0.000116147,-7,122,2.11089e-63,-7,-83.252,205.252,2.556
1.4778,1.47636,0.519825,0.561434,0,-4.90479e-60,-0.0427373,-0.000135013,-7,122,1.63584e-63,-7,-83.252,205.252,2.56
1.4778,1.47636,0.519654,0.561434,0,-3.26986e-60,-0.0428249,-0.000147591,-7,123,1.19216e-63,-7,-83.2521,206.252,2.564
1.4778,1.47636,0.519482,0.561433,0,-2.17991e-60,-0.0429124,-0.000127185,-7,124,6.84885e-64,-7,-83.2521,207.252,2.568
1.4778,1.47636,0.51931,0.561433,0,-1.45327e-60,-0.0429998,-0.000142372,-7,125,5.1111e-64,-7,-83.2521,208.252,2.572
1.4778,1.47636,0.519138,0.561432,0,-9.68848e-61,-0.0430873,-0.000123705,-7,126,2.96066e-64,-7,-83.2521,209.252,2.576
1.4778,1.47636,0.518966,0.561432,0,-6.45898e-61,-0.0431746,-0.000111261,-7,126,1.77522e-64,-7,-83.2522,209.252,2.58
1.4778,1.47636,0.518793,0.561432,0,-4.30599e-61,-0.0432619,-0.000102965,-7,127,1.09523e-64,-7,-83.2522,210.252,2.584
1.4778,1.47636,0.51862,0.561431,0,-2.87066e-61,-0.0433491,-9.74343e-05,-7,128,6.90935e-65,-7,-83.2522,211.252,2.588
1.4778,1.47636,0.518446,0.561431,0,-1.91377e-61,-0.0434363,-6.49562e-05,-7,129,3.07082e-65,-7,-83.2522,212.252,2.592
1.4778,1.47636,0.518272,0.561431,0,-1.27585e-61,-0.0435235,-7.2095e-05,-7,129,2.27221e-65,-7,-83.2522,212.252,2.596
1.4778,1.47636,0.518098,0.561431,0,-8.50566e-62,-0.0436105,-4.80634e-05,-7,130,1.00987e-65,-7,-83.2522,213.252,2.6
1.4778,1.47636,0.517923,0.561431,0,-5.67044e-62,-0.0436975,-6.08332e-05,-7,131,8.52119e-66,-7,-83.2522,214.252,2.604
1.4778,1.47636,0.517748,0.56143,0,-3.78029e-62,-0.0437845,-6.93464e-05,-7,132,6.47578e-66,-7,-83.2523,215.252,2.608
1.4778,1.47636,0.517573,0.56143,0,-2.52019e-62,-0.0438714,-7.50218e-05,-7,133,4.67052e-66,-7,-83.2523,216.252,2.612
1.4778,1.47636,0.517397,0.561429,0,-1.68013e-62,-0.0439582,-0.000107596,-7,133,4.46564e-66,-7,-83.2523,216.252,2.616
1.4778,1.47636,0.517221,0.561429,0,-1.12009e-62,-0.044045,-0.000129313,-7,134,3.57796e-66,-7,-83.2523,217.252,2.62
1.4778,1.47636,0.517045,0.561428,0,-7.46724e-63,-0.0441317,-0.00014379,-7,135,2.65236e-66,-7,-83.2524,218.252,2.624
1.4778,1.47636,0.516868,0.561427,0,-4.97816e-63,-0.0442183,-0.000153442,-7,136,1.88693e-66,-7,-83.2524,219.252,2.628
1.4778,1.47636,0.516691,0.561426,0,-3.31877e-63,-0.0443049,-0.000159877,-7,137,1.3107e-66,-7,-83.2525,220.252,2.632
1.4778,1.47636,0.516514,0.561426,0,-2.21252e-63,-0.0443915,-0.000164166,-7,137,8.97247e-67,-7,-83.2525,220.252,2.636
1.4778,1.47636,0.516336,0.561425,0,-1.47501e-63,-0.0444779,-0.000167026,-7,138,6.08584e-67,-7,-83.2525,221.253,2.64
1.4778,1.47636,0.516158,0.561424,0,-9.83341e-64,-0.0445643,-0.000168933,-7,139,4.10353e-67,-7,-83.2526,222.253,2.644
1.4778,1.47636,0.51598,0.561424,0,-6.5556e-64,-0.0446507,-0.000170204,-7,140,2.75627e-67,-7,-83.2526,223.253,2.648
1.4778,1.47636,0.515801,0.561423,0,-4.3704e-64,-0.044737,-0.000171051,-7,141,1.84666e-67,-7,-83.2526,224.253,2.652
1.4778,1.47636,0.515622,0.561422,0,-2.9136e-64,-0.0448232,-0.000171616,-7,141,1.23517e-67,-7,-83.2527,224.253,2.656
1.4778,1.47636,0.515442,0.561422,0,-1.9424e-64,-0.0449093,-0.000171992,-7,142,8.25254e-68,-7,-83.2527,225.253,2.66
1.4778,1.47636,0.515262,0.561421,0,-1.29493e-64,-0.0449954,-0.000172243,-7,143,5.50972e-68,-7,-83.2527,226.253,2.664
1.4778,1.47636,0.515082,0.561421,0,-8.6329e-65,-0.0450814,-0.00014362,-7,144,3.06274e-68,-7,-83.2528,227.253,2.668
1.4778,1.47636,0.514902,0.56142,0,-5.75526e-65,-0.0451674,-0.000182119,-7,145,2.58917e-68,-7,-83.2528,228.253,2.672
1.4778,1.47636,0.514721,0.561419,0,-3.83684e-65,-0.0452533,-0.000178995,-7,145,1.6965e-68,-7,-83.2528,228.253,2.676
1.4778,1.47636,0.51454,0.561418,0,-2.55789e-65,-0.0453391,-0.000205703,-7,146,1.29975e-68,-7,-83.2529,229.253,2.68
1.4778,1.47636,0.514358,0.561417,0,-1.70526e-65,-0.0454249,-0.000194717,-7,147,8.20225e-69,-7,-83.2529,230.253,2.684
1.4778,1.47636,0.514176,0.561416,0,-1.13684e-65,-0.0455105,-0.000216184,-7,148,6.07101e-69,-7,-83.253,231.253,2.688
1.4778,1.47636,0.513994,0.561416,0,-7.57895e-66,-0.0455962,-0.000172914,-7,149,3.23724e-69,-7,-83.253,232.253,2.692
1.4778,1.47636,0.513812,0.561415,0,-5.05263e-66,-0.0456817,-0.000172858,-7,149,2.15746e-69,-7,-83.253,232.253,2.696
1.4778,1.47636,0.513629,0.561414,0,-3.36842e-66,-0.0457672,-0.00017282,-7,150,1.438e-69,-7,-83.2531,233.253,2.7
1.4778,1.47636,0.513445,0.561413,0,-2.24561e-66,-0.0458526,-0.000201586,-7,151,1.11823e-69,-7,-83.2531,234.253,2.704
1.4778,1.47636,0.513262,0.561413,0,-1.49708e-66,-0.045938,-0.000191973,-7,152,7.09936e-70,-7,-83.2532,235.253,2.708
1.4778,1.47636,0.513078,0.561411,0,-9.98051e-67,-0.0460232,-0.000243145,-7,153,5.99452e-70,-7,-83.2532,236.253,2.712
1.4778,1.47636,0.512894,0.56141,0,-6.65367e-67,-0.0461085,-0.000277261,-7,153,4.55706e-70,-7,-83.2533,236.253,2.716
1.4778,1.47636,0.512709,0.561409,0,-4.43578e-67,-0.0461936,-0.000271213,-7,154,2.97177e-70,-7,-83.2534,237.253,2.72
1.4778,1.47636,0.512524,0.561407,0,-2.95719e-67,-0.0462787,-0.000324763,-7,155,2.37235e-70,-7,-83.2535,238.253,2.724
1.4778,1.47636,0.512339,0.561406,0,-1.97146e-67,-0.0463636,-0.000302882,-7,156,1.47501e-70,-7,-83.2535,239.254,2.728
1.4778,1.47636,0.512153,0.561405,0,-1.31431e-67,-0.0464486,-0.000288294,-7,157,9.35976e-71,-7,-83.2536,240.254,2.732
1.4778,1.47636,0.511967,0.561404,0,-8.76204e-68,-0.0465334,-0.000249778,-7,158,5.40619e-71,-7,-83.2536,241.254,2.736
1.4778,1.47636,0.511781,0.561404,0,-5.84136e-68,-0.0466182,-0.0002241,-7,158,3.23362e-71,-7,-83.2536,241.254,2.74
1.4778,1.47636,0.511594,0.561403,0,-3.89424e-68,-0.0467029,-0.000178191,-7,159,1.71412e-71,-7,-83.2537,242.254,2.744
1.4778,1.47636,0.511407,0.561402,0,-2.59616e-68,-0.0467875,-0.000205167,-7,160,1.31574e-71,-7,-83.2537,243.254,2.748
1.4778,1.47636,0.51122,0.561402,0,-1.73077e-68,-0.0468721,-0.00019436,-7,161,8.30955e-72,-7,-83.2538,244.254,2.752
1.4778,1.47636,0.511032,0.561401,0,-1.15385e-68,-0.0469566,-0.000187155,-7,162,5.33435e-72,-7,-83.2538,245.254,2.756
1.4778,1.47636,0.510844,0.5614,0,-7.69232e-69,-0.047041,-0.000182352,-7,163,3.46496e-72,-7,-83.2538,246.254,2.76
1.4778,1.47636,0.510656,0.5614,0,-5.12822e-69,-0.0471253,-0.00017915,-7,164,2.26941e-72,-7,-83.2539,247.254,2.764
1.4778,1.47636,0.510467,0.561399,0,-3.41881e-69,-0.0472096,-0.000205806,-7,164,1.73805e-72,-7,-83.2539,247.254,2.768
1.4778,1.47636,0.510278,0.561397,0,-2.27921e-69,-0.0472938,-0.000252368,-7,165,1.42085e-72,-7,-83.254,248.254,2.772
1.4778,1.47636,0.510089,0.561395,0,-1.51947e-69,-0.0473779,-0.0003122,-7,166,1.1718e-72,-7,-83.2541,249.254,2.776
1.4778,1.47636,0.509899,0.561394,0,-1.01298e-69,-0.0474619,-0.000352088,-7,167,8.81009e-73,-7,-83.2542,250.254,2.78
1.4778,1.47636,0.509709,0.561392,0,-6.75321e-70,-0.0475459,-0.000407471,-7,168,6.79725e-73,-7,-83.2543,251.254,2.784
1.4778,1.47636,0.509519,0.561389,0,-4.50214e-70,-0.0476297,-0.000473184,-7,168,5.26229e-73,-7,-83.2544,251.254,2.788
1.4778,1.47636,0.509328,0.561387,0,-3.00142e-70,-0.0477135,-0.000488201,-7,169,3.61953e-73,-7,-83.2545,252.255,2.792
1.4778,1.47636,0.509137,0.561385,0,-2.00095e-70,-0.0477972,-0.000498213,-7,170,2.4625e-73,-7,-83.2546,253.255,2.796
1.4778,1.47636,0.508946,0.561383,0,-1.33397e-70,-0.0478809,-0.000533679,-7,171,1.75852e-73,-7,-83.2547,254.255,2.8
1.4778,1.47636,0.508754,0.561381,0,-8.89311e-71,-0.0479644,-0.000528531,-7,172,1.16104e-73,-7,-83.2549,255.255,2.804
1.4778,1.47636,0.508562,0.561378,0,-5.92874e-71,-0.0480479,-0.000553891,-7,172,8.11163e-74,-7,-83.255,255.255,2.808
1.4778,1.47636,0.50837,0.561376,0,-3.95249e-71,-0.0481313,-0.000570797,-7,173,5.5728e-74,-7,-83.2551,256.255,2.812
1.4778,1.47636,0.508177,0.561374,0,-2.635e-71,-0.0482147,-0.000553277,-7,174,3.60116e-74,-7,-83.2552,257.255,2.816
1.4778,1.47636,0.507984,0.561371,0,-1.75666e-71,-0.0482979,-0.000570388,-7,175,2.47501e-74,-7,-83.2553,258.255,2.82
1.4778,1.47636,0.507791,0.561369,0,-1.17111e-71,-0.0483811,-0.000553004,-7,176,1.59972e-74,-7,-83.2555,259.255,2.824
1.4778,1.47636,0.507597,0.561367,0,-7.80739e-72,-0.0484641,-0.000570206,-7,177,1.09965e-74,-7,-83.2556,260.256,2.828
1.4778,1.47636,0.507403,0.561364,0,-5.20493e-72,-0.0485471,-0.000581674,-7,178,7.47842e-75,-7,-83.2557,261.256,2.832
1.4778,1.47636,0.507209,0.561362,0,-3.46995e-72,-0.0486301,-0.00061811,-7,178,5.2979e-75,-7,-83.2559,261.256,2.836
1.4778,1.47636,0.507014,0.561359,0,-2.3133e-72,-0.0487129,-0.000642401,-7,179,3.67072e-75,-7,-83.256,262.256,2.84
1.4778,1.47636,0.506819,0.561356,0,-1.5422e-72,-0.0487956,-0.000629804,-7,180,2.39916e-75,-7,-83.2561,263.256,2.844
1.4778,1.47636,0.506624,0.561354,0,-1.02813e-72,-0.0488783,-0.000621406,-7,181,1.57811e-75,-7,-83.2562,264.256,2.848
1.4778,1.47636,0.506428,0.561351,0,-6.85423e-73,-0.0489609,-0.000644598,-7,182,1.09133e-75,-7,-83.2564,265.256,2.852
1.4778,1.47636,0.506232,0.561348,0,-4.56949e-73,-0.0490434,-0.00068885,-7,183,7.77501e-76,-7,-83.2566,266.257,2.856
1.4778,1.47636,0.506036,0.561345,0,-3.04632e-73,-0.0491258,-0.000718352,-7,183,5.40531e-76,-7,-83.2567,266.257,2.86
1.4778,1.47636,0.505839,0.561342,0,-2.03088e-73,-0.0492081,-0.000738019,-7,184,3.70219e-76,-7,-83.2569,267.257,2.864
1.4778,1.47636,0.505642,0.561338,0,-1.35392e-73,-0.0492904,-0.000837504,-7,185,2.80082e-76,-7,-83.2571,268.257,2.868
1.4778,1.47636,0.505445,0.561333,0,-9.02614e-74,-0.0493725,-0.000932618,-7,186,2.07926e-76,-7,-83.2573,269.257,2.872
1.4778,1.47636,0.505247,0.561327,0,-6.01743e-74,-0.0494546,-0.00111119,-7,187,1.65158e-76,-7,-83.2576,270.258,2.876
1.4778,1.47636,0.505049,0.561321,0,-4.01162e-74,-0.0495366,-0.00125903,-7,187,1.24754e-76,-7,-83.258,270.258,2.88
1.4778,1.47636,0.504851,0.561315,0,-2.67441e-74,-0.0496185,-0.00138638,-7,188,9.15812e-77,-7,-83.2583,271.258,2.884
1.4778,1.47636,0.504652,0.561306,0,-5.75818e-05,-0.0497003,-0.00161524,-7,189,2.29728e-07,-7,-83.2587,272.259,2.888
1.4778,1.47636,0.504453,0.561298,0,1.91939e-05,-0.049782,-0.0017966,-7,189,-8.51732e-08,-7,-83.2592,272.259,2.892
1.4778,1.47636,0.504254,0.561288,0,1.2796e-05,-0.0498637,-0.00200388,-7,190,-6.33327e-08,-7,-83.2597,273.26,2.896
1.4778,1.47636,0.504054,0.561278,0,8.53064e-06,-0.0499452,-0.00217086,-7,191,-4.57396e-08,-7,-83.2602,274.26,2.9
1.4778,1.47636,0.503854,0.561267,0,5.6871e-06,-0.0500267,-0.00233976,-7,192,-3.28652e-08,-7,-83.2608,275.261,2.904
1.4778,1.47636,0.503654,0.561256,0,3.7914e-06,-0.050108,-0.00248115,-7,192,-2.32339e-08,-7,-83.2614,275.261,2.908
1.4778,1.47636,0.503453,0.561244,0,2.5276e-06,-0.0501893,-0.00269057,-7,193,-1.67965e-08,-7,-83.262,276.262,2.912
1.4778,1.47636,0.503252,0.561231,0,1.68507e-06,-0.0502705,-0.00288777,-7,194,-1.20182e-08,-7,-83.2627,277.263,2.916
1.4778,1.47636,0.503051,0.561217,0,1.12338e-06,-0.0503516,-0.00307682,-7,194,-8.53653e-09,-7,-83.2634,277.263,2.92
1.4778,1.47636,0.50285,0.561202,0,7.48918e-07,-0.0504326,-0.00331801,-7,195,-6.13705e-09,-7,-83.2642,278.264,2.924
1.4778,1.47636,0.502648,0.561187,0,4.99279e-07,-0.0505135,-0.00342123,-7,196,-4.21858e-09,-7,-83.265,279.265,2.928
1.4778,1.47636,0.502445,0.561171,0,3.32852e-07,-0.0505944,-0.00363399,-7,196,-2.98724e-09,-7,-83.2658,279.266,2.932
1.4778,1.47636,0.502243,0.561153,0,2.21902e-07,-0.0506751,-0.003891,-7,197,-2.1323e-09,-7,-83.2668,280.267,2.936
1.4778,1.47636,0.50204,0.561135,0,1.47934e-07,-0.0507557,-0.00409113,-7,198,-1.49462e-09,-7,-83.2677,281.268,2.94
1.4778,1.47636,0.501837,0.561117,0,9.86229e-08,-0.0508363,-0.00422455,-7,198,-1.02889e-09,-7,-83.2686,281.269,2.944
1.4778,1.47636,0.501633,0.561099,0,6.57486e-08,-0.0509168,-0.00431349,-7,199,-7.00359e-10,-7,-83.2696,282.27,2.948
1.4778,1.47636,0.50143,0.56108,0,4.38324e-08,-0.0509971,-0.00448795,-7,200,-4.85781e-10,-7,-83.2706,283.271,2.952
1.4778,1.47636,0.501225,0.561061,0,2.92216e-08,-0.0510774,-0.00460426,-7,200,-3.32241e-10,-7,-83.2716,283.272,2.956
1.4778,1.47636,0.501021,0.561041,0,1.94811e-08,-0.0511576,-0.00473938,-7,201,-2.2799e-10,-7,-83.2727,284.273,2.96
1.4778,1.47636,0.500816,0.561019,0,1.29874e-08,-0.0512376,-0.00497342,-7,202,-1.59495e-10,-7,-83.2738,285.274,2.964
1.4778,1.47636,0.500611,0.560996,0,8.65826e-09,-0.0513176,-0.0052446,-7,202,-1.12126e-10,-7,-83.275,285.275,2.968
1.4778,1.47636,0.500406,0.560972,0,5.77217e-09,-0.0513975,-0.00548298,-7,203,-7.81461e-11,-7,-83.2762,286.276,2.972
1.4778,1.47636,0.5002,0.560946,0,3.84811e-09,-0.0514773,-0.00581464,-7,204,-5.52473e-11,-7,-83.2776,287.278,2.976
1.4778,1.47636,0.499994,0.560918,0,2.56541e-09,-0.051557,-0.0061797,-7,204,-3.91429e-11,-7,-83.2791,287.279,2.98
1.4778,1.47636,0.499787,0.56089,0,1.71027e-09,-0.0516366,-0.00645186,-7,205,-2.72438e-11,-7,-83.2805,288.281,2.984
1.4778,1.47636,0.499581,0.560864,0,1.14018e-09,-0.0517161,-0.00651814,-7,205,-1.83487e-11,-7,-83.2819,288.282,2.988
1.4778,1.47636,0.499374,0.560839,0,7.60121e-10,-0.0517956,-0.00638958,-7,206,-1.19909e-11,-7,-83.2832,289.283,2.992
1.4778,1.47636,0.499166,0.560817,0,5.06748e-10,-0.0518749,-0.00613113,-7,207,-7.67042e-12,-7,-83.2844,290.284,2.996
1.4778,1.47636,0.498959,0.560798,0,3.37832e-10,-0.0519541,-0.00567092,-7,209,-4.72969e-12,-7,-83.2854,292.285,3
1.4778,1.47636,0.498751,0.560784,0,2.25221e-10,-0.0520332,-0.00496104,-7,210,-2.75839e-12,-7,-83.2861,293.286,3.004
1.4778,1.47636,0.498542,0.560774,0,1.50147e-10,-0.0521122,-0.0041423,-7,212,-1.53542e-12,-7,-83.2866,295.287,3.008
1.4778,1.47636,0.498334,0.560769,0,1.00098e-10,-0.0521912,-0.00313581,-7,213,-7.74897e-13,-7,-83.2869,296.287,3.012
1.4778,1.47636,0.498125,0.560768,0,6.67322e-11,-0.05227,-0.00214812,-7,215,-3.53884e-13,-7,-83.2869,298.287,3.016
1.4778,1.47636,0.497916,0.560769,0,4.44881e-11,-0.0523487,-0.00140329,-7,217,-1.5412e-13,-7,-83.2869,300.287,3.02
1.4778,1.47636,0.497706,0.560769,0,2.96587e-11,-0.0524273,-0.000935528,-7,218,-6.84978e-14,-7,-83.2869,301.287,3.024
1.4778,1.47636,0.497496,0.560769,0,1.97725e-11,-0.0525058,-0.000623686,-7,219,-3.04435e-14,-7,-83.2869,302.287,3.028
1.4778,1.47636,0.497286,0.560769,0,1.31817e-11,-0.0525843,-0.00041579,-7,220,-1.35304e-14,-7,-83.2869,303.287,3.032
1.4778,1.47636,0.497076,0.560768,0,8.78778e-12,-0.0526626,-0.000305984,-7,221,-6.63812e-15,-7,-83.2869,304.287,3.036
1.4778,1.47636,0.496865,0.560768,0,5.85852e-12,-0.0527408,-0.00020399,-7,222,-2.95027e-15,-7,-83.2869,305.287,3.04
1.4778,1.47636,0.496654,0.560769,0,3.90568e-12,-0.0528189,-0.000107202,-7,223,-1.03363e-15,-7,-83.2869,306.287,3.044
1.4778,1.47636,0.496442,0.560768,0,2.60379e-12,-0.0528969,-0.000100259,-7,224,-6.44459e-16,-7,-83.2869,307.287,3.048
1.4778,1.47636,0.49623,0.560768,0,1.73586e-12,-0.0529749,-6.68394e-05,-7,225,-2.86426e-16,-7,-83.2869,308.287,3.052
1.4778,1.47636,0.496018,0.560769,0,1.15724e-12,-0.0530527,-1.57687e-05,-7,226,-4.50489e-17,-7,-83.2869,309.287,3.056
1.4778,1.47636,0.495806,0.560768,0,7.71492e-13,-0.0531304,-3.93034e-05,-7,227,-7.48562e-17,-7,-83.2869,310.287,3.06
1.4778,1.47636,0.495593,0.560768,0,5.14328e-13,-0.053208,-2.62022e-05,-7,228,-3.32694e-17,-7,-83.2869,311.287,3.064
1.4778,1.47636,0.49538,0.560768,0,3.42885e-13,-0.0532855,-1.74682e-05,-7,229,-1.47864e-17,-7,-83.2869,312.287,3.068
1.4778,1.47636,0.495167,0.560768,0,2.2859e-13,-0.0533629,-1.16454e-05,-7,230,-6.57174e-18,-7,-83.2869,313.287,3.072
1.4778,1.47636,0.494953,0.560768,0,1.52393e-13,-0.0534402,-7.76363e-06,-7,231,-2.92077e-18,-7,-83.2869,314.287,3.076
1.4778,1.47636,0.49474,0.560768,0,1.01596e-13,-0.0535174,-5.17575e-06,-7,232,-1.29812e-18,-7,-83.2869,315.287,3.08
1.4778,1.47636,0.494525,0.560768,0,6.77304e-14,-0.0535945,-3.4505e-06,-7,233,-5.76943e-19,-7,-83.2869,316.287,3.084
1.4778,1.47636,0.494311,0.560768,0,4.51536e-14,-0.0536714,-2.30033e-06,-7,234,-2.56419e-19,-7,-83.2869,317.287,3.088
1.4778,1.47636,0.494096,0.560768,0,3.01024e-14,-0.0537483,-1.53356e-06,-7,235,-1.13964e-19,-7,-83.2869,318.287,3.092
1.4778,1.47636,0.493881,0.560768,0,2.00683e-14,-0.0538251,-1.02237e-06,-7,235,-5.06506e-20,-7,-83.2869,318.287,3.096
1.4778,1.47636,0.493665,0.560768,0,1.33789e-14,-0.0539017,-6.8158e-07,-7,236,-2.25114e-20,-7,-83.2869,319.287,3.1
1.4778,1.47636,0.49345,0.560768,0,8.91924e-15,-0.0539783,-4.54387e-07,-7,237,-1.00051e-20,-7,-83.2869,320.287,3.104
1.4778,1.47636,0.493233,0.560768,0,5.94616e-15,-0.0540547,-2.90938e-05,-7,238,-4.27075e-19,-7,-83.2869,321.287,3.108
1.4778,1.47636,0.493017,0.560768,0,3.9641e-15,-0.0541311,-1.93959e-05,-7,239,-1.89811e-19,-7,-83.2869,322.287,3.112
1.4778,1.47636,0.4928,0.560768,0,2.64274e-15,-0.0542073,-1.29306e-05,-7,240,-8.43605e-20,-7,-83.2869,323.287,3.116
1.4778,1.47636,0.492583,0.560768,0,1.76182e-15,-0.0542834,-8.6204e-06,-7,241,-3.74935e-20,-7,-83.2869,324.287,3.12
1.4778,1.47636,0.492366,0.560768,0,1.17455e-15,-0.0543594,-3.45379e-05,-7,242,-1.00146e-19,-7,-83.2869,325.287,3.124
1.4778,1.47636,0.492149,0.560768,0,7.83033e-16,-0.0544353,-2.30252e-05,-7,243,-4.45093e-20,-7,-83.2869,326.287,3.128
1.4778,1.47636,0.491931,0.560768,0,5.22022e-16,-0.0545111,-1.53502e-05,-7,244,-1.97819e-20,-7,-83.2869,327.287,3.132
1.4778,1.47636,0.491712,0.560767,0,3.48015e-16,-0.0545868,-3.90244e-05,-7,245,-3.35274e-20,-7,-83.2869,328.287,3.136
1.4778,1.47636,0.491494,0.560767,0,2.3201e-16,-0.0546624,-5.48072e-05,-7,246,-3.13913e-20,-7,-83.287,329.287,3.14
1.4778,1.47636,0.491275,0.560767,0,1.54673e-16,-0.0547379,-3.65381e-05,-7,247,-1.39517e-20,-7,-83.287,330.287,3.144
1.4778,1.47636,0.491056,0.560767,0,1.03115e-16,-0.0548132,-5.31497e-05,-7,248,-1.35298e-20,-7,-83.287,331.287,3.148
1.4778,1.47636,0.490837,0.560767,0,6.87436e-17,-0.0548885,-3.54331e-05,-7,249,-6.01323e-21,-7,-83.287,332.287,3.152
1.4778,1.47636,0.490617,0.560766,0,4.58291e-17,-0.0549636,-5.2413e-05,-7,250,-5.92988e-21,-7,-83.287,333.287,3.156
1.4778,1.47636,0.490397,0.560766,0,3.05527e-17,-0.0550386,-6.37329e-05,-7,251,-4.80706e-21,-7,-83.287,334.287,3.16
1.4778,1.47636,0.490177,0.560766,0,2.03685e-17,-0.0551135,-7.12795e-05,-7,252,-3.58417e-21,-7,-83.287,335.287,3.164
1.4778,1.47636,0.489956,0.560765,0,1.3579e-17,-0.0551883,-7.63106e-05,-7,253,-2.5581e-21,-7,-83.2871,336.287,3.168
1.4778,1.47636,0.489735,0.560765,0,9.05266e-18,-0.055263,-7.96647e-05,-7,254,-1.78036e-21,-7,-83.2871,337.287,3.172
1.4778,1.47636,0.489514,0.560765,0,6.03511e-18,-0.0553376,-2.43189e-05,-7,255,-3.62321e-22,-7,-83.2871,338.287,3.176
1.4778,1.47636,0.489292,0.560764,0,4.0234e-18,-0.055412,-0.000102585,-7,256,-1.01893e-21,-7,-83.2871,339.287,3.18
1.4778,1.47636,0.489071,0.560764,0,2.68227e-18,-0.0554864,-9.71812e-05,-7,257,-6.43501e-22,-7,-83.2871,340.287,3.184
1.4778,1.47636,0.488849,0.560763,0,1.78818e-18,-0.0555606,-9.35784e-05,-7,258,-4.13096e-22,-7,-83.2871,341.287,3.188
1.4778,1.47636,0.488626,0.560763,0,1.19212e-18,-0.0556347,-0.000119967,-7,258,-3.53059e-22,-7,-83.2872,341.287,3.192
1.4778,1.47636,0.488403,0.560762,0,7.94747e-19,-0.0557087,-0.00013756,-7,259,-2.69889e-22,-7,-83.2872,342.287,3.196
1.4778,1.47636,0.488181,0.560761,0,5.29831e-19,-0.0557826,-0.00020687,-7,260,-2.70582e-22,-7,-83.2873,343.287,3.2
1.4778,1.47636,0.487957,0.56076,0,3.53221e-19,-0.0558564,-0.000195495,-7,261,-1.70469e-22,-7,-83.2873,344.287,3.204
1.4778,1.47636,0.487734,0.560759,0,2.3548e-19,-0.0559301,-0.000216703,-7,262,-1.25974e-22,-7,-83.2874,345.287,3.208
1.4778,1.47636,0.48751,0.560758,0,1.56987e-19,-0.0560036,-0.000259632,-7,263,-1.0062e-22,-7,-83.2875,346.287,3.212
1.4778,1.47636,0.487286,0.560757,0,1.04658e-19,-0.056077,-0.00023067,-7,264,-5.95972e-23,-7,-83.2875,347.287,3.216
1.4778,1.47636,0.487061,0.560756,0,6.9772e-20,-0.0561503,-0.000240153,-7,265,-4.13647e-23,-7,-83.2875,348.288,3.22
1.4778,1.47636,0.486836,0.560755,0,4.65147e-20,-0.0562235,-0.000217684,-7,266,-2.49964e-23,-7,-83.2876,349.288,3.224
1.4778,1.47636,0.486611,0.560754,0,3.10098e-20,-0.0562966,-0.000231495,-7,267,-1.77215e-23,-7,-83.2876,350.288,3.228
1.4778,1.47636,0.486386,0.560754,0,2.06732e-20,-0.0563695,-0.00015433,-7,268,-7.87624e-24,-7,-83.2876,351.288,3.232
1.4778,1.47636,0.48616,0.560753,0,1.37821e-20,-0.0564424,-0.000160469,-7,269,-5.45967e-24,-7,-83.2877,352.288,3.236
1.4778,1.47636,0.485935,0.560753,0,9.18808e-21,-0.0565151,-0.000164561,-7,270,-3.7326e-24,-7,-83.2877,353.288,3.24
1.4778,1.47636,0.485708,0.560752,0,6.12539e-21,-0.0565877,-0.000167289,-7,271,-2.52965e-24,-7,-83.2877,354.288,3.244
1.4778,1.47636,0.485482,0.560752,0,4.08359e-21,-0.0566602,-0.000140317,-7,272,-1.41453e-24,-7,-83.2878,355.288,3.248
1.4778,1.47636,0.485255,0.560751,0,2.72239e-21,-0.0567326,-0.000151127,-7,273,-1.01567e-24,-7,-83.2878,356.288,3.252
1.4778,1.47636,0.485028,0.56075,0,1.81493e-21,-0.0568048,-0.000158333,-7,274,-7.09398e-25,-7,-83.2878,357.288,3.256
1.4778,1.47636,0.484801,0.56075,0,1.20995e-21,-0.0568769,-0.000163137,-7,275,-4.87282e-25,-7,-83.2879,358.288,3.26
1.4778,1.47636,0.484573,0.560749,0,8.06635e-22,-0.0569489,-0.00016634,-7,276,-3.31232e-25,-7,-83.2879,359.288,3.264
1.4778,1.47636,0.484345,0.560748,0,5.37757e-22,-0.0570208,-0.000197266,-7,277,-2.61876e-25,-7,-83.288,360.288,3.268
1.4778,1.47636,0.484117,0.560746,0,3.58505e-22,-0.0570926,-0.000275465,-7,278,-2.43792e-25,-7,-83.2881,361.288,3.272
1.4778,1.47636,0.483888,0.560745,0,2.39003e-22,-0.0571642,-0.000270016,-7,279,-1.59313e-25,-7,-83.2881,362.288,3.276
1.4778,1.47636,0.483659,0.560744,0,1.59335e-22,-0.0572357,-0.000295175,-7,280,-1.16104e-25,-7,-83.2882,363.288,3.28
1.4778,1.47636,0.48343,0.560742,0,1.06224e-22,-0.0573072,-0.000311947,-7,281,-8.18007e-26,-7,-83.2883,364.288,3.284
1.4778,1.47636,0.483201,0.560741,0,7.08157e-23,-0.0573784,-0.000294337,-7,282,-5.14553e-26,-7,-83.2883,365.288,3.288
1.4778,1.47636,0.482971,0.56074,0,4.72105e-23,-0.0574496,-0.000340179,-7,283,-3.96462e-26,-7,-83.2884,366.288,3.292
1.4778,1.47636,0.482741,0.560738,0,3.14737e-23,-0.0575206,-0.00034195,-7,284,-2.65683e-26,-7,-83.2885,367.288,3.296
1.4778,1.47636,0.482511,0.560738,0,2.09824e-23,-0.0575915,-0.000285549,-7,285,-1.47907e-26,-7,-83.2885,368.289,3.3
1.4778,1.47636,0.482281,0.560736,0,1.39883e-23,-0.0576623,-0.00033432,-7,286,-1.15446e-26,-7,-83.2886,369.289,3.304
1.4778,1.47636,0.48205,0.560735,0,9.32553e-24,-0.057733,-0.000309253,-7,287,-7.11934e-27,-7,-83.2886,370.289,3.308
1.4778,1.47636,0.481819,0.560734,0,6.21702e-24,-0.0578035,-0.000292541,-7,288,-4.48974e-27,-7,-83.2887,371.289,3.312
1.4778,1.47636,0.481587,0.560733,0,4.14468e-24,-0.0578739,-0.000223819,-7,289,-2.29002e-27,-7,-83.2887,372.289,3.316
1.4778,1.47636,0.481356,0.560732,0,2.76312e-24,-0.0579442,-0.000235585,-7,290,-1.60694e-27,-7,-83.2888,373.289,3.32
1.4778,1.47636,0.481124,0.560731,0,1.84208e-24,-0.0580144,-0.00027222,-7,291,-1.23788e-27,-7,-83.2888,374.289,3.324
1.4778,1.47636,0.480892,0.56073,0,1.22805e-24,-0.0580844,-0.000239062,-7,292,-7.24734e-28,-7,-83.2889,375.289,3.328
1.4778,1.47636,0.480659,0.560729,0,8.18702e-25,-0.0581544,-0.000274538,-7,293,-5.54854e-28,-7,-83.289,376.289,3.332
1.4778,1.47636,0.480426,0.560727,0,5.45801e-25,-0.0582242,-0.000355771,-7,294,-4.79352e-28,-7,-83.2891,377.289,3.336
1.4778,1.47636,0.480193,0.560726,0,3.63868e-25,-0.0582938,-0.000323554,-7,295,-2.90629e-28,-7,-83.2891,378.289,3.34
1.4778,1.47636,0.47996,0.560724,0,2.42578e-25,-0.0583634,-0.000330866,-7,296,-1.98131e-28,-7,-83.2892,379.289,3.344
1.4778,1.47636,0.479727,0.560723,0,1.61719e-25,-0.0584328,-0.000364532,-7,297,-1.45527e-28,-7,-83.2893,380.289,3.348
1.4778,1.47636,0.479493,0.560722,0,1.07813e-25,-0.0585021,-0.000329394,-7,298,-8.76662e-29,-7,-83.2893,381.289,3.352
1.4778,1.47636,0.479259,0.560721,0,7.18751e-26,-0.0585712,-0.000248387,-7,299,-4.40711e-29,-7,-83.2894,382.289,3.356
1.4778,1.47636,0.479024,0.56072,0,4.79167e-26,-0.0586403,-0.000251964,-7,300,-2.98038e-29,-7,-83.2894,383.289,3.36
1.4778,1.47636,0.478789,0.560719,0,3.19445e-26,-0.0587092,-0.000254349,-7,301,-2.00573e-29,-7,-83.2895,384.289,3.364
1.4778,1.47636,0.478554,0.560718,0,2.12963e-26,-0.0587779,-0.000255939,-7,302,-1.34551e-29,-7,-83.2895,385.29,3.368
1.4778,1.47636,0.478319,0.560716,0,1.41975e-26,-0.0588466,-0.000343371,-7,303,-1.20343e-29,-7,-83.2896,386.29,3.372
1.4778,1.47636,0.478084,0.560715,0,9.46503e-27,-0.0589151,-0.000315287,-7,304,-7.36669e-30,-7,-83.2897,387.29,3.376
1.4778,1.47636,0.477848,0.560713,0,6.31002e-27,-0.0589835,-0.000411728,-7,305,-6.41334e-30,-7,-83.2898,388.29,3.38
1.4778,1.47636,0.477612,0.56071,0,4.20668e-27,-0.0590518,-0.000476022,-7,306,-4.9432e-30,-7,-83.2899,389.29,3.384
1.4778,1.47636,0.477375,0.560707,0,2.80445e-27,-0.0591199,-0.000576466,-7,307,-3.99083e-30,-7,-83.2901,390.29,3.388
1.4778,1.47636,0.477139,0.560705,0,1.86964e-27,-0.0591879,-0.000585847,-7,308,-2.70384e-30,-7,-83.2902,391.29,3.392
1.4778,1.47636,0.476902,0.560701,0,1.24642e-27,-0.0592558,-0.000678474,-7,309,-2.08755e-30,-7,-83.2904,392.29,3.396
1.4778,1.47636,0.476665,0.560699,0,8.30949e-28,-0.0593235,-0.000682643,-7,310,-1.40025e-30,-7,-83.2905,393.291,3.4
1.4778,1.47636,0.476427,0.560696,0,5.53966e-28,-0.0593911,-0.000656632,-7,311,-8.97928e-31,-7,-83.2907,394.291,3.404
1.4778,1.47636,0.47619,0.560695,0,3.69311e-28,-0.0594586,-0.000552918,-7,312,-5.04068e-31,-7,-83.2907,395.291,3.408
1.4778,1.47636,0.475952,0.560693,0,2.46207e-28,-0.059526,-0.000512567,-7,313,-3.1152e-31,-7,-83.2908,396.291,3.412
1.4778,1.47636,0.475713,0.560691,0,1.64138e-28,-0.0595932,-0.000485666,-7,314,-1.9678e-31,-7,-83.2909,397.291,3.416
1.4778,1.47636,0.475475,0.560691,0,1.09425e-28,-0.0596603,-0.000352568,-7,315,-9.52347e-32,-7,-83.2909,398.291,3.42
1.4778,1.47636,0.475236,0.56069,0,7.29503e-29,-0.0597272,-0.000321418,-7,316,-5.78803e-32,-7,-83.291,399.291,3.424
1.4778,1.47636,0.474997,0.560689,0,4.86335e-29,-0.059794,-0.000300652,-7,317,-3.60938e-32,-7,-83.2911,400.291,3.428
1.4778,1.47636,0.474758,0.560687,0,3.24223e-29,-0.0598607,-0.000315598,-7,318,-2.52587e-32,-7,-83.2911,401.291,3.432
1.4778,1.47636,0.474518,0.560686,0,2.16149e-29,-0.0599273,-0.000354353,-7,319,-1.8907e-32,-7,-83.2912,402.291,3.436
1.4778,1.47636,0.474278,0.560684,0,1.44099e-29,-0.0599937,-0.000408981,-7,320,-1.45478e-32,-7,-83.2913,403.291,3.44
1.4778,1.47636,0.474038,0.560682,0,9.60662e-30,-0.06006,-0.000387818,-7,322,-9.19663e-33,-7,-83.2914,405.291,3.444
1.4778,1.47636,0.473798,0.56068,0,6.40441e-30,-0.0601262,-0.000460082,-7,322,-7.27351e-33,-7,-83.2915,405.292,3.448
