peachynonah/Fire_monitor_/csv_datas/trial11/cdsl_data_t11_6.csv
joint1_pos_desired, joint1_pos, joint2_pos_desired, joint2_pos, joint1_vel_desired, joint1_vel_filtered, joint2_vel_desired, joint2_vel_filtered, target_torque_joint1, target_torque_joint2, nonlinear_term_torque_joint1, PD_term_torque_joint1, nonlinear_term_torque_joint2, PD_term_torque_joint2, current_time
1.4778,1.47636,0.559,0.556743,0,0,-1.88345e-07,0,-7,-89,0,-7,-83.4968,-5.50321,0.004
1.4778,1.47636,0.559,0.556743,0,0,-7.52776e-07,0,-7,-89,0,-7,-83.4968,-5.50321,0.008
1.4778,1.47636,0.559,0.556743,0,0,-1.69239e-06,0,-7,-89,0,-7,-83.4968,-5.50321,0.012
1.4778,1.47636,0.559,0.556743,0,0,-3.00629e-06,0,-7,-89,0,-7,-83.4968,-5.50321,0.016
1.4778,1.47636,0.559,0.556746,0,0,-4.69356e-06,0.000287909,-7,-89,0,-7,-83.4966,-5.50339,0.02
1.4778,1.47636,0.559,0.556755,0,0,-6.75331e-06,0.000940504,-7,-88,0,-7,-83.4961,-4.50386,0.024
1.4778,1.47636,0.559,0.55677,0,0,-9.18463e-06,0.0018938,-7,-88,0,-7,-83.4953,-4.50465,0.028
1.4778,1.47636,0.559,0.55679,0,0,-1.19866e-05,0.00290362,-7,-87,0,-7,-83.4943,-3.50567,0.032
1.4778,1.47636,0.559,0.556816,0,0,-1.51584e-05,0.00409506,-7,-86,0,-7,-83.493,-2.50702,0.036
1.4778,1.47636,0.559,0.556846,0,0,-1.86991e-05,0.00520606,-7,-85,0,-7,-83.4914,-1.50857,0.04
1.4778,1.47636,0.559,0.55688,0,0,-2.26077e-05,0.00632101,-7,-84,0,-7,-83.4897,-0.510344,0.044
1.4778,1.47636,0.559,0.55692,0,2.87909e-05,-2.68834e-05,0.00755375,-6,-82,5.34881e-07,-6,-83.4876,1.48757,0.048
1.4778,1.47636,0.558999,0.556964,0,1.91939e-05,-3.15253e-05,0.00874987,-7,-81,4.1307e-07,-7,-83.4853,2.48526,0.052
1.4778,1.47636,0.558999,0.557012,0,1.2796e-05,-3.65325e-05,0.00980639,-7,-80,3.08646e-07,-7,-83.4828,3.48278,0.056
1.4778,1.47636,0.558999,0.557063,0,8.53064e-06,-4.19041e-05,0.0107987,-7,-79,2.26596e-07,-7,-83.4801,4.48012,0.06
1.4778,1.47636,0.558999,0.557118,0,5.6871e-06,-4.76392e-05,0.0117481,-7,-78,1.64354e-07,-7,-83.4773,5.47728,0.064
1.4778,1.47636,0.558999,0.557176,0,-2.49995e-05,-5.37369e-05,0.0126689,-7,-78,-7.79147e-07,-7,-83.4743,5.47426,0.068
1.4778,1.47636,0.558999,0.557237,0,1.21246e-05,-6.01963e-05,0.0135131,-7,-77,4.03086e-07,-7,-83.4711,6.4711,0.072
1.4778,1.47636,0.558998,0.5573,0,-2.07079e-05,-6.70165e-05,0.0142487,-7,-76,-7.25959e-07,-7,-83.4678,7.46783,0.076
1.4778,1.47636,0.558998,0.557365,0,1.49857e-05,-7.41967e-05,0.0149406,-7,-75,5.50901e-07,-7,-83.4644,8.46443,0.08
1.4778,1.47636,0.558998,0.557432,0,9.99045e-06,-8.17359e-05,0.0155746,-7,-74,3.82878e-07,-7,-83.4609,9.46093,0.084
1.4778,1.47636,0.558997,0.557503,0,-2.21306e-05,-8.96332e-05,0.0162852,-7,-74,-8.86902e-07,-7,-83.4572,9.45724,0.088
1.4778,1.47636,0.558997,0.557575,0,1.40372e-05,-9.78879e-05,0.0168741,-7,-73,5.82934e-07,-7,-83.4535,10.4535,0.092
1.4778,1.47636,0.558997,0.55765,0,9.35812e-06,-0.000106499,0.0174971,-7,-72,4.02999e-07,-7,-83.4496,11.4496,0.096
1.4778,1.47636,0.558996,0.557725,0,6.23874e-06,-0.000115465,0.0179123,-7,-72,2.75063e-07,-7,-83.4457,11.4457,0.1
1.4778,1.47636,0.558996,0.557802,0,4.15916e-06,-0.000124786,0.0183043,-7,-71,1.87402e-07,-7,-83.4417,12.4417,0.104
1.4778,1.47636,0.558995,0.557872,0,-2.60181e-05,-0.000134461,0.018105,-7,-71,-1.15963e-06,-7,-83.438,12.438,0.108
1.4778,1.47636,0.558995,0.557941,0,1.14455e-05,-0.000144489,0.0177706,-7,-71,5.00739e-07,-7,-83.4345,12.4345,0.112
1.4778,1.47636,0.558994,0.558001,0,-2.11606e-05,-0.000154868,0.0168855,-7,-72,-8.79714e-07,-7,-83.4313,11.4313,0.116
1.4778,1.47636,0.558993,0.558049,0,1.46839e-05,-0.000165599,0.0152589,-7,-73,5.51676e-07,-7,-83.4288,10.4288,0.12
1.4778,1.47636,0.558993,0.558083,0,9.78924e-06,-0.00017668,0.0129653,-7,-75,3.12512e-07,-7,-83.4271,8.42706,0.124
1.4778,1.47636,0.558992,0.558103,0,6.52616e-06,-0.00018811,0.0102846,-7,-77,1.65268e-07,-7,-83.426,6.42604,0.128
1.4778,1.47636,0.558991,0.558107,0,4.35077e-06,-0.000199888,0.00723071,-7,-79,7.74626e-08,-7,-83.4258,4.4258,0.132
1.4778,1.47636,0.55899,0.558101,0,2.90052e-06,-0.000212014,0.00433103,-7,-82,3.0932e-08,-7,-83.4261,1.42611,0.136
1.4778,1.47636,0.558989,0.558092,0,1.93368e-06,-0.000224487,0.00216758,-7,-83,1.03204e-08,-7,-83.4266,0.426558,0.14
1.4778,1.47636,0.558989,0.558084,0,1.28912e-06,-0.000237305,0.00072528,-7,-85,2.30215e-09,-7,-83.427,-1.57299,0.144
1.4778,1.47636,0.558988,0.558077,0,8.59412e-07,-0.000250469,-9.22985e-05,-7,-85,-1.95311e-10,-7,-83.4274,-1.57263,0.148
1.4778,1.47636,0.558987,0.558072,0,5.72941e-07,-0.000263976,-0.000435814,-7,-86,-6.14811e-10,-7,-83.4276,-2.5724,0.152
1.4778,1.47636,0.558985,0.558071,0,-2.8409e-05,-0.000277826,-0.000434498,-7,-86,3.03929e-08,-7,-83.4277,-2.57231,0.156
1.4778,1.47636,0.558984,0.558071,0,9.85162e-06,-0.000292019,-0.000289665,-7,-85,-7.02639e-09,-7,-83.4277,-1.57231,0.16
1.4778,1.47636,0.558983,0.558071,0,6.56774e-06,-0.000306553,-0.00019311,-7,-85,-3.12284e-09,-7,-83.4277,-1.57231,0.164
1.4778,1.47636,0.558982,0.558071,0,4.3785e-06,-0.000321428,-0.00012874,-7,-85,-1.38793e-09,-7,-83.4277,-1.57231,0.168
1.4778,1.47636,0.558981,0.558071,0,2.919e-06,-0.000336642,-8.58267e-05,-7,-85,-6.16858e-10,-7,-83.4277,-1.57231,0.172
1.4778,1.47636,0.558979,0.558071,0,-2.68449e-05,-0.000352195,-5.72178e-05,-7,-85,3.78201e-09,-7,-83.4277,-1.57231,0.176
1.4778,1.47636,0.558978,0.558071,0,1.08943e-05,-0.000368086,-3.81452e-05,-7,-85,-1.02322e-09,-7,-83.4277,-1.57231,0.18
1.4778,1.47636,0.558976,0.558071,0,7.26287e-06,-0.000384314,-2.54301e-05,-7,-85,-4.54764e-10,-7,-83.4277,-1.57231,0.184
1.4778,1.47636,0.558975,0.558071,0,4.84191e-06,-0.000400878,-1.69534e-05,-7,-85,-2.02117e-10,-7,-83.4277,-1.57231,0.188
1.4778,1.47636,0.558973,0.558071,0,3.22794e-06,-0.000417777,-1.13023e-05,-7,-85,-8.98299e-11,-7,-83.4277,-1.57231,0.192
1.4778,1.47636,0.558971,0.558071,0,2.15196e-06,-0.000435011,-7.53485e-06,-7,-85,-3.99244e-11,-7,-83.4277,-1.57231,0.196
1.4778,1.47636,0.55897,0.558071,0,-2.73563e-05,-0.000452578,-5.02323e-06,-7,-85,3.38353e-10,-7,-83.4277,-1.57231,0.2
1.4778,1.47636,0.558968,0.558071,0,1.05534e-05,-0.000470478,-3.34882e-06,-7,-85,-8.70189e-11,-7,-83.4277,-1.57231,0.204
1.4778,1.47636,0.558966,0.558071,0,7.0356e-06,-0.000488709,-2.23255e-06,-7,-85,-3.86751e-11,-7,-83.4277,-1.57231,0.208
1.4778,1.47636,0.558964,0.558071,0,4.6904e-06,-0.000507272,-1.48837e-06,-7,-85,-1.71889e-11,-7,-83.4277,-1.57231,0.212
1.4778,1.47636,0.558962,0.558071,0,3.12693e-06,-0.000526164,-9.92244e-07,-7,-85,-7.63952e-12,-7,-83.4277,-1.57231,0.216
1.4778,1.47636,0.55896,0.558071,0,-2.67063e-05,-0.000545386,-6.61496e-07,-7,-85,4.34981e-11,-7,-83.4277,-1.57231,0.22
1.4778,1.47636,0.558957,0.558071,0,1.09867e-05,-0.000564936,-4.40997e-07,-7,-85,-1.19298e-11,-7,-83.4277,-1.57231,0.224
1.4778,1.47636,0.558955,0.558071,0,-2.14664e-05,-0.000584814,-2.93998e-07,-7,-85,1.55394e-11,-7,-83.4277,-1.57231,0.228
1.4778,1.47636,0.558953,0.558071,0,1.448e-05,-0.000605018,-1.95999e-07,-7,-85,-6.98795e-12,-7,-83.4277,-1.57231,0.232
1.4778,1.47636,0.55895,0.558071,0,9.65331e-06,-0.000625548,-1.30666e-07,-7,-85,-3.10576e-12,-7,-83.4277,-1.57231,0.236
1.4778,1.47636,0.558948,0.558071,0,6.43554e-06,-0.000646403,-8.71106e-08,-7,-85,-1.38034e-12,-7,-83.4277,-1.57231,0.24
1.4778,1.47636,0.558945,0.558071,0,4.29036e-06,-0.000667582,-5.80737e-08,-7,-85,-6.13483e-13,-7,-83.4277,-1.57231,0.244
1.4778,1.47636,0.558942,0.558071,0,2.86024e-06,-0.000689084,-3.87158e-08,-7,-85,-2.72659e-13,-7,-83.4277,-1.57231,0.248
1.4778,1.47636,0.55894,0.558071,0,-2.68841e-05,-0.000710908,-2.58105e-08,-7,-85,1.70853e-12,-7,-83.4277,-1.57231,0.252
1.4778,1.47636,0.558937,0.558071,0,1.08682e-05,-0.000733053,-1.7207e-08,-7,-85,-4.6046e-13,-7,-83.4277,-1.57231,0.256
1.4778,1.47636,0.558934,0.558071,0,-2.15455e-05,-0.00075552,-1.14714e-08,-7,-85,6.08554e-13,-7,-83.4277,-1.57231,0.26
1.4778,1.47636,0.558931,0.558071,0,1.44273e-05,-0.000778306,-7.64757e-09,-7,-85,-2.71667e-13,-7,-83.4277,-1.57231,0.264
1.4778,1.47636,0.558927,0.558071,0,9.61819e-06,-0.00080141,-5.09838e-09,-7,-85,-1.20741e-13,-7,-83.4277,-1.57231,0.268
1.4778,1.47636,0.558924,0.558071,0,6.41213e-06,-0.000824833,-3.39892e-09,-7,-85,-5.36626e-14,-7,-83.4277,-1.57231,0.272
1.4778,1.47636,0.558921,0.558071,0,4.27475e-06,-0.000848573,-2.26595e-09,-7,-85,-2.38501e-14,-7,-83.4277,-1.57231,0.276
1.4778,1.47636,0.558917,0.558071,0,2.84983e-06,-0.000872629,-1.51063e-09,-7,-85,-1.06e-14,-7,-83.4277,-1.57231,0.28
1.4778,1.47636,0.558914,0.558071,0,1.89989e-06,-0.000897001,-1.00709e-09,-7,-84,-4.71112e-15,-7,-83.4277,-0.572308,0.284
1.4778,1.47636,0.55891,0.558071,0,1.26659e-06,-0.000921687,-6.71391e-10,-7,-84,-2.09383e-15,-7,-83.4277,-0.572308,0.288
1.4778,1.47636,0.558906,0.558071,0,8.44395e-07,-0.000946687,-4.47594e-10,-7,-84,-9.30592e-16,-7,-83.4277,-0.572308,0.292
1.4778,1.47636,0.558903,0.558071,0,5.6293e-07,-0.000972,-2.98396e-10,-7,-84,-4.13596e-16,-7,-83.4277,-0.572308,0.296
1.4778,1.47636,0.558899,0.558071,0,3.75287e-07,-0.000997625,-1.98931e-10,-7,-84,-1.83821e-16,-7,-83.4277,-0.572308,0.3
1.4778,1.47636,0.558895,0.558071,0,2.50191e-07,-0.00102356,-1.32621e-10,-7,-84,-8.1698e-17,-7,-83.4277,-0.572308,0.304
1.4778,1.47636,0.55889,0.558071,0,1.66794e-07,-0.00104981,-8.84137e-11,-7,-84,-3.63102e-17,-7,-83.4277,-0.572308,0.308
1.4778,1.47636,0.558886,0.558071,0,1.11196e-07,-0.00107636,-5.89425e-11,-7,-84,-1.61379e-17,-7,-83.4277,-0.572308,0.312
1.4778,1.47636,0.558882,0.558071,0,7.41307e-08,-0.00110323,-3.9295e-11,-7,-84,-7.17239e-18,-7,-83.4277,-0.572308,0.316
1.4778,1.47636,0.558877,0.558071,0,4.94205e-08,-0.0011304,-2.61966e-11,-7,-84,-3.18773e-18,-7,-83.4277,-0.572308,0.32
1.4778,1.47636,0.558873,0.558071,0,3.2947e-08,-0.00115788,-1.74644e-11,-7,-84,-1.41677e-18,-7,-83.4277,-0.572308,0.324
1.4778,1.47636,0.558868,0.558071,0,2.19647e-08,-0.00118566,-1.1643e-11,-7,-84,-6.29675e-19,-7,-83.4277,-0.572308,0.328
1.4778,1.47636,0.558863,0.558071,0,1.46431e-08,-0.00121375,-7.76197e-12,-7,-84,-2.79856e-19,-7,-83.4277,-0.572308,0.332
1.4778,1.47636,0.558858,0.558071,0,9.76207e-09,-0.00124215,-5.17465e-12,-7,-84,-1.2438e-19,-7,-83.4277,-0.572308,0.336
1.4778,1.47636,0.558853,0.558071,0,6.50805e-09,-0.00127085,-3.44976e-12,-7,-84,-5.52801e-20,-7,-83.4277,-0.572308,0.34
1.4778,1.47636,0.558848,0.558071,0,4.3387e-09,-0.00129985,-2.29984e-12,-7,-84,-2.45689e-20,-7,-83.4277,-0.572308,0.344
1.4778,1.47636,0.558843,0.558071,0,2.89246e-09,-0.00132915,-1.53323e-12,-7,-84,-1.09195e-20,-7,-83.4277,-0.572308,0.348
1.4778,1.47636,0.558838,0.558071,0,1.92831e-09,-0.00135875,-1.02215e-12,-7,-84,-4.85312e-21,-7,-83.4277,-0.572308,0.352
1.4778,1.47636,0.558832,0.558071,0,1.28554e-09,-0.00138866,2.87909e-05,-7,-84,9.11319e-14,-7,-83.4277,-0.572326,0.356
1.4778,1.47636,0.558827,0.558071,0,8.57027e-10,-0.00141886,-9.59698e-06,-7,-84,-2.02515e-14,-7,-83.4277,-0.572308,0.36
1.4778,1.47636,0.558821,0.558071,0,5.71351e-10,-0.00144936,-6.39798e-06,-7,-84,-9.00068e-15,-7,-83.4277,-0.572308,0.364
1.4778,1.47636,0.558815,0.558071,0,3.80901e-10,-0.00148016,-4.26532e-06,-7,-84,-4.0003e-15,-7,-83.4277,-0.572308,0.368
1.4778,1.47636,0.558809,0.558071,0,2.53934e-10,-0.00151126,-2.84355e-06,-7,-84,-1.77791e-15,-7,-83.4277,-0.572308,0.372
1.4778,1.47636,0.558803,0.558071,0,1.69289e-10,-0.00154265,-1.8957e-06,-7,-84,-7.90183e-16,-7,-83.4277,-0.572308,0.376
1.4778,1.47636,0.558797,0.558071,0,1.12859e-10,-0.00157434,-1.2638e-06,-7,-84,-3.51192e-16,-7,-83.4277,-0.572308,0.38
1.4778,1.47636,0.55879,0.558071,0,7.52397e-11,-0.00160632,-8.42533e-07,-7,-84,-1.56086e-16,-7,-83.4277,-0.572308,0.384
1.4778,1.47636,0.558784,0.558071,0,5.01598e-11,-0.0016386,-5.61689e-07,-7,-84,-6.93713e-17,-7,-83.4277,-0.572308,0.388
1.4778,1.47636,0.558777,0.558071,0,3.34398e-11,-0.00167116,-3.74459e-07,-7,-83,-3.08317e-17,-7,-83.4277,0.427692,0.392
1.4778,1.47636,0.55877,0.558071,0,2.22932e-11,-0.00170402,-2.49639e-07,-7,-83,-1.3703e-17,-7,-83.4277,0.427692,0.396
1.4778,1.47636,0.558764,0.558071,0,1.48622e-11,-0.00173718,-1.66426e-07,-7,-83,-6.09021e-18,-7,-83.4277,0.427692,0.4
1.4778,1.47636,0.558756,0.558071,0,9.9081e-12,-0.00177062,5.74709e-05,-7,-83,1.40206e-15,-7,-83.4277,0.427656,0.404
1.4778,1.47636,0.558749,0.558071,0,6.6054e-12,-0.00180435,-1.92679e-05,-7,-83,-3.13374e-16,-7,-83.4277,0.427692,0.408
1.4778,1.47636,0.558742,0.558071,0,4.4036e-12,-0.00183836,-1.28453e-05,-7,-83,-1.39277e-16,-7,-83.4277,0.427692,0.412
1.4778,1.47636,0.558735,0.558071,0,2.93573e-12,-0.00187267,-8.56352e-06,-7,-83,-6.1901e-17,-7,-83.4277,0.427692,0.416
1.4778,1.47636,0.558727,0.558071,0,1.95716e-12,-0.00190726,-5.70901e-06,-7,-83,-2.75116e-17,-7,-83.4277,0.427692,0.42
1.4778,1.47636,0.558719,0.558071,0,1.30477e-12,-0.00194214,-3.80601e-06,-7,-83,-1.22274e-17,-7,-83.4277,0.427692,0.424
1.4778,1.47636,0.558712,0.558071,0,8.69847e-13,-0.00197731,-2.53734e-06,-7,-83,-5.43439e-18,-7,-83.4277,0.427692,0.428
1.4778,1.47636,0.558704,0.558071,0,5.79898e-13,-0.00201276,-1.69156e-06,-7,-83,-2.41528e-18,-7,-83.4277,0.427692,0.432
1.4778,1.47636,0.558695,0.558071,0,3.86599e-13,-0.00204849,-1.12771e-06,-7,-83,-1.07346e-18,-7,-83.4277,0.427692,0.436
1.4778,1.47636,0.558687,0.558071,0,2.57732e-13,-0.0020845,-7.51804e-07,-7,-83,-4.77093e-19,-7,-83.4277,0.427692,0.44
1.4778,1.47636,0.558679,0.558071,0,1.71822e-13,-0.0021208,-5.01203e-07,-7,-83,-2.12041e-19,-7,-83.4277,0.427692,0.444
1.4778,1.47636,0.55867,0.558071,0,1.14548e-13,-0.00215738,-3.34135e-07,-7,-83,-9.42406e-20,-7,-83.4277,0.427692,0.448
1.4778,1.47636,0.558662,0.558071,0,7.63652e-14,-0.00219423,-2.22757e-07,-7,-83,-4.18847e-20,-7,-83.4277,0.427692,0.452
1.4778,1.47636,0.558653,0.558071,0,5.09101e-14,-0.00223137,-1.48505e-07,-7,-83,-1.86154e-20,-7,-83.4277,0.427692,0.456
1.4778,1.47636,0.558644,0.55807,0,3.39401e-14,-0.00226879,-2.88899e-05,-7,-83,-2.41428e-18,-7,-83.4277,0.42771,0.46
1.4778,1.47636,0.558635,0.558071,0,2.26267e-14,-0.00230648,9.53097e-06,-7,-83,5.30992e-19,-7,-83.4277,0.427692,0.464
1.4778,1.47636,0.558625,0.558071,0,1.50845e-14,-0.00234445,6.35398e-06,-7,-82,2.35996e-19,-7,-83.4277,1.42769,0.468
1.4778,1.47636,0.558616,0.558071,0,1.00563e-14,-0.0023827,4.23599e-06,-7,-82,1.04887e-19,-7,-83.4277,1.42769,0.472
1.4778,1.47636,0.558606,0.558071,0,6.70421e-15,-0.00242122,2.82399e-06,-7,-82,4.66166e-20,-7,-83.4277,1.42769,0.476
1.4778,1.47636,0.558596,0.558071,0,4.46948e-15,-0.00246001,1.88266e-06,-7,-82,2.07185e-20,-7,-83.4277,1.42769,0.48
1.4778,1.47636,0.558586,0.558071,0,2.97965e-15,-0.00249908,1.25511e-06,-7,-82,9.20821e-21,-7,-83.4277,1.42769,0.484
1.4778,1.47636,0.558576,0.558071,0,1.98643e-15,-0.00253843,8.36738e-07,-7,-82,4.09254e-21,-7,-83.4277,1.42769,0.488
1.4778,1.47636,0.558566,0.558071,0,1.32429e-15,-0.00257804,5.57826e-07,-7,-82,1.81891e-21,-7,-83.4277,1.42769,0.492
1.4778,1.47636,0.558556,0.558071,0,8.82859e-16,-0.00261793,3.71884e-07,-7,-82,8.08403e-22,-7,-83.4277,1.42769,0.496
1.4778,1.47636,0.558545,0.558071,0,5.88573e-16,-0.00265808,2.47922e-07,-7,-82,3.5929e-22,-7,-83.4277,1.42769,0.5
1.4778,1.47636,0.558534,0.558071,0,3.92382e-16,-0.00269851,1.65282e-07,-7,-82,1.59684e-22,-7,-83.4277,1.42769,0.504
1.4778,1.47636,0.558524,0.558071,0,2.61588e-16,-0.0027392,1.10188e-07,-7,-82,7.09709e-23,-7,-83.4277,1.42769,0.508
1.4778,1.47636,0.558513,0.558071,0,1.74392e-16,-0.00278016,7.34585e-08,-7,-82,3.15426e-23,-7,-83.4277,1.42769,0.512
1.4778,1.47636,0.558501,0.558071,0,1.16261e-16,-0.00282139,4.89723e-08,-7,-82,1.40189e-23,-7,-83.4277,1.42769,0.516
1.4778,1.47636,0.55849,0.558071,0,7.75075e-17,-0.00286289,3.26482e-08,-7,-82,6.23064e-24,-7,-83.4277,1.42769,0.52
1.4778,1.47636,0.558478,0.558071,0,5.16717e-17,-0.00290465,2.17655e-08,-7,-82,2.76917e-24,-7,-83.4277,1.42769,0.524
1.4778,1.47636,0.558467,0.558071,0,3.44478e-17,-0.00294668,1.45103e-08,-7,-82,1.23074e-24,-7,-83.4277,1.42769,0.528
1.4778,1.47636,0.558455,0.558071,0,2.29652e-17,-0.00298897,9.67355e-09,-7,-81,5.46997e-25,-7,-83.4277,2.42769,0.532
1.4778,1.47636,0.558443,0.558071,0,1.53101e-17,-0.00303152,6.44903e-09,-7,-81,2.4311e-25,-7,-83.4277,2.42769,0.536
1.4778,1.47636,0.558431,0.558071,0,1.02068e-17,-0.00307433,4.29936e-09,-7,-81,1.08049e-25,-7,-83.4277,2.42769,0.54
1.4778,1.47636,0.558418,0.558071,0,6.8045e-18,-0.00311741,2.86624e-09,-7,-81,4.80217e-26,-7,-83.4277,2.42769,0.544
1.4778,1.47636,0.558406,0.55807,0,4.53634e-18,-0.00316075,-2.8789e-05,-7,-81,-3.21559e-22,-7,-83.4277,2.42771,0.548
1.4778,1.47636,0.558393,0.558071,0,3.02422e-18,-0.00320434,9.59825e-06,-7,-81,7.14718e-23,-7,-83.4277,2.42769,0.552
1.4778,1.47636,0.55838,0.558071,0,2.01615e-18,-0.0032482,6.39883e-06,-7,-81,3.17653e-23,-7,-83.4277,2.42769,0.556
1.4778,1.47636,0.558367,0.558071,0,1.3441e-18,-0.00329231,4.26589e-06,-7,-81,1.41179e-23,-7,-83.4277,2.42769,0.56
1.4778,1.47636,0.558354,0.558071,0,8.96066e-19,-0.00333669,2.84393e-06,-7,-81,6.27462e-24,-7,-83.4277,2.42769,0.564
1.4778,1.47636,0.55834,0.558071,0,5.97377e-19,-0.00338131,1.89595e-06,-7,-81,2.78872e-24,-7,-83.4277,2.42769,0.568
1.4778,1.47636,0.558327,0.558071,0,3.98252e-19,-0.0034262,1.26397e-06,-7,-81,1.23943e-24,-7,-83.4277,2.42769,0.572
1.4778,1.47636,0.558313,0.558071,0,2.65501e-19,-0.00347134,8.42645e-07,-7,-81,5.50858e-25,-7,-83.4277,2.42769,0.576
1.4778,1.47636,0.558299,0.558071,0,1.77001e-19,-0.00351673,5.61763e-07,-7,-81,2.44826e-25,-7,-83.4277,2.42769,0.58
1.4778,1.47636,0.558285,0.558071,0,1.18e-19,-0.00356238,3.74509e-07,-7,-81,1.08811e-25,-7,-83.4277,2.42769,0.584
1.4778,1.47636,0.55827,0.558071,0,7.8667e-20,-0.00360828,2.49672e-07,-7,-80,4.83607e-26,-7,-83.4277,3.42769,0.588
1.4778,1.47636,0.558256,0.558071,0,5.24447e-20,-0.00365443,1.66448e-07,-7,-80,2.14936e-26,-7,-83.4277,3.42769,0.592
1.4778,1.47636,0.558241,0.558071,0,3.49631e-20,-0.00370083,1.10966e-07,-7,-80,9.55272e-27,-7,-83.4277,3.42769,0.596
1.4778,1.47636,0.558226,0.558071,0,2.33087e-20,-0.00374748,7.3977e-08,-7,-80,4.24565e-27,-7,-83.4277,3.42769,0.6
1.4778,1.47636,0.558211,0.558071,0,1.55392e-20,-0.00379438,4.9318e-08,-7,-80,1.88696e-27,-7,-83.4277,3.42769,0.604
1.4778,1.47636,0.558196,0.558071,0,1.03594e-20,-0.00384153,3.28787e-08,-7,-80,8.38648e-28,-7,-83.4277,3.42769,0.608
1.4778,1.47636,0.55818,0.558071,0,6.90629e-21,-0.00388893,2.19191e-08,-7,-80,3.72732e-28,-7,-83.4277,3.42769,0.612
1.4778,1.47636,0.558165,0.558071,0,4.6042e-21,-0.00393658,1.46127e-08,-7,-80,1.65659e-28,-7,-83.4277,3.42769,0.616
1.4778,1.47636,0.558149,0.558071,0,3.06946e-21,-0.00398447,9.74183e-09,-7,-80,7.36262e-29,-7,-83.4277,3.42769,0.62
1.4778,1.47636,0.558133,0.558071,0,2.04631e-21,-0.0040326,6.49455e-09,-7,-80,3.27227e-29,-7,-83.4277,3.42769,0.624
1.4778,1.47636,0.558117,0.558071,0,1.36421e-21,-0.00408098,4.3297e-09,-7,-80,1.45434e-29,-7,-83.4277,3.42769,0.628
1.4778,1.47636,0.5581,0.558071,0,9.09471e-22,-0.00412961,2.88647e-09,-7,-80,6.46375e-30,-7,-83.4277,3.42769,0.632
1.4778,1.47636,0.558084,0.558071,0,6.06314e-22,-0.00417848,1.92431e-09,-7,-79,2.87278e-30,-7,-83.4277,4.42769,0.636
1.4778,1.47636,0.558067,0.558071,0,4.04209e-22,-0.00422759,1.28287e-09,-7,-79,1.27679e-30,-7,-83.4277,4.42769,0.64
1.4778,1.47636,0.55805,0.558071,0,2.69473e-22,-0.00427694,8.5525e-10,-7,-79,5.67462e-31,-7,-83.4277,4.42769,0.644
1.4778,1.47636,0.558033,0.558071,0,1.79649e-22,-0.00432653,5.70167e-10,-7,-79,2.52205e-31,-7,-83.4277,4.42769,0.648
1.4778,1.47636,0.558015,0.558071,0,1.19766e-22,-0.00437637,3.80111e-10,-7,-79,1.12091e-31,-7,-83.4277,4.42769,0.652
1.4778,1.47636,0.557998,0.55807,0,7.98438e-23,-0.00442644,-2.87907e-05,-7,-79,-5.66007e-27,-7,-83.4277,4.42771,0.656
1.4778,1.47636,0.55798,0.558071,0,5.32292e-23,-0.00447675,9.59714e-06,-7,-79,1.25783e-27,-7,-83.4277,4.42769,0.66
1.4778,1.47636,0.557962,0.558071,0,3.54861e-23,-0.0045273,6.3981e-06,-7,-79,5.59034e-28,-7,-83.4277,4.42769,0.664
1.4778,1.47636,0.557944,0.558071,0,2.36574e-23,-0.00457808,4.2654e-06,-7,-79,2.4846e-28,-7,-83.4277,4.42769,0.668
1.4778,1.47636,0.557925,0.558071,0,1.57716e-23,-0.0046291,2.8436e-06,-7,-79,1.10427e-28,-7,-83.4277,4.42769,0.672
1.4778,1.47636,0.557907,0.558071,0,1.05144e-23,-0.00468036,1.89573e-06,-7,-79,4.90785e-29,-7,-83.4277,4.42769,0.676
1.4778,1.47636,0.557888,0.558071,0,7.00961e-24,-0.00473185,1.26382e-06,-7,-78,2.18126e-29,-7,-83.4277,5.42769,0.68
1.4778,1.47636,0.557869,0.558071,0,4.67307e-24,-0.00478357,8.42548e-07,-7,-78,9.69451e-30,-7,-83.4277,5.42769,0.684
1.4778,1.47636,0.557849,0.558071,0,3.11538e-24,-0.00483553,5.61698e-07,-7,-78,4.30867e-30,-7,-83.4277,5.42769,0.688
1.4778,1.47636,0.55783,0.55807,0,2.07692e-24,-0.00488772,-2.84165e-05,-7,-78,-1.45318e-28,-7,-83.4277,5.42771,0.692
1.4778,1.47636,0.55781,0.558071,0,1.38461e-24,-0.00494014,9.84662e-06,-7,-78,3.35695e-29,-7,-83.4277,5.42769,0.696
1.4778,1.47636,0.557791,0.558071,0,9.23076e-25,-0.00499279,6.56441e-06,-7,-78,1.49198e-29,-7,-83.4277,5.42769,0.7
1.4778,1.47636,0.55777,0.558071,0,6.15384e-25,-0.00504567,4.37627e-06,-7,-78,6.63101e-30,-7,-83.4277,5.42769,0.704
1.4778,1.47636,0.55775,0.558071,0,4.10256e-25,-0.00509878,2.91752e-06,-7,-78,2.94712e-30,-7,-83.4277,5.42769,0.708
1.4778,1.47636,0.55773,0.558071,0,2.73504e-25,-0.00515211,1.94501e-06,-7,-78,1.30983e-30,-7,-83.4277,5.42769,0.712
1.4778,1.47636,0.557709,0.558071,0,1.82336e-25,-0.00520568,1.29667e-06,-7,-78,5.82146e-31,-7,-83.4277,5.42769,0.716
1.4778,1.47636,0.557688,0.558071,0,1.21557e-25,-0.00525947,8.64449e-07,-7,-78,2.58732e-31,-7,-83.4277,5.42769,0.72
1.4778,1.47636,0.557667,0.558071,0,8.10382e-26,-0.00531349,5.763e-07,-7,-77,1.14992e-31,-7,-83.4277,6.42769,0.724
1.4778,1.47636,0.557645,0.558071,0,5.40255e-26,-0.00536773,3.842e-07,-7,-77,5.11075e-32,-7,-83.4277,6.42769,0.728
1.4778,1.47636,0.557624,0.558071,0,3.6017e-26,-0.0054222,2.56133e-07,-7,-77,2.27144e-32,-7,-83.4277,6.42769,0.732
1.4778,1.47636,0.557602,0.558071,0,2.40113e-26,-0.00547689,1.70755e-07,-7,-77,1.00953e-32,-7,-83.4277,6.42769,0.736
1.4778,1.47636,0.55758,0.558071,0,1.60075e-26,-0.0055318,1.13837e-07,-7,-77,4.4868e-33,-7,-83.4277,6.42769,0.74
1.4778,1.47636,0.557558,0.558071,0,1.06717e-26,-0.00558694,5.76577e-05,-7,-77,1.51503e-30,-7,-83.4277,6.42766,0.744
1.4778,1.47636,0.557535,0.558071,0,7.11446e-27,-0.00564229,-1.91434e-05,-7,-77,-3.35343e-31,-7,-83.4277,6.42769,0.748
1.4778,1.47636,0.557513,0.558071,0,4.74298e-27,-0.00569787,-1.27622e-05,-7,-77,-1.49041e-31,-7,-83.4277,6.42769,0.752
1.4778,1.47636,0.55749,0.558071,0,3.16198e-27,-0.00575367,-8.50816e-06,-7,-77,-6.62406e-32,-7,-83.4277,6.42769,0.756
1.4778,1.47636,0.557467,0.558071,0,2.10799e-27,-0.00580968,-5.67211e-06,-7,-76,-2.94403e-32,-7,-83.4277,7.42769,0.76
1.4778,1.47636,0.557443,0.558071,0,1.40533e-27,-0.00586591,-3.7814e-06,-7,-76,-1.30846e-32,-7,-83.4277,7.42769,0.764
1.4778,1.47636,0.55742,0.558071,0,9.36884e-28,-0.00592237,5.50609e-05,-7,-76,1.27016e-31,-7,-83.4277,7.42766,0.768
1.4778,1.47636,0.557396,0.558071,0,6.24589e-28,-0.00597903,-2.08746e-05,-7,-76,-3.21027e-32,-7,-83.4277,7.42769,0.772
1.4778,1.47636,0.557372,0.558071,0,4.16393e-28,-0.00603592,-1.39164e-05,-7,-76,-1.42679e-32,-7,-83.4277,7.42769,0.776
1.4778,1.47636,0.557348,0.55807,0,2.77595e-28,-0.00609301,-3.80685e-05,-7,-76,-2.602e-32,-7,-83.4277,7.42771,0.78
1.4778,1.47636,0.557323,0.558071,0,1.85064e-28,-0.00615033,3.41192e-06,-7,-76,1.55471e-33,-7,-83.4277,7.42769,0.784
1.4778,1.47636,0.557298,0.558071,0,1.23376e-28,-0.00620785,2.27461e-06,-7,-76,6.9098e-34,-7,-83.4277,7.42769,0.788
1.4778,1.47636,0.557274,0.558071,0,8.22505e-29,-0.00626559,1.51641e-06,-7,-76,3.07102e-34,-7,-83.4277,7.42769,0.792
1.4778,1.47636,0.557248,0.558071,0,5.48336e-29,-0.00632354,1.01094e-06,-7,-75,1.3649e-34,-7,-83.4277,8.42769,0.796
1.4778,1.47636,0.557223,0.558071,0,3.65558e-29,-0.00638171,6.73959e-07,-7,-75,6.06622e-35,-7,-83.4277,8.42769,0.8
1.4778,1.47636,0.557197,0.558071,0,2.43705e-29,-0.00644008,4.49306e-07,-7,-75,2.6961e-35,-7,-83.4277,8.42769,0.804
1.4778,1.47636,0.557171,0.558071,0,1.6247e-29,-0.00649866,2.99537e-07,-7,-75,1.19827e-35,-7,-83.4277,8.42769,0.808
1.4778,1.47636,0.557145,0.558071,0,1.08313e-29,-0.00655745,1.99691e-07,-7,-75,5.32563e-36,-7,-83.4277,8.42769,0.812
1.4778,1.47636,0.557119,0.558071,0,7.22089e-30,-0.00661645,1.33128e-07,-7,-75,2.36694e-36,-7,-83.4277,8.42769,0.816
1.4778,1.47636,0.557092,0.55807,0,4.81393e-30,-0.00667566,-2.87022e-05,-7,-75,-3.40207e-34,-7,-83.4277,8.42771,0.82
1.4778,1.47636,0.557066,0.558071,0,3.20928e-30,-0.00673507,9.65614e-06,-7,-75,7.63029e-35,-7,-83.4277,8.42769,0.824
1.4778,1.47636,0.557038,0.558071,0,2.13952e-30,-0.00679469,6.43743e-06,-7,-74,3.39124e-35,-7,-83.4277,9.42769,0.828
1.4778,1.47636,0.557011,0.558071,0,1.42635e-30,-0.00685452,4.29162e-06,-7,-74,1.50722e-35,-7,-83.4277,9.42769,0.832
1.4778,1.47636,0.556984,0.558071,0,9.50899e-31,-0.00691455,2.86108e-06,-7,-74,6.69874e-36,-7,-83.4277,9.42769,0.836
1.4778,1.47636,0.556956,0.558071,0,6.33933e-31,-0.00697478,1.90739e-06,-7,-74,2.97722e-36,-7,-83.4277,9.42769,0.84
1.4778,1.47636,0.556928,0.558071,0,4.22622e-31,-0.00703522,1.27159e-06,-7,-74,1.32321e-36,-7,-83.4277,9.42769,0.844
1.4778,1.47636,0.5569,0.558071,0,2.81748e-31,-0.00709586,8.47727e-07,-7,-74,5.88093e-37,-7,-83.4277,9.42769,0.848
1.4778,1.47636,0.556871,0.558071,0,1.87832e-31,-0.0071567,5.65151e-07,-7,-74,2.61375e-37,-7,-83.4277,9.42769,0.852
1.4778,1.47636,0.556842,0.558071,0,1.25221e-31,-0.00721774,3.76768e-07,-7,-74,1.16166e-37,-7,-83.4277,9.42769,0.856
1.4778,1.47636,0.556813,0.558071,0,8.34809e-32,-0.00727898,2.51178e-07,-7,-73,5.16295e-38,-7,-83.4277,10.4277,0.86
1.4778,1.47636,0.556784,0.558071,0,5.56539e-32,-0.00734042,1.67452e-07,-7,-73,2.29465e-38,-7,-83.4277,10.4277,0.864
1.4778,1.47636,0.556755,0.558071,0,3.71026e-32,-0.00740206,1.11635e-07,-7,-73,1.01984e-38,-7,-83.4277,10.4277,0.868
1.4778,1.47636,0.556725,0.558071,0,2.47351e-32,-0.00746389,7.44232e-08,-7,-73,4.53264e-39,-7,-83.4277,10.4277,0.872
1.4778,1.47636,0.556695,0.558071,0,1.649e-32,-0.00752593,4.96155e-08,-7,-73,2.0145e-39,-7,-83.4277,10.4277,0.876
1.4778,1.47636,0.556665,0.558071,0,1.09934e-32,-0.00758815,3.3077e-08,-7,-73,8.95335e-40,-7,-83.4277,10.4277,0.88
1.4778,1.47636,0.556634,0.558071,0,7.32891e-33,-0.00765058,2.20513e-08,-7,-73,3.97927e-40,-7,-83.4277,10.4277,0.884
1.4778,1.47636,0.556603,0.558071,0,4.88594e-33,-0.0077132,1.47009e-08,-7,-73,1.76856e-40,-7,-83.4277,10.4277,0.888
1.4778,1.47636,0.556572,0.558071,0,3.25729e-33,-0.00777601,9.80059e-09,-7,-72,7.86028e-41,-7,-83.4277,11.4277,0.892
1.4778,1.47636,0.556541,0.558071,0,2.17153e-33,-0.00783902,6.53373e-09,-7,-72,3.49346e-41,-7,-83.4277,11.4277,0.896
1.4778,1.47636,0.55651,0.558071,0,1.44769e-33,-0.00790222,4.35582e-09,-7,-72,1.55265e-41,-7,-83.4277,11.4277,0.9
1.4778,1.47636,0.556478,0.558071,0,9.65124e-34,-0.00796561,2.90388e-09,-7,-72,6.90066e-42,-7,-83.4277,11.4277,0.904
1.4778,1.47636,0.556446,0.558071,0,6.43416e-34,-0.00802919,5.75838e-05,-7,-72,9.12266e-38,-7,-83.4277,11.4277,0.908
1.4778,1.47636,0.556414,0.558071,0,4.28944e-34,-0.00809296,-1.91927e-05,-7,-72,-2.02705e-38,-7,-83.4277,11.4277,0.912
1.4778,1.47636,0.556381,0.558071,0,2.85963e-34,-0.00815692,-1.27951e-05,-7,-72,-9.00912e-39,-7,-83.4277,11.4277,0.916
1.4778,1.47636,0.556349,0.558071,0,1.90642e-34,-0.00822107,-8.53007e-06,-7,-71,-4.00405e-39,-7,-83.4277,12.4277,0.92
1.4778,1.47636,0.556316,0.558071,0,1.27095e-34,-0.00828541,-5.68671e-06,-7,-71,-1.77958e-39,-7,-83.4277,12.4277,0.924
1.4778,1.47636,0.556282,0.558071,0,8.47297e-35,-0.00834994,-3.79114e-06,-7,-71,-7.90924e-40,-7,-83.4277,12.4277,0.928
1.4778,1.47636,0.556249,0.558071,0,5.64864e-35,-0.00841465,-2.52743e-06,-7,-71,-3.51522e-40,-7,-83.4277,12.4277,0.932
1.4778,1.47636,0.556215,0.558071,0,3.76576e-35,-0.00847955,-1.68495e-06,-7,-71,-1.56232e-40,-7,-83.4277,12.4277,0.936
1.4778,1.47636,0.556181,0.558071,0,2.51051e-35,-0.00854463,-1.1233e-06,-7,-71,-6.94364e-41,-7,-83.4277,12.4277,0.94
1.4778,1.47636,0.556147,0.558071,0,1.67367e-35,-0.0086099,-7.48868e-07,-7,-71,-3.08606e-41,-7,-83.4277,12.4277,0.944
1.4778,1.47636,0.556112,0.558071,0,1.11578e-35,-0.00867535,-4.99245e-07,-7,-70,-1.37158e-41,-7,-83.4277,13.4277,0.948
1.4778,1.47636,0.556077,0.558071,0,7.43854e-36,-0.00874098,-3.3283e-07,-7,-70,-6.09592e-42,-7,-83.4277,13.4277,0.952
1.4778,1.47636,0.556042,0.558071,0,4.95903e-36,-0.0088068,-2.21887e-07,-7,-70,-2.7093e-42,-7,-83.4277,13.4277,0.956
1.4778,1.47636,0.556007,0.558071,0,3.30602e-36,-0.0088728,-1.47924e-07,-7,-70,-1.20413e-42,-7,-83.4277,13.4277,0.96
1.4778,1.47636,0.555971,0.558071,0,2.20401e-36,-0.00893897,-9.86163e-08,-7,-70,-5.3517e-43,-7,-83.4277,13.4277,0.964
1.4778,1.47636,0.555935,0.558071,0,1.46934e-36,-0.00900533,-6.57442e-08,-7,-70,-2.37853e-43,-7,-83.4277,13.4277,0.968
1.4778,1.47636,0.555899,0.558071,0,9.79561e-37,-0.00907187,-4.38295e-08,-7,-69,-1.05713e-43,-7,-83.4277,14.4277,0.972
1.4778,1.47636,0.555863,0.558071,0,6.53041e-37,-0.00913858,-2.92196e-08,-7,-69,-4.69834e-44,-7,-83.4277,14.4277,0.976
1.4778,1.47636,0.555826,0.558071,0,4.35361e-37,-0.00920548,-1.94798e-08,-7,-69,-2.08815e-44,-7,-83.4277,14.4277,0.98
1.4778,1.47636,0.555789,0.558071,0,2.9024e-37,-0.00927255,-1.29865e-08,-7,-69,-9.28067e-45,-7,-83.4277,14.4277,0.984
1.4778,1.47636,0.555752,0.558071,0,1.93494e-37,-0.0093398,-8.65767e-09,-7,-69,-4.12474e-45,-7,-83.4277,14.4277,0.988
1.4778,1.47636,0.555714,0.558071,0,1.28996e-37,-0.00940722,-5.77178e-09,-7,-69,-1.83322e-45,-7,-83.4277,14.4277,0.992
1.4778,1.47636,0.555677,0.558071,0,8.59972e-38,-0.00947482,-3.84786e-09,-7,-69,-8.14764e-46,-7,-83.4277,14.4277,0.996
1.4778,1.47636,0.555638,0.558071,0,5.73314e-38,-0.00954259,-2.56524e-09,-7,-68,-3.62117e-46,-7,-83.4277,15.4277,1
1.4778,1.47636,0.5556,0.558071,0,3.8221e-38,-0.00961053,-1.71016e-09,-7,-68,-1.60941e-46,-7,-83.4277,15.4277,1.004
1.4778,1.47636,0.555562,0.558071,0,2.54806e-38,-0.00967865,-1.14011e-09,-7,-68,-7.15294e-47,-7,-83.4277,15.4277,1.008
1.4778,1.47636,0.555523,0.558071,0,1.69871e-38,-0.00974694,-7.6007e-10,-7,-68,-3.17908e-47,-7,-83.4277,15.4277,1.012
1.4778,1.47636,0.555484,0.558071,0,1.13247e-38,-0.0098154,-5.06713e-10,-7,-68,-1.41293e-47,-7,-83.4277,15.4277,1.016
1.4778,1.47636,0.555444,0.558071,0,7.54982e-39,-0.00988403,-3.37809e-10,-7,-68,-6.27967e-48,-7,-83.4277,15.4277,1.02
1.4778,1.47636,0.555405,0.558071,0,5.03321e-39,-0.00995283,-2.25206e-10,-7,-67,-2.79096e-48,-7,-83.4277,16.4277,1.024
1.4778,1.47636,0.555365,0.558071,0,3.35548e-39,-0.0100218,-1.50137e-10,-7,-67,-1.24043e-48,-7,-83.4277,16.4277,1.028
1.4778,1.47636,0.555324,0.558071,0,2.23698e-39,-0.0100909,-1.00092e-10,-7,-67,-5.51302e-49,-7,-83.4277,16.4277,1.032
1.4778,1.47636,0.555284,0.558071,0,1.49132e-39,-0.0101602,-6.67277e-11,-7,-67,-2.45023e-49,-7,-83.4277,16.4277,1.036
1.4778,1.47636,0.555243,0.558071,0,9.94215e-40,-0.0102297,-4.44851e-11,-7,-67,-1.08899e-49,-7,-83.4277,16.4277,1.04
1.4778,1.47636,0.555202,0.558071,0,6.6281e-40,-0.0102994,-2.96568e-11,-7,-67,-4.83996e-50,-7,-83.4277,16.4277,1.044
1.4778,1.47636,0.555161,0.558071,0,4.41873e-40,-0.0103692,-1.97712e-11,-7,-66,-2.15109e-50,-7,-83.4277,17.4277,1.048
1.4778,1.47636,0.555119,0.558071,0,2.94582e-40,-0.0104391,-1.31808e-11,-7,-66,-9.56041e-51,-7,-83.4277,17.4277,1.052
1.4778,1.47636,0.555077,0.558071,0,1.96388e-40,-0.0105093,-8.78719e-12,-7,-66,-4.24907e-51,-7,-83.4277,17.4277,1.056
1.4778,1.47636,0.555035,0.558071,0,1.30925e-40,-0.0105796,-5.85812e-12,-7,-66,-1.88848e-51,-7,-83.4277,17.4277,1.06
1.4778,1.47636,0.554993,0.558071,0,8.72836e-41,-0.01065,-3.90542e-12,-7,-66,-8.39323e-52,-7,-83.4277,17.4277,1.064
1.4778,1.47636,0.55495,0.558071,0,5.81891e-41,-0.0107206,-2.60361e-12,-7,-66,-3.73032e-52,-7,-83.4277,17.4277,1.068
1.4778,1.47636,0.554907,0.558071,0,3.87927e-41,-0.0107914,-1.73574e-12,-7,-65,-1.65792e-52,-7,-83.4277,18.4277,1.072
1.4778,1.47636,0.554863,0.558071,0,2.58618e-41,-0.0108624,-1.15716e-12,-7,-65,-7.36854e-53,-7,-83.4277,18.4277,1.076
1.4778,1.47636,0.55482,0.558071,0,1.72412e-41,-0.0109335,-7.7144e-13,-7,-65,-3.27491e-53,-7,-83.4277,18.4277,1.08
1.4778,1.47636,0.554776,0.558071,0,1.14941e-41,-0.0110047,-5.14293e-13,-7,-65,-1.45551e-53,-7,-83.4277,18.4277,1.084
1.4778,1.47636,0.554732,0.558071,0,7.66276e-42,-0.0110762,-3.42862e-13,-7,-65,-6.46895e-54,-7,-83.4277,18.4277,1.088
1.4778,1.47636,0.554687,0.558071,0,5.10851e-42,-0.0111477,-2.28575e-13,-7,-64,-2.87509e-54,-7,-83.4277,19.4277,1.092
1.4778,1.47636,0.554643,0.558071,0,3.40567e-42,-0.0112195,-1.52383e-13,-7,-64,-1.27782e-54,-7,-83.4277,19.4277,1.096
1.4778,1.47636,0.554598,0.558071,0,2.27045e-42,-0.0112914,-1.01589e-13,-7,-64,-5.67919e-55,-7,-83.4277,19.4277,1.1
1.4778,1.47636,0.554552,0.558071,0,1.51363e-42,-0.0113634,-6.77259e-14,-7,-64,-2.52408e-55,-7,-83.4277,19.4277,1.104
1.4778,1.47636,0.554507,0.558071,0,1.00909e-42,-0.0114356,-4.51506e-14,-7,-64,-1.12182e-55,-7,-83.4277,19.4277,1.108
1.4778,1.47636,0.554461,0.558071,0,6.72725e-43,-0.011508,-3.01004e-14,-7,-64,-4.98585e-56,-7,-83.4277,19.4277,1.112
1.4778,1.47636,0.554415,0.558071,0,4.48483e-43,-0.0115805,-2.00669e-14,-7,-63,-2.21593e-56,-7,-83.4277,20.4277,1.116
1.4778,1.47636,0.554368,0.558071,0,2.98989e-43,-0.0116531,-1.3378e-14,-7,-63,-9.84858e-57,-7,-83.4277,20.4277,1.12
1.4778,1.47636,0.554321,0.558071,0,1.99326e-43,-0.011726,-8.91864e-15,-7,-63,-4.37715e-57,-7,-83.4277,20.4277,1.124
1.4778,1.47636,0.554274,0.558071,0,1.32884e-43,-0.0117989,-5.94576e-15,-7,-63,-1.9454e-57,-7,-83.4277,20.4277,1.128
1.4778,1.47636,0.554227,0.558071,0,8.85893e-44,-0.011872,-3.96384e-15,-7,-63,-8.64622e-58,-7,-83.4277,20.4277,1.132
1.4778,1.47636,0.554179,0.558071,0,5.90595e-44,-0.0119453,-2.64256e-15,-7,-62,-3.84276e-58,-7,-83.4277,21.4277,1.136
1.4778,1.47636,0.554132,0.558071,0,3.9373e-44,-0.0120187,-1.76171e-15,-7,-62,-1.7079e-58,-7,-83.4277,21.4277,1.14
1.4778,1.47636,0.554083,0.558071,0,2.62487e-44,-0.0120923,-1.17447e-15,-7,-62,-7.59065e-59,-7,-83.4277,21.4277,1.144
1.4778,1.47636,0.554035,0.558071,0,1.74991e-44,-0.012166,-7.8298e-16,-7,-62,-3.37362e-59,-7,-83.4277,21.4277,1.148
1.4778,1.47636,0.553986,0.558071,0,1.16661e-44,-0.0122399,-5.21987e-16,-7,-62,-1.49939e-59,-7,-83.4277,21.4277,1.152
1.4778,1.47636,0.553937,0.558071,0,7.77739e-45,-0.0123139,-3.47991e-16,-7,-61,-6.66394e-60,-7,-83.4277,22.4277,1.156
1.4778,1.47636,0.553887,0.558071,0,5.18493e-45,-0.012388,-2.31994e-16,-7,-61,-2.96175e-60,-7,-83.4277,22.4277,1.16
1.4778,1.47636,0.553838,0.558071,0,3.45662e-45,-0.0124623,-1.54663e-16,-7,-61,-1.31633e-60,-7,-83.4277,22.4277,1.164
1.4778,1.47636,0.553788,0.558071,0,2.30441e-45,-0.0125367,-1.03109e-16,-7,-61,-5.85037e-61,-7,-83.4277,22.4277,1.168
1.4778,1.47636,0.553737,0.558071,0,1.53627e-45,-0.0126113,-6.8739e-17,-7,-61,-2.60017e-61,-7,-83.4277,22.4277,1.172
1.4778,1.47636,0.553687,0.558071,0,1.02418e-45,-0.0126861,-4.5826e-17,-7,-60,-1.15563e-61,-7,-83.4277,23.4277,1.176
1.4778,1.47636,0.553636,0.558071,0,6.82789e-46,-0.0127609,2.87909e-05,-7,-60,4.84029e-50,-7,-83.4277,23.4277,1.18
1.4778,1.47636,0.553585,0.558071,0,4.55192e-46,-0.0128359,-9.59697e-06,-7,-60,-1.07562e-50,-7,-83.4277,23.4277,1.184
1.4778,1.47636,0.553533,0.558071,0,2.87909e-05,-0.0129111,-6.39798e-06,-6,-60,-4.53553e-10,-6,-83.4277,23.4277,1.188
1.4778,1.47636,0.553481,0.558071,0,-9.59697e-06,-0.0129864,-4.26532e-06,-7,-60,1.00789e-10,-7,-83.4277,23.4277,1.192
1.4778,1.47636,0.553429,0.55807,0,-6.39798e-06,-0.0130618,-3.16345e-05,-7,-59,4.98348e-10,-7,-83.4277,24.4277,1.196
1.4778,1.47636,0.553377,0.55807,0,-4.26532e-06,-0.0131374,-2.10896e-05,-7,-59,2.21488e-10,-7,-83.4277,24.4277,1.2
1.4778,1.47636,0.553324,0.558071,0,-2.84355e-06,-0.0132131,1.47312e-05,-7,-59,-1.0314e-10,-7,-83.4277,24.4277,1.204
1.4778,1.47636,0.553271,0.558071,0,-1.8957e-06,-0.0132889,9.82077e-06,-7,-59,-4.58399e-11,-7,-83.4277,24.4277,1.208
1.4778,1.47636,0.553218,0.558071,0,-1.2638e-06,-0.0133649,6.54718e-06,-7,-59,-2.03733e-11,-7,-83.4277,24.4277,1.212
1.4778,1.47636,0.553164,0.558071,0,-8.42533e-07,-0.013441,3.31557e-05,-7,-58,-6.87819e-11,-7,-83.4277,25.4277,1.216
1.4778,1.47636,0.55311,0.558071,0,-5.61689e-07,-0.0135173,-6.68712e-06,-7,-58,9.24833e-12,-7,-83.4277,25.4277,1.22
1.4778,1.47636,0.553056,0.55807,0,-3.74459e-07,-0.0135937,-3.3249e-05,-7,-58,3.06557e-11,-7,-83.4277,25.4277,1.224
1.4778,1.47636,0.553002,0.55807,0,-2.49639e-07,-0.0136702,-2.2166e-05,-7,-58,1.36248e-11,-7,-83.4277,25.4277,1.228
1.4778,1.47636,0.552947,0.55807,0,-1.66426e-07,-0.0137469,-1.47773e-05,-7,-58,6.05545e-12,-7,-83.4277,25.4277,1.232
1.4778,1.47636,0.552892,0.55807,0,-1.10951e-07,-0.0138237,-9.85156e-06,-7,-57,2.69131e-12,-7,-83.4277,26.4277,1.236
1.4778,1.47636,0.552836,0.55807,0,-7.39672e-08,-0.0139006,-6.5677e-06,-7,-57,1.19614e-12,-7,-83.4277,26.4277,1.24
1.4778,1.47636,0.552781,0.55807,0,-4.93115e-08,-0.0139776,-4.37847e-06,-7,-57,5.31617e-13,-7,-83.4277,26.4277,1.244
1.4778,1.47636,0.552724,0.55807,0,-3.28743e-08,-0.0140548,-2.91898e-06,-7,-57,2.36274e-13,-7,-83.4277,26.4277,1.248
1.4778,1.47636,0.552668,0.55807,0,-2.19162e-08,-0.0141321,-1.94599e-06,-7,-56,1.05011e-13,-7,-83.4277,27.4277,1.252
1.4778,1.47636,0.552611,0.55807,0,-1.46108e-08,-0.0142096,-1.29732e-06,-7,-56,4.66715e-14,-7,-83.4277,27.4277,1.256
1.4778,1.47636,0.552554,0.55807,0,-9.74054e-09,-0.0142871,-8.64883e-07,-7,-56,2.07429e-14,-7,-83.4277,27.4277,1.26
1.4778,1.47636,0.552497,0.55807,0,-6.49369e-09,-0.0143648,-5.76589e-07,-7,-56,9.21906e-15,-7,-83.4277,27.4277,1.264
1.4778,1.47636,0.552439,0.55807,0,-4.32913e-09,-0.0144427,-3.84392e-07,-7,-56,4.09736e-15,-7,-83.4277,27.4277,1.268
1.4778,1.47636,0.552382,0.55807,0,-2.88609e-09,-0.0145206,-2.56262e-07,-7,-55,1.82105e-15,-7,-83.4277,28.4277,1.272
1.4778,1.47636,0.552323,0.55807,0,-1.92406e-09,-0.0145987,-1.70841e-07,-7,-55,8.09355e-16,-7,-83.4277,28.4277,1.276
1.4778,1.47636,0.552265,0.55807,0,-1.2827e-09,-0.0146769,-1.13894e-07,-7,-55,3.59713e-16,-7,-83.4277,28.4277,1.28
1.4778,1.47636,0.552206,0.55807,0,-8.55136e-10,-0.0147552,-2.88669e-05,-7,-55,6.07804e-14,-7,-83.4277,28.4277,1.284
1.4778,1.47636,0.552147,0.55807,0,-5.70091e-10,-0.0148337,-1.92446e-05,-7,-54,2.70135e-14,-7,-83.4277,29.4277,1.288
1.4778,1.47636,0.552087,0.55807,0,-3.80061e-10,-0.0149122,-4.16206e-05,-7,-54,3.89485e-14,-7,-83.4277,29.4277,1.292
1.4778,1.47636,0.552027,0.55807,0,-2.53374e-10,-0.0149909,1.04383e-06,-7,-54,-6.5121e-16,-7,-83.4277,29.4277,1.296
1.4778,1.47636,0.551967,0.55807,0,-1.68916e-10,-0.0150698,6.95889e-07,-7,-54,-2.89427e-16,-7,-83.4277,29.4277,1.3
1.4778,1.47636,0.551907,0.55807,0,-1.12611e-10,-0.0151487,2.92549e-05,-7,-54,-8.11159e-15,-7,-83.4277,29.4277,1.304
1.4778,1.47636,0.551846,0.55807,0,-7.50737e-11,-0.0152278,1.95032e-05,-7,-53,-3.60515e-15,-7,-83.4277,30.4277,1.308
1.4778,1.47636,0.551785,0.55807,0,-5.00491e-11,-0.0153069,-4.45797e-05,-7,-53,5.49367e-15,-7,-83.4277,30.4277,1.312
1.4778,1.47636,0.551724,0.55807,0,-3.33661e-11,-0.0153862,-2.97198e-05,-7,-53,2.44163e-15,-7,-83.4277,30.4277,1.316
1.4778,1.47636,0.551662,0.55807,0,-2.22441e-11,-0.0154657,-1.98132e-05,-7,-53,1.08517e-15,-7,-83.4277,30.4277,1.32
1.4778,1.47636,0.5516,0.55807,0,-1.48294e-11,-0.0155452,-1.32088e-05,-7,-52,4.82297e-16,-7,-83.4277,31.4277,1.324
1.4778,1.47636,0.551538,0.558069,0,-9.88625e-12,-0.0156248,-6.63877e-05,-7,-52,1.61602e-15,-7,-83.4278,31.4278,1.328
1.4778,1.47636,0.551475,0.55807,0,-6.59083e-12,-0.0157046,1.33234e-05,-7,-52,-2.16214e-16,-7,-83.4277,31.4277,1.332
1.4778,1.47636,0.551412,0.558069,0,-4.39389e-12,-0.0157845,-1.99087e-05,-7,-52,2.15387e-16,-7,-83.4278,31.4278,1.336
1.4778,1.47636,0.551349,0.558069,0,-2.92926e-12,-0.0158645,-1.32725e-05,-7,-51,9.57276e-17,-7,-83.4278,32.4278,1.34
1.4778,1.47636,0.551285,0.558069,0,-1.95284e-12,-0.0159446,-8.8483e-06,-7,-51,4.25456e-17,-7,-83.4278,32.4278,1.344
1.4778,1.47636,0.551221,0.558069,0,-1.30189e-12,-0.0160248,-5.89887e-06,-7,-51,1.89092e-17,-7,-83.4278,32.4278,1.348
1.4778,1.47636,0.551157,0.558069,0,-8.67929e-13,-0.0161052,-3.93258e-06,-7,-51,8.40407e-18,-7,-83.4278,32.4278,1.352
1.4778,1.47636,0.551092,0.558069,0,-5.78619e-13,-0.0161856,-2.62172e-06,-7,-50,3.73514e-18,-7,-83.4278,33.4278,1.356
1.4778,1.47636,0.551027,0.558069,0,-3.85746e-13,-0.0162662,-1.74781e-06,-7,-50,1.66006e-18,-7,-83.4278,33.4278,1.36
1.4778,1.47636,0.550962,0.558069,0,-2.57164e-13,-0.0163469,-2.99561e-05,-7,-50,1.89681e-17,-7,-83.4278,33.4278,1.364
1.4778,1.47636,0.550897,0.558069,0,-1.71443e-13,-0.0164277,-1.99708e-05,-7,-50,8.43027e-18,-7,-83.4278,33.4278,1.368
1.4778,1.47636,0.550831,0.558069,0,-1.14295e-13,-0.0165086,-1.33138e-05,-7,-49,3.74679e-18,-7,-83.4278,34.4278,1.372
1.4778,1.47636,0.550765,0.558069,0,-7.61967e-14,-0.0165896,-8.87589e-06,-7,-49,1.66524e-18,-7,-83.4278,34.4278,1.376
1.4778,1.47636,0.550698,0.558069,0,-5.07978e-14,-0.0166707,-5.91726e-06,-7,-49,7.40106e-19,-7,-83.4278,34.4278,1.38
1.4778,1.47636,0.550631,0.558069,0,-3.38652e-14,-0.0167519,-3.94484e-06,-7,-49,3.28936e-19,-7,-83.4278,34.4278,1.384
1.4778,1.47636,0.550564,0.558069,0,-2.25768e-14,-0.0168333,-2.62989e-06,-7,-48,1.46194e-19,-7,-83.4278,35.4278,1.388
1.4778,1.47636,0.550496,0.558069,0,-1.50512e-14,-0.0169147,-1.75326e-06,-7,-48,6.49751e-20,-7,-83.4278,35.4278,1.392
1.4778,1.47636,0.550429,0.558069,0,-1.00341e-14,-0.0169962,-2.99598e-05,-7,-48,7.40196e-19,-7,-83.4278,35.4278,1.396
1.4778,1.47636,0.550361,0.558069,0,-6.68943e-15,-0.0170779,-1.99732e-05,-7,-48,3.28976e-19,-7,-83.4278,35.4278,1.4
1.4778,1.47636,0.550292,0.558068,0,-4.45962e-15,-0.0171596,-4.21064e-05,-7,-47,4.62353e-19,-7,-83.4278,36.4278,1.404
1.4778,1.47636,0.550223,0.558068,0,-2.97308e-15,-0.0172415,-2.80709e-05,-7,-47,2.0549e-19,-7,-83.4278,36.4278,1.408
1.4778,1.47636,0.550154,0.558068,0,-1.98205e-15,-0.0173235,-4.75049e-05,-7,-47,2.31836e-19,-7,-83.4278,36.4278,1.412
1.4778,1.47636,0.550085,0.558068,0,-1.32137e-15,-0.0174055,-3.16699e-05,-7,-47,1.03038e-19,-7,-83.4278,36.4278,1.416
1.4778,1.47636,0.550015,0.558068,0,-8.80912e-16,-0.0174877,-4.99042e-05,-7,-46,1.08242e-19,-7,-83.4279,37.4279,1.42
1.4778,1.47636,0.549945,0.558068,0,-5.87275e-16,-0.01757,-3.32695e-05,-7,-46,4.81077e-20,-7,-83.4279,37.4279,1.424
1.4778,1.47636,0.549874,0.558067,0,-3.91517e-16,-0.0176523,-5.09706e-05,-7,-46,4.91357e-20,-7,-83.4279,37.4279,1.428
1.4778,1.47636,0.549804,0.558067,0,-2.61011e-16,-0.0177348,-6.27713e-05,-7,-46,4.03411e-20,-7,-83.4279,37.4279,1.432
1.4778,1.47636,0.549732,0.558067,0,-1.74007e-16,-0.0178174,-7.06385e-05,-7,-45,3.02647e-20,-7,-83.4279,38.4279,1.436
1.4778,1.47636,0.549661,0.558066,0,-1.16005e-16,-0.0179,-0.000133465,-7,-45,3.81216e-20,-7,-83.428,38.428,1.44
1.4778,1.47636,0.549589,0.558065,0,-7.73366e-17,-0.0179828,-0.000146559,-7,-45,2.79076e-20,-7,-83.428,38.428,1.444
1.4778,1.47636,0.549517,0.558064,0,-5.15577e-17,-0.0180657,-0.000155288,-7,-45,1.97132e-20,-7,-83.428,38.428,1.448
1.4778,1.47636,0.549445,0.558063,0,-3.43718e-17,-0.0181486,-0.000189898,-7,-44,1.60712e-20,-7,-83.4281,39.4281,1.452
1.4778,1.47636,0.549372,0.558062,0,-2.29145e-17,-0.0182317,-0.00018418,-7,-44,1.03915e-20,-7,-83.4281,39.4281,1.456
1.4778,1.47636,0.549299,0.558062,0,-1.52764e-17,-0.0183148,-0.000180369,-7,-44,6.78432e-21,-7,-83.4282,39.4282,1.46
1.4778,1.47636,0.549225,0.558061,0,-1.01842e-17,-0.0183981,-0.000149037,-7,-44,3.73721e-21,-7,-83.4282,39.4282,1.464
1.4778,1.47636,0.549152,0.558061,0,-6.7895e-18,-0.0184814,-0.000128149,-7,-43,2.14228e-21,-7,-83.4282,40.4282,1.468
1.4778,1.47636,0.549078,0.558061,0,-2.87909e-05,-0.0185648,-8.54325e-05,-7,-43,6.05625e-09,-7,-83.4282,40.4282,1.472
1.4778,1.47636,0.549003,0.558061,0,9.59697e-06,-0.0186484,-5.6955e-05,-7,-43,-1.34583e-09,-7,-83.4282,40.4282,1.476
1.4778,1.47636,0.548928,0.558061,0,6.39798e-06,-0.018732,-9.17908e-06,-7,-42,-1.446e-10,-7,-83.4282,41.4282,1.48
1.4778,1.47636,0.548853,0.558061,0,4.26532e-06,-0.0188157,-3.49103e-05,-7,-42,-3.66632e-10,-7,-83.4282,41.4282,1.484
1.4778,1.47636,0.548778,0.558061,0,2.84355e-06,-0.0188995,-2.32735e-05,-7,-42,-1.62948e-10,-7,-83.4282,41.4282,1.488
1.4778,1.47636,0.548702,0.558061,0,1.8957e-06,-0.0189834,-1.55157e-05,-7,-42,-7.24212e-11,-7,-83.4282,41.4282,1.492
1.4778,1.47636,0.548626,0.558061,0,1.2638e-06,-0.0190674,-1.03438e-05,-7,-41,-3.21872e-11,-7,-83.4282,42.4282,1.496
1.4778,1.47636,0.54855,0.558061,0,8.42533e-07,-0.0191514,-6.89586e-06,-7,-41,-1.43054e-11,-7,-83.4282,42.4282,1.5
1.4778,1.47636,0.548473,0.558061,0,5.61689e-07,-0.0192356,-4.59724e-06,-7,-41,-6.35796e-12,-7,-83.4282,42.4282,1.504
1.4778,1.47636,0.548396,0.558061,0,3.74459e-07,-0.0193199,-3.18558e-05,-7,-41,-2.93709e-11,-7,-83.4282,42.4282,1.508
1.4778,1.47636,0.548318,0.558061,0,2.49639e-07,-0.0194042,-2.12372e-05,-7,-40,-1.30537e-11,-7,-83.4282,43.4282,1.512
1.4778,1.47636,0.54824,0.558061,0,1.66426e-07,-0.0194886,-1.41581e-05,-7,-40,-5.80165e-12,-7,-83.4282,43.4282,1.516
1.4778,1.47636,0.548162,0.55806,0,1.10951e-07,-0.0195731,-3.82297e-05,-7,-40,-1.04437e-11,-7,-83.4282,43.4282,1.52
1.4778,1.47636,0.548084,0.55806,0,7.39672e-08,-0.0196577,-2.54864e-05,-7,-39,-4.64166e-12,-7,-83.4282,44.4282,1.524
1.4778,1.47636,0.548005,0.55806,0,4.93115e-08,-0.0197424,-1.6991e-05,-7,-39,-2.06296e-12,-7,-83.4282,44.4282,1.528
1.4778,1.47636,0.547926,0.55806,0,3.28743e-08,-0.0198272,-4.01182e-05,-7,-39,-3.2473e-12,-7,-83.4282,44.4282,1.532
1.4778,1.47636,0.547846,0.55806,0,2.19162e-08,-0.019912,-2.67455e-05,-7,-39,-1.44325e-12,-7,-83.4282,44.4282,1.536
1.4778,1.47636,0.547767,0.55806,0,1.46108e-08,-0.0199969,-4.66213e-05,-7,-38,-1.67719e-12,-7,-83.4283,45.4283,1.54
1.4778,1.47636,0.547686,0.558059,0,9.74054e-09,-0.0200819,-8.86627e-05,-7,-38,-2.12641e-12,-7,-83.4283,45.4283,1.544
1.4778,1.47636,0.547606,0.558058,0,6.49369e-09,-0.020167,-0.00011669,-7,-38,-1.86574e-12,-7,-83.4283,45.4283,1.548
1.4778,1.47636,0.547525,0.558057,0,4.32913e-09,-0.0202522,-0.000164166,-7,-37,-1.74988e-12,-7,-83.4284,46.4284,1.552
1.4778,1.47636,0.547444,0.558057,0,2.88609e-09,-0.0203375,-0.000167026,-7,-37,-1.18691e-12,-7,-83.4284,46.4284,1.556
1.4778,1.47636,0.547362,0.558056,0,1.92406e-09,-0.0204228,-0.000197723,-7,-37,-9.36696e-13,-7,-83.4285,46.4285,1.56
1.4778,1.47636,0.547281,0.558054,0,1.2827e-09,-0.0205082,-0.000246979,-7,-37,-7.80026e-13,-7,-83.4286,46.4286,1.564
1.4778,1.47636,0.547198,0.558053,0,8.55136e-10,-0.0205937,-0.000251026,-7,-36,-5.28537e-13,-7,-83.4286,47.4286,1.568
1.4778,1.47636,0.547116,0.558052,0,5.70091e-10,-0.0206793,-0.000253723,-7,-36,-3.56144e-13,-7,-83.4287,47.4287,1.572
1.4778,1.47636,0.547033,0.558051,0,3.80061e-10,-0.0207649,-0.000255522,-7,-36,-2.39112e-13,-7,-83.4287,47.4287,1.576
1.4778,1.47636,0.54695,0.55805,0,2.53374e-10,-0.0208506,-0.000285511,-7,-36,-1.78117e-13,-7,-83.4288,47.4288,1.58
1.4778,1.47636,0.546866,0.558048,0,1.68916e-10,-0.0209364,-0.000305505,-7,-35,-1.2706e-13,-7,-83.4289,48.4289,1.584
1.4778,1.47636,0.546782,0.558047,0,1.12611e-10,-0.0210223,-0.000290043,-7,-35,-8.04192e-14,-7,-83.4289,48.4289,1.588
1.4778,1.47636,0.546698,0.558046,0,7.50737e-11,-0.0211083,-0.000308525,-7,-35,-5.70292e-14,-7,-83.429,48.429,1.592
1.4778,1.47636,0.546613,0.558044,0,5.00491e-11,-0.0211943,-0.000349638,-7,-34,-4.30857e-14,-7,-83.4291,49.4291,1.596
1.4778,1.47636,0.546528,0.558043,0,3.33661e-11,-0.0212804,-0.000319465,-7,-34,-2.6245e-14,-7,-83.4291,49.4291,1.6
1.4778,1.47636,0.546443,0.558042,0,2.22441e-11,-0.0213666,-0.00032814,-7,-34,-1.79717e-14,-7,-83.4292,49.4292,1.604
1.4778,1.47636,0.546357,0.558041,0,1.48294e-11,-0.0214528,-0.000305133,-7,-33,-1.11411e-14,-7,-83.4293,50.4293,1.608
1.4778,1.47636,0.546271,0.55804,0,9.88625e-12,-0.0215391,-0.000289795,-7,-33,-7.05404e-15,-7,-83.4293,50.4293,1.612
1.4778,1.47636,0.546185,0.558038,0,6.59083e-12,-0.0216255,-0.00030836,-7,-33,-5.00396e-15,-7,-83.4294,50.4294,1.616
1.4778,1.47636,0.546098,0.558037,0,4.39389e-12,-0.021712,-0.000291946,-7,-33,-3.1584e-15,-7,-83.4294,50.4294,1.62
1.4778,1.47636,0.546011,0.558036,0,2.92926e-12,-0.0217985,-0.000281004,-7,-32,-2.02667e-15,-7,-83.4295,51.4295,1.624
1.4778,1.47636,0.545924,0.558035,0,1.95284e-12,-0.0218851,-0.000302499,-7,-32,-1.45447e-15,-7,-83.4296,51.4296,1.628
1.4778,1.47636,0.545836,0.558033,0,1.30189e-12,-0.0219718,-0.00031683,-7,-32,-1.01558e-15,-7,-83.4296,51.4296,1.632
1.4778,1.47636,0.545748,0.558032,0,8.67929e-13,-0.0220585,-0.000297593,-7,-31,-6.35944e-16,-7,-83.4297,52.4297,1.636
1.4778,1.47636,0.54566,0.558031,0,5.78619e-13,-0.0221453,-0.000313559,-7,-31,-4.46708e-16,-7,-83.4298,52.4298,1.64
1.4778,1.47636,0.545571,0.55803,0,3.85746e-13,-0.0222322,-0.000295412,-7,-31,-2.8057e-16,-7,-83.4298,52.4298,1.644
1.4778,1.47636,0.545482,0.558029,0,2.57164e-13,-0.0223191,-0.000312105,-7,-30,-1.97616e-16,-7,-83.4299,53.4299,1.648
1.4778,1.47636,0.545393,0.558027,0,1.71443e-13,-0.0224061,-0.000352025,-7,-30,-1.48594e-16,-7,-83.43,53.43,1.652
1.4778,1.47636,0.545303,0.558025,0,1.14295e-13,-0.0224932,-0.000349847,-7,-30,-9.84499e-17,-7,-83.43,53.43,1.656
1.4778,1.47636,0.545213,0.558024,0,7.61967e-14,-0.0225803,-0.000377186,-7,-30,-7.07621e-17,-7,-83.4301,53.4301,1.66
1.4778,1.47636,0.545122,0.558022,0,5.07978e-14,-0.0226675,-0.000366621,-7,-29,-4.58533e-17,-7,-83.4302,54.4302,1.664
1.4778,1.47636,0.545031,0.558021,0,3.38652e-14,-0.0227547,-0.000388369,-7,-29,-3.23822e-17,-7,-83.4303,54.4303,1.668
1.4778,1.47636,0.54494,0.558019,0,2.25768e-14,-0.0228421,-0.000402867,-7,-29,-2.2394e-17,-7,-83.4304,54.4304,1.672
1.4778,1.47636,0.544849,0.558017,0,1.50512e-14,-0.0229294,-0.000412533,-7,-28,-1.52875e-17,-7,-83.4305,55.4305,1.676
1.4778,1.47636,0.544757,0.558016,0,1.00341e-14,-0.0230169,-0.000390185,-7,-28,-9.63955e-18,-7,-83.4306,55.4306,1.68
1.4778,1.47636,0.544664,0.558015,0,6.68943e-15,-0.0231044,-0.000346496,-7,-28,-5.7068e-18,-7,-83.4306,55.4306,1.684
1.4778,1.47636,0.544572,0.558014,0,4.45962e-15,-0.0231919,-0.00031737,-7,-27,-3.48473e-18,-7,-83.4307,56.4307,1.688
1.4778,1.47636,0.544479,0.558013,0,2.97308e-15,-0.0232796,-0.000269162,-7,-27,-1.97027e-18,-7,-83.4307,56.4307,1.692
1.4778,1.47636,0.544386,0.558012,0,1.98205e-15,-0.0233672,-0.000265814,-7,-27,-1.29717e-18,-7,-83.4308,56.4308,1.696
1.4778,1.47636,0.544292,0.558011,0,1.32137e-15,-0.023455,-0.000263582,-7,-26,-8.57519e-19,-7,-83.4308,57.4308,1.7
1.4778,1.47636,0.544198,0.55801,0,8.80912e-16,-0.0235428,-0.000233303,-7,-26,-5.06007e-19,-7,-83.4308,57.4308,1.704
1.4778,1.47636,0.544104,0.55801,0,5.87275e-16,-0.0236306,-0.000213117,-7,-26,-3.08151e-19,-7,-83.4309,57.4309,1.708
1.4778,1.47636,0.544009,0.558009,0,3.91517e-16,-0.0237186,-0.00019966,-7,-25,-1.92462e-19,-7,-83.4309,58.4309,1.712
1.4778,1.47636,0.543914,0.558008,0,2.61011e-16,-0.0238065,-0.000190689,-7,-25,-1.22542e-19,-7,-83.4309,58.4309,1.716
1.4778,1.47636,0.543818,0.558008,0,1.74007e-16,-0.0238945,-0.000155917,-7,-24,-6.67978e-20,-7,-83.431,59.431,1.72
1.4778,1.47636,0.543723,0.558007,0,1.16005e-16,-0.0239826,-0.000161526,-7,-24,-4.6134e-20,-7,-83.431,59.431,1.724
1.4778,1.47636,0.543627,0.558007,0,7.73366e-17,-0.0240708,-0.000136475,-7,-24,-2.59861e-20,-7,-83.431,59.431,1.728
1.4778,1.47636,0.54353,0.558006,0,5.15577e-17,-0.0241589,-0.000148565,-7,-23,-1.88587e-20,-7,-83.4311,60.4311,1.732
1.4778,1.47636,0.543433,0.558006,0,3.43718e-17,-0.0242472,-0.000127834,-7,-23,-1.08181e-20,-7,-83.4311,60.4311,1.736
1.4778,1.47636,0.543336,0.558005,0,2.29145e-17,-0.0243355,-0.000142805,-7,-23,-8.05666e-21,-7,-83.4311,60.4311,1.74
1.4778,1.47636,0.543239,0.558005,0,1.52764e-17,-0.0244238,-0.000123994,-7,-22,-4.66361e-21,-7,-83.4311,61.4311,1.744
1.4778,1.47636,0.543141,0.558005,0,1.01842e-17,-0.0245122,-8.26628e-05,-7,-22,-2.07272e-21,-7,-83.4311,61.4311,1.748
1.4778,1.47636,0.543043,0.558004,0,6.7895e-18,-0.0246007,-0.00011269,-7,-22,-1.88376e-21,-7,-83.4312,61.4312,1.752
1.4778,1.47636,0.542944,0.558004,0,4.52633e-18,-0.0246891,-0.000103918,-7,-21,-1.15808e-21,-7,-83.4312,62.4312,1.756
1.4778,1.47636,0.542845,0.558003,0,3.01755e-18,-0.0247777,-0.00012686,-7,-21,-9.425e-22,-7,-83.4312,62.4312,1.76
1.4778,1.47636,0.542746,0.558003,0,2.0117e-18,-0.0248663,-0.000113365,-7,-21,-5.61489e-22,-7,-83.4312,62.4312,1.764
1.4778,1.47636,0.542646,0.558002,0,1.34113e-18,-0.0249549,-0.000133158,-7,-20,-4.39684e-22,-7,-83.4313,63.4313,1.768
1.4778,1.47636,0.542546,0.558001,0,8.9409e-19,-0.0250436,-0.000146354,-7,-20,-3.2217e-22,-7,-83.4313,63.4313,1.772
1.4778,1.47636,0.542446,0.558001,0,5.9606e-19,-0.0251324,-0.000155151,-7,-20,-2.2769e-22,-7,-83.4313,63.4313,1.776
1.4778,1.47636,0.542345,0.558,0,3.97373e-19,-0.0252211,-0.000132225,-7,-19,-1.29363e-22,-7,-83.4314,64.4314,1.78
1.4778,1.47636,0.542244,0.557999,0,2.64916e-19,-0.02531,-0.000174523,-7,-19,-1.1383e-22,-7,-83.4314,64.4314,1.784
1.4778,1.47636,0.542143,0.557999,0,1.7661e-19,-0.0253988,-0.00017393,-7,-19,-7.56293e-23,-7,-83.4315,64.4315,1.788
1.4778,1.47636,0.542041,0.557998,0,1.1774e-19,-0.0254878,-0.000173535,-7,-18,-5.0305e-23,-7,-83.4315,65.4315,1.792
1.4778,1.47636,0.541939,0.557997,0,7.84935e-20,-0.0255767,-0.000144481,-7,-18,-2.79218e-23,-7,-83.4315,65.4315,1.796
1.4778,1.47636,0.541836,0.557997,0,5.2329e-20,-0.0256657,-0.000125112,-7,-18,-1.6119e-23,-7,-83.4315,65.4315,1.8
1.4778,1.47636,0.541733,0.557996,0,3.4886e-20,-0.0257548,-0.00014099,-7,-17,-1.21098e-23,-7,-83.4316,66.4316,1.804
1.4778,1.47636,0.54163,0.557996,0,2.32573e-20,-0.0258439,-0.000151575,-7,-17,-8.6793e-24,-7,-83.4316,66.4316,1.808
1.4778,1.47636,0.541527,0.557995,0,1.55049e-20,-0.025933,-0.000187423,-7,-17,-7.15464e-24,-7,-83.4317,66.4317,1.812
1.4778,1.47636,0.541423,0.557994,0,1.03366e-20,-0.0260222,-0.00018253,-7,-16,-4.64525e-24,-7,-83.4317,67.4317,1.816
1.4778,1.47636,0.541318,0.557993,0,6.89106e-21,-0.0261114,-0.000179269,-7,-16,-3.04149e-24,-7,-83.4317,67.4317,1.82
1.4778,1.47636,0.541214,0.557993,0,4.59404e-21,-0.0262007,-0.000148303,-7,-15,-1.67742e-24,-7,-83.4317,68.4317,1.824
1.4778,1.47636,0.541109,0.557992,0,3.06269e-21,-0.02629,-0.000156451,-7,-15,-1.17971e-24,-7,-83.4318,68.4318,1.828
1.4778,1.47636,0.541003,0.557992,0,2.0418e-21,-0.0263793,-0.000133091,-7,-15,-6.69049e-25,-7,-83.4318,68.4318,1.832
1.4778,1.47636,0.540898,0.557992,0,1.3612e-21,-0.0264687,-8.87276e-05,-7,-14,-2.97355e-25,-7,-83.4318,69.4318,1.836
1.4778,1.47636,0.540792,0.557992,0,9.07465e-22,-0.0265581,-5.91518e-05,-7,-14,-1.32158e-25,-7,-83.4318,69.4318,1.84
1.4778,1.47636,0.540685,0.557992,0,6.04977e-22,-0.0266476,-3.94345e-05,-7,-14,-5.87368e-26,-7,-83.4318,69.4318,1.844
1.4778,1.47636,0.540579,0.557992,0,4.03318e-22,-0.026737,-5.50806e-05,-7,-13,-5.46942e-26,-7,-83.4318,70.4318,1.848
1.4778,1.47636,0.540471,0.557992,0,2.68878e-22,-0.0268266,-3.67204e-05,-7,-13,-2.43085e-26,-7,-83.4318,70.4318,1.852
1.4778,1.47636,0.540364,0.557992,0,1.79252e-22,-0.0269161,-2.44803e-05,-7,-12,-1.08038e-26,-7,-83.4318,71.4318,1.856
1.4778,1.47636,0.540256,0.557991,0,1.19502e-22,-0.0270057,-4.51111e-05,-7,-12,-1.32725e-26,-7,-83.4318,71.4318,1.86
1.4778,1.47636,0.540148,0.557991,0,7.96677e-23,-0.0270954,-3.00741e-05,-7,-12,-5.89888e-27,-7,-83.4318,71.4318,1.864
1.4778,1.47636,0.540039,0.557991,0,5.31118e-23,-0.027185,-4.88403e-05,-7,-11,-6.38652e-27,-7,-83.4318,72.4318,1.868
1.4778,1.47636,0.53993,0.557991,0,3.54079e-23,-0.0272747,-6.13511e-05,-7,-11,-5.34832e-27,-7,-83.4319,72.4319,1.872
1.4778,1.47636,0.539821,0.55799,0,2.36052e-23,-0.0273644,-6.96917e-05,-7,-11,-4.05027e-27,-7,-83.4319,72.4319,1.876
1.4778,1.47636,0.539711,0.55799,0,1.57368e-23,-0.0274542,-0.000104043,-7,-10,-4.03111e-27,-7,-83.4319,73.4319,1.88
1.4778,1.47636,0.539601,0.557989,0,1.04912e-23,-0.027544,-9.81529e-05,-7,-10,-2.53527e-27,-7,-83.4319,73.4319,1.884
1.4778,1.47636,0.539491,0.557989,0,6.99415e-24,-0.0276338,-0.000123017,-7,-10,-2.11833e-27,-7,-83.432,73.432,1.888
1.4778,1.47636,0.53938,0.557988,0,4.66276e-24,-0.0277237,-0.000139593,-7,-9,-1.60251e-27,-7,-83.432,74.432,1.892
1.4778,1.47636,0.539269,0.557987,0,3.10851e-24,-0.0278136,-0.000150644,-7,-9,-1.15292e-27,-7,-83.432,74.432,1.896
1.4778,1.47636,0.539158,0.557986,0,2.07234e-24,-0.0279035,-0.000158011,-7,-8,-8.06199e-28,-7,-83.4321,75.4321,1.9
1.4778,1.47636,0.539046,0.557985,0,1.38156e-24,-0.0279934,-0.000191714,-7,-8,-6.52102e-28,-7,-83.4321,75.4321,1.904
1.4778,1.47636,0.538934,0.557985,0,-2.87909e-05,-0.0280834,-0.000185391,-7,-8,1.31412e-08,-7,-83.4322,75.4322,1.908
1.4778,1.47636,0.538821,0.557984,0,9.59697e-06,-0.0281734,-0.000209967,-7,-7,-4.96109e-09,-7,-83.4322,76.4322,1.912
1.4778,1.47636,0.538709,0.557983,0,6.39798e-06,-0.0282634,-0.00019756,-7,-7,-3.11195e-09,-7,-83.4323,76.4323,1.916
1.4778,1.47636,0.538595,0.557982,0,4.26532e-06,-0.0283535,-0.000189288,-7,-7,-1.98777e-09,-7,-83.4323,76.4323,1.92
1.4778,1.47636,0.538482,0.557982,0,2.84355e-06,-0.0284436,-0.000154983,-7,-6,-1.08502e-09,-7,-83.4323,77.4323,1.924
1.4778,1.47636,0.538368,0.557981,0,1.8957e-06,-0.0285337,-0.000160904,-7,-6,-7.50978e-10,-7,-83.4324,77.4324,1.928
1.4778,1.47636,0.538253,0.557981,0,1.2638e-06,-0.0286238,-0.00013606,-7,-5,-4.2335e-10,-7,-83.4324,78.4324,1.932
1.4778,1.47636,0.538139,0.55798,0,8.42533e-07,-0.0287139,-0.000148289,-7,-5,-3.07599e-10,-7,-83.4324,78.4324,1.936
1.4778,1.47636,0.538024,0.55798,0,5.61689e-07,-0.0288041,-0.00012765,-7,-5,-1.76525e-10,-7,-83.4324,78.4324,1.94
1.4778,1.47636,0.537908,0.557979,0,3.74459e-07,-0.0288943,-0.000142682,-7,-4,-1.31542e-10,-7,-83.4325,79.4325,1.944
1.4778,1.47636,0.537793,0.557979,0,2.49639e-07,-0.0289846,-0.000123912,-7,-4,-7.61583e-11,-7,-83.4325,79.4325,1.948
1.4778,1.47636,0.537676,0.557978,0,1.66426e-07,-0.0290748,-0.000111399,-7,-3,-4.5645e-11,-7,-83.4325,80.4325,1.952
1.4778,1.47636,0.53756,0.557978,0,1.10951e-07,-0.0291651,-7.4266e-05,-7,-3,-2.02867e-11,-7,-83.4325,80.4325,1.956
1.4778,1.47636,0.537443,0.557977,0,7.39672e-08,-0.0292554,-0.000135883,-7,-3,-2.47454e-11,-7,-83.4325,80.4325,1.96
1.4778,1.47636,0.537326,0.557978,0,4.93115e-08,-0.0293457,-6.1798e-05,-7,-2,-7.50261e-12,-7,-83.4325,81.4325,1.964
1.4778,1.47636,0.537208,0.557978,0,3.28743e-08,-0.029436,-4.11987e-05,-7,-2,-3.33449e-12,-7,-83.4325,81.4325,1.968
1.4778,1.47636,0.53709,0.557977,0,2.19162e-08,-0.0295263,-5.62567e-05,-7,-1,-3.03549e-12,-7,-83.4325,82.4325,1.972
1.4778,1.47636,0.536972,0.557978,0,1.46108e-08,-0.0296167,-8.71356e-06,-7,-1,-3.13444e-13,-7,-83.4325,82.4325,1.976
1.4778,1.47636,0.536854,0.557977,0,9.74054e-09,-0.0297071,-6.33909e-05,-7,-1,-1.52019e-12,-7,-83.4326,82.4326,1.98
1.4778,1.47636,0.536735,0.557977,0,6.49369e-09,-0.0297975,-4.22606e-05,-7,0,-6.75642e-13,-7,-83.4326,83.4326,1.984
1.4778,1.47636,0.536615,0.557977,0,4.32913e-09,-0.0298879,-2.81737e-05,-7,0,-3.00285e-13,-7,-83.4326,83.4326,1.988
1.4778,1.47636,0.536495,0.557977,0,2.88609e-09,-0.0299784,-1.87825e-05,-7,0,-1.3346e-13,-7,-83.4326,83.4326,1.992
1.4778,1.47636,0.536375,0.557977,0,1.92406e-09,-0.0300688,-1.25217e-05,-7,0,-5.93156e-14,-7,-83.4326,83.4326,1.996
1.4778,1.47636,0.536255,0.557977,0,1.2827e-09,-0.0301593,-8.34777e-06,-7,0,-2.63625e-14,-7,-83.4326,83.4326,2
1.4778,1.47636,0.536134,0.557977,0,8.55136e-10,-0.0302498,-3.43561e-05,-7,1,-7.23317e-14,-7,-83.4326,84.4326,2.004
1.4778,1.47636,0.536013,0.557977,0,5.70091e-10,-0.0303403,-2.29041e-05,-7,1,-3.21474e-14,-7,-83.4326,84.4326,2.008
1.4778,1.47636,0.535891,0.557977,0,3.80061e-10,-0.0304308,-1.52694e-05,-7,2,-1.42877e-14,-7,-83.4326,85.4326,2.012
1.4778,1.47636,0.535769,0.557977,0,2.53374e-10,-0.0305213,-1.01796e-05,-7,2,-6.3501e-15,-7,-83.4326,85.4326,2.016
1.4778,1.47636,0.535647,0.557977,0,1.68916e-10,-0.0306119,-6.78639e-06,-7,2,-2.82227e-15,-7,-83.4326,85.4326,2.02
1.4778,1.47636,0.535525,0.557977,0,1.12611e-10,-0.0307024,-4.52426e-06,-7,3,-1.25434e-15,-7,-83.4326,86.4326,2.024
1.4778,1.47636,0.535402,0.557977,0,7.50737e-11,-0.030793,-3.01617e-06,-7,3,-5.57485e-16,-7,-83.4326,86.4326,2.028
1.4778,1.47636,0.535278,0.557976,0,5.00491e-11,-0.0308835,-3.08017e-05,-7,4,-3.79542e-15,-7,-83.4326,87.4326,2.032
1.4778,1.47636,0.535154,0.557975,0,3.33661e-11,-0.0309741,-0.000106907,-7,4,-8.78215e-15,-7,-83.4327,87.4327,2.036
1.4778,1.47636,0.53503,0.557975,0,2.22441e-11,-0.0310647,-0.000100062,-7,4,-5.47991e-15,-7,-83.4327,87.4327,2.04
1.4778,1.47636,0.534906,0.557974,0,1.48294e-11,-0.0311553,-0.000181872,-7,5,-6.64013e-15,-7,-83.4327,88.4327,2.044
1.4778,1.47636,0.534781,0.557972,0,9.88625e-12,-0.031246,-0.000265203,-7,5,-6.455e-15,-7,-83.4328,88.4328,2.048
1.4778,1.47636,0.534656,0.55797,0,6.59083e-12,-0.0313366,-0.000349547,-7,6,-5.67195e-15,-7,-83.4329,89.4329,2.052
1.4778,1.47636,0.53453,0.557967,0,4.39389e-12,-0.0314272,-0.000434568,-7,6,-4.70102e-15,-7,-83.4331,89.4331,2.056
1.4778,1.47636,0.534405,0.557964,0,2.92926e-12,-0.0315179,-0.000577621,-7,6,-4.16567e-15,-7,-83.4333,89.4333,2.06
1.4778,1.47636,0.534278,0.557961,0,1.95284e-12,-0.0316085,-0.00067299,-7,6,-3.23562e-15,-7,-83.4334,89.4334,2.064
1.4778,1.47636,0.534152,0.557957,0,1.30189e-12,-0.0316992,-0.00076536,-7,7,-2.45314e-15,-7,-83.4336,90.4336,2.068
1.4778,1.47636,0.534025,0.557954,0,8.67929e-13,-0.0317898,-0.000769358,-7,7,-1.64396e-15,-7,-83.4338,90.4338,2.072
1.4778,1.47636,0.533897,0.557951,0,5.78619e-13,-0.0318805,-0.000714442,-7,8,-1.01774e-15,-7,-83.4339,91.4339,2.076
1.4778,1.47636,0.53377,0.55795,0,3.85746e-13,-0.0319711,-0.000591458,-7,8,-5.61699e-16,-7,-83.434,91.434,2.08
1.4778,1.47636,0.533642,0.557948,0,2.57164e-13,-0.0320618,-0.00053826,-7,9,-3.40784e-16,-7,-83.4341,92.4341,2.084
1.4778,1.47636,0.533513,0.557946,0,1.71443e-13,-0.0321525,-0.000531586,-7,9,-2.24372e-16,-7,-83.4342,92.4342,2.088
1.4778,1.47636,0.533384,0.557944,0,1.14295e-13,-0.0322432,-0.000527136,-7,10,-1.48329e-16,-7,-83.4343,93.4343,2.092
1.4778,1.47636,0.533255,0.557941,0,7.61967e-14,-0.0323339,-0.000610542,-7,10,-1.14532e-16,-7,-83.4345,93.4345,2.096
1.4778,1.47636,0.533126,0.557938,0,5.07978e-14,-0.0324245,-0.000608565,-7,10,-7.6107e-17,-7,-83.4346,93.4346,2.1
1.4778,1.47636,0.532996,0.557935,0,3.38652e-14,-0.0325152,-0.00072241,-7,11,-6.02294e-17,-7,-83.4348,94.4348,2.104
1.4778,1.47636,0.532866,0.557931,0,2.25768e-14,-0.0326059,-0.000798307,-7,11,-4.43713e-17,-7,-83.435,94.435,2.108
1.4778,1.47636,0.532735,0.557926,0,1.50512e-14,-0.0326966,-0.000906487,-7,11,-3.35893e-17,-7,-83.4352,94.4352,2.112
1.4778,1.47636,0.532604,0.557921,0,1.00341e-14,-0.0327873,-0.00106498,-7,12,-2.63079e-17,-7,-83.4355,95.4355,2.116
1.4778,1.47636,0.532473,0.557915,0,6.68943e-15,-0.032878,-0.00122822,-7,12,-2.02269e-17,-7,-83.4358,95.4358,2.12
1.4778,1.47636,0.532341,0.557908,0,4.45962e-15,-0.0329687,-0.00139463,-7,12,-1.53115e-17,-7,-83.4362,95.4362,2.124
1.4778,1.47636,0.532209,0.5579,0,2.97308e-15,-0.0330594,-0.00156316,-7,12,-1.1441e-17,-7,-83.4366,95.4366,2.128
1.4778,1.47636,0.532077,0.557891,0,1.98205e-15,-0.0331501,-0.00179067,-7,13,-8.73741e-18,-7,-83.437,96.437,2.132
1.4778,1.47636,0.531944,0.557884,0,1.32137e-15,-0.0332407,-0.00179839,-7,13,-5.85001e-18,-7,-83.4374,96.4374,2.136
1.4778,1.47636,0.531811,0.557878,0,8.80912e-16,-0.0333314,-0.00171716,-7,14,-3.72384e-18,-7,-83.4377,97.4377,2.14
1.4778,1.47636,0.531677,0.557872,0,5.87275e-16,-0.0334221,-0.00163422,-7,14,-2.36263e-18,-7,-83.4381,97.4381,2.144
1.4778,1.47636,0.531543,0.557867,0,3.91517e-16,-0.0335128,-0.00146376,-7,15,-1.41079e-18,-7,-83.4383,98.4383,2.148
1.4778,1.47636,0.531409,0.557863,0,2.61011e-16,-0.0336034,-0.00132133,-7,15,-8.49008e-19,-7,-83.4385,98.4385,2.152
1.4778,1.47636,0.531274,0.557861,0,1.74007e-16,-0.0336941,-0.00108242,-7,16,-4.63666e-19,-7,-83.4386,99.4386,2.156
1.4778,1.47636,0.531139,0.557859,0,1.16005e-16,-0.0337848,-0.000894362,-7,16,-2.55405e-19,-7,-83.4387,99.4387,2.16
1.4778,1.47636,0.531004,0.557857,0,7.73366e-17,-0.0338754,-0.000711405,-7,17,-1.35438e-19,-7,-83.4388,100.439,2.164
1.4778,1.47636,0.530868,0.557857,0,5.15577e-17,-0.0339661,-0.00047427,-7,18,-6.01946e-20,-7,-83.4388,101.439,2.168
1.4778,1.47636,0.530732,0.557857,0,3.43718e-17,-0.0340567,-0.000373762,-7,18,-3.16254e-20,-7,-83.4388,101.439,2.172
1.4778,1.47636,0.530596,0.557857,0,2.29145e-17,-0.0341473,-0.000249175,-7,19,-1.40557e-20,-7,-83.4388,102.439,2.176
1.4778,1.47636,0.530459,0.557857,0,1.52764e-17,-0.0342379,-0.000166116,-7,19,-6.24699e-21,-7,-83.4388,102.439,2.18
1.4778,1.47636,0.530322,0.557857,0,1.01842e-17,-0.0343286,-0.000110744,-7,20,-2.77644e-21,-7,-83.4388,103.439,2.184
1.4778,1.47636,0.530185,0.557856,0,6.7895e-18,-0.0344192,-0.00010262,-7,20,-1.71518e-21,-7,-83.4389,103.439,2.188
1.4778,1.47636,0.530047,0.557856,0,4.52633e-18,-0.0345098,-6.84136e-05,-7,21,-7.62301e-22,-7,-83.4389,104.439,2.192
1.4778,1.47636,0.529909,0.557856,0,3.01755e-18,-0.0346003,-4.56091e-05,-7,21,-3.38801e-22,-7,-83.4389,104.439,2.196
1.4778,1.47636,0.52977,0.557856,0,2.0117e-18,-0.0346909,-5.9197e-05,-7,22,-2.93157e-22,-7,-83.4389,105.439,2.2
1.4778,1.47636,0.529631,0.557856,0,1.34113e-18,-0.0347815,-1.06737e-05,-7,22,-3.52392e-23,-7,-83.4389,105.439,2.204
1.4778,1.47636,0.529492,0.557855,0,8.9409e-19,-0.034872,-6.46977e-05,-7,22,-1.42399e-22,-7,-83.4389,105.439,2.208
1.4778,1.47636,0.529352,0.557855,0,5.9606e-19,-0.0349626,-7.19227e-05,-7,23,-1.05534e-22,-7,-83.4389,106.439,2.212
1.4778,1.47636,0.529212,0.557855,0,3.97373e-19,-0.0350531,-7.67394e-05,-7,23,-7.50679e-23,-7,-83.4389,106.439,2.216
1.4778,1.47636,0.529072,0.557854,0,2.64916e-19,-0.0351436,-0.000108741,-7,24,-7.09152e-23,-7,-83.439,107.439,2.22
1.4778,1.47636,0.528931,0.557853,0,1.7661e-19,-0.0352341,-0.000158867,-7,24,-6.90695e-23,-7,-83.439,107.439,2.224
1.4778,1.47636,0.52879,0.557852,0,1.1774e-19,-0.0353246,-0.000163493,-7,25,-4.73872e-23,-7,-83.4391,108.439,2.228
1.4778,1.47636,0.528648,0.557852,0,7.84935e-20,-0.0354151,-0.000137786,-7,25,-2.66242e-23,-7,-83.4391,108.439,2.232
1.4778,1.47636,0.528506,0.55785,0,5.2329e-20,-0.0355055,-0.000235812,-7,26,-3.03769e-23,-7,-83.4392,109.439,2.236
1.4778,1.47636,0.528364,0.557849,0,3.4886e-20,-0.035596,-0.000243581,-7,26,-2.09184e-23,-7,-83.4392,109.439,2.24
1.4778,1.47636,0.528222,0.557847,0,2.32573e-20,-0.0356864,-0.000392715,-7,26,-2.24839e-23,-7,-83.4394,109.439,2.244
1.4778,1.47636,0.528079,0.557844,0,1.55049e-20,-0.0357768,-0.000434555,-7,27,-1.65862e-23,-7,-83.4395,110.439,2.248
1.4778,1.47636,0.527935,0.557841,0,1.03366e-20,-0.0358672,-0.000606404,-7,27,-1.54302e-23,-7,-83.4397,110.44,2.252
1.4778,1.47636,0.527792,0.557837,0,6.89106e-21,-0.0359575,-0.000692178,-7,27,-1.17418e-23,-7,-83.4399,110.44,2.256
1.4778,1.47636,0.527648,0.557833,0,4.59404e-21,-0.0360479,-0.000835734,-7,28,-9.45129e-24,-7,-83.4401,111.44,2.26
1.4778,1.47636,0.527503,0.557827,0,3.06269e-21,-0.0361382,-0.0010466,-7,28,-7.89061e-24,-7,-83.4404,111.44,2.264
1.4778,1.47636,0.527359,0.557821,0,2.0418e-21,-0.0362285,-0.00121597,-7,28,-6.11165e-24,-7,-83.4407,111.441,2.268
1.4778,1.47636,0.527214,0.557813,0,1.3612e-21,-0.0363188,-0.00141526,-7,29,-4.74216e-24,-7,-83.4411,112.441,2.272
1.4778,1.47636,0.527068,0.557806,0,9.07465e-22,-0.0364091,-0.00154811,-7,29,-3.45819e-24,-7,-83.4415,112.441,2.276
1.4778,1.47636,0.526922,0.557797,0,6.04977e-22,-0.0364994,-0.00178064,-7,29,-2.65172e-24,-7,-83.4419,112.442,2.28
1.4778,1.47636,0.526776,0.557787,0,4.03318e-22,-0.0365896,-0.00199324,-7,30,-1.97886e-24,-7,-83.4424,113.442,2.284
1.4778,1.47636,0.52663,0.557777,0,2.68878e-22,-0.0366798,-0.00219255,-7,30,-1.45114e-24,-7,-83.443,113.443,2.288
1.4778,1.47636,0.526483,0.557766,0,1.79252e-22,-0.03677,-0.00235422,-7,30,-1.03875e-24,-7,-83.4435,113.444,2.292
1.4778,1.47636,0.526335,0.557754,0,1.19502e-22,-0.0368602,-0.00257716,-7,30,-7.58071e-25,-7,-83.4442,113.444,2.296
1.4778,1.47636,0.526188,0.557743,0,7.96677e-23,-0.0369503,-0.00263942,-7,31,-5.17583e-25,-7,-83.4447,114.445,2.3
1.4778,1.47636,0.52604,0.557732,0,5.31118e-23,-0.0370404,-0.00268092,-7,31,-3.50478e-25,-7,-83.4453,114.445,2.304
1.4778,1.47636,0.525891,0.557722,0,3.54079e-23,-0.0371305,-0.00262222,-7,32,-2.28533e-25,-7,-83.4458,115.446,2.308
1.4778,1.47636,0.525743,0.557711,0,2.36052e-23,-0.0372206,-0.00269825,-7,32,-1.56771e-25,-7,-83.4464,115.446,2.312
1.4778,1.47636,0.525594,0.557699,0,1.57368e-23,-0.0373107,-0.00274893,-7,33,-1.06476e-25,-7,-83.447,116.447,2.316
1.4778,1.47636,0.525444,0.557687,0,1.04912e-23,-0.0374007,-0.0028403,-7,33,-7.33427e-26,-7,-83.4477,116.448,2.32
1.4778,1.47636,0.525294,0.557675,0,6.99415e-24,-0.0374907,-0.00293001,-7,33,-5.04388e-26,-7,-83.4483,116.448,2.324
1.4778,1.47636,0.525144,0.557662,0,4.66276e-24,-0.0375806,-0.00298981,-7,34,-3.43117e-26,-7,-83.449,117.449,2.328
1.4778,1.47636,0.524994,0.55765,0,3.10851e-24,-0.0376706,-0.00305847,-7,34,-2.33995e-26,-7,-83.4496,117.45,2.332
1.4778,1.47636,0.524843,0.557636,0,2.07234e-24,-0.0377605,-0.00313304,-7,34,-1.59798e-26,-7,-83.4503,117.45,2.336
1.4778,1.47636,0.524692,0.557623,0,1.38156e-24,-0.0378504,-0.00324033,-7,35,-1.10179e-26,-7,-83.451,118.451,2.34
1.4778,1.47636,0.52454,0.557609,0,9.2104e-25,-0.0379403,-0.00328306,-7,35,-7.44202e-27,-7,-83.4517,118.452,2.344
1.4778,1.47636,0.524388,0.557595,0,6.14027e-25,-0.0380301,-0.00334035,-7,36,-5.04784e-27,-7,-83.4524,119.452,2.348
1.4778,1.47636,0.524236,0.557581,0,4.09351e-25,-0.0381199,-0.00340733,-7,36,-3.43266e-27,-7,-83.4532,119.453,2.352
1.4778,1.47636,0.524083,0.557566,0,2.72901e-25,-0.0382097,-0.00350956,-7,36,-2.35707e-27,-7,-83.454,119.454,2.356
1.4778,1.47636,0.52393,0.55755,0,1.81934e-25,-0.0382994,-0.00366409,-7,37,-1.64054e-27,-7,-83.4548,120.455,2.36
1.4778,1.47636,0.523777,0.557535,0,1.21289e-25,-0.0383891,-0.00373832,-7,37,-1.11583e-27,-7,-83.4556,120.456,2.364
1.4778,1.47636,0.523623,0.557518,0,8.08595e-26,-0.0384788,-0.00387418,-7,37,-7.70911e-28,-7,-83.4565,120.456,2.368
1.4778,1.47636,0.523469,0.557501,0,5.39063e-26,-0.0385684,-0.00402233,-7,38,-5.33586e-28,-7,-83.4573,121.457,2.372
1.4778,1.47636,0.523315,0.557483,0,3.59375e-26,-0.038658,-0.00414989,-7,38,-3.66998e-28,-7,-83.4583,121.458,2.376
1.4778,1.47636,0.52316,0.557466,0,2.39584e-26,-0.0387476,-0.00423493,-7,38,-2.49675e-28,-7,-83.4592,121.459,2.38
1.4778,1.47636,0.523005,0.557448,0,1.59722e-26,-0.0388372,-0.00429162,-7,39,-1.68675e-28,-7,-83.4601,122.46,2.384
1.4778,1.47636,0.522849,0.55743,0,1.06482e-26,-0.0389267,-0.00435821,-7,39,-1.14193e-28,-7,-83.461,122.461,2.388
1.4778,1.47636,0.522693,0.557412,0,7.09877e-27,-0.0390162,-0.00446018,-7,40,-7.79085e-29,-7,-83.462,123.462,2.392
1.4778,1.47636,0.522537,0.557394,0,4.73252e-27,-0.0391056,-0.00447058,-7,40,-5.20592e-29,-7,-83.4629,123.463,2.396
1.4778,1.47636,0.52238,0.557375,0,3.15501e-27,-0.039195,-0.0045351,-7,41,-3.52063e-29,-7,-83.4639,124.464,2.4
1.4778,1.47636,0.522223,0.557356,0,2.10334e-27,-0.0392844,-0.00457811,-7,41,-2.3693e-29,-7,-83.4649,124.465,2.404
1.4778,1.47636,0.522066,0.557338,0,1.40223e-27,-0.0393737,-0.00457799,-7,41,-1.57947e-29,-7,-83.4658,124.466,2.408
1.4778,1.47636,0.521908,0.557319,0,9.34818e-28,-0.039463,-0.0046355,-7,42,-1.06618e-29,-7,-83.4668,125.467,2.412
1.4778,1.47636,0.52175,0.557299,0,6.23212e-28,-0.0395523,-0.00473141,-7,42,-7.25483e-30,-7,-83.4678,125.468,2.416
1.4778,1.47636,0.521592,0.557279,0,4.15475e-28,-0.0396415,-0.00485294,-7,43,-4.96068e-30,-7,-83.4689,126.469,2.42
1.4778,1.47636,0.521433,0.55726,0,2.76983e-28,-0.0397307,-0.00481879,-7,43,-3.28379e-30,-7,-83.4699,126.47,2.424
1.4778,1.47636,0.521274,0.55724,0,1.84655e-28,-0.0398199,-0.00485361,-7,43,-2.20497e-30,-7,-83.4709,126.471,2.428
1.4778,1.47636,0.521115,0.55722,0,1.23104e-28,-0.039909,-0.00487682,-7,44,-1.47698e-30,-7,-83.4719,127.472,2.432
1.4778,1.47636,0.520955,0.557201,0,8.20691e-29,-0.039998,-0.00486351,-7,44,-9.81947e-31,-7,-83.4729,127.473,2.436
1.4778,1.47636,0.520795,0.55718,0,5.47127e-29,-0.0400871,-0.00502738,-7,45,-6.76674e-31,-7,-83.4741,128.474,2.44
1.4778,1.47636,0.520634,0.557158,0,3.64751e-29,-0.0401761,-0.00516541,-7,45,-4.63492e-31,-7,-83.4752,128.475,2.444
1.4778,1.47636,0.520473,0.557137,0,2.43168e-29,-0.040265,-0.00519985,-7,45,-3.11049e-31,-7,-83.4763,128.476,2.448
1.4778,1.47636,0.520312,0.557116,0,1.62112e-29,-0.0403539,-0.00519403,-7,46,-2.07129e-31,-7,-83.4774,129.477,2.452
1.4778,1.47636,0.52015,0.557095,0,1.08074e-29,-0.0404428,-0.00524772,-7,46,-1.39511e-31,-7,-83.4785,129.478,2.456
1.4778,1.47636,0.519989,0.557072,0,7.20496e-30,-0.0405316,-0.00536989,-7,47,-9.51703e-32,-7,-83.4797,130.48,2.46
1.4778,1.47636,0.519826,0.557051,0,4.80331e-30,-0.0406204,-0.00536496,-7,47,-6.33873e-32,-7,-83.4808,130.481,2.464
1.4778,1.47636,0.519664,0.557029,0,3.20221e-30,-0.0407092,-0.00541926,-7,47,-4.2685e-32,-7,-83.4819,130.482,2.468
1.4778,1.47636,0.519501,0.557006,0,2.1348e-30,-0.0407979,-0.00554183,-7,48,-2.90996e-32,-7,-83.4831,131.483,2.472
1.4778,1.47636,0.519337,0.556982,0,1.4232e-30,-0.0408865,-0.00562355,-7,48,-1.96853e-32,-7,-83.4843,131.484,2.476
1.4778,1.47636,0.519173,0.556959,0,9.48802e-31,-0.0409751,-0.00573561,-7,49,-1.33848e-32,-7,-83.4856,132.486,2.48
1.4778,1.47636,0.519009,0.556933,0,6.32535e-31,-0.0410637,-0.00595427,-7,49,-9.26312e-33,-7,-83.4869,132.487,2.484
1.4778,1.47636,0.518845,0.556907,0,4.2169e-31,-0.0411522,-0.00615762,-7,49,-6.38615e-33,-7,-83.4883,132.488,2.488
1.4778,1.47636,0.51868,0.55688,0,2.81127e-31,-0.0412407,-0.00635077,-7,49,-4.39087e-33,-7,-83.4897,132.49,2.492
1.4778,1.47636,0.518515,0.556852,0,1.87418e-31,-0.0413291,-0.00653712,-7,50,-3.01306e-33,-7,-83.4911,133.491,2.496
1.4778,1.47636,0.51835,0.556825,0,1.24945e-31,-0.0414175,-0.00666136,-7,50,-2.04682e-33,-7,-83.4925,133.493,2.5
1.4778,1.47636,0.518184,0.556799,0,-5.75818e-05,-0.0415058,-0.00660022,-7,51,9.34612e-07,-7,-83.4939,134.494,2.504
1.4778,1.47636,0.518017,0.556775,0,1.91939e-05,-0.0415941,-0.00638672,-7,51,-3.01453e-07,-7,-83.4951,134.495,2.508
1.4778,1.47636,0.517851,0.556754,0,1.2796e-05,-0.0416823,-0.00601406,-7,52,-1.89238e-07,-7,-83.4962,135.496,2.512
1.4778,1.47636,0.517684,0.556735,0,8.53064e-06,-0.0417705,-0.00553529,-7,53,-1.16113e-07,-7,-83.4972,136.497,2.516
1.4778,1.47636,0.517517,0.556722,0,5.6871e-06,-0.0418587,-0.00478425,-7,54,-6.69051e-08,-7,-83.4978,137.498,2.52
1.4778,1.47636,0.517349,0.556715,0,3.7914e-06,-0.0419468,-0.00376532,-7,55,-3.51037e-08,-7,-83.4982,138.498,2.524
1.4778,1.47636,0.517181,0.556713,0,2.5276e-06,-0.0420348,-0.00268296,-7,57,-1.66753e-08,-7,-83.4983,140.498,2.528
1.4778,1.47636,0.517013,0.556714,0,1.68507e-06,-0.0421228,-0.00173106,-7,58,-7.17264e-09,-7,-83.4983,141.498,2.532
1.4778,1.47636,0.516844,0.556715,0,-5.64585e-05,-0.0422107,-0.00109646,-7,59,1.5222e-07,-7,-83.4982,142.498,2.536
1.4778,1.47636,0.516675,0.556714,0,1.99429e-05,-0.0422986,-0.000759762,-7,60,-3.72577e-08,-7,-83.4983,143.498,2.54
1.4778,1.47636,0.516506,0.556715,0,1.32952e-05,-0.0423865,-0.000448926,-7,61,-1.46765e-08,-7,-83.4982,144.498,2.544
1.4778,1.47636,0.516336,0.556715,0,8.8635e-06,-0.0424742,-0.000299284,-7,61,-6.52289e-09,-7,-83.4982,144.498,2.548
1.4778,1.47636,0.516166,0.556715,0,5.909e-06,-0.042562,-0.000228314,-7,62,-3.31739e-09,-7,-83.4982,145.498,2.552
1.4778,1.47636,0.515996,0.556715,0,3.93933e-06,-0.0426497,-9.46272e-05,-7,63,-9.16622e-10,-7,-83.4982,146.498,2.556
1.4778,1.47636,0.515825,0.556715,0,2.62622e-06,-0.0427373,-0.000120667,-7,63,-7.79237e-10,-7,-83.4982,146.498,2.56
1.4778,1.47636,0.515654,0.556715,0,1.75081e-06,-0.0428249,-8.04444e-05,-7,64,-3.46328e-10,-7,-83.4982,147.498,2.564
1.4778,1.47636,0.515482,0.556715,0,1.16721e-06,-0.0429124,-5.36296e-05,-7,64,-1.53923e-10,-7,-83.4982,147.498,2.568
1.4778,1.47636,0.51531,0.556715,0,7.7814e-07,-0.0429998,-3.57531e-05,-7,65,-6.84104e-11,-7,-83.4982,148.498,2.572
1.4778,1.47636,0.515138,0.556715,0,5.1876e-07,-0.0430873,-2.38354e-05,-7,65,-3.04046e-11,-7,-83.4982,148.498,2.576
1.4778,1.47636,0.514966,0.556715,0,3.4584e-07,-0.0431746,-1.58903e-05,-7,66,-1.35132e-11,-7,-83.4982,149.498,2.58
1.4778,1.47636,0.514793,0.556715,0,2.3056e-07,-0.0432619,-1.05935e-05,-7,67,-6.00585e-12,-7,-83.4982,150.498,2.584
1.4778,1.47636,0.51462,0.556715,0,1.53707e-07,-0.0433491,-7.06234e-06,-7,67,-2.66927e-12,-7,-83.4982,150.498,2.588
1.4778,1.47636,0.514446,0.556715,0,1.02471e-07,-0.0434363,-4.70822e-06,-7,68,-1.18634e-12,-7,-83.4982,151.498,2.592
1.4778,1.47636,0.514272,0.556715,0,6.8314e-08,-0.0435235,-3.13882e-06,-7,68,-5.27263e-13,-7,-83.4982,151.498,2.596
1.4778,1.47636,0.514098,0.556715,0,4.55427e-08,-0.0436105,-2.09254e-06,-7,69,-2.34339e-13,-7,-83.4982,152.498,2.6
1.4778,1.47636,0.513923,0.556715,0,3.03618e-08,-0.0436975,-1.39503e-06,-7,69,-1.04151e-13,-7,-83.4982,152.498,2.604
1.4778,1.47636,0.513748,0.556714,0,2.02412e-08,-0.0437845,-2.97209e-05,-7,70,-1.47928e-12,-7,-83.4983,153.498,2.608
1.4778,1.47636,0.513573,0.556715,0,1.34941e-08,-0.0438714,8.97696e-06,-7,70,2.97869e-13,-7,-83.4982,153.498,2.612
1.4778,1.47636,0.513397,0.556715,0,8.99609e-09,-0.0439582,5.98464e-06,-7,71,1.32386e-13,-7,-83.4982,154.498,2.616
1.4778,1.47636,0.513221,0.556714,0,5.99739e-09,-0.044045,-5.35921e-05,-7,71,-7.9034e-13,-7,-83.4983,154.498,2.62
1.4778,1.47636,0.513045,0.556714,0,3.99826e-09,-0.0441317,-6.93713e-06,-7,72,-6.82028e-14,-7,-83.4983,155.498,2.624
1.4778,1.47636,0.512868,0.556714,0,2.66551e-09,-0.0442183,-4.62476e-06,-7,73,-3.03124e-14,-7,-83.4983,156.498,2.628
1.4778,1.47636,0.512691,0.556714,0,1.77701e-09,-0.0443049,-3.08317e-06,-7,73,-1.34722e-14,-7,-83.4983,156.498,2.632
1.4778,1.47636,0.512514,0.556714,0,1.18467e-09,-0.0443915,-2.05545e-06,-7,74,-5.98763e-15,-7,-83.4983,157.498,2.636
1.4778,1.47636,0.512336,0.556714,0,7.8978e-10,-0.0444779,-1.3703e-06,-7,74,-2.66117e-15,-7,-83.4983,157.498,2.64
1.4778,1.47636,0.512158,0.556714,0,5.2652e-10,-0.0445643,-9.13532e-07,-7,75,-1.18274e-15,-7,-83.4983,158.498,2.644
1.4778,1.47636,0.51198,0.556714,0,2.87913e-05,-0.0446507,-6.09021e-07,-6,75,-4.31166e-11,-6,-83.4983,158.498,2.648
1.4778,1.47636,0.511801,0.556714,0,-9.59674e-06,-0.044737,-4.06014e-07,-7,76,9.58112e-12,-7,-83.4983,159.498,2.652
1.4778,1.47636,0.511622,0.556714,0,-6.39783e-06,-0.0448232,-2.70676e-07,-7,76,4.25827e-12,-7,-83.4983,159.498,2.656
1.4778,1.47636,0.511442,0.556714,0,-4.26522e-06,-0.0449093,-1.80451e-07,-7,77,1.89257e-12,-7,-83.4983,160.498,2.66
1.4778,1.47636,0.511262,0.556714,0,2.59474e-05,-0.0449954,-1.20301e-07,-7,78,-7.67562e-12,-7,-83.4983,161.498,2.664
1.4778,1.47636,0.511082,0.556714,0,-1.14926e-05,-0.0450814,-8.02003e-08,-7,78,2.26645e-12,-7,-83.4983,161.498,2.668
1.4778,1.47636,0.510902,0.556714,0,2.11292e-05,-0.0451674,-5.34669e-08,-7,79,-2.77791e-12,-7,-83.4983,162.498,2.672
1.4778,1.47636,0.510721,0.556714,0,-1.47048e-05,-0.0452533,-3.56446e-08,-7,79,1.28886e-12,-7,-83.4983,162.498,2.676
1.4778,1.47636,0.51054,0.556714,0,-9.80321e-06,-0.0453391,-2.37631e-08,-7,80,5.72825e-13,-7,-83.4983,163.498,2.68
1.4778,1.47636,0.510358,0.556714,0,-6.53547e-06,-0.0454249,-1.5842e-08,-7,80,2.54589e-13,-7,-83.4983,163.498,2.684
1.4778,1.47636,0.510176,0.556714,0,-4.35698e-06,-0.0455105,-1.05614e-08,-7,81,1.13151e-13,-7,-83.4983,164.498,2.688
1.4778,1.47636,0.509994,0.556714,0,-2.90465e-06,-0.0455962,-7.04091e-09,-7,82,5.02891e-14,-7,-83.4983,165.498,2.692
1.4778,1.47636,0.509812,0.556714,0,-1.93644e-06,-0.0456817,-2.87956e-05,-7,82,1.37114e-10,-7,-83.4983,165.498,2.696
1.4778,1.47636,0.509629,0.556714,0,-3.00819e-05,-0.0457672,9.59385e-06,-7,83,-7.09658e-10,-7,-83.4983,166.498,2.7
1.4778,1.47636,0.509445,0.556714,0,8.73634e-06,-0.0458526,-2.2395e-05,-7,83,-4.81096e-10,-7,-83.4983,166.498,2.704
1.4778,1.47636,0.509262,0.556714,0,5.82422e-06,-0.045938,-1.493e-05,-7,84,-2.13821e-10,-7,-83.4983,167.498,2.708
1.4778,1.47636,0.509078,0.556714,0,3.88282e-06,-0.0460232,-9.95335e-06,-7,84,-9.50314e-11,-7,-83.4983,167.498,2.712
1.4778,1.47636,0.508894,0.556714,0,2.58854e-06,-0.0461085,-6.63556e-06,-7,85,-4.22362e-11,-7,-83.4983,168.498,2.716
1.4778,1.47636,0.508709,0.556714,0,1.7257e-06,-0.0461936,-4.42371e-06,-7,86,-1.87716e-11,-7,-83.4983,169.498,2.72
1.4778,1.47636,0.508524,0.556714,0,1.15046e-06,-0.0462787,-2.94914e-06,-7,86,-8.34295e-12,-7,-83.4983,169.498,2.724
1.4778,1.47636,0.508339,0.556714,0,7.66976e-07,-0.0463636,-1.96609e-06,-7,87,-3.70798e-12,-7,-83.4983,170.498,2.728
1.4778,1.47636,0.508153,0.556714,0,5.11317e-07,-0.0464486,-1.31073e-06,-7,87,-1.64799e-12,-7,-83.4983,170.498,2.732
1.4778,1.47636,0.507967,0.556714,0,3.40878e-07,-0.0465334,-8.73819e-07,-7,88,-7.3244e-13,-7,-83.4983,171.498,2.736
1.4778,1.47636,0.507781,0.556714,0,2.27252e-07,-0.0466182,-5.82546e-07,-7,88,-3.25529e-13,-7,-83.4983,171.498,2.74
1.4778,1.47636,0.507594,0.556714,0,1.51501e-07,-0.0467029,-3.88364e-07,-7,89,-1.44679e-13,-7,-83.4983,172.498,2.744
1.4778,1.47636,0.507407,0.556714,0,1.01001e-07,-0.0467875,-2.58909e-07,-7,90,-6.4302e-14,-7,-83.4983,173.498,2.748
1.4778,1.47636,0.50722,0.556714,0,6.7334e-08,-0.0468721,-1.72606e-07,-7,90,-2.85787e-14,-7,-83.4983,173.498,2.752
1.4778,1.47636,0.507032,0.556714,0,4.48893e-08,-0.0469566,-2.8906e-05,-7,91,-3.19067e-12,-7,-83.4983,174.498,2.756
1.4778,1.47636,0.506844,0.556714,0,2.99262e-08,-0.047041,9.52026e-06,-7,91,7.0057e-13,-7,-83.4983,174.498,2.76
1.4778,1.47636,0.506656,0.556714,0,1.99508e-08,-0.0471253,-2.24441e-05,-7,92,-1.10107e-12,-7,-83.4983,175.498,2.764
1.4778,1.47636,0.506467,0.556714,0,1.33005e-08,-0.0472096,-1.49627e-05,-7,93,-4.89363e-13,-7,-83.4983,176.498,2.768
1.4778,1.47636,0.506278,0.556714,0,8.86703e-09,-0.0472938,-9.97515e-06,-7,93,-2.17494e-13,-7,-83.4983,176.498,2.772
1.4778,1.47636,0.506089,0.556714,0,5.91135e-09,-0.0473779,-6.6501e-06,-7,94,-9.66642e-14,-7,-83.4983,177.498,2.776
1.4778,1.47636,0.505899,0.556714,0,3.9409e-09,-0.0474619,-4.4334e-06,-7,94,-4.29619e-14,-7,-83.4983,177.498,2.78
1.4778,1.47636,0.505709,0.556714,0,2.62727e-09,-0.0475459,-2.9556e-06,-7,95,-1.90942e-14,-7,-83.4983,178.498,2.784
1.4778,1.47636,0.505519,0.556714,0,1.75151e-09,-0.0476297,-1.9704e-06,-7,96,-8.48629e-15,-7,-83.4983,179.498,2.788
1.4778,1.47636,0.505328,0.556714,0,1.16767e-09,-0.0477135,-1.3136e-06,-7,96,-3.77169e-15,-7,-83.4983,179.498,2.792
1.4778,1.47636,0.505137,0.556714,0,7.78449e-10,-0.0477972,-8.75733e-07,-7,97,-1.67631e-15,-7,-83.4983,180.498,2.796
1.4778,1.47636,0.504946,0.556714,0,5.18966e-10,-0.0478809,-5.83822e-07,-7,97,-7.45025e-16,-7,-83.4983,180.498,2.8
1.4778,1.47636,0.504754,0.556713,0,3.45978e-10,-0.0479644,-2.91801e-05,-7,98,-2.48248e-14,-7,-83.4983,181.498,2.804
1.4778,1.47636,0.504562,0.556714,0,2.30652e-10,-0.0480479,9.3375e-06,-7,99,5.29588e-15,-7,-83.4983,182.498,2.808
1.4778,1.47636,0.50437,0.556713,0,1.53768e-10,-0.0481313,-2.25659e-05,-7,99,-8.53236e-15,-7,-83.4983,182.498,2.812
1.4778,1.47636,0.504177,0.556713,0,1.02512e-10,-0.0482147,-1.5044e-05,-7,100,-3.79216e-15,-7,-83.4983,183.498,2.816
1.4778,1.47636,0.503984,0.556713,0,6.83412e-11,-0.0482979,-1.00293e-05,-7,100,-1.6854e-15,-7,-83.4983,183.498,2.82
1.4778,1.47636,0.503791,0.556713,0,4.55608e-11,-0.0483811,-6.6862e-06,-7,101,-7.49069e-16,-7,-83.4983,184.498,2.824
1.4778,1.47636,0.503597,0.556713,0,3.03739e-11,-0.0484641,-4.45747e-06,-7,101,-3.32919e-16,-7,-83.4983,184.498,2.828
1.4778,1.47636,0.503403,0.556713,0,2.02493e-11,-0.0485471,-2.97164e-06,-7,102,-1.47964e-16,-7,-83.4983,185.498,2.832
1.4778,1.47636,0.503209,0.556713,0,1.34995e-11,-0.0486301,-3.0772e-05,-7,103,-1.02147e-15,-7,-83.4983,186.498,2.836
1.4778,1.47636,0.503014,0.556713,0,8.99967e-12,-0.0487129,-2.05147e-05,-7,103,-4.53985e-16,-7,-83.4983,186.498,2.84
1.4778,1.47636,0.502819,0.556713,0,5.99978e-12,-0.0487956,-1.36765e-05,-7,104,-2.01771e-16,-7,-83.4983,187.498,2.844
1.4778,1.47636,0.502624,0.556713,0,3.99985e-12,-0.0488783,-9.11764e-06,-7,104,-8.96761e-17,-7,-83.4983,187.498,2.848
1.4778,1.47636,0.502428,0.556713,0,2.66657e-12,-0.0489609,-6.07842e-06,-7,105,-3.98561e-17,-7,-83.4983,188.498,2.852
1.4778,1.47636,0.502232,0.556713,0,1.77771e-12,-0.0490434,-4.05228e-06,-7,106,-1.77138e-17,-7,-83.4983,189.498,2.856
1.4778,1.47636,0.502036,0.556713,0,1.18514e-12,-0.0491258,-2.70152e-06,-7,106,-7.8728e-18,-7,-83.4983,189.498,2.86
1.4778,1.47636,0.501839,0.556713,0,7.90094e-13,-0.0492081,-1.80101e-06,-7,107,-3.49902e-18,-7,-83.4983,190.498,2.864
1.4778,1.47636,0.501642,0.556713,0,5.2673e-13,-0.0492904,-1.20068e-06,-7,108,-1.55512e-18,-7,-83.4983,191.498,2.868
1.4778,1.47636,0.501445,0.556713,0,3.51153e-13,-0.0493725,-2.95914e-05,-7,108,-2.55512e-17,-7,-83.4983,191.498,2.872
1.4778,1.47636,0.501247,0.556713,0,2.34102e-13,-0.0494546,-1.97276e-05,-7,109,-1.13561e-17,-7,-83.4983,192.498,2.876
1.4778,1.47636,0.501049,0.556713,0,1.56068e-13,-0.0495366,-1.31517e-05,-7,109,-5.04716e-18,-7,-83.4983,192.498,2.88
1.4778,1.47636,0.500851,0.556713,0,1.04045e-13,-0.0496185,-8.76781e-06,-7,110,-2.24318e-18,-7,-83.4983,193.498,2.884
1.4778,1.47636,0.500652,0.556712,0,6.93636e-14,-0.0497003,-6.34271e-05,-7,111,-1.08182e-17,-7,-83.4984,194.498,2.888
1.4778,1.47636,0.500453,0.556712,0,4.62424e-14,-0.049782,-1.34938e-05,-7,111,-1.53435e-18,-7,-83.4984,194.498,2.892
1.4778,1.47636,0.500254,0.556712,0,3.08283e-14,-0.0498637,-8.99585e-06,-7,112,-6.81933e-19,-7,-83.4984,195.498,2.896
1.4778,1.47636,0.500054,0.556712,0,2.05522e-14,-0.0499452,-3.47882e-05,-7,112,-1.75808e-18,-7,-83.4984,195.498,2.9
1.4778,1.47636,0.499854,0.556712,0,1.37014e-14,-0.0500267,-2.31921e-05,-7,113,-7.8137e-19,-7,-83.4984,196.498,2.904
1.4778,1.47636,0.499654,0.556712,0,9.1343e-15,-0.050108,-4.42523e-05,-7,114,-9.93943e-19,-7,-83.4984,197.498,2.908
1.4778,1.47636,0.499453,0.556712,0,6.08953e-15,-0.0501893,-2.95016e-05,-7,114,-4.41752e-19,-7,-83.4984,197.498,2.912
1.4778,1.47636,0.499252,0.556711,0,4.05969e-15,-0.0502705,-4.84586e-05,-7,115,-4.83742e-19,-7,-83.4984,198.498,2.916
1.4778,1.47636,0.499051,0.556711,0,2.70646e-15,-0.0503516,-3.23058e-05,-7,115,-2.14996e-19,-7,-83.4984,198.498,2.92
1.4778,1.47636,0.49885,0.556711,0,1.80431e-15,-0.0504326,-5.03281e-05,-7,116,-2.23291e-19,-7,-83.4984,199.498,2.924
1.4778,1.47636,0.498648,0.556711,0,1.20287e-15,-0.0505135,-6.2343e-05,-7,117,-1.84398e-19,-7,-83.4985,200.498,2.928
1.4778,1.47636,0.498445,0.55671,0,8.01914e-16,-0.0505944,-9.91438e-05,-7,117,-1.95498e-19,-7,-83.4985,200.498,2.932
1.4778,1.47636,0.498243,0.556709,0,5.34609e-16,-0.0506751,-9.48868e-05,-7,118,-1.24736e-19,-7,-83.4985,201.499,2.936
1.4778,1.47636,0.49804,0.556709,0,3.56406e-16,-0.0507557,-0.00012084,-7,118,-1.05902e-19,-7,-83.4985,201.499,2.94
1.4778,1.47636,0.497837,0.556708,0,2.37604e-16,-0.0508363,-0.000109351,-7,119,-6.38887e-20,-7,-83.4986,202.499,2.944
1.4778,1.47636,0.497633,0.556708,0,1.58403e-16,-0.0509168,-0.000130482,-7,120,-5.08233e-20,-7,-83.4986,203.499,2.948
1.4778,1.47636,0.49743,0.556708,0,1.05602e-16,-0.0509971,-8.69882e-05,-7,120,-2.25881e-20,-7,-83.4986,203.499,2.952
1.4778,1.47636,0.497225,0.556708,0,7.04012e-17,-0.0510774,-5.79922e-05,-7,121,-1.00392e-20,-7,-83.4986,204.499,2.956
1.4778,1.47636,0.497021,0.556707,0,4.69341e-17,-0.0511576,-9.62433e-05,-7,122,-1.11073e-20,-7,-83.4986,205.499,2.96
1.4778,1.47636,0.496816,0.556707,0,3.12894e-17,-0.0512376,-9.29531e-05,-7,122,-7.1517e-21,-7,-83.4987,205.499,2.964
1.4778,1.47636,0.496611,0.556706,0,2.08596e-17,-0.0513176,-9.07597e-05,-7,123,-4.65529e-21,-7,-83.4987,206.499,2.968
1.4778,1.47636,0.496406,0.556706,0,1.39064e-17,-0.0513975,-8.92974e-05,-7,124,-3.05352e-21,-7,-83.4987,207.499,2.972
1.4778,1.47636,0.4962,0.556706,0,9.27094e-18,-0.0514773,-8.83225e-05,-7,124,-2.01346e-21,-7,-83.4987,207.499,2.976
1.4778,1.47636,0.495994,0.556705,0,6.18063e-18,-0.051557,-8.76726e-05,-7,125,-1.33243e-21,-7,-83.4987,208.499,2.98
1.4778,1.47636,0.495787,0.556705,0,4.12042e-18,-0.0516366,-5.84484e-05,-7,125,-5.9219e-22,-7,-83.4987,208.499,2.984
1.4778,1.47636,0.495581,0.556705,0,2.74695e-18,-0.0517161,-6.77565e-05,-7,126,-4.57666e-22,-7,-83.4987,209.499,2.988
1.4778,1.47636,0.495374,0.556705,0,-5.75818e-05,-0.0517956,-7.39619e-05,-7,127,1.04723e-08,-7,-83.4988,210.499,2.992
1.4778,1.47636,0.495166,0.556704,0,-3.83879e-05,-0.0518749,-7.80989e-05,-7,127,7.37201e-09,-7,-83.4988,210.499,2.996
1.4778,1.47636,0.494959,0.556704,0,3.19899e-06,-0.0519541,-0.000109648,-7,128,-8.62501e-10,-7,-83.4988,211.499,3
1.4778,1.47636,0.494751,0.556703,0,3.09236e-05,-0.0520332,-0.00013068,-6,129,-9.9368e-09,-6,-83.4988,212.499,3.004
1.4778,1.47636,0.494542,0.556703,0,2.06157e-05,-0.0521122,-8.71202e-05,-7,129,-4.41635e-09,-7,-83.4988,212.499,3.008
1.4778,1.47636,0.494334,0.556702,0,1.37438e-05,-0.0521912,-0.000115662,-7,130,-3.90881e-09,-7,-83.4989,213.499,3.012
1.4778,1.47636,0.494125,0.556702,0,9.16254e-06,-0.05227,-7.7108e-05,-7,130,-1.73725e-09,-7,-83.4989,213.499,3.016
1.4778,1.47636,0.493916,0.556702,0,6.10836e-06,-0.0523487,-5.14053e-05,-7,131,-7.7211e-10,-7,-83.4989,214.499,3.02
1.4778,1.47636,0.493706,0.556702,0,-5.35096e-05,-0.0524273,-6.30612e-05,-7,132,8.29735e-09,-7,-83.4989,215.499,3.024
1.4778,1.47636,0.493496,0.556702,0,2.19088e-05,-0.0525058,-4.20408e-05,-7,132,-2.26482e-09,-7,-83.4989,215.499,3.028
1.4778,1.47636,0.493286,0.556702,0,1.46059e-05,-0.0525843,-5.68181e-05,-7,133,-2.04061e-09,-7,-83.4989,216.499,3.032
1.4778,1.47636,0.493076,0.556701,0,9.73723e-06,-0.0526626,-6.66697e-05,-7,134,-1.59628e-09,-7,-83.4989,217.499,3.036
1.4778,1.47636,0.492865,0.556701,0,6.49149e-06,-0.0527408,-7.32374e-05,-7,134,-1.16902e-09,-7,-83.499,217.499,3.04
1.4778,1.47636,0.492654,0.5567,0,4.32766e-06,-0.0528189,-0.000106407,-7,135,-1.13232e-09,-7,-83.499,218.499,3.044
1.4778,1.47636,0.492442,0.556699,0,2.88511e-06,-0.0528969,-0.00012852,-7,136,-9.11751e-10,-7,-83.499,219.499,3.048
1.4778,1.47636,0.49223,0.556699,0,1.9234e-06,-0.0529749,-0.000114471,-7,136,-5.41389e-10,-7,-83.499,219.499,3.052
1.4778,1.47636,0.492018,0.556698,0,1.28227e-06,-0.0530527,-0.000162687,-7,137,-5.1295e-10,-7,-83.4991,220.499,3.056
1.4778,1.47636,0.491806,0.556697,0,8.54846e-07,-0.0531304,-0.00019483,-7,137,-4.09533e-10,-7,-83.4992,220.499,3.06
1.4778,1.47636,0.491593,0.556696,0,5.69898e-07,-0.053208,-0.000187469,-7,138,-2.62706e-10,-7,-83.4992,221.499,3.064
1.4778,1.47636,0.49138,0.556696,0,3.79932e-07,-0.0532855,-0.000182561,-7,139,-1.70552e-10,-7,-83.4992,222.499,3.068
1.4778,1.47636,0.491167,0.556695,0,2.53288e-07,-0.0533629,-0.000179289,-7,139,-1.11664e-10,-7,-83.4993,222.499,3.072
1.4778,1.47636,0.490953,0.556694,0,1.68859e-07,-0.0534402,-0.000177108,-7,140,-7.35366e-11,-7,-83.4993,223.499,3.076
1.4778,1.47636,0.49074,0.556693,0,1.12572e-07,-0.0535174,-0.000233236,-7,141,-6.45608e-11,-7,-83.4994,224.499,3.08
1.4778,1.47636,0.490525,0.556692,0,7.50482e-08,-0.0535945,-0.000241863,-7,141,-4.46326e-11,-7,-83.4994,224.499,3.084
1.4778,1.47636,0.490311,0.55669,0,5.00322e-08,-0.0536714,-0.000276406,-7,142,-3.40046e-11,-7,-83.4995,225.499,3.088
1.4778,1.47636,0.490096,0.556689,0,3.33548e-08,-0.0537483,-0.000270643,-7,143,-2.21971e-11,-7,-83.4996,226.5,3.092
1.4778,1.47636,0.489881,0.556689,0,2.22365e-08,-0.0538251,-0.000238011,-7,143,-1.30138e-11,-7,-83.4996,226.5,3.096
1.4778,1.47636,0.489665,0.556688,0,1.48243e-08,-0.0539017,-0.000216256,-7,144,-7.88284e-12,-7,-83.4996,227.5,3.1
1.4778,1.47636,0.48945,0.556688,0,9.8829e-09,-0.0539783,-0.000172961,-7,145,-4.20313e-12,-7,-83.4996,228.5,3.104
1.4778,1.47636,0.489233,0.556687,0,6.5886e-09,-0.0540547,-0.000144099,-7,145,-2.33449e-12,-7,-83.4997,228.5,3.108
1.4778,1.47636,0.489017,0.556687,0,4.3924e-09,-0.0541311,-0.000153648,-7,146,-1.65946e-12,-7,-83.4997,229.5,3.112
1.4778,1.47636,0.4888,0.556686,0,2.92827e-09,-0.0542073,-0.000131223,-7,147,-9.4484e-13,-7,-83.4997,230.5,3.116
1.4778,1.47636,0.488583,0.556686,0,1.95218e-09,-0.0542834,-0.000145064,-7,147,-6.96332e-13,-7,-83.4997,230.5,3.12
1.4778,1.47636,0.488366,0.556685,0,1.30145e-09,-0.0543594,-0.000154291,-7,148,-4.9375e-13,-7,-83.4998,231.5,3.124
1.4778,1.47636,0.488149,0.556684,0,8.67634e-10,-0.0544353,-0.000189233,-7,148,-4.03713e-13,-7,-83.4998,231.5,3.128
1.4778,1.47636,0.487931,0.556683,0,5.78423e-10,-0.0545111,-0.000183737,-7,149,-2.61325e-13,-7,-83.4999,232.5,3.132
1.4778,1.47636,0.487712,0.556683,0,3.85615e-10,-0.0545868,-0.000180073,-7,150,-1.70742e-13,-7,-83.4999,233.5,3.136
1.4778,1.47636,0.487494,0.556682,0,2.57077e-10,-0.0546624,-0.000177631,-7,150,-1.12284e-13,-7,-83.4999,233.5,3.14
1.4778,1.47636,0.487275,0.556681,0,1.71385e-10,-0.0547379,-0.000176002,-7,151,-7.41698e-14,-7,-83.5,234.5,3.144
1.4778,1.47636,0.487056,0.55668,0,1.14256e-10,-0.0548132,-0.000174917,-7,152,-4.91415e-14,-7,-83.5,235.5,3.148
1.4778,1.47636,0.486837,0.55668,0,7.61709e-11,-0.0548885,-0.000174193,-7,152,-3.26254e-14,-7,-83.5001,235.5,3.152
1.4778,1.47636,0.486617,0.556679,0,5.07806e-11,-0.0549636,-0.000202501,-7,153,-2.52849e-14,-7,-83.5001,236.5,3.156
1.4778,1.47636,0.486397,0.556678,0,3.38537e-11,-0.0550386,-0.000221374,-7,154,-1.84276e-14,-7,-83.5002,237.5,3.16
1.4778,1.47636,0.486177,0.556676,0,2.25692e-11,-0.0551135,-0.000262746,-7,154,-1.4581e-14,-7,-83.5002,237.5,3.164
1.4778,1.47636,0.485956,0.556675,0,1.50461e-11,-0.0551883,-0.000319119,-7,155,-1.18062e-14,-7,-83.5003,238.5,3.168
1.4778,1.47636,0.485735,0.556673,0,1.00307e-11,-0.055263,-0.0003567,-7,156,-8.79772e-15,-7,-83.5004,239.5,3.172
1.4778,1.47636,0.485514,0.556671,0,6.68716e-12,-0.0553376,-0.000381755,-7,156,-6.2771e-15,-7,-83.5005,239.501,3.176
1.4778,1.47636,0.485292,0.556668,0,4.45811e-12,-0.055412,-0.000484831,-7,157,-5.31462e-15,-7,-83.5006,240.501,3.18
1.4778,1.47636,0.485071,0.556666,0,2.97207e-12,-0.0554864,-0.000524757,-7,157,-3.83484e-15,-7,-83.5008,240.501,3.184
1.4778,1.47636,0.484849,0.556663,0,1.98138e-12,-0.0555606,-0.000608956,-7,158,-2.96676e-15,-7,-83.5009,241.501,3.188
1.4778,1.47636,0.484626,0.55666,0,1.32092e-12,-0.0556347,-0.000607507,-7,159,-1.97313e-15,-7,-83.5011,242.501,3.192
1.4778,1.47636,0.484403,0.556657,0,8.80613e-13,-0.0557087,-0.000664123,-7,159,-1.43801e-15,-7,-83.5012,242.501,3.196
1.4778,1.47636,0.484181,0.556654,0,5.87076e-13,-0.0557826,-0.000701867,-7,160,-1.01315e-15,-7,-83.5014,243.501,3.2
1.4778,1.47636,0.483957,0.556651,0,3.91384e-13,-0.0558564,-0.000755821,-7,161,-7.27353e-16,-7,-83.5016,244.502,3.204
1.4778,1.47636,0.483734,0.556648,0,2.60922e-13,-0.0559301,-0.000762999,-7,161,-4.89506e-16,-7,-83.5017,244.502,3.208
1.4778,1.47636,0.48351,0.556644,0,1.73948e-13,-0.0560036,-0.000796575,-7,162,-3.40697e-16,-7,-83.5019,245.502,3.212
1.4778,1.47636,0.483286,0.55664,0,1.15966e-13,-0.056077,-0.00084775,-7,162,-2.41722e-16,-7,-83.5021,245.502,3.216
1.4778,1.47636,0.483061,0.556637,0,7.73104e-14,-0.0561503,-0.000881867,-7,163,-1.67633e-16,-7,-83.5023,246.502,3.22
1.4778,1.47636,0.482836,0.556632,0,5.15402e-14,-0.0562235,-0.000962193,-7,164,-1.21934e-16,-7,-83.5025,247.503,3.224
1.4778,1.47636,0.482611,0.556628,0,3.43602e-14,-0.0562966,-0.00101574,-7,164,-8.58131e-17,-7,-83.5028,247.503,3.228
1.4778,1.47636,0.482386,0.556623,0,2.29068e-14,-0.0563695,-0.00105144,-7,165,-5.92192e-17,-7,-83.503,248.503,3.232
1.4778,1.47636,0.48216,0.556619,0,1.52712e-14,-0.0564424,-0.00107525,-7,166,-4.03729e-17,-7,-83.5032,249.503,3.236
1.4778,1.47636,0.481935,0.556615,0,1.01808e-14,-0.0565151,-0.00103353,-7,166,-2.5871e-17,-7,-83.5034,249.503,3.24
1.4778,1.47636,0.481708,0.556611,0,6.78719e-15,-0.0565877,-0.00100572,-7,167,-1.67832e-17,-7,-83.5036,250.504,3.244
1.4778,1.47636,0.481482,0.556607,0,4.52479e-15,-0.0566602,-0.00101597,-7,168,-1.13028e-17,-7,-83.5038,251.504,3.248
1.4778,1.47636,0.481255,0.556603,0,-2.87909e-05,-0.0567326,-0.00102281,-7,168,7.24022e-08,-7,-83.5041,251.504,3.252
1.4778,1.47636,0.481028,0.556599,0,9.59697e-06,-0.0568048,-0.00099857,-7,169,-2.35621e-08,-7,-83.5043,252.504,3.256
1.4778,1.47636,0.480801,0.556595,0,6.39798e-06,-0.0568769,-0.0010112,-7,170,-1.59068e-08,-7,-83.5045,253.504,3.26
1.4778,1.47636,0.480573,0.556591,0,4.26532e-06,-0.0569489,-0.000990837,-7,170,-1.03909e-08,-7,-83.5047,253.505,3.264
1.4778,1.47636,0.480345,0.556587,0,2.84355e-06,-0.0570208,-0.000977258,-7,171,-6.83229e-09,-7,-83.5049,254.505,3.268
1.4778,1.47636,0.480117,0.556584,0,1.8957e-06,-0.0570926,-0.000939415,-7,172,-4.37847e-09,-7,-83.505,255.505,3.272
1.4778,1.47636,0.479888,0.55658,0,1.2638e-06,-0.0571642,-0.000914186,-7,172,-2.84058e-09,-7,-83.5052,255.505,3.276
1.4778,1.47636,0.479659,0.556578,0,8.42533e-07,-0.0572357,-0.000839784,-7,173,-1.73959e-09,-7,-83.5054,256.505,3.28
1.4778,1.47636,0.47943,0.556574,0,5.61689e-07,-0.0573072,-0.000818975,-7,174,-1.13099e-09,-7,-83.5055,257.506,3.284
1.4778,1.47636,0.479201,0.556572,0,3.74459e-07,-0.0573784,-0.00074752,-7,175,-6.88204e-10,-7,-83.5057,258.506,3.288
1.4778,1.47636,0.478971,0.55657,0,2.49639e-07,-0.0574496,-0.000671092,-7,175,-4.11893e-10,-7,-83.5058,258.506,3.292
1.4778,1.47636,0.478741,0.556568,0,1.66426e-07,-0.0575206,-0.000648931,-7,176,-2.65527e-10,-7,-83.5059,259.506,3.296
1.4778,1.47636,0.478511,0.556565,0,1.10951e-07,-0.0575915,-0.000634157,-7,177,-1.72988e-10,-7,-83.506,260.506,3.3
1.4778,1.47636,0.478281,0.556563,0,7.39672e-08,-0.0576623,-0.000624308,-7,177,-1.13534e-10,-7,-83.5061,260.506,3.304
1.4778,1.47636,0.47805,0.55656,0,4.93115e-08,-0.057733,-0.000617742,-7,178,-7.48928e-11,-7,-83.5063,261.506,3.308
1.4778,1.47636,0.477819,0.556557,0,3.28743e-08,-0.0578035,-0.000670946,-7,179,-5.42286e-11,-7,-83.5064,262.506,3.312
1.4778,1.47636,0.477587,0.556554,0,2.19162e-08,-0.0578739,-0.000735207,-7,179,-3.96148e-11,-7,-83.5066,262.507,3.316
1.4778,1.47636,0.477356,0.55655,0,1.46108e-08,-0.0579442,-0.000806838,-7,180,-2.89829e-11,-7,-83.5068,263.507,3.32
1.4778,1.47636,0.477124,0.556546,0,9.74054e-09,-0.0580144,-0.000854592,-7,181,-2.04654e-11,-7,-83.507,264.507,3.324
1.4778,1.47636,0.476892,0.556542,0,6.49369e-09,-0.0580844,-0.000915219,-7,181,-1.46115e-11,-7,-83.5072,264.507,3.328
1.4778,1.47636,0.476659,0.556536,0,4.32913e-09,-0.0581544,-0.00109959,-7,182,-1.17033e-11,-7,-83.5075,265.508,3.332
1.4778,1.47636,0.476426,0.55653,0,2.88609e-09,-0.0582242,-0.0012513,-7,182,-8.87855e-12,-7,-83.5078,265.508,3.336
1.4778,1.47636,0.476193,0.556522,0,1.92406e-09,-0.0582938,-0.00149639,-7,183,-7.07834e-12,-7,-83.5083,266.508,3.34
1.4778,1.47636,0.47596,0.556512,0,1.2827e-09,-0.0583634,-0.00180374,-7,183,-5.68807e-12,-7,-83.5088,266.509,3.344
1.4778,1.47636,0.475727,0.556501,0,8.55136e-10,-0.0584328,-0.00215259,-7,184,-4.5254e-12,-7,-83.5094,267.509,3.348
1.4778,1.47636,0.475493,0.556488,0,5.70091e-10,-0.0585021,-0.00250033,-7,184,-3.50425e-12,-7,-83.51,267.51,3.352
1.4778,1.47636,0.475259,0.556474,0,3.80061e-10,-0.0585712,-0.00281852,-7,184,-2.63344e-12,-7,-83.5107,267.511,3.356
1.4778,1.47636,0.475024,0.556461,0,2.53374e-10,-0.0586403,-0.00300186,-7,185,-1.8698e-12,-7,-83.5114,268.511,3.36
1.4778,1.47636,0.474789,0.556447,0,1.68916e-10,-0.0587092,-0.00318167,-7,185,-1.32118e-12,-7,-83.5122,268.512,3.364
1.4778,1.47636,0.474554,0.556432,0,1.12611e-10,-0.0587779,-0.00330154,-7,186,-9.13958e-13,-7,-83.5129,269.513,3.368
1.4778,1.47636,0.474319,0.556417,0,7.50737e-11,-0.0588466,-0.00346783,-7,187,-6.39984e-13,-7,-83.5137,270.514,3.372
1.4778,1.47636,0.474084,0.556401,0,5.00491e-11,-0.0589151,-0.00366506,-7,187,-4.50915e-13,-7,-83.5145,270.515,3.376
1.4778,1.47636,0.473848,0.556382,0,3.33661e-11,-0.0589835,-0.00399808,-7,187,-3.27919e-13,-7,-83.5155,270.516,3.38
1.4778,1.47636,0.473612,0.556361,0,2.22441e-11,-0.0590518,-0.00442163,-7,188,-2.41767e-13,-7,-83.5166,271.517,3.384
1.4778,1.47636,0.473375,0.556338,0,1.48294e-11,-0.0591199,-0.00484796,-7,188,-1.76714e-13,-7,-83.5178,271.518,3.388
1.4778,1.47636,0.473139,0.556315,0,9.88625e-12,-0.0591879,-0.00518975,-7,188,-1.26113e-13,-7,-83.519,271.519,3.392
1.4778,1.47636,0.472902,0.55629,0,6.59083e-12,-0.0592558,-0.00553278,-7,189,-8.963e-14,-7,-83.5203,272.52,3.396
1.4778,1.47636,0.472665,0.556263,0,4.39389e-12,-0.0593235,-0.00590542,-7,189,-6.37761e-14,-7,-83.5217,272.522,3.4
1.4778,1.47636,0.472427,0.556235,0,2.92926e-12,-0.0593911,-0.00626901,-7,189,-4.51339e-14,-7,-83.5231,272.523,3.404
1.4778,1.47636,0.47219,0.556207,0,1.95284e-12,-0.0594586,-0.00656899,-7,190,-3.15282e-14,-7,-83.5246,273.525,3.408
1.4778,1.47636,0.471952,0.556177,0,1.30189e-12,-0.059526,-0.00682655,-7,190,-2.18423e-14,-7,-83.5261,273.526,3.412
1.4778,1.47636,0.471713,0.556146,0,8.67929e-13,-0.0595932,-0.00717101,-7,191,-1.52958e-14,-7,-83.5278,274.528,3.416
1.4778,1.47636,0.471475,0.556114,0,5.78619e-13,-0.0596603,-0.00745823,-7,191,-1.06053e-14,-7,-83.5294,274.529,3.42
1.4778,1.47636,0.471236,0.556082,0,3.85746e-13,-0.0597272,-0.00759213,-7,191,-7.1969e-15,-7,-83.5311,274.531,3.424
1.4778,1.47636,0.470997,0.556054,0,2.57164e-13,-0.059794,-0.00742227,-7,192,-4.69046e-15,-7,-83.5326,275.533,3.428
1.4778,1.47636,0.470758,0.556028,0,1.71443e-13,-0.0598607,-0.0071075,-7,193,-2.99429e-15,-7,-83.5339,276.534,3.432
1.4778,1.47636,0.470518,0.556007,0,1.14295e-13,-0.0599273,-0.00646579,-7,194,-1.81592e-15,-7,-83.535,277.535,3.436
1.4778,1.47636,0.470278,0.555992,0,7.61967e-14,-0.0599937,-0.00560612,-7,196,-1.04964e-15,-7,-83.5358,279.536,3.44
1.4778,1.47636,0.470038,0.555983,0,5.07978e-14,-0.06006,-0.00451477,-7,197,-5.63532e-16,-7,-83.5363,280.536,3.444
1.4778,1.47636,0.469798,0.55598,0,3.38652e-14,-0.0601262,-0.00324017,-7,199,-2.69624e-16,-7,-83.5364,282.536,3.448
1.4778,1.47636,0.469557,0.55598,0,2.25768e-14,-0.0601922,-0.00216011,-7,201,-1.19833e-16,-7,-83.5364,284.536,3.452
1.4778,1.47636,0.469316,0.55598,0,1.50512e-14,-0.0602581,-0.00144008,-7,202,-5.32591e-17,-7,-83.5364,285.536,3.456
