peachynonah/Fire_monitor_/csv_datas/trial11/cdsl_data_debug.csv
joint1_pos_desired, joint1_pos, joint2_pos_desired, joint2_pos, joint1_vel_desired, joint1_vel_filtered, joint2_vel_desired, joint2_vel_filtered, target_torque_joint1, target_torque_joint2, nonlinear_term_torque_joint1, PD_term_torque_joint1, nonlinear_term_torque_joint2, PD_term_torque_joint2, current_time
1.4778,1.47636,0.657944,0.655955,0,0,-1.88345e-07,0,-6,-91,0,-6,-77.9386,-13.0614,0.004
1.4778,1.47636,0.657944,0.655833,0,0,-7.52776e-07,-0.010192,-6,-100,-0,-6,-77.9459,-22.0541,0.008
1.4778,1.47636,0.657944,0.655742,0,0,-1.69239e-06,-0.0143379,-6,-104,-0,-6,-77.9513,-26.0487,0.012
1.4778,1.47636,0.657944,0.655664,0,0,-3.00629e-06,-0.0160653,-6,-106,-0,-6,-77.956,-28.044,0.016
1.4778,1.47636,0.657944,0.6556,0,2.87909e-05,-4.69356e-06,-0.0160653,-6,-107,-1.22517e-06,-6,-77.9599,-29.0401,0.02
1.4778,1.47636,0.657944,0.655552,0,-9.59697e-06,-6.75331e-06,-0.0146546,-6,-106,3.72519e-07,-6,-77.9627,-28.0373,0.024
1.4778,1.47636,0.657944,0.655524,0,-6.39798e-06,-9.18463e-06,-0.0121594,-6,-104,2.06058e-07,-6,-77.9644,-26.0356,0.028
1.4778,1.47636,0.657944,0.655515,0,-4.26532e-06,-1.19866e-05,-0.00885481,-6,-101,1.00038e-07,-6,-77.965,-23.035,0.032
1.4778,1.47636,0.657944,0.655521,0,-2.84355e-06,-1.51584e-05,-0.00541376,-6,-99,4.0775e-08,-6,-77.9646,-21.0354,0.036
1.4778,1.47636,0.657944,0.655537,0,-1.8957e-06,-1.86991e-05,-0.00222721,-6,-96,1.11832e-08,-6,-77.9636,-18.0364,0.04
1.4778,1.47636,0.657944,0.655562,0,-1.2638e-06,-2.26077e-05,0.000588141,-6,-93,-1.9688e-09,-6,-77.9621,-15.0379,0.044
1.4778,1.47636,0.657944,0.655594,0,-8.42533e-07,-2.68834e-05,0.00301207,-6,-91,-6.72206e-09,-6,-77.9602,-13.0398,0.048
1.4778,1.47636,0.657943,0.655631,0,-5.61689e-07,-3.15253e-05,0.00511747,-6,-89,-7.61394e-09,-6,-77.958,-11.042,0.052
1.4778,1.47636,0.657943,0.655674,0,-3.74459e-07,-3.65325e-05,0.00698172,-6,-87,-6.92526e-09,-6,-77.9554,-9.04457,0.056
1.4778,1.47636,0.657943,0.655722,0,-2.49639e-07,-4.19041e-05,0.00865642,-6,-86,-5.72442e-09,-6,-77.9526,-8.04745,0.06
1.4778,1.47636,0.657943,0.655774,0,-1.66426e-07,-4.76392e-05,0.0101472,-6,-84,-4.47362e-09,-6,-77.9494,-6.0506,0.064
1.4778,1.47636,0.657943,0.655832,0,-1.10951e-07,-5.37369e-05,0.0115441,-6,-82,-3.39309e-09,-6,-77.946,-4.05403,0.068
1.4778,1.47636,0.657943,0.655894,0,-7.39672e-08,-6.01963e-05,0.0128784,-6,-81,-2.52361e-09,-6,-77.9422,-3.05776,0.072
1.4778,1.47636,0.657942,0.655961,0,-4.93115e-08,-6.70165e-05,0.014171,-6,-79,-1.85134e-09,-6,-77.9382,-1.06179,0.076
1.4778,1.47636,0.657942,0.656033,0,-3.28743e-08,-7.41967e-05,0.0154935,-6,-78,-1.34945e-09,-6,-77.9339,-0.0661375,0.08
1.4778,1.47636,0.657942,0.656108,0,-2.19162e-08,-8.17359e-05,0.016519,-6,-76,-9.59221e-10,-6,-77.9294,1.92941,0.084
1.4778,1.47636,0.657941,0.656185,0,-1.46108e-08,-8.96332e-05,0.0174331,-6,-75,-6.74892e-10,-6,-77.9248,2.92478,0.088
1.4778,1.47636,0.657941,0.656265,0,-9.74054e-09,-9.78879e-05,0.0183303,-6,-74,-4.73106e-10,-6,-77.92,3.91995,0.092
1.4778,1.47636,0.657941,0.656348,0,-6.49369e-09,-0.000106499,0.0191588,-6,-72,-3.29674e-10,-6,-77.915,5.91496,0.096
1.4778,1.47636,0.65794,0.656434,0,-4.32913e-09,-0.000115465,0.0198839,-6,-71,-2.28111e-10,-6,-77.9098,6.90983,0.1
1.4778,1.47636,0.65794,0.656521,0,-2.88609e-09,-0.000124786,0.02054,-6,-70,-1.57099e-10,-6,-77.9046,7.90459,0.104
1.4778,1.47636,0.657939,0.656611,0,-1.92406e-09,-0.000134461,0.0212078,-6,-69,-1.08143e-10,-6,-77.8992,8.89917,0.108
1.4778,1.47636,0.657939,0.6567,0,-1.2827e-09,-0.000144489,0.0215666,-6,-68,-7.33184e-11,-6,-77.8938,9.89382,0.112
1.4778,1.47636,0.657938,0.656784,0,-8.55136e-10,-0.000154868,0.0213739,-6,-68,-4.84444e-11,-6,-77.8888,9.88878,0.116
1.4778,1.47636,0.657937,0.656859,0,-5.70091e-10,-0.000165599,0.0204393,-6,-68,-3.08853e-11,-6,-77.8843,9.88432,0.12
1.4778,1.47636,0.657937,0.656922,0,-3.80061e-10,-0.00017668,0.018895,-6,-69,-1.90351e-11,-6,-77.8805,8.88052,0.124
1.4778,1.47636,0.657936,0.656974,0,-2.53374e-10,-0.00018811,0.0169441,-6,-70,-1.13801e-11,-6,-77.8774,7.87739,0.128
1.4778,1.47636,0.657935,0.657012,0,-1.68916e-10,-0.000199888,0.014463,-6,-72,-6.47599e-12,-6,-77.8751,5.87511,0.132
1.4778,1.47636,0.657934,0.657035,0,-1.12611e-10,-0.000212014,0.011571,-6,-74,-3.45408e-12,-6,-77.8737,3.87372,0.136
1.4778,1.47636,0.657933,0.657043,0,-7.50737e-11,-0.000224487,0.00837621,-6,-76,-1.66693e-12,-6,-77.8732,1.87324,0.14
1.4778,1.47636,0.657933,0.65704,0,-5.00491e-11,-0.000237305,0.00535381,-6,-79,-7.10301e-13,-6,-77.8734,-1.12659,0.144
1.4778,1.47636,0.657932,0.657035,0,-3.33661e-11,-0.000250469,0.00307976,-6,-81,-2.72398e-13,-6,-77.8738,-3.12624,0.148
1.4778,1.47636,0.657931,0.657029,0,-2.22441e-11,-0.000263976,0.00159252,-6,-82,-9.39028e-14,-6,-77.8741,-4.12591,0.152
1.4778,1.47636,0.657929,0.657025,0,-1.48294e-11,-0.000277826,0.000716189,-6,-83,-2.81533e-14,-6,-77.8743,-5.12566,0.156
1.4778,1.47636,0.657928,0.657022,0,-9.88625e-12,-0.000292019,0.000247132,-6,-83,-6.47647e-15,-6,-77.8745,-5.12549,0.16
1.4778,1.47636,0.657927,0.657021,0,-6.59083e-12,-0.000306553,0.000107173,-6,-83,-1.87242e-15,-6,-77.8745,-5.12545,0.164
1.4778,1.47636,0.657926,0.657021,0,-4.39389e-12,-0.000321428,7.14484e-05,-6,-83,-8.32184e-16,-6,-77.8745,-5.12545,0.168
1.4778,1.47636,0.657925,0.657021,0,-2.92926e-12,-0.000336642,4.76323e-05,-6,-83,-3.6986e-16,-6,-77.8745,-5.12545,0.172
1.4778,1.47636,0.657923,0.657021,0,-1.95284e-12,-0.000352195,3.17548e-05,-6,-83,-1.64382e-16,-6,-77.8745,-5.12545,0.176
1.4778,1.47636,0.657922,0.657021,0,-1.30189e-12,-0.000368086,2.11699e-05,-6,-83,-7.30587e-17,-6,-77.8745,-5.12545,0.18
1.4778,1.47636,0.65792,0.657021,0,-8.67929e-13,-0.000384314,1.41133e-05,-6,-83,-3.24705e-17,-6,-77.8745,-5.12545,0.184
1.4778,1.47636,0.657919,0.657021,0,-5.78619e-13,-0.000400878,-1.93821e-05,-6,-83,2.97284e-17,-6,-77.8746,-5.12543,0.188
1.4778,1.47636,0.657917,0.657021,0,-3.85746e-13,-0.000417777,-1.29214e-05,-6,-83,1.32126e-17,-6,-77.8746,-5.12543,0.192
1.4778,1.47636,0.657915,0.657021,0,-2.57164e-13,-0.000435011,2.01767e-05,-6,-83,-1.37543e-17,-6,-77.8745,-5.12545,0.196
1.4778,1.47636,0.657914,0.657021,0,-1.71443e-13,-0.000452578,-1.53398e-05,-6,-83,6.97136e-18,-6,-77.8746,-5.12543,0.2
1.4778,1.47636,0.657912,0.657021,0,-1.14295e-13,-0.000470478,-1.02265e-05,-6,-83,3.09838e-18,-6,-77.8746,-5.12543,0.204
1.4778,1.47636,0.65791,0.657021,0,-7.61967e-14,-0.000488709,2.19732e-05,-6,-83,-4.43822e-18,-6,-77.8745,-5.12545,0.208
1.4778,1.47636,0.657908,0.657021,0,-5.07978e-14,-0.000507272,1.46488e-05,-6,-83,-1.97254e-18,-6,-77.8745,-5.12545,0.212
1.4778,1.47636,0.657906,0.657021,0,-3.38652e-14,-0.000526164,9.76588e-06,-6,-83,-8.76685e-19,-6,-77.8745,-5.12545,0.216
1.4778,1.47636,0.657904,0.657021,0,-2.25768e-14,-0.000545386,6.51059e-06,-6,-83,-3.89638e-19,-6,-77.8745,-5.12545,0.22
1.4778,1.47636,0.657901,0.657021,0,-1.50512e-14,-0.000564936,4.34039e-06,-6,-83,-1.73172e-19,-6,-77.8745,-5.12545,0.224
1.4778,1.47636,0.657899,0.657021,0,-1.00341e-14,-0.000584814,2.89359e-06,-6,-83,-7.69655e-20,-6,-77.8745,-5.12545,0.228
1.4778,1.47636,0.657897,0.657021,0,-6.68943e-15,-0.000605018,-2.68619e-05,-6,-83,4.76325e-19,-6,-77.8746,-5.12543,0.232
1.4778,1.47636,0.657894,0.657021,0,-4.45962e-15,-0.000625548,1.0883e-05,-6,-83,-1.28655e-19,-6,-77.8745,-5.12545,0.236
1.4778,1.47636,0.657892,0.657021,0,-2.97308e-15,-0.000646403,7.25534e-06,-6,-83,-5.71798e-20,-6,-77.8745,-5.12545,0.24
1.4778,1.47636,0.657889,0.657021,0,-1.98205e-15,-0.000667582,-2.3954e-05,-6,-83,1.25855e-19,-6,-77.8746,-5.12543,0.244
1.4778,1.47636,0.657886,0.657021,0,-1.32137e-15,-0.000689084,1.28216e-05,-6,-83,-4.491e-20,-6,-77.8745,-5.12545,0.248
1.4778,1.47636,0.657884,0.657021,0,-8.80912e-16,-0.000710908,-2.02432e-05,-6,-83,4.72705e-20,-6,-77.8746,-5.12543,0.252
1.4778,1.47636,0.657881,0.657021,0,-5.87275e-16,-0.000733053,-1.34955e-05,-6,-83,2.10091e-20,-6,-77.8746,-5.12543,0.256
1.4778,1.47636,0.657878,0.657021,0,-3.91517e-16,-0.00075552,1.97939e-05,-6,-83,-2.05428e-20,-6,-77.8745,-5.12545,0.26
1.4778,1.47636,0.657875,0.657021,0,-2.61011e-16,-0.000778306,-1.5595e-05,-6,-83,1.079e-20,-6,-77.8746,-5.12543,0.264
1.4778,1.47636,0.657871,0.657021,0,-1.74007e-16,-0.00080141,-1.03966e-05,-6,-83,4.79555e-21,-6,-77.8746,-5.12543,0.268
1.4778,1.47636,0.657868,0.657021,0,-1.16005e-16,-0.000824833,2.18598e-05,-6,-82,-6.72204e-21,-6,-77.8745,-4.12545,0.272
1.4778,1.47636,0.657865,0.657021,0,-7.73366e-17,-0.000848573,-1.42177e-05,-6,-82,2.91469e-21,-6,-77.8746,-4.12543,0.276
1.4778,1.47636,0.657861,0.657021,0,-5.15577e-17,-0.000872629,-9.47847e-06,-6,-82,1.29542e-21,-6,-77.8746,-4.12543,0.28
1.4778,1.47636,0.657858,0.657021,0,-3.43718e-17,-0.000897001,-6.31898e-06,-6,-82,5.75742e-22,-6,-77.8746,-4.12543,0.284
1.4778,1.47636,0.657854,0.657021,0,-2.29145e-17,-0.000921687,-4.21265e-06,-6,-82,2.55885e-22,-6,-77.8746,-4.12543,0.288
1.4778,1.47636,0.65785,0.657021,0,-1.52764e-17,-0.000946687,2.59825e-05,-6,-82,-1.05215e-21,-6,-77.8745,-4.12545,0.292
1.4778,1.47636,0.657847,0.657021,0,-1.01842e-17,-0.000972,-1.14693e-05,-6,-82,3.0963e-22,-6,-77.8746,-4.12543,0.296
1.4778,1.47636,0.657843,0.657021,0,-6.7895e-18,-0.000997625,2.11447e-05,-6,-82,-3.80556e-22,-6,-77.8745,-4.12545,0.3
1.4778,1.47636,0.657839,0.657021,0,-4.52633e-18,-0.00102356,1.40965e-05,-6,-82,-1.69136e-22,-6,-77.8745,-4.12545,0.304
1.4778,1.47636,0.657834,0.657021,0,-3.01755e-18,-0.00104981,-1.93933e-05,-6,-82,1.55126e-22,-6,-77.8746,-4.12543,0.308
1.4778,1.47636,0.65783,0.657021,0,-2.0117e-18,-0.00107636,-1.29288e-05,-6,-82,6.89448e-23,-6,-77.8746,-4.12543,0.312
1.4778,1.47636,0.657826,0.657021,0,-1.34113e-18,-0.00110323,-8.61923e-06,-6,-82,3.06421e-23,-6,-77.8746,-4.12543,0.316
1.4778,1.47636,0.657821,0.657021,0,-8.9409e-19,-0.0011304,2.30448e-05,-6,-82,-5.46175e-23,-6,-77.8745,-4.12545,0.32
1.4778,1.47636,0.657817,0.657021,0,-5.9606e-19,-0.00115788,-1.34277e-05,-6,-82,2.12164e-23,-6,-77.8746,-4.12543,0.324
1.4778,1.47636,0.657812,0.657021,0,-3.97373e-19,-0.00118566,-8.95183e-06,-6,-82,9.4295e-24,-6,-77.8746,-4.12543,0.328
1.4778,1.47636,0.657807,0.657021,0,-2.64916e-19,-0.00121375,-5.96789e-06,-6,-82,4.19089e-24,-6,-77.8746,-4.12543,0.332
1.4778,1.47636,0.657802,0.657021,0,-1.7661e-19,-0.00124215,-3.97859e-06,-6,-82,1.86262e-24,-6,-77.8746,-4.12543,0.336
1.4778,1.47636,0.657797,0.657021,0,-1.1774e-19,-0.00127085,2.61385e-05,-6,-82,-8.15801e-24,-6,-77.8745,-4.12545,0.34
1.4778,1.47636,0.657792,0.657021,0,-7.84935e-20,-0.00129985,1.74257e-05,-6,-82,-3.62578e-24,-6,-77.8745,-4.12545,0.344
1.4778,1.47636,0.657787,0.657021,0,-5.2329e-20,-0.00132915,1.16171e-05,-6,-81,-1.61146e-24,-6,-77.8745,-3.12545,0.348
1.4778,1.47636,0.657782,0.657021,0,-3.4886e-20,-0.00135875,-2.10462e-05,-6,-81,1.94627e-24,-6,-77.8746,-3.12543,0.352
1.4778,1.47636,0.657776,0.657021,0,-2.32573e-20,-0.00138866,1.47601e-05,-6,-81,-9.09973e-25,-6,-77.8745,-3.12545,0.356
1.4778,1.47636,0.657771,0.657021,0,-1.55049e-20,-0.00141886,-4.77418e-05,-6,-81,1.96221e-24,-6,-77.8746,-3.12541,0.36
1.4778,1.47636,0.657765,0.657021,0,-1.03366e-20,-0.00144936,2.5754e-05,-6,-81,-7.05668e-25,-6,-77.8745,-3.12545,0.364
1.4778,1.47636,0.657759,0.657021,0,-6.89106e-21,-0.00148016,-4.04125e-05,-6,-81,7.3821e-25,-6,-77.8746,-3.12541,0.368
1.4778,1.47636,0.657753,0.657021,0,-4.59404e-21,-0.00151126,3.06402e-05,-6,-81,-3.73134e-25,-6,-77.8745,-3.12545,0.372
1.4778,1.47636,0.657747,0.657021,0,-3.06269e-21,-0.00154265,-8.36414e-06,-6,-81,6.79052e-26,-6,-77.8746,-3.12543,0.376
1.4778,1.47636,0.657741,0.657021,0,-2.0418e-21,-0.00157434,2.32148e-05,-6,-81,-1.25648e-25,-6,-77.8745,-3.12545,0.38
1.4778,1.47636,0.657734,0.657021,0,-1.3612e-21,-0.00160632,-4.21053e-05,-6,-81,1.51927e-25,-6,-77.8746,-3.12541,0.384
1.4778,1.47636,0.657728,0.657021,0,-9.07465e-22,-0.0016386,2.95117e-05,-6,-81,-7.09907e-26,-6,-77.8745,-3.12545,0.388
1.4778,1.47636,0.657721,0.657021,0,-6.04977e-22,-0.00167116,-3.79074e-05,-6,-81,6.07912e-26,-6,-77.8746,-3.12541,0.392
1.4778,1.47636,0.657714,0.657021,0,-4.03318e-22,-0.00170402,3.23102e-05,-6,-81,-3.45434e-26,-6,-77.8745,-3.12545,0.396
1.4778,1.47636,0.657708,0.657021,0,-2.68878e-22,-0.00173718,-7.25076e-06,-6,-81,5.16795e-27,-6,-77.8746,-3.12543,0.4
1.4778,1.47636,0.6577,0.657021,0,-1.79252e-22,-0.00177062,2.39571e-05,-6,-81,-1.13835e-26,-6,-77.8745,-3.12545,0.404
1.4778,1.47636,0.657693,0.657021,0,-1.19502e-22,-0.00180435,1.59714e-05,-6,-80,-5.05935e-27,-6,-77.8745,-2.12545,0.408
1.4778,1.47636,0.657686,0.657021,0,-7.96677e-23,-0.00183836,1.06476e-05,-6,-80,-2.2486e-27,-6,-77.8745,-2.12545,0.412
1.4778,1.47636,0.657679,0.657021,0,-5.31118e-23,-0.00187267,-2.16925e-05,-6,-80,3.05407e-27,-6,-77.8746,-2.12543,0.416
1.4778,1.47636,0.657671,0.657021,0,-3.54079e-23,-0.00190726,-1.44617e-05,-6,-80,1.35737e-27,-6,-77.8746,-2.12543,0.42
1.4778,1.47636,0.657663,0.657021,0,-2.36052e-23,-0.00194214,1.91498e-05,-6,-80,-1.19826e-27,-6,-77.8745,-2.12545,0.424
1.4778,1.47636,0.657656,0.657021,0,-1.57368e-23,-0.00197731,1.27665e-05,-6,-80,-5.3256e-28,-6,-77.8745,-2.12545,0.428
1.4778,1.47636,0.657648,0.657021,0,-1.04912e-23,-0.00201276,-2.02799e-05,-6,-80,5.63988e-28,-6,-77.8746,-2.12543,0.432
1.4778,1.47636,0.657639,0.657021,0,-6.99415e-24,-0.00204849,1.5271e-05,-6,-80,-2.83126e-28,-6,-77.8745,-2.12545,0.436
1.4778,1.47636,0.657631,0.657021,0,-4.66276e-24,-0.0020845,-4.74012e-05,-6,-80,5.85883e-28,-6,-77.8746,-2.12541,0.44
1.4778,1.47636,0.657623,0.657021,0,-3.10851e-24,-0.0021208,-2.80987e-06,-6,-80,2.31535e-29,-6,-77.8746,-2.12543,0.444
1.4778,1.47636,0.657614,0.657021,0,-2.07234e-24,-0.00215738,2.69177e-05,-6,-80,-1.47869e-28,-6,-77.8745,-2.12545,0.448
1.4778,1.47636,0.657606,0.657021,0,-1.38156e-24,-0.00219423,-1.08458e-05,-6,-80,3.972e-29,-6,-77.8746,-2.12543,0.452
1.4778,1.47636,0.657597,0.657021,0,-9.2104e-25,-0.00223137,2.15604e-05,-6,-79,-5.26397e-29,-6,-77.8745,-1.12545,0.456
1.4778,1.47636,0.657588,0.657021,0,-6.14027e-25,-0.00226879,-1.44173e-05,-6,-79,2.34666e-29,-6,-77.8746,-1.12543,0.46
1.4778,1.47636,0.657579,0.657021,0,-4.09351e-25,-0.00230648,1.91794e-05,-6,-79,-2.08117e-29,-6,-77.8745,-1.12545,0.464
1.4778,1.47636,0.657569,0.657021,0,-2.72901e-25,-0.00234445,1.27862e-05,-6,-79,-9.24966e-30,-6,-77.8745,-1.12545,0.468
1.4778,1.47636,0.65756,0.657022,0,-1.81934e-25,-0.0023827,3.73151e-05,-6,-79,-1.7996e-29,-6,-77.8745,-1.12547,0.472
1.4778,1.47636,0.65755,0.657021,0,-1.21289e-25,-0.00242122,-3.9142e-06,-6,-79,1.25847e-30,-6,-77.8745,-1.12545,0.476
1.4778,1.47636,0.65754,0.657021,0,-8.08595e-26,-0.00246001,-3.14004e-05,-6,-79,6.73045e-30,-6,-77.8746,-1.12543,0.48
1.4778,1.47636,0.65753,0.657022,0,-5.39063e-26,-0.00249908,3.66483e-05,-6,-79,-5.23686e-30,-6,-77.8745,-1.12547,0.484
1.4778,1.47636,0.65752,0.657021,0,-3.59375e-26,-0.00253843,-6.19406e-05,-6,-79,5.90068e-30,-6,-77.8746,-1.12541,0.488
1.4778,1.47636,0.65751,0.657021,0,-2.39584e-26,-0.00257804,1.62881e-05,-6,-79,-1.03444e-30,-6,-77.8745,-1.12545,0.492
1.4778,1.47636,0.6575,0.657021,0,-1.59722e-26,-0.00261793,-4.67231e-05,-6,-79,1.97822e-30,-6,-77.8746,-1.12541,0.496
1.4778,1.47636,0.657489,0.657021,0,-1.06482e-26,-0.00265808,-3.11487e-05,-6,-78,8.79211e-31,-6,-77.8746,-0.125411,0.5
1.4778,1.47636,0.657478,0.657021,0,-7.09877e-27,-0.00269851,-2.07658e-05,-6,-78,3.9076e-31,-6,-77.8746,-0.125411,0.504
1.4778,1.47636,0.657468,0.657021,0,-4.73252e-27,-0.0027392,1.4947e-05,-6,-78,-1.8751e-31,-6,-77.8746,-0.125432,0.508
1.4778,1.47636,0.657457,0.657021,0,-3.15501e-27,-0.00278016,9.96469e-06,-6,-78,-8.3338e-32,-6,-77.8746,-0.125432,0.512
1.4778,1.47636,0.657445,0.657022,0,-2.10334e-27,-0.00282139,6.4225e-05,-6,-78,-3.5809e-31,-6,-77.8745,-0.125474,0.516
1.4778,1.47636,0.657434,0.657021,0,-1.40223e-27,-0.00286289,1.40257e-05,-6,-78,-5.21341e-32,-6,-77.8745,-0.125453,0.52
1.4778,1.47636,0.657422,0.657021,0,-9.34818e-28,-0.00290465,-1.94404e-05,-6,-78,4.81738e-32,-6,-77.8746,-0.125432,0.524
1.4778,1.47636,0.657411,0.657021,0,-6.23212e-28,-0.00294668,-4.17512e-05,-6,-78,6.89736e-32,-6,-77.8746,-0.125411,0.528
1.4778,1.47636,0.657399,0.657021,0,-4.15475e-28,-0.00298897,9.5678e-07,-6,-77,-1.05374e-33,-6,-77.8746,0.874568,0.532
1.4778,1.47636,0.657387,0.657021,0,-2.76983e-28,-0.00303152,6.37853e-07,-6,-77,-4.6833e-34,-6,-77.8746,0.874568,0.536
1.4778,1.47636,0.657375,0.657021,0,-1.84655e-28,-0.00307433,4.25235e-07,-6,-77,-2.08147e-34,-6,-77.8746,0.874568,0.54
1.4778,1.47636,0.657362,0.657021,0,-1.23104e-28,-0.00311741,2.90744e-05,-6,-77,-9.48768e-33,-6,-77.8745,0.874547,0.544
1.4778,1.47636,0.65735,0.657021,0,-8.20691e-29,-0.00316075,-9.40798e-06,-6,-77,2.0467e-33,-6,-77.8746,0.874568,0.548
1.4778,1.47636,0.657337,0.657022,0,-5.47127e-29,-0.00320434,5.13099e-05,-6,-77,-7.44162e-33,-6,-77.8745,0.874526,0.552
1.4778,1.47636,0.657324,0.657021,0,-3.64751e-29,-0.0032482,-5.21662e-05,-6,-77,5.04387e-33,-6,-77.8746,0.874589,0.556
1.4778,1.47636,0.657311,0.657021,0,-2.43168e-29,-0.00329231,-3.47775e-05,-6,-77,2.24172e-33,-6,-77.8746,0.874589,0.56
1.4778,1.47636,0.657298,0.657021,0,-1.62112e-29,-0.00333669,5.60595e-06,-6,-76,-2.40903e-34,-6,-77.8746,1.87457,0.564
1.4778,1.47636,0.657284,0.657021,0,-1.08074e-29,-0.00338131,-2.50536e-05,-6,-76,7.17748e-34,-6,-77.8746,1.87459,0.568
1.4778,1.47636,0.657271,0.657021,0,-7.20496e-30,-0.0034262,4.08794e-05,-6,-76,-7.80755e-34,-6,-77.8745,1.87455,0.572
1.4778,1.47636,0.657257,0.657022,0,-4.80331e-30,-0.00347134,5.60439e-05,-6,-76,-7.13587e-34,-6,-77.8745,1.87453,0.576
1.4778,1.47636,0.657243,0.657021,0,-3.20221e-30,-0.00351673,-2.02193e-05,-6,-76,1.7163e-34,-6,-77.8746,1.87457,0.58
1.4778,1.47636,0.657229,0.657021,0,-2.1348e-30,-0.00356238,-1.34795e-05,-6,-76,7.62799e-35,-6,-77.8746,1.87457,0.584
1.4778,1.47636,0.657214,0.657021,0,-1.4232e-30,-0.00360828,-3.77773e-05,-6,-76,1.4252e-34,-6,-77.8746,1.87459,0.588
1.4778,1.47636,0.6572,0.657021,0,-9.48802e-31,-0.00365443,-2.51848e-05,-6,-76,6.33422e-35,-6,-77.8746,1.87459,0.592
1.4778,1.47636,0.657185,0.657021,0,-6.32535e-31,-0.00370083,-1.67899e-05,-6,-75,2.81521e-35,-6,-77.8746,2.87459,0.596
1.4778,1.47636,0.65717,0.657021,0,-4.2169e-31,-0.00374748,1.75977e-05,-6,-75,-1.9671e-35,-6,-77.8746,2.87457,0.6
1.4778,1.47636,0.657155,0.657021,0,-2.81127e-31,-0.00379438,1.17318e-05,-6,-75,-8.74266e-36,-6,-77.8746,2.87457,0.604
1.4778,1.47636,0.65714,0.657022,0,-1.87418e-31,-0.00384153,6.5403e-05,-6,-75,-3.24928e-35,-6,-77.8745,2.87453,0.608
1.4778,1.47636,0.657124,0.657022,0,-1.24945e-31,-0.00388893,4.3602e-05,-6,-75,-1.44412e-35,-6,-77.8745,2.87453,0.612
1.4778,1.47636,0.657109,0.657021,0,-8.32967e-32,-0.00393658,-2.85138e-05,-6,-75,6.29596e-36,-6,-77.8746,2.87457,0.616
1.4778,1.47636,0.657093,0.657021,0,-5.55312e-32,-0.00398447,-1.90092e-05,-6,-75,2.7982e-36,-6,-77.8746,2.87457,0.62
1.4778,1.47636,0.657077,0.657021,0,-3.70208e-32,-0.0040326,-1.26728e-05,-6,-74,1.24365e-36,-6,-77.8746,3.87457,0.624
1.4778,1.47636,0.657061,0.657021,0,-2.46805e-32,-0.00408098,-8.44854e-06,-6,-74,5.52732e-37,-6,-77.8746,3.87457,0.628
1.4778,1.47636,0.657044,0.657021,0,-1.64537e-32,-0.00412961,-5.63236e-06,-6,-74,2.45658e-37,-6,-77.8746,3.87457,0.632
1.4778,1.47636,0.657028,0.657021,0,2.87909e-05,-0.00417848,-3.75491e-06,-6,-74,-2.86572e-10,-6,-77.8746,3.87457,0.636
1.4778,1.47636,0.657011,0.657021,0,-9.59697e-06,-0.00422759,2.62877e-05,-6,-74,-6.68751e-10,-6,-77.8745,3.87455,0.64
1.4778,1.47636,0.656994,0.657021,0,-6.39798e-06,-0.00427694,-1.12658e-05,-6,-74,1.91066e-10,-6,-77.8746,3.87457,0.644
1.4778,1.47636,0.656977,0.657021,0,-4.26532e-06,-0.00432653,-3.63015e-05,-6,-74,4.10444e-10,-6,-77.8746,3.87459,0.648
1.4778,1.47636,0.656959,0.657021,0,-2.84355e-06,-0.00437637,4.58994e-06,-6,-73,-3.45976e-11,-6,-77.8746,4.87457,0.652
1.4778,1.47636,0.656942,0.657021,0,-1.8957e-06,-0.00442644,3.05996e-06,-6,-73,-1.53767e-11,-6,-77.8746,4.87457,0.656
1.4778,1.47636,0.656924,0.657021,0,-1.2638e-06,-0.00447675,-2.6751e-05,-6,-73,8.9618e-11,-6,-77.8746,4.87459,0.66
1.4778,1.47636,0.656906,0.657021,0,2.79484e-05,-0.0045273,1.0957e-05,-6,-73,8.11755e-10,-6,-77.8746,4.87457,0.664
1.4778,1.47636,0.656888,0.657022,0,-1.01587e-05,-0.00457808,6.48865e-05,-6,-73,-1.74731e-09,-6,-77.8745,4.87453,0.668
1.4778,1.47636,0.656869,0.657021,0,-6.77244e-06,-0.0046291,-1.43242e-05,-6,-73,2.57154e-10,-6,-77.8746,4.87457,0.672
1.4778,1.47636,0.656851,0.657021,0,-4.51496e-06,-0.00468036,-9.54946e-06,-6,-72,1.14291e-10,-6,-77.8746,5.87457,0.676
1.4778,1.47636,0.656832,0.657021,0,-3.00997e-06,-0.00473185,-6.36631e-06,-6,-72,5.07959e-11,-6,-77.8746,5.87457,0.68
1.4778,1.47636,0.656813,0.657021,0,-2.00665e-06,-0.00478357,-4.2442e-06,-6,-72,2.25759e-11,-6,-77.8746,5.87457,0.684
1.4778,1.47636,0.656793,0.657022,0,-1.33777e-06,-0.00483553,5.47524e-05,-6,-72,-1.94161e-10,-6,-77.8745,5.87453,0.688
1.4778,1.47636,0.656774,0.657021,0,2.78991e-05,-0.00488772,-2.10803e-05,-6,-72,-1.55899e-09,-6,-77.8746,5.87457,0.692
1.4778,1.47636,0.656754,0.657021,0,-1.01915e-05,-0.00494014,-1.40535e-05,-6,-71,3.79667e-10,-6,-77.8746,6.87457,0.696
1.4778,1.47636,0.656735,0.657021,0,-6.79436e-06,-0.00499279,-9.36901e-06,-6,-71,1.68741e-10,-6,-77.8746,6.87457,0.7
1.4778,1.47636,0.656714,0.657021,0,-4.52957e-06,-0.00504567,-6.246e-06,-6,-71,7.49959e-11,-6,-77.8746,6.87457,0.704
1.4778,1.47636,0.656694,0.657021,0,-3.01971e-06,-0.00509878,-4.164e-06,-6,-71,3.33315e-11,-6,-77.8746,6.87457,0.708
1.4778,1.47636,0.656674,0.657021,0,-2.01314e-06,-0.00515211,-2.776e-06,-6,-71,1.4814e-11,-6,-77.8746,6.87457,0.712
1.4778,1.47636,0.656653,0.657021,0,-1.3421e-06,-0.00520568,-1.85067e-06,-6,-71,6.584e-12,-6,-77.8746,6.87457,0.716
1.4778,1.47636,0.656632,0.657021,0,-8.9473e-07,-0.00525947,-1.23378e-06,-6,-70,2.92622e-12,-6,-77.8746,7.87457,0.72
1.4778,1.47636,0.656611,0.657021,0,-5.96487e-07,-0.00531349,-8.22519e-07,-6,-70,1.30054e-12,-6,-77.8746,7.87457,0.724
1.4778,1.47636,0.656589,0.657021,0,-3.97658e-07,-0.00536773,-5.48346e-07,-6,-70,5.78019e-13,-6,-77.8746,7.87457,0.728
1.4778,1.47636,0.656568,0.657021,0,-2.65105e-07,-0.0054222,-3.65564e-07,-6,-70,2.56898e-13,-6,-77.8746,7.87457,0.732
1.4778,1.47636,0.656546,0.657021,0,-1.76737e-07,-0.00547689,-2.43709e-07,-6,-70,1.14177e-13,-6,-77.8746,7.87457,0.736
1.4778,1.47636,0.656524,0.657021,0,-1.17825e-07,-0.0055318,-1.62473e-07,-6,-69,5.07452e-14,-6,-77.8746,8.87457,0.74
1.4778,1.47636,0.656502,0.657021,0,-7.85497e-08,-0.00558694,-1.08315e-07,-6,-69,2.25534e-14,-6,-77.8746,8.87457,0.744
1.4778,1.47636,0.656479,0.657021,0,-5.23665e-08,-0.00564229,-7.22102e-08,-6,-69,1.00237e-14,-6,-77.8746,8.87457,0.748
1.4778,1.47636,0.656457,0.657021,0,-3.4911e-08,-0.00569787,-4.81401e-08,-6,-69,4.455e-15,-6,-77.8746,8.87457,0.752
1.4778,1.47636,0.656434,0.657021,0,-2.3274e-08,-0.00575367,-3.20934e-08,-6,-69,1.98e-15,-6,-77.8746,8.87457,0.756
1.4778,1.47636,0.656411,0.657021,0,-1.5516e-08,-0.00580968,-2.13956e-08,-6,-68,8.79999e-16,-6,-77.8746,9.87457,0.76
1.4778,1.47636,0.656387,0.657021,0,-1.0344e-08,-0.00586591,-1.42637e-08,-6,-68,3.91111e-16,-6,-77.8746,9.87457,0.764
1.4778,1.47636,0.656364,0.657021,0,-6.896e-09,-0.00592237,-9.50916e-09,-6,-68,1.73827e-16,-6,-77.8746,9.87457,0.768
1.4778,1.47636,0.65634,0.657021,0,-4.59733e-09,-0.00597903,-6.33944e-09,-6,-68,7.72565e-17,-6,-77.8746,9.87457,0.772
1.4778,1.47636,0.656316,0.657021,0,-3.06489e-09,-0.00603592,-4.22629e-09,-6,-68,3.43362e-17,-6,-77.8746,9.87457,0.776
1.4778,1.47636,0.656292,0.657021,0,-2.04326e-09,-0.00609301,-2.81753e-09,-6,-67,1.52605e-17,-6,-77.8746,10.8746,0.78
1.4778,1.47636,0.656267,0.657021,0,-1.36217e-09,-0.00615033,-1.87835e-09,-6,-67,6.78246e-18,-6,-77.8746,10.8746,0.784
1.4778,1.47636,0.656242,0.657021,0,-9.08115e-10,-0.00620785,-1.25223e-09,-6,-67,3.01443e-18,-6,-77.8746,10.8746,0.788
1.4778,1.47636,0.656218,0.657021,0,-6.0541e-10,-0.00626559,-8.34823e-10,-6,-67,1.33975e-18,-6,-77.8746,10.8746,0.792
1.4778,1.47636,0.656192,0.657021,0,-4.03607e-10,-0.00632354,-5.56549e-10,-6,-66,5.95442e-19,-6,-77.8746,11.8746,0.796
1.4778,1.47636,0.656167,0.657021,0,-2.69071e-10,-0.00638171,-3.71033e-10,-6,-66,2.64641e-19,-6,-77.8746,11.8746,0.8
1.4778,1.47636,0.656141,0.657021,0,2.87907e-05,-0.00644008,-2.47355e-10,-6,-66,-1.88778e-14,-6,-77.8746,11.8746,0.804
1.4778,1.47636,0.656115,0.657021,0,-9.59709e-06,-0.00649866,-1.64903e-10,-6,-66,4.19515e-15,-6,-77.8746,11.8746,0.808
1.4778,1.47636,0.656089,0.657021,0,-6.39806e-06,-0.00655745,-1.09936e-10,-6,-66,1.86451e-15,-6,-77.8746,11.8746,0.812
1.4778,1.47636,0.656063,0.657021,0,-4.26538e-06,-0.00661645,-7.32904e-11,-6,-65,8.28671e-16,-6,-77.8746,12.8746,0.816
1.4778,1.47636,0.656036,0.657021,0,-2.84358e-06,-0.00667566,-4.88603e-11,-6,-65,3.68298e-16,-6,-77.8746,12.8746,0.82
1.4778,1.47636,0.65601,0.65702,0,-1.89572e-06,-0.00673507,-5.75819e-05,-6,-65,2.8936e-10,-6,-77.8746,12.8746,0.824
1.4778,1.47636,0.655982,0.657021,0,-1.26381e-06,-0.00679469,1.91939e-05,-6,-65,-6.43021e-11,-6,-77.8746,12.8746,0.828
1.4778,1.47636,0.655955,0.657021,0,-8.42543e-07,-0.00685452,1.2796e-05,-6,-64,-2.85787e-11,-6,-77.8746,13.8746,0.832
1.4778,1.47636,0.655928,0.657021,0,-5.61696e-07,-0.00691455,-2.02603e-05,-6,-64,3.01665e-11,-6,-77.8746,13.8746,0.836
1.4778,1.47636,0.6559,0.657021,0,-3.74464e-07,-0.00697478,-1.35069e-05,-6,-64,1.34073e-11,-6,-77.8746,13.8746,0.84
1.4778,1.47636,0.655872,0.657021,0,-2.49642e-07,-0.00703522,1.97864e-05,-6,-64,-1.30937e-11,-6,-77.8746,13.8746,0.844
1.4778,1.47636,0.655844,0.657021,0,-1.66428e-07,-0.00709586,1.31909e-05,-6,-63,-5.81942e-12,-6,-77.8746,14.8746,0.848
1.4778,1.47636,0.655815,0.657021,0,-1.10952e-07,-0.0071567,-1.9997e-05,-6,-63,5.88137e-12,-6,-77.8746,14.8746,0.852
1.4778,1.47636,0.655786,0.657021,0,-7.39681e-08,-0.00721774,1.54596e-05,-6,-63,-3.03124e-12,-6,-77.8746,14.8746,0.856
1.4778,1.47636,0.655757,0.657021,0,-4.93121e-08,-0.00727898,1.03064e-05,-6,-63,-1.34722e-12,-6,-77.8746,14.8746,0.86
1.4778,1.47636,0.655728,0.657021,0,2.8758e-05,-0.00734042,-2.192e-05,-6,-62,-1.67101e-09,-6,-77.8746,15.8746,0.864
1.4778,1.47636,0.655699,0.657021,0,-9.61889e-06,-0.00740206,1.41776e-05,-6,-62,-3.61498e-10,-6,-77.8746,15.8746,0.868
1.4778,1.47636,0.655669,0.657021,0,-6.41259e-06,-0.00746389,-1.93392e-05,-6,-62,3.28738e-10,-6,-77.8746,15.8746,0.872
1.4778,1.47636,0.655639,0.657021,0,5.33068e-05,-0.00752593,-1.28928e-05,-5,-62,-1.82183e-09,-5,-77.8746,15.8746,0.876
1.4778,1.47636,0.655609,0.657021,0,-2.2044e-05,-0.00758815,-8.5952e-06,-6,-61,5.02255e-10,-6,-77.8746,16.8746,0.88
1.4778,1.47636,0.655578,0.657021,0,-1.4696e-05,-0.00765058,-5.73013e-06,-6,-61,2.23224e-10,-6,-77.8746,16.8746,0.884
1.4778,1.47636,0.655547,0.657021,0,-9.79733e-06,-0.0077132,-3.82009e-06,-6,-61,9.92108e-11,-6,-77.8746,16.8746,0.888
1.4778,1.47636,0.655516,0.657021,0,-6.53155e-06,-0.00777601,-2.54673e-06,-6,-61,4.40937e-11,-6,-77.8746,16.8746,0.892
1.4778,1.47636,0.655485,0.657021,0,-4.35437e-06,-0.00783902,-1.69782e-06,-6,-60,1.95972e-11,-6,-77.8746,17.8746,0.896
1.4778,1.47636,0.655454,0.657021,0,-2.90291e-06,-0.00790222,-1.13188e-06,-6,-60,8.70987e-12,-6,-77.8746,17.8746,0.9
1.4778,1.47636,0.655422,0.657021,0,-1.93527e-06,-0.00796561,-7.54585e-07,-6,-60,3.87105e-12,-6,-77.8746,17.8746,0.904
1.4778,1.47636,0.65539,0.657021,0,-1.29018e-06,-0.00802919,-5.03057e-07,-6,-60,1.72047e-12,-6,-77.8746,17.8746,0.908
1.4778,1.47636,0.655358,0.657021,0,-8.60122e-07,-0.00809296,-3.35371e-07,-6,-59,7.64652e-13,-6,-77.8746,18.8746,0.912
1.4778,1.47636,0.655325,0.657021,0,-5.73415e-07,-0.00815692,-2.23581e-07,-6,-59,3.39845e-13,-6,-77.8746,18.8746,0.916
1.4778,1.47636,0.655293,0.657021,0,-3.82277e-07,-0.00822107,-1.49054e-07,-6,-59,1.51042e-13,-6,-77.8746,18.8746,0.92
1.4778,1.47636,0.65526,0.657021,0,-2.54851e-07,-0.00828541,-9.93692e-08,-6,-58,6.713e-14,-6,-77.8746,19.8746,0.924
1.4778,1.47636,0.655226,0.657021,0,-1.69901e-07,-0.00834994,-6.62462e-08,-6,-58,2.98355e-14,-6,-77.8746,19.8746,0.928
1.4778,1.47636,0.655193,0.65702,0,-1.13267e-07,-0.00841465,-5.7626e-05,-6,-58,1.73022e-11,-6,-77.8746,19.8746,0.932
1.4778,1.47636,0.655159,0.65702,0,-7.55114e-08,-0.00847955,-9.62642e-06,-6,-58,1.92688e-12,-6,-77.8746,19.8746,0.936
1.4778,1.47636,0.655125,0.65702,0,-5.03409e-08,-0.00854463,-3.52085e-05,-6,-57,4.69837e-12,-6,-77.8746,20.8746,0.94
1.4778,1.47636,0.655091,0.65702,0,-3.35606e-08,-0.0086099,5.31857e-06,-6,-57,-4.73154e-13,-6,-77.8746,20.8746,0.944
1.4778,1.47636,0.655056,0.65702,0,-2.23738e-08,-0.00867535,3.54571e-06,-6,-57,-2.10291e-13,-6,-77.8746,20.8746,0.948
1.4778,1.47636,0.655021,0.65702,0,-1.49158e-08,-0.00874098,2.36381e-06,-6,-56,-9.34626e-14,-6,-77.8746,21.8746,0.952
1.4778,1.47636,0.654986,0.65702,0,-9.94389e-09,-0.0088068,1.57587e-06,-6,-56,-4.15389e-14,-6,-77.8746,21.8746,0.956
1.4778,1.47636,0.654951,0.65702,0,2.87843e-05,-0.0088728,-5.65313e-05,-6,-56,-4.31342e-09,-6,-77.8747,21.8747,0.96
1.4778,1.47636,0.654915,0.65702,0,-9.60139e-06,-0.00893897,-3.76875e-05,-6,-56,9.59201e-10,-6,-77.8747,21.8747,0.964
1.4778,1.47636,0.654879,0.65702,0,-6.40093e-06,-0.00900533,3.66592e-06,-6,-55,-6.22019e-11,-6,-77.8746,22.8746,0.968
1.4778,1.47636,0.654843,0.65702,0,-4.26729e-06,-0.00907187,2.44394e-06,-6,-55,-2.76453e-11,-6,-77.8746,22.8746,0.972
1.4778,1.47636,0.654807,0.65702,0,-2.84486e-06,-0.00913858,1.6293e-06,-6,-55,-1.22868e-11,-6,-77.8746,22.8746,0.976
1.4778,1.47636,0.65477,0.65702,0,-3.06875e-05,-0.00920548,2.98771e-05,-6,-54,-2.4304e-09,-6,-77.8746,23.8746,0.98
1.4778,1.47636,0.654733,0.65702,0,3.71235e-05,-0.00927255,-3.76638e-05,-6,-54,-3.70639e-09,-6,-77.8747,23.8747,0.984
1.4778,1.47636,0.654696,0.65702,0,-4.04191e-06,-0.0093398,-2.51092e-05,-6,-54,2.69028e-10,-6,-77.8747,23.8747,0.988
1.4778,1.47636,0.654658,0.65702,0,-2.69461e-06,-0.00940722,-1.67395e-05,-6,-53,1.19568e-10,-6,-77.8747,24.8747,0.992
1.4778,1.47636,0.654621,0.65702,0,-1.79641e-06,-0.00947482,-1.11596e-05,-6,-53,5.31413e-11,-6,-77.8747,24.8747,0.996
1.4778,1.47636,0.654582,0.65702,0,-1.1976e-06,-0.00954259,-7.43976e-06,-6,-53,2.36184e-11,-6,-77.8747,24.8747,1
1.4778,1.47636,0.654544,0.65702,0,-7.98402e-07,-0.00961053,-4.95984e-06,-6,-52,1.0497e-11,-6,-77.8747,25.8747,1.004
1.4778,1.47636,0.654506,0.65702,0,-5.32268e-07,-0.00967865,-3.30656e-06,-6,-52,4.66535e-12,-6,-77.8747,25.8747,1.008
1.4778,1.47636,0.654467,0.657019,0,-3.54846e-07,-0.00974694,-5.97862e-05,-6,-52,5.62365e-11,-6,-77.8747,25.8747,1.012
1.4778,1.47636,0.654428,0.657019,0,-2.36564e-07,-0.0098154,-1.10666e-05,-6,-52,6.93966e-12,-6,-77.8747,25.8747,1.016
1.4778,1.47636,0.654388,0.657019,0,-1.57709e-07,-0.00988403,-7.3777e-06,-6,-51,3.08429e-12,-6,-77.8747,26.8747,1.02
1.4778,1.47636,0.654349,0.657019,0,2.86858e-05,-0.00995283,-4.91847e-06,-6,-51,-3.74002e-10,-6,-77.8747,26.8747,1.024
1.4778,1.47636,0.654309,0.657019,0,-9.66707e-06,-0.0100218,-3.27898e-06,-6,-51,8.40255e-11,-6,-77.8747,26.8747,1.028
1.4778,1.47636,0.654268,0.657019,0,-6.44471e-06,-0.0100909,-2.18599e-06,-6,-50,3.73447e-11,-6,-77.8747,27.8747,1.032
1.4778,1.47636,0.654228,0.657019,0,-4.29647e-06,-0.0101602,-3.02482e-05,-6,-50,3.44501e-10,-6,-77.8747,27.8747,1.036
1.4778,1.47636,0.654187,0.657019,0,-2.86432e-06,-0.0102297,-2.01655e-05,-6,-50,1.53111e-10,-6,-77.8747,27.8747,1.04
1.4778,1.47636,0.654146,0.657019,0,-1.90954e-06,-0.0102994,-4.22346e-05,-6,-49,2.13784e-10,-6,-77.8747,28.8747,1.044
1.4778,1.47636,0.654105,0.657019,0,-1.27303e-06,-0.0103692,-2.81564e-05,-6,-49,9.50152e-11,-6,-77.8747,28.8747,1.048
1.4778,1.47636,0.654063,0.657018,0,-8.48686e-07,-0.0104391,-4.75619e-05,-6,-49,1.07e-10,-6,-77.8747,28.8747,1.052
1.4778,1.47636,0.654021,0.657018,0,-5.65791e-07,-0.0105093,-6.04988e-05,-6,-48,9.07361e-11,-6,-77.8748,29.8748,1.056
1.4778,1.47636,0.653979,0.657018,0,-3.77194e-07,-0.0105796,-4.03326e-05,-6,-48,4.03272e-11,-6,-77.8748,29.8748,1.06
1.4778,1.47636,0.653937,0.657018,0,-2.51463e-07,-0.01065,-5.56793e-05,-6,-48,3.71146e-11,-6,-77.8748,29.8748,1.064
1.4778,1.47636,0.653894,0.657017,0,-1.67642e-07,-0.0107206,-6.59105e-05,-6,-47,2.92896e-11,-6,-77.8748,30.8748,1.068
1.4778,1.47636,0.653851,0.657017,0,-2.89027e-05,-0.0107914,-7.27312e-05,-6,-47,5.57232e-09,-6,-77.8748,30.8748,1.072
1.4778,1.47636,0.653807,0.657017,0,9.52247e-06,-0.0108624,-7.72784e-05,-6,-46,-1.95067e-09,-6,-77.8748,31.8748,1.076
1.4778,1.47636,0.653764,0.657016,0,6.34831e-06,-0.0109335,-8.03099e-05,-6,-46,-1.35146e-09,-6,-77.8749,31.8749,1.08
1.4778,1.47636,0.65372,0.657016,0,-2.45587e-05,-0.0110047,-0.000111122,-6,-46,7.23405e-09,-6,-77.8749,31.8749,1.084
1.4778,1.47636,0.653676,0.657014,0,1.24184e-05,-0.0110762,-0.000189245,-6,-46,-6.22971e-09,-6,-77.875,31.875,1.088
1.4778,1.47636,0.653631,0.657014,0,8.27896e-06,-0.0111477,-0.000183745,-6,-45,-4.03244e-09,-6,-77.875,32.875,1.092
1.4778,1.47636,0.653587,0.657012,0,5.51931e-06,-0.0112195,-0.000266451,-6,-45,-3.89833e-09,-6,-77.8751,32.8751,1.096
1.4778,1.47636,0.653542,0.65701,0,3.67954e-06,-0.0112914,-0.00035038,-6,-45,-3.4175e-09,-6,-77.8753,32.8753,1.1
1.4778,1.47636,0.653496,0.657008,0,2.45303e-06,-0.0113634,-0.000377541,-6,-44,-2.45494e-09,-6,-77.8754,33.8754,1.104
1.4778,1.47636,0.653451,0.657006,0,5.92172e-05,-0.0114356,-0.00042444,-5,-44,-6.66252e-08,-5,-77.8755,33.8755,1.108
1.4778,1.47636,0.653405,0.657005,0,-1.81037e-05,-0.011508,-0.000369333,-6,-44,1.77239e-08,-6,-77.8755,33.8755,1.112
1.4778,1.47636,0.653359,0.657004,0,-1.20691e-05,-0.0115805,-0.000332594,-6,-43,1.06406e-08,-6,-77.8756,34.8756,1.116
1.4778,1.47636,0.653312,0.657003,0,-8.0461e-06,-0.0116531,-0.000279311,-6,-43,5.95728e-09,-6,-77.8756,34.8756,1.12
1.4778,1.47636,0.653265,0.657002,0,-5.36406e-06,-0.011726,-0.00024379,-6,-42,3.46643e-09,-6,-77.8757,35.8757,1.124
1.4778,1.47636,0.653218,0.657002,0,-3.57604e-06,-0.0117989,-0.000191317,-6,-42,1.81355e-09,-6,-77.8757,35.8757,1.128
1.4778,1.47636,0.653171,0.657001,0,-2.38403e-06,-0.011872,-0.000185127,-6,-41,1.16991e-09,-6,-77.8758,36.8758,1.132
1.4778,1.47636,0.653123,0.657001,0,-1.58935e-06,-0.0119453,-0.000181,-6,-41,7.62555e-10,-6,-77.8758,36.8758,1.136
1.4778,1.47636,0.653076,0.657,0,-1.05957e-06,-0.0120187,-0.000178248,-6,-41,5.00642e-10,-6,-77.8758,36.8758,1.14
1.4778,1.47636,0.653027,0.657,0,-7.06379e-07,-0.0120923,-0.000147623,-6,-40,2.76417e-10,-6,-77.8759,37.8759,1.144
1.4778,1.47636,0.652979,0.656999,0,-4.70919e-07,-0.012166,-0.000127206,-6,-40,1.58792e-10,-6,-77.8759,37.8759,1.148
1.4778,1.47636,0.65293,0.656999,0,-3.13946e-07,-0.0122399,-0.000113595,-6,-39,9.4534e-11,-6,-77.8759,38.8759,1.152
1.4778,1.47636,0.652881,0.656999,0,-2.09297e-07,-0.0123139,-0.000104521,-6,-39,5.79883e-11,-6,-77.8759,38.8759,1.156
1.4778,1.47636,0.652831,0.656998,0,-1.39532e-07,-0.012388,-9.84716e-05,-6,-39,3.64214e-11,-6,-77.8759,38.8759,1.16
1.4778,1.47636,0.652782,0.656998,0,-2.88839e-05,-0.0124623,-9.44387e-05,-6,-38,7.23068e-09,-6,-77.876,39.876,1.164
1.4778,1.47636,0.652732,0.656998,0,9.53496e-06,-0.0125367,-9.175e-05,-6,-38,-2.31898e-09,-6,-77.876,39.876,1.168
1.4778,1.47636,0.652681,0.656998,0,6.35664e-06,-0.0126113,-6.11667e-05,-6,-37,-1.03066e-09,-6,-77.876,40.876,1.172
1.4778,1.47636,0.652631,0.656997,0,4.23776e-06,-0.0126861,-6.95687e-05,-6,-37,-7.81489e-10,-6,-77.876,40.876,1.176
1.4778,1.47636,0.65258,0.656997,0,2.82517e-06,-0.0127609,-7.51701e-05,-6,-37,-5.62941e-10,-6,-77.876,40.876,1.18
1.4778,1.47636,0.652529,0.656997,0,5.94653e-05,-0.0128359,-7.89043e-05,-5,-36,-1.24376e-08,-5,-77.876,41.876,1.184
1.4778,1.47636,0.652477,0.656996,0,-1.79383e-05,-0.0129111,-8.13938e-05,-6,-36,3.87031e-09,-6,-77.8761,41.8761,1.188
1.4778,1.47636,0.652425,0.656996,0,-1.19589e-05,-0.0129864,-8.30535e-05,-6,-35,2.63282e-09,-6,-77.8761,42.8761,1.192
1.4778,1.47636,0.652373,0.656995,0,-7.97259e-06,-0.0130618,-0.000112951,-6,-35,2.38705e-09,-6,-77.8761,42.8761,1.196
1.4778,1.47636,0.652321,0.656995,0,-3.4106e-05,-0.0131374,-0.000104091,-6,-35,9.41061e-09,-6,-77.8761,42.8761,1.2
1.4778,1.47636,0.652268,0.656994,0,6.0536e-06,-0.0132131,-0.000155767,-6,-34,-2.49955e-09,-6,-77.8762,43.8762,1.204
1.4778,1.47636,0.652215,0.656993,0,4.03574e-06,-0.0132889,-0.000190217,-6,-34,-2.03491e-09,-6,-77.8763,43.8763,1.208
1.4778,1.47636,0.652162,0.656992,0,2.69049e-06,-0.0133649,-0.000213184,-6,-33,-1.5204e-09,-6,-77.8763,44.8763,1.212
1.4778,1.47636,0.652108,0.656989,0,1.79366e-06,-0.013441,-0.000343659,-6,-33,-1.63395e-09,-6,-77.8765,44.8765,1.216
1.4778,1.47636,0.652054,0.656987,0,1.19577e-06,-0.0135173,-0.000430643,-6,-33,-1.36501e-09,-6,-77.8766,44.8766,1.22
1.4778,1.47636,0.652,0.656983,0,5.8379e-05,-0.0135937,-0.000575004,-5,-32,-8.89811e-08,-5,-77.8768,45.8768,1.224
1.4778,1.47636,0.651946,0.65698,0,-1.86625e-05,-0.0136702,-0.000700036,-6,-32,3.46305e-08,-6,-77.8771,45.8771,1.228
1.4778,1.47636,0.651891,0.656976,0,-1.24417e-05,-0.0137469,-0.000812182,-6,-32,2.67855e-08,-6,-77.8773,45.8773,1.232
1.4778,1.47636,0.651836,0.656971,0,-8.29444e-06,-0.0138237,-0.000886946,-6,-32,1.95007e-08,-6,-77.8776,45.8776,1.236
1.4778,1.47636,0.65178,0.656968,0,-5.52963e-06,-0.0139006,-0.000879206,-6,-31,1.2887e-08,-6,-77.8778,46.8778,1.24
1.4778,1.47636,0.651725,0.656964,0,-3.68642e-06,-0.0139776,-0.000902838,-6,-31,8.82225e-09,-6,-77.878,46.878,1.244
1.4778,1.47636,0.651668,0.656961,0,5.51242e-05,-0.0140548,-0.00086101,-5,-30,-1.2581e-07,-5,-77.8782,47.8782,1.248
1.4778,1.47636,0.651612,0.656958,0,-2.08324e-05,-0.0141321,-0.000833125,-6,-30,4.60058e-08,-6,-77.8784,47.8784,1.252
1.4778,1.47636,0.651555,0.656955,0,-1.38882e-05,-0.0142096,-0.000785744,-6,-29,2.89262e-08,-6,-77.8785,48.8785,1.256
1.4778,1.47636,0.651498,0.656952,0,-9.25883e-06,-0.0142871,-0.000754157,-6,-29,1.85089e-08,-6,-77.8787,48.8787,1.26
1.4778,1.47636,0.651441,0.65695,0,-6.17255e-06,-0.0143648,-0.000733099,-6,-28,1.19947e-08,-6,-77.8789,49.8789,1.264
1.4778,1.47636,0.651383,0.656948,0,-4.11503e-06,-0.0144427,-0.000661478,-6,-28,7.21523e-09,-6,-77.879,49.879,1.268
1.4778,1.47636,0.651326,0.656946,0,-2.74336e-06,-0.0145206,-0.000556149,-6,-27,4.04422e-09,-6,-77.8791,50.8791,1.272
1.4778,1.47636,0.651267,0.656945,0,-1.8289e-06,-0.0145987,-0.000428348,-6,-27,2.07658e-09,-6,-77.8791,50.8791,1.276
1.4778,1.47636,0.651209,0.656945,0,-1.21927e-06,-0.0146769,-0.000314356,-6,-26,1.01597e-09,-6,-77.8791,51.8791,1.28
1.4778,1.47636,0.65115,0.656945,0,-8.12846e-07,-0.0147552,-0.000238362,-6,-26,5.13577e-10,-6,-77.8792,51.8792,1.284
1.4778,1.47636,0.651091,0.656945,0,-5.41897e-07,-0.0148337,-0.000158908,-6,-25,2.28256e-10,-6,-77.8792,52.8792,1.288
1.4778,1.47636,0.651031,0.656945,0,-3.61265e-07,-0.0149122,-0.000105939,-6,-25,1.01447e-10,-6,-77.8792,52.8792,1.292
1.4778,1.47636,0.650971,0.656945,0,5.7341e-05,-0.0149909,-7.06257e-05,-5,-24,-1.07347e-08,-5,-77.8792,53.8792,1.296
1.4778,1.47636,0.650911,0.656944,0,-1.93545e-05,-0.0150698,-7.58747e-05,-6,-24,3.8926e-09,-6,-77.8792,53.8792,1.3
1.4778,1.47636,0.650851,0.656944,0,-1.2903e-05,-0.0151487,-5.05831e-05,-6,-23,1.73005e-09,-6,-77.8792,54.8792,1.304
1.4778,1.47636,0.65079,0.656944,0,-8.60201e-06,-0.0152278,-3.37221e-05,-6,-23,7.68909e-10,-6,-77.8792,54.8792,1.308
1.4778,1.47636,0.650729,0.656944,0,-5.73467e-06,-0.0153069,-5.12723e-05,-6,-22,7.79385e-10,-6,-77.8792,55.8792,1.312
1.4778,1.47636,0.650668,0.656943,0,-3.82311e-06,-0.0153862,-9.17634e-05,-6,-22,9.29923e-10,-6,-77.8792,55.8792,1.316
1.4778,1.47636,0.650606,0.656943,0,-2.54874e-06,-0.0154657,-8.99665e-05,-6,-21,6.07809e-10,-6,-77.8793,56.8793,1.32
1.4778,1.47636,0.650544,0.656943,0,-1.69916e-06,-0.0155452,-5.99777e-05,-6,-21,2.70137e-10,-6,-77.8793,56.8793,1.324
1.4778,1.47636,0.650482,0.656943,0,-1.13277e-06,-0.0156248,-6.8776e-05,-6,-20,2.0651e-10,-6,-77.8793,57.8793,1.328
1.4778,1.47636,0.650419,0.656942,0,-7.55183e-07,-0.0157046,-7.46416e-05,-6,-20,1.49415e-10,-6,-77.8793,57.8793,1.332
1.4778,1.47636,0.650356,0.656942,0,-5.03455e-07,-0.0157845,-7.8552e-05,-6,-19,1.04828e-10,-6,-77.8793,58.8793,1.336
1.4778,1.47636,0.650293,0.656942,0,-3.35637e-07,-0.0158645,-8.11589e-05,-6,-19,7.22048e-11,-6,-77.8793,58.8793,1.34
1.4778,1.47636,0.650229,0.656941,0,-2.23758e-07,-0.0159446,-8.28969e-05,-6,-18,4.91673e-11,-6,-77.8794,59.8794,1.344
1.4778,1.47636,0.650165,0.656941,0,-1.49172e-07,-0.0160248,-8.40555e-05,-6,-18,3.32363e-11,-6,-77.8794,59.8794,1.348
1.4778,1.47636,0.650101,0.65694,0,-9.9448e-08,-0.0161052,-0.000113619,-6,-17,2.99506e-11,-6,-77.8794,60.8794,1.352
1.4778,1.47636,0.650036,0.65694,0,-6.62986e-08,-0.0161856,-0.000104537,-6,-17,1.8371e-11,-6,-77.8794,60.8794,1.356
1.4778,1.47636,0.649971,0.656939,0,-2.88351e-05,-0.0162662,-0.000156064,-6,-16,1.19284e-08,-6,-77.8795,61.8795,1.36
1.4778,1.47636,0.649906,0.656938,0,9.56751e-06,-0.0163469,-0.000161625,-6,-16,-4.09888e-09,-6,-77.8795,61.8795,1.364
1.4778,1.47636,0.649841,0.656937,0,6.37834e-06,-0.0164277,-0.000222913,-6,-15,-3.7688e-09,-6,-77.8796,62.8796,1.368
1.4778,1.47636,0.649775,0.656936,0,4.25223e-06,-0.0165086,-0.000234982,-6,-15,-2.64856e-09,-6,-77.8797,62.8797,1.372
1.4778,1.47636,0.649709,0.656934,0,2.83482e-06,-0.0165896,-0.000271818,-6,-14,-2.0425e-09,-6,-77.8798,63.8798,1.376
1.4778,1.47636,0.649642,0.656933,0,1.88988e-06,-0.0166707,-0.000296376,-6,-14,-1.48469e-09,-6,-77.8799,63.8799,1.38
1.4778,1.47636,0.649575,0.656932,0,1.25992e-06,-0.0167519,-0.000312748,-6,-13,-1.04447e-09,-6,-77.8799,64.8799,1.384
1.4778,1.47636,0.649508,0.65693,0,8.39946e-07,-0.0168333,-0.000352453,-6,-13,-7.84711e-10,-6,-77.88,64.88,1.388
1.4778,1.47636,0.64944,0.656929,0,5.59964e-07,-0.0169147,-0.000350132,-6,-12,-5.19696e-10,-6,-77.8801,65.8801,1.392
1.4778,1.47636,0.649373,0.656926,0,3.73309e-07,-0.0169962,-0.000406167,-6,-12,-4.01911e-10,-6,-77.8803,65.8803,1.396
1.4778,1.47636,0.649305,0.656925,0,2.48873e-07,-0.0170779,-0.000385942,-6,-11,-2.54598e-10,-6,-77.8803,66.8803,1.4
1.4778,1.47636,0.649236,0.656923,0,1.65915e-07,-0.0171596,-0.00043004,-6,-11,-1.89126e-10,-6,-77.8805,66.8805,1.404
1.4778,1.47636,0.649167,0.656921,0,1.1061e-07,-0.0172415,-0.000430648,-6,-10,-1.26262e-10,-6,-77.8806,67.8806,1.408
1.4778,1.47636,0.649098,0.65692,0,7.37401e-08,-0.0173235,-0.000402262,-6,-10,-7.86264e-11,-6,-77.8806,67.8806,1.412
1.4778,1.47636,0.649029,0.656918,0,4.91601e-08,-0.0174055,-0.00044092,-6,-9,-5.74549e-11,-6,-77.8808,68.8808,1.416
1.4778,1.47636,0.648959,0.656916,0,3.27734e-08,-0.0174877,-0.000437902,-6,-9,-3.8041e-11,-6,-77.8809,68.8809,1.42
1.4778,1.47636,0.648889,0.656914,0,-2.87691e-05,-0.01757,-0.000435889,-6,-8,3.32396e-08,-6,-77.881,69.881,1.424
1.4778,1.47636,0.648818,0.656913,0,9.61154e-06,-0.0176523,-0.000434547,-6,-8,-1.10709e-08,-6,-77.8811,69.8811,1.428
1.4778,1.47636,0.648748,0.656911,0,6.40769e-06,-0.0177348,-0.000433653,-6,-7,-7.36541e-09,-6,-77.8812,70.8812,1.432
1.4778,1.47636,0.648676,0.656909,0,4.2718e-06,-0.0178174,-0.000433057,-6,-7,-4.90352e-09,-6,-77.8813,70.8813,1.436
1.4778,1.47636,0.648605,0.656907,0,2.84786e-06,-0.0179,-0.000432659,-6,-6,-3.26601e-09,-6,-77.8814,71.8814,1.44
1.4778,1.47636,0.648533,0.656905,0,1.89858e-06,-0.0179828,-0.000461185,-6,-6,-2.32089e-09,-6,-77.8815,71.8815,1.444
1.4778,1.47636,0.648461,0.656903,0,1.26572e-06,-0.0180657,-0.000508993,-6,-5,-1.70765e-09,-6,-77.8817,72.8817,1.448
1.4778,1.47636,0.648389,0.6569,0,8.43812e-07,-0.0181486,-0.000569656,-6,-5,-1.27412e-09,-6,-77.8818,72.8818,1.452
1.4778,1.47636,0.648316,0.656897,0,5.62541e-07,-0.0182317,-0.00066768,-6,-4,-9.95571e-10,-6,-77.882,73.882,1.456
1.4778,1.47636,0.648243,0.656892,0,3.75027e-07,-0.0183148,-0.000876984,-6,-4,-8.71772e-10,-6,-77.8823,73.8823,1.46
1.4778,1.47636,0.648169,0.656885,0,2.50018e-07,-0.0183981,-0.00113168,-6,-3,-7.4997e-10,-6,-77.8827,74.8827,1.464
1.4778,1.47636,0.648096,0.656876,0,1.66679e-07,-0.0184814,-0.00147423,-6,-3,-6.51314e-10,-6,-77.8833,74.8833,1.468
1.4778,1.47636,0.648022,0.656866,0,1.11119e-07,-0.0185648,-0.00181776,-6,-3,-5.35387e-10,-6,-77.8839,74.8839,1.472
1.4778,1.47636,0.647947,0.656855,0,7.40795e-08,-0.0186484,-0.00219073,-6,-3,-4.30157e-10,-6,-77.8846,74.8846,1.476
1.4778,1.47636,0.647872,0.656842,0,4.93863e-08,-0.018732,-0.00252575,-6,-3,-3.30624e-10,-6,-77.8853,74.8853,1.48
1.4778,1.47636,0.647797,0.656827,0,3.29242e-08,-0.0188157,-0.00292184,-6,-2,-2.5498e-10,-6,-77.8862,75.8862,1.484
1.4778,1.47636,0.647722,0.656812,0,2.19495e-08,-0.0188995,-0.00315711,-6,-2,-1.83673e-10,-6,-77.8871,75.8871,1.488
1.4778,1.47636,0.647646,0.656799,0,1.4633e-08,-0.0189834,-0.00325638,-6,-2,-1.26298e-10,-6,-77.8879,75.8879,1.492
1.4778,1.47636,0.64757,0.656785,0,9.75532e-09,-0.0190674,-0.00326498,-6,-1,-8.44201e-11,-6,-77.8887,76.8887,1.496
1.4778,1.47636,0.647494,0.656773,0,6.50355e-09,-0.0191514,-0.00324191,-6,-1,-5.58822e-11,-6,-77.8895,76.8895,1.5
1.4778,1.47636,0.647417,0.656759,0,4.3357e-09,-0.0192356,-0.00328412,-6,0,-3.77396e-11,-6,-77.8903,77.8903,1.504
1.4778,1.47636,0.64734,0.656746,0,2.89047e-09,-0.0193199,-0.00331226,-6,0,-2.53751e-11,-6,-77.8911,77.8911,1.508
1.4778,1.47636,0.647262,0.656733,0,1.92698e-09,-0.0194042,-0.00324465,-6,0,-1.65713e-11,-6,-77.8919,77.8919,1.512
1.4778,1.47636,0.647184,0.656721,0,1.28465e-09,-0.0194886,-0.00319957,-6,0,-1.0894e-11,-6,-77.8926,77.8926,1.516
1.4778,1.47636,0.647106,0.65671,0,8.56434e-10,-0.0195731,-0.00302557,-6,1,-6.86765e-12,-6,-77.8932,78.8932,1.52
1.4778,1.47636,0.647028,0.6567,0,5.70956e-10,-0.0196577,-0.00282319,-6,2,-4.27216e-12,-6,-77.8938,79.8938,1.524
1.4778,1.47636,0.646949,0.656691,0,3.80637e-10,-0.0197424,-0.00265948,-6,2,-2.68294e-12,-6,-77.8944,79.8944,1.528
1.4778,1.47636,0.64687,0.656683,0,-2.87907e-05,-0.0198272,-0.00246397,-6,3,1.88013e-07,-6,-77.8949,80.8949,1.532
1.4778,1.47636,0.64679,0.656676,0,9.59714e-06,-0.019912,-0.00218967,-6,4,-5.56956e-08,-6,-77.8953,81.8953,1.536
1.4778,1.47636,0.646711,0.656671,0,-2.23928e-05,-0.0199969,-0.00189165,-6,5,1.12266e-07,-6,-77.8956,82.8956,1.54
1.4778,1.47636,0.64663,0.656667,0,1.38624e-05,-0.0200819,-0.00160659,-6,6,-5.90255e-08,-6,-77.8958,83.8958,1.544
1.4778,1.47636,0.64655,0.656664,0,9.24158e-06,-0.020167,-0.00130139,-6,6,-3.18749e-08,-6,-77.896,83.896,1.548
1.4778,1.47636,0.646469,0.656662,0,6.16105e-06,-0.0202522,-0.00106913,-6,7,-1.74574e-08,-6,-77.8961,84.8961,1.552
1.4778,1.47636,0.646388,0.65666,0,6.16892e-05,-0.0203375,-0.000827915,-5,8,-1.3536e-07,-5,-77.8962,85.8962,1.556
1.4778,1.47636,0.646306,0.65666,0,-1.64557e-05,-0.0204228,-0.000609525,-6,9,2.6583e-08,-6,-77.8963,86.8963,1.56
1.4778,1.47636,0.646225,0.656659,0,-1.09705e-05,-0.0205082,-0.000463932,-6,10,1.34889e-08,-6,-77.8963,87.8963,1.564
1.4778,1.47636,0.646142,0.656659,0,-7.31365e-06,-0.0205937,-0.000338079,-6,10,6.55311e-09,-6,-77.8963,87.8963,1.568
1.4778,1.47636,0.64606,0.656659,0,-4.87576e-06,-0.0206793,-0.000225386,-6,11,2.91249e-09,-6,-77.8963,88.8963,1.572
1.4778,1.47636,0.645977,0.656659,0,-3.25051e-06,-0.0207649,-0.000150257,-6,12,1.29444e-09,-6,-77.8963,89.8963,1.576
1.4778,1.47636,0.645894,0.656659,0,-2.16701e-06,-0.0208506,-0.000100172,-6,12,5.75307e-10,-6,-77.8963,89.8963,1.58
1.4778,1.47636,0.64581,0.656659,0,-1.44467e-06,-0.0209364,-6.6781e-05,-6,13,2.55692e-10,-6,-77.8963,90.8963,1.584
1.4778,1.47636,0.645726,0.656658,0,-9.63114e-07,-0.0210223,-7.33116e-05,-6,14,1.87131e-10,-6,-77.8964,91.8964,1.588
1.4778,1.47636,0.645642,0.656658,0,-2.9433e-05,-0.0211083,-7.76653e-05,-6,14,6.05839e-09,-6,-77.8964,91.8964,1.592
1.4778,1.47636,0.645557,0.656658,0,9.16892e-06,-0.0211943,-8.05678e-05,-6,15,-1.95783e-09,-6,-77.8964,92.8964,1.596
1.4778,1.47636,0.645472,0.656657,0,6.11262e-06,-0.0212804,-8.25028e-05,-6,16,-1.33657e-09,-6,-77.8964,93.8964,1.6
1.4778,1.47636,0.645387,0.656657,0,4.07508e-06,-0.0213666,-0.000112584,-6,16,-1.21592e-09,-6,-77.8965,93.8965,1.604
1.4778,1.47636,0.645301,0.656656,0,2.71672e-06,-0.0214528,-0.000161429,-6,17,-1.1623e-09,-6,-77.8965,94.8965,1.608
1.4778,1.47636,0.645215,0.656654,0,1.81115e-06,-0.0215391,-0.000222783,-6,18,-1.06937e-09,-6,-77.8966,95.8966,1.612
1.4778,1.47636,0.645129,0.656653,0,2.99984e-05,-0.0216255,-0.000263686,-6,18,-2.09642e-08,-6,-77.8967,95.8967,1.616
1.4778,1.47636,0.645042,0.656651,0,-8.79202e-06,-0.021712,-0.000319745,-6,19,7.45051e-09,-6,-77.8968,96.8968,1.62
1.4778,1.47636,0.644955,0.656649,0,-5.86135e-06,-0.0217985,-0.000385909,-6,19,5.99481e-09,-6,-77.8969,96.8969,1.624
1.4778,1.47636,0.644868,0.656647,0,-3.90757e-06,-0.0218851,-0.000458809,-6,20,4.7515e-09,-6,-77.8971,97.8971,1.628
1.4778,1.47636,0.64478,0.656644,0,-2.60504e-06,-0.0219718,-0.0005362,-6,21,3.70198e-09,-6,-77.8972,98.8972,1.632
1.4778,1.47636,0.644692,0.65664,0,-1.7367e-06,-0.0220585,-0.000645376,-6,21,2.97049e-09,-6,-77.8974,98.8974,1.636
1.4778,1.47636,0.644604,0.656637,0,-1.1578e-06,-0.0221453,-0.00071816,-6,22,2.20366e-09,-6,-77.8976,99.8976,1.64
1.4778,1.47636,0.644515,0.656633,0,-7.71865e-07,-0.0222322,-0.000766683,-6,22,1.56836e-09,-6,-77.8978,99.8978,1.644
1.4778,1.47636,0.644426,0.65663,0,-5.14576e-07,-0.0223191,-0.000827822,-6,23,1.12895e-09,-6,-77.8981,100.898,1.648
1.4778,1.47636,0.644337,0.656626,0,-3.43051e-07,-0.0224061,-0.000868581,-6,24,7.89691e-10,-6,-77.8983,101.898,1.652
1.4778,1.47636,0.644247,0.656622,0,-2.28701e-07,-0.0224932,-0.000924545,-6,24,5.6038e-10,-6,-77.8986,101.899,1.656
1.4778,1.47636,0.644157,0.656618,0,-1.52467e-07,-0.0225803,-0.000961855,-6,25,3.88662e-10,-6,-77.8988,102.899,1.66
1.4778,1.47636,0.644066,0.656613,0,-1.01645e-07,-0.0226675,-0.00104431,-6,25,2.81319e-10,-6,-77.8991,102.899,1.664
1.4778,1.47636,0.643975,0.65661,0,-6.77632e-08,-0.0227547,-0.000955325,-6,26,1.71565e-10,-6,-77.8993,103.899,1.668
1.4778,1.47636,0.643884,0.656607,0,-4.51754e-08,-0.0228421,-0.00086721,-6,27,1.03827e-10,-6,-77.8994,104.899,1.672
1.4778,1.47636,0.643793,0.656604,0,-3.0117e-08,-0.0229294,-0.000808468,-6,28,6.45293e-11,-6,-77.8996,105.9,1.676
1.4778,1.47636,0.643701,0.656601,0,-2.0078e-08,-0.0230169,-0.000769306,-6,28,4.09356e-11,-6,-77.8998,105.9,1.68
1.4778,1.47636,0.643608,0.656599,0,-1.33853e-08,-0.0231044,-0.000714407,-6,29,2.53429e-11,-6,-77.8999,106.9,1.684
1.4778,1.47636,0.643516,0.656596,0,-8.92354e-09,-0.0231919,-0.000706599,-6,30,1.67106e-11,-6,-77.9001,107.9,1.688
1.4778,1.47636,0.643423,0.656593,0,-5.94903e-09,-0.0232796,-0.000701393,-6,30,1.10583e-11,-6,-77.9003,107.9,1.692
1.4778,1.47636,0.64333,0.65659,0,-3.96602e-09,-0.0233672,-0.000726714,-6,31,7.63832e-12,-6,-77.9004,108.9,1.696
1.4778,1.47636,0.643236,0.656587,0,-2.64401e-09,-0.023455,-0.000743594,-6,32,5.21049e-12,-6,-77.9006,109.901,1.7
1.4778,1.47636,0.643142,0.656584,0,-1.76268e-09,-0.0235428,-0.000783639,-6,32,3.66072e-12,-6,-77.9008,109.901,1.704
1.4778,1.47636,0.643048,0.65658,0,-1.17512e-09,-0.0236306,-0.000867917,-6,33,2.70294e-12,-6,-77.9011,110.901,1.708
1.4778,1.47636,0.642953,0.656576,0,-7.83411e-10,-0.0237186,-0.000895311,-6,34,1.85883e-12,-6,-77.9013,111.901,1.712
1.4778,1.47636,0.642858,0.656571,0,-5.22274e-10,-0.0238065,-0.000999947,-6,34,1.38405e-12,-6,-77.9016,111.902,1.716
1.4778,1.47636,0.642762,0.656566,0,-3.48183e-10,-0.0238945,-0.00104091,-6,35,9.60497e-13,-6,-77.9019,112.902,1.72
1.4778,1.47636,0.642667,0.656561,0,-2.32122e-10,-0.0239826,-0.00112581,-6,36,6.92553e-13,-6,-77.9022,113.902,1.724
1.4778,1.47636,0.642571,0.656555,0,-1.54748e-10,-0.0240708,-0.00126877,-6,36,5.20332e-13,-6,-77.9026,113.903,1.728
1.4778,1.47636,0.642474,0.656547,0,-1.03165e-10,-0.0241589,-0.00147925,-6,37,4.04431e-13,-6,-77.903,114.903,1.732
1.4778,1.47636,0.642377,0.656541,0,-6.87768e-11,-0.0242472,-0.00156198,-6,37,2.847e-13,-6,-77.9034,114.903,1.736
1.4778,1.47636,0.64228,0.656533,0,-4.58512e-11,-0.0243355,-0.00167472,-6,38,2.03498e-13,-6,-77.9039,115.904,1.74
1.4778,1.47636,0.642183,0.656525,0,-3.05675e-11,-0.0244238,-0.00180746,-6,39,1.46418e-13,-6,-77.9044,116.904,1.744
1.4778,1.47636,0.642085,0.656516,0,-2.03783e-11,-0.0245122,-0.00192475,-6,39,1.03945e-13,-6,-77.9049,116.905,1.748
1.4778,1.47636,0.641987,0.656506,0,-1.35855e-11,-0.0246007,-0.00214689,-6,40,7.72944e-14,-6,-77.9055,117.906,1.752
1.4778,1.47636,0.641888,0.656494,0,-9.05703e-12,-0.0246891,-0.00238136,-6,40,5.7157e-14,-6,-77.9062,117.906,1.756
1.4778,1.47636,0.641789,0.656481,0,-6.03802e-12,-0.0247777,-0.00271042,-6,40,4.33697e-14,-6,-77.907,117.907,1.76
1.4778,1.47636,0.64169,0.656466,0,-4.02535e-12,-0.0248663,-0.00301617,-6,41,3.21744e-14,-6,-77.9079,118.908,1.764
1.4778,1.47636,0.64159,0.656451,0,-2.68357e-12,-0.0249549,-0.00327758,-6,41,2.33084e-14,-6,-77.9088,118.909,1.768
1.4778,1.47636,0.64149,0.656436,0,-1.78904e-12,-0.0250436,-0.00348064,-6,42,1.65016e-14,-6,-77.9097,119.91,1.772
1.4778,1.47636,0.64139,0.656418,0,-1.1927e-12,-0.0251324,-0.00378877,-6,42,1.19748e-14,-6,-77.9108,119.911,1.776
1.4778,1.47636,0.641289,0.656401,0,-7.9513e-13,-0.0252211,-0.00396539,-6,43,8.35527e-15,-6,-77.9118,120.912,1.78
1.4778,1.47636,0.641188,0.656382,0,-5.30087e-13,-0.02531,-0.00416951,-6,43,5.85686e-15,-6,-77.9129,120.913,1.784
1.4778,1.47636,0.641087,0.656363,0,-3.53391e-13,-0.0253988,-0.00436318,-6,44,4.08589e-15,-6,-77.9141,121.914,1.788
1.4778,1.47636,0.640985,0.656343,0,-2.35594e-13,-0.0254878,-0.00457866,-6,44,2.85842e-15,-6,-77.9153,121.915,1.792
1.4778,1.47636,0.640883,0.656323,0,-1.57063e-13,-0.0255767,-0.00472231,-6,45,1.96538e-15,-6,-77.9165,122.916,1.796
1.4778,1.47636,0.64078,0.656303,0,-1.04709e-13,-0.0256657,-0.00481808,-6,45,1.33681e-15,-6,-77.9177,122.918,1.8
1.4778,1.47636,0.640677,0.656283,0,-6.98057e-14,-0.0257548,-0.00491072,-6,46,9.08333e-16,-6,-77.9189,123.919,1.804
1.4778,1.47636,0.640574,0.656262,0,-4.65371e-14,-0.0258439,-0.00503006,-6,46,6.20265e-16,-6,-77.9202,123.92,1.808
1.4778,1.47636,0.640471,0.656239,0,-3.10248e-14,-0.025933,-0.00522478,-6,47,4.29513e-16,-6,-77.9215,124.922,1.812
1.4778,1.47636,0.640367,0.656215,0,-2.06832e-14,-0.0260222,-0.00546976,-6,47,2.99764e-16,-6,-77.9229,124.923,1.816
1.4778,1.47636,0.640262,0.656193,0,-1.37888e-14,-0.0261114,-0.00554671,-6,48,2.02651e-16,-6,-77.9243,125.924,1.82
1.4778,1.47636,0.640158,0.656171,0,-9.19252e-15,-0.0262007,-0.00554043,-6,48,1.34946e-16,-6,-77.9256,125.926,1.824
1.4778,1.47636,0.640053,0.656147,0,-6.12835e-15,-0.02629,-0.00562261,-6,49,9.12976e-17,-6,-77.927,126.927,1.828
1.4778,1.47636,0.639947,0.656124,0,-4.08556e-15,-0.0263793,-0.00570619,-6,49,6.1769e-17,-6,-77.9284,126.928,1.832
1.4778,1.47636,0.639842,0.656101,0,-2.72371e-15,-0.0264687,-0.00573312,-6,50,4.13732e-17,-6,-77.9298,127.93,1.836
1.4778,1.47636,0.639736,0.656077,0,-1.81581e-15,-0.0265581,-0.00580865,-6,51,2.79452e-17,-6,-77.9313,128.931,1.84
1.4778,1.47636,0.639629,0.656053,0,-1.21054e-15,-0.0266476,-0.00583022,-6,51,1.86991e-17,-6,-77.9327,128.933,1.844
1.4778,1.47636,0.639523,0.656029,0,-8.07025e-16,-0.026737,-0.00595976,-6,52,1.27428e-17,-6,-77.9342,129.934,1.848
1.4778,1.47636,0.639415,0.656002,0,-5.38017e-16,-0.0268266,-0.00621886,-6,52,8.86444e-18,-6,-77.9358,129.936,1.852
1.4778,1.47636,0.639308,0.655975,0,-3.58678e-16,-0.0269161,-0.0063916,-6,53,6.07369e-18,-6,-77.9374,130.937,1.856
1.4778,1.47636,0.6392,0.655947,0,-2.39119e-16,-0.0270057,-0.00656434,-6,53,4.1585e-18,-6,-77.939,130.939,1.86
1.4778,1.47636,0.639092,0.655919,0,-1.59412e-16,-0.0270954,-0.00673708,-6,54,2.84524e-18,-6,-77.9407,131.941,1.864
1.4778,1.47636,0.638983,0.65589,0,-1.06275e-16,-0.027185,-0.00690983,-6,54,1.94544e-18,-6,-77.9425,131.942,1.868
1.4778,1.47636,0.638874,0.65586,0,-7.08499e-17,-0.0272747,-0.00708257,-6,55,1.32936e-18,-6,-77.9443,132.944,1.872
1.4778,1.47636,0.638765,0.655829,0,-4.72333e-17,-0.0273644,-0.00728411,-6,55,9.11443e-19,-6,-77.9461,132.946,1.876
1.4778,1.47636,0.638655,0.655798,0,-3.14889e-17,-0.0274542,-0.00744725,-6,56,6.21228e-19,-6,-77.948,133.948,1.88
1.4778,1.47636,0.638545,0.655766,0,-2.09926e-17,-0.027544,-0.00767118,-6,56,4.26598e-19,-6,-77.9499,133.95,1.884
1.4778,1.47636,0.638435,0.655731,0,-1.3995e-17,-0.0276338,-0.00799321,-6,56,2.96332e-19,-6,-77.952,133.952,1.888
1.4778,1.47636,0.638324,0.655696,0,-9.33003e-18,-0.0277237,-0.00823669,-6,57,2.03568e-19,-6,-77.9541,134.954,1.892
1.4778,1.47636,0.638213,0.655659,0,-6.22002e-18,-0.0278136,-0.00857176,-6,57,1.4123e-19,-6,-77.9563,134.956,1.896
1.4778,1.47636,0.638102,0.655621,0,-4.14668e-18,-0.0279035,-0.0089103,-6,57,9.787e-20,-6,-77.9586,134.959,1.9
1.4778,1.47636,0.63799,0.655581,0,-2.76445e-18,-0.0279934,-0.00925115,-6,58,6.77412e-20,-6,-77.961,135.961,1.904
1.4778,1.47636,0.637878,0.655541,0,-1.84297e-18,-0.0280834,-0.00947839,-6,58,4.62691e-20,-6,-77.9634,135.963,1.908
1.4778,1.47636,0.637765,0.655503,0,-1.22865e-18,-0.0281734,-0.00948593,-6,58,3.087e-20,-6,-77.9656,135.966,1.912
1.4778,1.47636,0.637653,0.655471,0,-8.19097e-19,-0.0282634,-0.0090303,-6,59,1.95912e-20,-6,-77.9676,136.968,1.916
1.4778,1.47636,0.637539,0.655443,0,-5.46065e-19,-0.0283535,-0.00838106,-6,61,1.21216e-20,-6,-77.9693,138.969,1.92
1.4778,1.47636,0.637426,0.655418,0,-3.64043e-19,-0.0284436,-0.00766032,-6,62,7.38601e-21,-6,-77.9708,139.971,1.924
1.4778,1.47636,0.637312,0.655399,0,-2.42696e-19,-0.0285337,-0.00666159,-6,63,4.28199e-21,-6,-77.9719,140.972,1.928
1.4778,1.47636,0.637197,0.655387,0,-1.61797e-19,-0.0286238,-0.00544874,-6,65,2.33491e-21,-6,-77.9726,142.973,1.932
1.4778,1.47636,0.637083,0.655382,0,-1.07865e-19,-0.0287139,-0.00406436,-6,67,1.16111e-21,-6,-77.9729,144.973,1.936
1.4778,1.47636,0.636968,0.655382,0,-7.19098e-20,-0.0288041,-0.00268078,-6,69,5.10565e-22,-6,-77.9729,146.973,1.94
1.4778,1.47636,0.636852,0.655384,0,-4.79399e-20,-0.0288943,-0.00161444,-6,71,2.04985e-22,-6,-77.9728,148.973,1.944
1.4778,1.47636,0.636737,0.655386,0,-3.19599e-20,-0.0289846,-0.00093234,-6,72,7.89192e-23,-6,-77.9727,149.973,1.948
1.4778,1.47636,0.63662,0.655386,0,-2.13066e-20,-0.0290748,-0.00062156,-6,74,3.50752e-23,-6,-77.9727,151.973,1.952
1.4778,1.47636,0.636504,0.655386,0,-1.42044e-20,-0.0291651,-0.000414373,-6,75,1.5589e-23,-6,-77.9727,152.973,1.956
1.4778,1.47636,0.636387,0.655386,0,-9.4696e-21,-0.0292554,-0.000276249,-6,76,6.92843e-24,-6,-77.9727,153.973,1.96
1.4778,1.47636,0.63627,0.655386,0,-6.31307e-21,-0.0293457,-0.000184166,-6,77,3.0793e-24,-6,-77.9727,154.973,1.964
1.4778,1.47636,0.636152,0.655386,0,-4.20871e-21,-0.029436,-0.000122777,-6,77,1.36858e-24,-6,-77.9727,154.973,1.968
1.4778,1.47636,0.636034,0.655386,0,-2.80581e-21,-0.0295263,-8.18515e-05,-6,78,6.08257e-25,-6,-77.9727,155.973,1.972
1.4778,1.47636,0.635916,0.655386,0,-1.87054e-21,-0.0296167,-5.45677e-05,-6,79,2.70337e-25,-6,-77.9727,156.973,1.976
1.4778,1.47636,0.635798,0.655386,0,-1.24703e-21,-0.0297071,-3.63785e-05,-6,80,1.2015e-25,-6,-77.9727,157.973,1.98
1.4778,1.47636,0.635679,0.655386,0,-8.3135e-22,-0.0297975,-2.42523e-05,-6,81,5.33998e-26,-6,-77.9727,158.973,1.984
1.4778,1.47636,0.635559,0.655386,0,-5.54234e-22,-0.0298879,-1.61682e-05,-6,82,2.37333e-26,-6,-77.9727,159.973,1.988
1.4778,1.47636,0.635439,0.655386,0,2.87909e-05,-0.0299784,-1.07788e-05,-6,83,-8.21919e-10,-6,-77.9727,160.973,1.992
1.4778,1.47636,0.635319,0.655386,0,-9.59697e-06,-0.0300688,-7.18587e-06,-6,84,1.82649e-10,-6,-77.9727,161.973,1.996
1.4778,1.47636,0.635199,0.655386,0,-6.39798e-06,-0.0301593,-3.35815e-05,-6,85,5.69044e-10,-6,-77.9727,162.973,2
1.4778,1.47636,0.635078,0.655386,0,-4.26532e-06,-0.0302498,6.40326e-06,-6,86,-7.23362e-11,-6,-77.9727,163.973,2.004
1.4778,1.47636,0.634957,0.655385,0,-2.84355e-06,-0.0303403,-5.3313e-05,-6,86,4.0151e-10,-6,-77.9727,163.973,2.008
1.4778,1.47636,0.634835,0.655386,0,-1.8957e-06,-0.0304308,-6.75108e-06,-6,87,3.38958e-11,-6,-77.9727,164.973,2.012
1.4778,1.47636,0.634713,0.655386,0,-1.2638e-06,-0.0305213,-4.50072e-06,-6,88,1.50648e-11,-6,-77.9727,165.973,2.016
1.4778,1.47636,0.634591,0.655386,0,-8.42533e-07,-0.0306119,-3.00048e-06,-6,89,6.69546e-12,-6,-77.9727,166.973,2.02
1.4778,1.47636,0.634469,0.655386,0,-5.61689e-07,-0.0307024,-2.00032e-06,-6,90,2.97576e-12,-6,-77.9727,167.973,2.024
1.4778,1.47636,0.634346,0.655386,0,-3.74459e-07,-0.030793,-1.33355e-06,-6,91,1.32256e-12,-6,-77.9727,168.973,2.028
1.4778,1.47636,0.634222,0.655386,0,-2.49639e-07,-0.0308835,-8.89032e-07,-6,92,5.87804e-13,-6,-77.9727,169.973,2.032
1.4778,1.47636,0.634098,0.655386,0,-1.66426e-07,-0.0309741,-5.92688e-07,-6,93,2.61246e-13,-6,-77.9727,170.973,2.036
1.4778,1.47636,0.633974,0.655386,0,-1.10951e-07,-0.0310647,-3.95125e-07,-6,94,1.1611e-13,-6,-77.9727,171.973,2.04
1.4778,1.47636,0.63385,0.655386,0,2.8717e-05,-0.0311553,-2.63417e-07,-6,95,-2.00348e-11,-6,-77.9727,172.973,2.044
1.4778,1.47636,0.633725,0.655386,0,-9.64629e-06,-0.031246,-1.75611e-07,-6,96,4.48658e-12,-6,-77.9727,173.973,2.048
1.4778,1.47636,0.6336,0.655385,0,-6.43086e-06,-0.0313366,-5.76989e-05,-6,97,9.82741e-10,-6,-77.9727,174.973,2.052
1.4778,1.47636,0.633474,0.655385,0,-4.28724e-06,-0.0314272,-9.67502e-06,-6,98,1.09858e-10,-6,-77.9727,175.973,2.056
1.4778,1.47636,0.633349,0.655386,0,-2.85816e-06,-0.0315179,5.11318e-05,-6,99,-3.87062e-10,-6,-77.9727,176.973,2.06
1.4778,1.47636,0.633222,0.655385,0,-1.90544e-06,-0.0316085,-2.3494e-05,-6,99,1.18564e-10,-6,-77.9727,176.973,2.064
1.4778,1.47636,0.633096,0.655385,0,-1.27029e-06,-0.0316992,-1.56626e-05,-6,100,5.26952e-11,-6,-77.9727,177.973,2.068
1.4778,1.47636,0.632969,0.655385,0,-8.46862e-07,-0.0317898,-1.04418e-05,-6,101,2.34201e-11,-6,-77.9727,178.973,2.072
1.4778,1.47636,0.632841,0.655385,0,-5.64575e-07,-0.0318805,-6.96117e-06,-6,102,1.04089e-11,-6,-77.9727,179.973,2.076
1.4778,1.47636,0.632714,0.655385,0,-3.76383e-07,-0.0319711,-4.64078e-06,-6,103,4.62619e-12,-6,-77.9727,180.973,2.08
1.4778,1.47636,0.632586,0.655385,0,-2.50922e-07,-0.0320618,-3.09385e-06,-6,104,2.05609e-12,-6,-77.9727,181.973,2.084
1.4778,1.47636,0.632457,0.655385,0,-1.67281e-07,-0.0321525,-3.08535e-05,-6,105,1.36696e-11,-6,-77.9727,182.973,2.088
1.4778,1.47636,0.632328,0.655385,0,-1.11521e-07,-0.0322432,-2.0569e-05,-6,106,6.07536e-12,-6,-77.9727,183.973,2.092
1.4778,1.47636,0.632199,0.655385,0,-7.43473e-08,-0.0323339,-1.37127e-05,-6,107,2.70016e-12,-6,-77.9727,184.973,2.096
1.4778,1.47636,0.63207,0.655385,0,-4.95648e-08,-0.0324245,-9.14178e-06,-6,108,1.20007e-12,-6,-77.9727,185.973,2.1
1.4778,1.47636,0.63194,0.655385,0,-3.30432e-08,-0.0325152,-6.09452e-06,-6,109,5.33365e-13,-6,-77.9727,186.973,2.104
1.4778,1.47636,0.63181,0.655384,0,-2.20288e-08,-0.0326059,-6.16449e-05,-6,110,3.59659e-12,-6,-77.9728,187.973,2.108
1.4778,1.47636,0.631679,0.655385,0,-1.46859e-08,-0.0326966,-1.23056e-05,-6,111,4.78638e-13,-6,-77.9728,188.973,2.112
1.4778,1.47636,0.631548,0.655385,0,-9.79059e-09,-0.0327873,-8.20377e-06,-6,112,2.12728e-13,-6,-77.9728,189.973,2.116
1.4778,1.47636,0.631417,0.655385,0,-6.52706e-09,-0.032878,-5.46918e-06,-6,113,9.45457e-14,-6,-77.9728,190.973,2.12
1.4778,1.47636,0.631285,0.655385,0,-4.35137e-09,-0.0329687,2.51448e-05,-6,114,-2.89786e-13,-6,-77.9727,191.973,2.124
1.4778,1.47636,0.631153,0.655384,0,-2.90091e-09,-0.0330594,-4.08186e-05,-6,115,3.13614e-13,-6,-77.9728,192.973,2.128
1.4778,1.47636,0.631021,0.655384,0,-1.93394e-09,-0.0331501,-2.72124e-05,-6,116,1.39384e-13,-6,-77.9728,193.973,2.132
1.4778,1.47636,0.630888,0.655383,0,-1.2893e-09,-0.0332407,-7.57235e-05,-6,117,2.58574e-13,-6,-77.9728,194.973,2.136
1.4778,1.47636,0.630755,0.655384,0,-8.5953e-10,-0.0333314,-2.16914e-05,-6,118,4.938e-14,-6,-77.9728,195.973,2.14
1.4778,1.47636,0.630621,0.655383,0,-5.7302e-10,-0.0334221,-4.32519e-05,-6,119,6.56412e-14,-6,-77.9728,196.973,2.144
1.4778,1.47636,0.630487,0.655383,0,-3.82013e-10,-0.0335128,-2.88346e-05,-6,120,2.91739e-14,-6,-77.9728,197.973,2.148
1.4778,1.47636,0.630353,0.655383,0,-2.54676e-10,-0.0336034,-1.9223e-05,-6,121,1.29662e-14,-6,-77.9728,198.973,2.152
1.4778,1.47636,0.630218,0.655383,0,-1.69784e-10,-0.0336941,-4.16063e-05,-6,122,1.87093e-14,-6,-77.9729,199.973,2.156
1.4778,1.47636,0.630083,0.655383,0,-1.13189e-10,-0.0337848,-2.77375e-05,-6,123,8.31524e-15,-6,-77.9729,200.973,2.16
1.4778,1.47636,0.629948,0.655383,0,-7.54595e-11,-0.0338754,-1.84917e-05,-6,124,3.69566e-15,-6,-77.9729,201.973,2.164
1.4778,1.47636,0.629812,0.655382,0,-5.03063e-11,-0.0339661,-6.99096e-05,-6,125,9.31454e-15,-6,-77.9729,202.973,2.168
1.4778,1.47636,0.629676,0.655383,0,-3.35375e-11,-0.0340567,-1.78155e-05,-6,126,1.58245e-15,-6,-77.9729,203.973,2.172
1.4778,1.47636,0.62954,0.655383,0,-2.23584e-11,-0.0341473,-1.1877e-05,-6,127,7.03313e-16,-6,-77.9729,204.973,2.176
1.4778,1.47636,0.629403,0.655383,0,2.87909e-05,-0.0342379,2.08729e-05,-6,128,1.59163e-09,-6,-77.9729,205.973,2.18
1.4778,1.47636,0.629266,0.655382,0,-9.59698e-06,-0.0343286,-4.36666e-05,-6,129,1.1099e-09,-6,-77.9729,206.973,2.184
1.4778,1.47636,0.629129,0.655382,0,-6.39799e-06,-0.0344192,-5.7902e-05,-6,130,9.81158e-10,-6,-77.9729,207.973,2.188
1.4778,1.47636,0.628991,0.655381,0,-4.26533e-06,-0.0345098,-9.61832e-05,-6,131,1.08656e-09,-6,-77.973,208.973,2.192
1.4778,1.47636,0.628853,0.655382,0,-2.84355e-06,-0.0346003,-3.53312e-05,-6,132,2.66085e-10,-6,-77.9729,209.973,2.196
1.4778,1.47636,0.628714,0.655381,0,-1.8957e-06,-0.0346909,-5.2345e-05,-6,133,2.62813e-10,-6,-77.973,210.973,2.2
1.4778,1.47636,0.628575,0.655381,0,-1.2638e-06,-0.0347815,-3.48967e-05,-6,134,1.16806e-10,-6,-77.973,211.973,2.204
1.4778,1.47636,0.628436,0.65538,0,-8.42534e-07,-0.034872,-0.000109637,-6,135,2.44651e-10,-6,-77.973,212.973,2.208
1.4778,1.47636,0.628296,0.65538,0,-5.61689e-07,-0.0349626,-0.000101882,-6,136,1.51564e-10,-6,-77.973,213.973,2.212
1.4778,1.47636,0.628156,0.65538,0,-3.74459e-07,-0.0350531,-9.67125e-05,-6,137,9.59155e-11,-6,-77.9731,214.973,2.216
1.4778,1.47636,0.628016,0.655379,0,-2.4964e-07,-0.0351436,-0.000122057,-6,138,8.07006e-11,-6,-77.9731,215.973,2.22
1.4778,1.47636,0.627875,0.655379,0,-1.66426e-07,-0.0352341,-0.000110162,-6,139,4.85574e-11,-6,-77.9731,216.973,2.224
1.4778,1.47636,0.627734,0.655379,0,-1.10951e-07,-0.0353246,-7.34414e-05,-6,140,2.15811e-11,-6,-77.9731,217.973,2.228
1.4778,1.47636,0.627592,0.655378,0,-7.39673e-08,-0.0354151,-7.77519e-05,-6,141,1.52318e-11,-6,-77.9731,218.973,2.232
1.4778,1.47636,0.62745,0.655378,0,-4.93115e-08,-0.0355055,-8.06255e-05,-6,142,1.05298e-11,-6,-77.9732,219.973,2.236
1.4778,1.47636,0.627308,0.655377,0,-3.28744e-08,-0.035596,-0.000111332,-6,143,9.69346e-12,-6,-77.9732,220.973,2.24
1.4778,1.47636,0.627166,0.655376,0,-2.19162e-08,-0.0356864,-0.000160594,-6,144,9.32173e-12,-6,-77.9733,221.973,2.244
1.4778,1.47636,0.627023,0.655376,0,-1.46108e-08,-0.0357768,-0.000135854,-6,145,5.25711e-12,-6,-77.9733,222.973,2.248
1.4778,1.47636,0.626879,0.655375,0,-9.74055e-09,-0.0358672,-0.000176942,-6,146,4.56472e-12,-6,-77.9734,223.973,2.252
1.4778,1.47636,0.626736,0.655374,0,-6.4937e-09,-0.0359575,-0.000204334,-6,147,3.51425e-12,-6,-77.9734,224.973,2.256
1.4778,1.47636,0.626592,0.655372,0,-4.32913e-09,-0.0360479,-0.000251386,-6,148,2.88232e-12,-6,-77.9735,225.973,2.26
1.4778,1.47636,0.626447,0.655371,0,2.8788e-05,-0.0361382,-0.000311546,-6,149,-2.37538e-08,-6,-77.9736,226.974,2.264
1.4778,1.47636,0.626303,0.65537,0,-9.5989e-06,-0.0362285,-0.000265279,-6,150,6.74409e-09,-6,-77.9736,227.974,2.268
1.4778,1.47636,0.626158,0.655368,0,-6.39927e-06,-0.0363188,-0.000320807,-6,151,5.43717e-09,-6,-77.9737,228.974,2.272
1.4778,1.47636,0.626012,0.655368,0,-4.26618e-06,-0.0364091,-0.000271453,-6,152,3.06713e-09,-6,-77.9738,229.974,2.276
1.4778,1.47636,0.625866,0.655367,0,-2.84412e-06,-0.0364994,-0.000267342,-6,154,2.01378e-09,-6,-77.9738,231.974,2.28
1.4778,1.47636,0.62572,0.655365,0,-1.89608e-06,-0.0365896,-0.000322182,-6,155,1.61792e-09,-6,-77.974,232.974,2.284
1.4778,1.47636,0.625574,0.655364,0,-1.26405e-06,-0.0366798,-0.000301161,-6,156,1.00823e-09,-6,-77.974,233.974,2.288
1.4778,1.47636,0.625427,0.655361,0,2.79482e-05,-0.03677,-0.00040231,-6,157,-2.97792e-08,-6,-77.9742,234.974,2.292
1.4778,1.47636,0.625279,0.65536,0,1.86321e-05,-0.0368602,-0.000412162,-6,158,-2.03389e-08,-6,-77.9743,235.974,2.296
1.4778,1.47636,0.625132,0.655356,0,-1.63695e-05,-0.0369503,-0.000562684,-6,159,2.43947e-08,-6,-77.9745,236.974,2.3
1.4778,1.47636,0.624984,0.655353,0,-1.0913e-05,-0.0370404,-0.000663032,-6,160,1.91634e-08,-6,-77.9747,237.975,2.304
1.4778,1.47636,0.624835,0.655349,0,2.15156e-05,-0.0371305,-0.000787512,-6,161,-4.4875e-08,-6,-77.9749,238.975,2.308
1.4778,1.47636,0.624687,0.655344,0,-1.44472e-05,-0.0372206,-0.00089929,-6,162,3.44093e-08,-6,-77.9752,239.975,2.312
1.4778,1.47636,0.624538,0.655339,0,1.91595e-05,-0.0373107,-0.00103139,-6,162,-5.23357e-08,-6,-77.9755,239.976,2.316
1.4778,1.47636,0.624388,0.655334,0,-1.6018e-05,-0.0374007,-0.00111946,-6,163,4.74903e-08,-6,-77.9758,240.976,2.32
1.4778,1.47636,0.624238,0.655328,0,1.81123e-05,-0.0374907,-0.00126454,-6,164,-6.06591e-08,-6,-77.9762,241.976,2.324
1.4778,1.47636,0.624088,0.655321,0,-1.67161e-05,-0.0375806,-0.00141885,-6,165,6.28141e-08,-6,-77.9766,242.977,2.328
1.4778,1.47636,0.623938,0.655314,0,-1.1144e-05,-0.0376706,-0.00149293,-6,166,4.40623e-08,-6,-77.977,243.977,2.332
1.4778,1.47636,0.623787,0.655306,0,-7.42936e-06,-0.0377605,-0.00162868,-6,167,3.20459e-08,-6,-77.9775,244.977,2.336
1.4778,1.47636,0.623636,0.655298,0,-4.95291e-06,-0.0378504,-0.00177677,-6,168,2.33063e-08,-6,-77.9779,245.978,2.34
1.4778,1.47636,0.623484,0.655291,0,2.5489e-05,-0.0379403,-0.00181791,-6,169,-1.22718e-07,-6,-77.9784,246.978,2.344
1.4778,1.47636,0.623332,0.655283,0,1.69927e-05,-0.0380301,-0.00181655,-6,170,-8.17501e-08,-6,-77.9788,247.979,2.348
1.4778,1.47636,0.62318,0.655275,0,-1.74625e-05,-0.0381199,-0.00187323,-6,171,8.6631e-08,-6,-77.9793,248.979,2.352
1.4778,1.47636,0.623027,0.655269,0,1.71493e-05,-0.0382097,-0.00179585,-6,172,-8.15624e-08,-6,-77.9797,249.98,2.356
1.4778,1.47636,0.622874,0.655261,0,-1.73581e-05,-0.0382994,-0.00183063,-6,173,8.41543e-08,-6,-77.9802,250.98,2.36
1.4778,1.47636,0.622721,0.655254,0,1.72189e-05,-0.0383891,-0.00182503,-6,175,-8.32237e-08,-6,-77.9806,252.981,2.364
1.4778,1.47636,0.622567,0.655246,0,-1.73117e-05,-0.0384788,-0.00185009,-6,176,8.48207e-08,-6,-77.9811,253.981,2.368
1.4778,1.47636,0.622413,0.655237,0,-1.15411e-05,-0.0385684,-0.00201075,-6,177,6.14573e-08,-6,-77.9816,254.982,2.372
1.4778,1.47636,0.622259,0.655227,0,-7.69408e-06,-0.038658,-0.00217543,-6,177,4.4327e-08,-6,-77.9822,254.982,2.376
1.4778,1.47636,0.622104,0.655217,0,-5.12939e-06,-0.0387476,-0.00231402,-6,178,3.14337e-08,-6,-77.9828,255.983,2.38
1.4778,1.47636,0.621949,0.655205,0,-3.41959e-06,-0.0388372,-0.00252157,-6,179,2.28353e-08,-6,-77.9835,256.984,2.384
1.4778,1.47636,0.621793,0.655193,0,-2.27973e-06,-0.0389267,-0.00268873,-6,180,1.62326e-08,-6,-77.9843,257.984,2.388
1.4778,1.47636,0.621637,0.65518,0,-1.51982e-06,-0.0390162,-0.00285775,-6,181,1.15019e-08,-6,-77.985,258.985,2.392
1.4778,1.47636,0.621481,0.655166,0,-1.01321e-06,-0.0391056,-0.0030568,-6,182,8.202e-09,-6,-77.9859,259.986,2.396
1.4778,1.47636,0.621324,0.655151,0,-6.75475e-07,-0.039195,-0.00330467,-6,183,5.91133e-09,-6,-77.9868,260.987,2.4
1.4778,1.47636,0.621167,0.655136,0,-4.50316e-07,-0.0392844,-0.00344112,-6,184,4.10358e-09,-6,-77.9877,261.988,2.404
1.4778,1.47636,0.62101,0.655121,0,-3.00211e-07,-0.0393737,-0.00353209,-6,185,2.80802e-09,-6,-77.9885,262.989,2.408
1.4778,1.47636,0.620852,0.655105,0,-2.00141e-07,-0.039463,-0.00367911,-6,186,1.94992e-09,-6,-77.9895,263.989,2.412
1.4778,1.47636,0.620694,0.655089,0,-1.33427e-07,-0.0395523,-0.00377712,-6,187,1.33456e-09,-6,-77.9905,264.99,2.416
1.4778,1.47636,0.620536,0.655072,0,-8.89514e-08,-0.0396415,-0.00395763,-6,188,9.32219e-10,-6,-77.9915,265.991,2.42
1.4778,1.47636,0.620377,0.655055,0,-5.93009e-08,-0.0397307,-0.00404917,-6,189,6.35849e-10,-6,-77.9925,266.993,2.424
1.4778,1.47636,0.620218,0.655037,0,-3.9534e-08,-0.0398199,-0.00425416,-6,189,4.45355e-10,-6,-77.9936,266.994,2.428
1.4778,1.47636,0.620059,0.655018,0,-2.6356e-08,-0.039909,-0.00439082,-6,190,3.06437e-10,-6,-77.9947,267.995,2.432
1.4778,1.47636,0.619899,0.655,0,-1.75706e-08,-0.039998,-0.00442434,-6,191,2.05849e-10,-6,-77.9958,268.996,2.436
1.4778,1.47636,0.619739,0.654982,0,2.87792e-05,-0.0400871,-0.0044179,-6,192,-3.36669e-07,-6,-77.9969,269.997,2.44
1.4778,1.47636,0.619578,0.654964,0,-9.60478e-06,-0.0401761,-0.00449997,-6,193,1.14447e-07,-6,-77.998,270.998,2.444
1.4778,1.47636,0.619417,0.654945,0,-6.40319e-06,-0.040265,-0.00455469,-6,194,7.72247e-08,-6,-77.9991,271.999,2.448
1.4778,1.47636,0.619256,0.654926,0,-4.26879e-06,-0.0403539,-0.00459117,-6,195,5.18949e-08,-6,-78.0002,273,2.452
1.4778,1.47636,0.619094,0.654907,0,-2.84586e-06,-0.0404428,-0.00467307,-6,196,3.52134e-08,-6,-78.0014,274.001,2.456
1.4778,1.47636,0.618933,0.654888,0,-1.89724e-06,-0.0405316,-0.00472767,-6,197,2.37497e-08,-6,-78.0025,275.003,2.46
1.4778,1.47636,0.61877,0.654869,0,2.75261e-05,-0.0406204,-0.00470649,-6,198,-3.43024e-07,-6,-78.0037,276.004,2.464
1.4778,1.47636,0.618608,0.654849,0,-1.04402e-05,-0.0407092,-0.00480754,-6,199,1.32895e-07,-6,-78.0049,277.005,2.468
1.4778,1.47636,0.618445,0.654828,0,-6.96013e-06,-0.0407979,-0.00496127,-6,200,9.14289e-08,-6,-78.0061,278.006,2.472
1.4778,1.47636,0.618281,0.654807,0,-4.64009e-06,-0.0408865,-0.00509255,-6,201,6.25648e-08,-6,-78.0074,279.007,2.476
1.4778,1.47636,0.618117,0.654788,0,-3.09339e-06,-0.0409751,-0.00494974,-6,202,4.05398e-08,-6,-78.0085,280.009,2.48
1.4778,1.47636,0.617953,0.654773,0,-2.06226e-06,-0.0410637,-0.00453784,-6,204,2.47773e-08,-6,-78.0094,282.009,2.484
1.4778,1.47636,0.617789,0.654761,0,-1.37484e-06,-0.0411522,-0.00403291,-6,205,1.46801e-08,-6,-78.0101,283.01,2.488
1.4778,1.47636,0.617624,0.654754,0,-9.1656e-07,-0.0412407,-0.00326442,-6,207,7.9218e-09,-6,-78.0105,285.011,2.492
1.4778,1.47636,0.617459,0.654752,0,-6.1104e-07,-0.0413291,-0.00234903,-6,209,3.80026e-09,-6,-78.0107,287.011,2.496
1.4778,1.47636,0.617294,0.654752,0,-4.0736e-07,-0.0414175,-0.00153723,-6,211,1.65795e-09,-6,-78.0107,289.011,2.5
1.4778,1.47636,0.617128,0.654752,0,-2.90625e-05,-0.0415058,-0.00102482,-6,213,7.88562e-08,-6,-78.0107,291.011,2.504
1.4778,1.47636,0.616961,0.654752,0,9.41593e-06,-0.0415941,-0.000712003,-6,214,-1.77501e-08,-6,-78.0107,292.011,2.508
1.4778,1.47636,0.616795,0.654753,0,6.27728e-06,-0.0416823,-0.000388296,-6,216,-6.45343e-09,-6,-78.0106,294.011,2.512
1.4778,1.47636,0.616628,0.654752,0,4.18486e-06,-0.0417705,-0.000316446,-6,217,-3.50619e-09,-6,-78.0107,295.011,2.516
1.4778,1.47636,0.616461,0.654752,0,2.7899e-06,-0.0418587,-0.000210964,-6,218,-1.55831e-09,-6,-78.0107,296.011,2.52
1.4778,1.47636,0.616293,0.654752,0,5.94418e-05,-0.0419468,-0.000140643,-5,219,-2.21342e-08,-5,-78.0107,297.011,2.524
1.4778,1.47636,0.616125,0.654752,0,-1.7954e-05,-0.0420348,-9.37618e-05,-6,221,4.457e-09,-6,-78.0107,299.011,2.528
1.4778,1.47636,0.615957,0.654752,0,-1.19693e-05,-0.0421228,-6.25078e-05,-6,222,1.98089e-09,-6,-78.0107,300.011,2.532
1.4778,1.47636,0.615788,0.654752,0,-7.97955e-06,-0.0422107,-4.16719e-05,-6,223,8.80395e-10,-6,-78.0107,301.011,2.536
1.4778,1.47636,0.615619,0.654752,0,-5.3197e-06,-0.0422986,-2.77813e-05,-6,224,3.91287e-10,-6,-78.0107,302.011,2.54
1.4778,1.47636,0.61545,0.654752,0,-3.54647e-06,-0.0423865,-1.85208e-05,-6,226,1.73905e-10,-6,-78.0107,304.011,2.544
1.4778,1.47636,0.61528,0.654752,0,-2.36431e-06,-0.0424742,-1.23472e-05,-6,227,7.72912e-11,-6,-78.0107,305.011,2.548
1.4778,1.47636,0.61511,0.654752,0,-1.57621e-06,-0.042562,-6.58133e-05,-6,228,2.74652e-10,-6,-78.0107,306.011,2.552
1.4778,1.47636,0.61494,0.654752,0,-1.05081e-06,-0.0426497,-1.50846e-05,-6,229,4.19675e-11,-6,-78.0107,307.011,2.556
1.4778,1.47636,0.614769,0.654752,0,5.68813e-05,-0.0427373,-1.00564e-05,-5,231,-1.5145e-09,-5,-78.0107,309.011,2.56
1.4778,1.47636,0.614598,0.654752,0,-1.9661e-05,-0.0428249,-6.70428e-06,-6,232,3.4899e-10,-6,-78.0107,310.011,2.564
1.4778,1.47636,0.614426,0.654752,0,-1.31073e-05,-0.0429124,-3.32604e-05,-6,233,1.15424e-09,-6,-78.0107,311.011,2.568
1.4778,1.47636,0.614254,0.654752,0,4.88436e-05,-0.0429998,-2.21736e-05,-5,234,-2.86748e-09,-5,-78.0107,312.011,2.572
1.4778,1.47636,0.614082,0.654751,0,-2.50194e-05,-0.0430873,-4.35733e-05,-6,236,2.88638e-09,-6,-78.0107,314.011,2.576
1.4778,1.47636,0.61391,0.654751,0,-1.66796e-05,-0.0431746,-5.78398e-05,-6,237,2.55428e-09,-6,-78.0107,315.011,2.58
1.4778,1.47636,0.613737,0.654751,0,-1.11197e-05,-0.0432619,-6.73508e-05,-6,238,1.98286e-09,-6,-78.0108,316.011,2.584
1.4778,1.47636,0.613564,0.65475,0,-7.41316e-06,-0.0433491,-7.36915e-05,-6,239,1.44636e-09,-6,-78.0108,317.011,2.588
1.4778,1.47636,0.61339,0.65475,0,-3.3733e-05,-0.0434363,-7.79186e-05,-6,241,6.95908e-09,-6,-78.0108,319.011,2.592
1.4778,1.47636,0.613216,0.65475,0,6.30224e-06,-0.0435235,-8.07366e-05,-6,242,-1.34716e-09,-6,-78.0108,320.011,2.596
1.4778,1.47636,0.613042,0.654749,0,4.20149e-06,-0.0436105,-8.26153e-05,-6,243,-9.19008e-10,-6,-78.0108,321.011,2.6
1.4778,1.47636,0.612867,0.654748,0,2.80099e-06,-0.0436975,-0.000112659,-6,244,-8.35472e-10,-6,-78.0109,322.011,2.604
1.4778,1.47636,0.612692,0.654747,0,1.86733e-06,-0.0437845,-0.000161479,-6,246,-7.98345e-10,-6,-78.0109,324.011,2.608
1.4778,1.47636,0.612517,0.654747,0,1.24489e-06,-0.0438714,-0.000136443,-6,247,-4.49714e-10,-6,-78.011,325.011,2.612
1.4778,1.47636,0.612341,0.654746,0,8.29924e-07,-0.0439582,-0.000177335,-6,248,-3.89661e-10,-6,-78.011,326.011,2.616
1.4778,1.47636,0.612165,0.654744,0,5.53283e-07,-0.044045,-0.000262178,-6,249,-3.84058e-10,-6,-78.0111,327.011,2.62
1.4778,1.47636,0.611989,0.654743,0,3.68855e-07,-0.0441317,-0.000261158,-6,251,-2.55043e-10,-6,-78.0112,329.011,2.624
1.4778,1.47636,0.611812,0.654742,0,2.45903e-07,-0.0442183,-0.000289269,-6,252,-1.8833e-10,-6,-78.0113,330.011,2.628
1.4778,1.47636,0.611635,0.65474,0,1.63936e-07,-0.0443049,-0.000365592,-6,253,-1.5868e-10,-6,-78.0114,331.011,2.632
1.4778,1.47636,0.611458,0.654737,0,1.0929e-07,-0.0443915,-0.000502846,-6,254,-1.45502e-10,-6,-78.0116,332.012,2.636
1.4778,1.47636,0.61128,0.654734,0,7.28603e-08,-0.0444779,-0.000565558,-6,255,-1.09099e-10,-6,-78.0117,333.012,2.64
1.4778,1.47636,0.611102,0.654731,0,4.85735e-08,-0.0445643,-0.000664948,-6,257,-8.55142e-11,-6,-78.012,335.012,2.644
1.4778,1.47636,0.610924,0.654727,0,3.23823e-08,-0.0446507,-0.000731208,-6,258,-6.26901e-11,-6,-78.0122,336.012,2.648
1.4778,1.47636,0.610745,0.654723,0,5.76034e-05,-0.044737,-0.000832963,-5,259,-1.27035e-07,-5,-78.0124,337.012,2.652
1.4778,1.47636,0.610566,0.65472,0,-1.91796e-05,-0.0448232,-0.000785636,-6,260,3.98941e-08,-6,-78.0126,338.013,2.656
1.4778,1.47636,0.610386,0.654717,0,-1.27864e-05,-0.0449093,-0.000754085,-6,262,2.55279e-08,-6,-78.0127,340.013,2.66
1.4778,1.47636,0.610206,0.654715,0,-8.52425e-06,-0.0449954,-0.00070426,-6,263,1.58941e-08,-6,-78.0129,341.013,2.664
1.4778,1.47636,0.610026,0.654712,0,-5.68283e-06,-0.0450814,-0.000699834,-6,264,1.05295e-08,-6,-78.0131,342.013,2.668
1.4778,1.47636,0.609846,0.65471,0,-3.78855e-06,-0.0451674,-0.000668092,-6,266,6.70125e-09,-6,-78.0132,344.013,2.672
1.4778,1.47636,0.609665,0.654707,0,-2.5257e-06,-0.0452533,-0.000646931,-6,267,4.326e-09,-6,-78.0133,345.013,2.676
1.4778,1.47636,0.609484,0.654705,0,-1.6838e-06,-0.0453391,-0.000604033,-6,268,2.69275e-09,-6,-78.0135,346.013,2.68
1.4778,1.47636,0.609302,0.654704,0,-1.12253e-06,-0.0454249,-0.000517852,-6,270,1.53904e-09,-6,-78.0135,348.014,2.684
1.4778,1.47636,0.60912,0.654702,0,-7.48356e-07,-0.0455105,-0.00048919,-6,271,9.69237e-10,-6,-78.0137,349.014,2.688
1.4778,1.47636,0.608938,0.654701,0,-4.98904e-07,-0.0455962,-0.000383708,-6,272,5.0683e-10,-6,-78.0137,350.014,2.692
1.4778,1.47636,0.608756,0.6547,0,-3.32603e-07,-0.0456817,-0.000342178,-6,274,3.01316e-10,-6,-78.0138,352.014,2.696
1.4778,1.47636,0.608573,0.6547,0,-2.21735e-07,-0.0457672,-0.000228119,-6,275,1.33918e-10,-6,-78.0138,353.014,2.7
1.4778,1.47636,0.608389,0.654699,0,5.7434e-05,-0.0458526,-0.000238452,-5,276,-3.62588e-08,-5,-78.0138,354.014,2.704
1.4778,1.47636,0.608206,0.654699,0,-1.92925e-05,-0.045938,-0.000187759,-6,278,9.59031e-09,-6,-78.0138,356.014,2.708
1.4778,1.47636,0.608022,0.654699,0,-4.16526e-05,-0.0460232,-0.000153964,-6,279,1.69787e-08,-6,-78.0139,357.014,2.712
1.4778,1.47636,0.607838,0.654698,0,1.02253e-06,-0.0461085,-0.000160224,-6,280,-4.33758e-10,-6,-78.0139,358.014,2.716
1.4778,1.47636,0.607653,0.654697,0,6.81687e-07,-0.0461936,-0.000164398,-6,282,-2.96705e-10,-6,-78.0139,360.014,2.72
1.4778,1.47636,0.607468,0.654697,0,4.54458e-07,-0.0462787,-0.000167181,-6,283,-2.01151e-10,-6,-78.014,361.014,2.724
1.4778,1.47636,0.607283,0.654695,0,3.02972e-07,-0.0463636,-0.000255408,-6,284,-2.04871e-10,-6,-78.0141,362.014,2.728
1.4778,1.47636,0.607097,0.654694,0,2.01981e-07,-0.0464486,-0.000256645,-6,286,-1.37242e-10,-6,-78.0141,364.014,2.732
1.4778,1.47636,0.606911,0.654692,0,-2.86563e-05,-0.0465334,-0.000315051,-6,287,2.39025e-08,-6,-78.0143,365.014,2.736
1.4778,1.47636,0.606725,0.65469,0,9.68674e-06,-0.0466182,-0.00038278,-6,288,-9.81676e-09,-6,-78.0144,366.014,2.74
1.4778,1.47636,0.606538,0.654688,0,6.45783e-06,-0.0467029,-0.000427932,-6,289,-7.31648e-09,-6,-78.0145,367.015,2.744
1.4778,1.47636,0.606351,0.654686,0,4.30522e-06,-0.0467875,-0.000458034,-6,291,-5.22075e-09,-6,-78.0146,369.015,2.748
1.4778,1.47636,0.606164,0.654684,0,2.87015e-06,-0.0468721,-0.00044931,-6,292,-3.41421e-09,-6,-78.0147,370.015,2.752
1.4778,1.47636,0.605976,0.654681,0,1.91343e-06,-0.0469566,-0.000558659,-6,293,-2.83008e-09,-6,-78.0149,371.015,2.756
1.4778,1.47636,0.605788,0.654678,0,1.27562e-06,-0.047041,-0.000602766,-6,295,-2.03568e-09,-6,-78.0151,373.015,2.76
1.4778,1.47636,0.6056,0.654675,0,8.50414e-07,-0.0471253,-0.000660963,-6,296,-1.48814e-09,-6,-78.0153,374.015,2.764
1.4778,1.47636,0.605411,0.654671,0,5.66943e-07,-0.0472096,-0.000757342,-6,297,-1.13676e-09,-6,-78.0155,375.015,2.768
1.4778,1.47636,0.605222,0.654667,0,3.77962e-07,-0.0472938,-0.000879177,-6,298,-8.79752e-10,-6,-78.0158,376.016,2.772
1.4778,1.47636,0.605033,0.654663,0,2.51974e-07,-0.0473779,-0.000902818,-6,300,-6.02271e-10,-6,-78.016,378.016,2.776
1.4778,1.47636,0.604843,0.654659,0,1.67983e-07,-0.0474619,-0.00094737,-6,301,-4.21327e-10,-6,-78.0162,379.016,2.78
1.4778,1.47636,0.604653,0.654654,0,-2.86789e-05,-0.0475459,-0.00103465,-6,302,7.85581e-08,-6,-78.0165,380.017,2.784
1.4778,1.47636,0.604463,0.65465,0,6.72535e-05,-0.0476297,-0.00103526,-5,304,-1.8433e-07,-5,-78.0168,382.017,2.788
1.4778,1.47636,0.604272,0.654646,0,-4.15371e-05,-0.0477135,-0.00106446,-6,305,1.17056e-07,-6,-78.017,383.017,2.792
1.4778,1.47636,0.604081,0.654641,0,-2.76914e-05,-0.0477972,-0.00105513,-6,306,7.73536e-08,-6,-78.0173,384.017,2.796
1.4778,1.47636,0.60389,0.654637,0,6.79118e-05,-0.0478809,-0.00110649,-5,308,-1.9894e-07,-5,-78.0176,386.018,2.8
1.4778,1.47636,0.603698,0.654632,0,4.52746e-05,-0.0479644,-0.00114073,-6,309,-1.36731e-07,-6,-78.0179,387.018,2.804
1.4778,1.47636,0.603506,0.654628,0,-5.61897e-05,-0.0480479,-0.00107719,-6,310,1.60242e-07,-6,-78.0181,388.018,2.808
1.4778,1.47636,0.603314,0.654624,0,-3.74598e-05,-0.0481313,-0.00106362,-6,312,1.05482e-07,-6,-78.0183,390.018,2.812
1.4778,1.47636,0.603121,0.65462,0,3.81771e-06,-0.0482147,-0.00105457,-6,313,-1.06587e-08,-6,-78.0186,391.019,2.816
1.4778,1.47636,0.602928,0.654615,0,2.54514e-06,-0.0482979,-0.00104854,-6,315,-7.06512e-09,-6,-78.0188,393.019,2.82
1.4778,1.47636,0.602735,0.654612,0,3.04877e-05,-0.0483811,-0.00101573,-6,316,-8.1983e-08,-6,-78.0191,394.019,2.824
1.4778,1.47636,0.602541,0.654609,0,-8.4658e-06,-0.0484641,-0.000936268,-6,317,2.09841e-08,-6,-78.0193,395.019,2.828
1.4778,1.47636,0.602347,0.654605,0,-5.64387e-06,-0.0485471,-0.000883297,-6,319,1.31979e-08,-6,-78.0194,397.019,2.832
1.4778,1.47636,0.602153,0.654603,0,-3.76258e-06,-0.0486301,-0.000790401,-6,320,7.87326e-09,-6,-78.0196,398.02,2.836
1.4778,1.47636,0.601958,0.654601,0,-2.50839e-06,-0.0487129,-0.000728471,-6,322,4.83757e-09,-6,-78.0197,400.02,2.84
1.4778,1.47636,0.601763,0.654599,0,-1.67226e-06,-0.0487956,-0.000658393,-6,323,2.9148e-09,-6,-78.0199,401.02,2.844
1.4778,1.47636,0.601568,0.654597,0,-1.11484e-06,-0.0488783,-0.000554092,-6,325,1.63536e-09,-6,-78.0199,403.02,2.848
1.4778,1.47636,0.601372,0.654595,0,-7.43225e-07,-0.0489609,-0.000513349,-6,326,1.01007e-09,-6,-78.02,404.02,2.852
1.4778,1.47636,0.601176,0.654594,0,-2.92864e-05,-0.0490434,-0.000486188,-6,327,3.76955e-08,-6,-78.0201,405.02,2.856
1.4778,1.47636,0.60098,0.654592,0,9.26665e-06,-0.0491258,-0.000439289,-6,329,-1.07768e-08,-6,-78.0202,407.02,2.86
1.4778,1.47636,0.600783,0.654591,0,6.17777e-06,-0.0492081,-0.000436814,-6,330,-7.14408e-09,-6,-78.0203,408.02,2.864
1.4778,1.47636,0.600586,0.654588,0,4.11851e-06,-0.0492904,-0.000492746,-6,332,-5.37256e-09,-6,-78.0205,410.02,2.868
1.4778,1.47636,0.600389,0.654586,0,2.74567e-06,-0.0493725,-0.000472452,-6,333,-3.43419e-09,-6,-78.0206,411.021,2.872
1.4778,1.47636,0.600191,0.654584,0,1.83045e-06,-0.0494546,-0.000516504,-6,334,-2.50293e-09,-6,-78.0207,412.021,2.876
1.4778,1.47636,0.599993,0.654582,0,1.2203e-06,-0.0495366,-0.000517082,-6,336,-1.67048e-09,-6,-78.0209,414.021,2.88
1.4778,1.47636,0.599795,0.65458,0,-2.79774e-05,-0.0496185,-0.000546258,-6,337,4.04595e-08,-6,-78.021,415.021,2.884
1.4778,1.47636,0.599596,0.654577,0,1.01393e-05,-0.0497003,-0.000594499,-6,339,-1.59579e-08,-6,-78.0212,417.021,2.888
1.4778,1.47636,0.599397,0.654575,0,6.75955e-06,-0.049782,-0.000569078,-6,340,-1.01837e-08,-6,-78.0213,418.021,2.892
1.4778,1.47636,0.599198,0.654573,0,4.50637e-06,-0.0498637,-0.000552131,-6,341,-6.58693e-09,-6,-78.0214,419.021,2.896
1.4778,1.47636,0.598998,0.654571,0,3.00425e-06,-0.0499452,-0.000540833,-6,343,-4.30142e-09,-6,-78.0215,421.022,2.9
1.4778,1.47636,0.598798,0.654568,0,2.00283e-06,-0.0500267,-0.000533301,-6,344,-2.82768e-09,-6,-78.0217,422.022,2.904
1.4778,1.47636,0.598598,0.654566,0,3.01261e-05,-0.050108,-0.000528279,-6,346,-4.21328e-08,-6,-78.0218,424.022,2.908
1.4778,1.47636,0.598397,0.654565,0,-8.70683e-06,-0.0501893,-0.000496141,-6,347,1.14361e-08,-6,-78.0219,425.022,2.912
1.4778,1.47636,0.598196,0.654563,0,-5.80455e-06,-0.0502705,-0.000503506,-6,349,7.73723e-09,-6,-78.022,427.022,2.916
1.4778,1.47636,0.597995,0.654561,0,5.37121e-05,-0.0503516,-0.000508416,-5,350,-7.22942e-08,-5,-78.0221,428.022,2.92
1.4778,1.47636,0.597794,0.654559,0,-2.17738e-05,-0.0504326,-0.000482899,-6,352,2.78356e-08,-6,-78.0222,430.022,2.924
1.4778,1.47636,0.597592,0.654557,0,4.3066e-05,-0.0505135,-0.000494678,-6,353,-5.63985e-08,-6,-78.0224,431.022,2.928
1.4778,1.47636,0.597389,0.654555,0,-2.88712e-05,-0.0505944,-0.00047374,-6,354,3.62088e-08,-6,-78.0225,432.022,2.932
1.4778,1.47636,0.597187,0.654553,0,-1.92474e-05,-0.0506751,-0.000459781,-6,356,2.34279e-08,-6,-78.0226,434.023,2.936
1.4778,1.47636,0.596984,0.654551,0,-4.16226e-05,-0.0507557,-0.000479266,-6,357,5.28099e-08,-6,-78.0227,435.023,2.94
1.4778,1.47636,0.596781,0.654549,0,1.04255e-06,-0.0508363,-0.000463466,-6,359,-1.27916e-09,-6,-78.0228,437.023,2.944
1.4778,1.47636,0.596577,0.654548,0,6.95036e-07,-0.0509168,-0.000452932,-6,360,-8.3339e-10,-6,-78.0229,438.023,2.948
1.4778,1.47636,0.596374,0.654545,0,4.63357e-07,-0.0509971,-0.000503491,-6,362,-6.17611e-10,-6,-78.023,440.023,2.952
1.4778,1.47636,0.596169,0.654544,0,3.08905e-07,-0.0510774,-0.000479615,-6,363,-3.92216e-10,-6,-78.0231,441.023,2.956
1.4778,1.47636,0.595965,0.654542,0,2.05936e-07,-0.0511576,-0.000434907,-6,365,-2.37103e-10,-6,-78.0232,443.023,2.96
1.4778,1.47636,0.59576,0.654542,0,1.37291e-07,-0.0512376,-0.00034752,-6,366,-1.26307e-10,-6,-78.0233,444.023,2.964
1.4778,1.47636,0.595555,0.654541,0,-2.86994e-05,-0.0513176,-0.000260471,-6,368,1.97897e-08,-6,-78.0233,446.023,2.968
1.4778,1.47636,0.59535,0.65454,0,9.65799e-06,-0.0513975,-0.000231229,-6,369,-5.91202e-09,-6,-78.0233,447.023,2.972
1.4778,1.47636,0.595144,0.65454,0,6.43866e-06,-0.0514773,-0.000211735,-6,371,-3.60906e-09,-6,-78.0234,449.023,2.976
1.4778,1.47636,0.594938,0.654539,0,4.29244e-06,-0.051557,-0.000198738,-6,372,-2.25836e-09,-6,-78.0234,450.023,2.98
1.4778,1.47636,0.594731,0.654538,0,2.86163e-06,-0.0516366,-0.000247656,-6,374,-1.87615e-09,-6,-78.0235,452.023,2.984
1.4778,1.47636,0.594525,0.654537,0,1.90775e-06,-0.0517161,-0.000251477,-6,375,-1.27006e-09,-6,-78.0236,453.024,2.988
1.4778,1.47636,0.594318,0.654535,0,1.27183e-06,-0.0517956,-0.000311606,-6,376,-1.04916e-09,-6,-78.0237,454.024,2.992
1.4778,1.47636,0.59411,0.654533,0,8.4789e-07,-0.0518749,-0.000380483,-6,378,-8.54042e-10,-6,-78.0238,456.024,2.996
1.4778,1.47636,0.593903,0.65453,0,5.6526e-07,-0.0519541,-0.000455192,-6,379,-6.81156e-10,-6,-78.0239,457.024,3
1.4778,1.47636,0.593695,0.654527,0,3.7684e-07,-0.0520332,-0.000562579,-6,381,-5.61234e-10,-6,-78.0241,459.024,3.004
1.4778,1.47636,0.593486,0.654524,0,2.51227e-07,-0.0521122,-0.000691753,-6,382,-4.60065e-10,-6,-78.0243,460.024,3.008
1.4778,1.47636,0.593278,0.654519,0,1.67484e-07,-0.0521912,-0.000864242,-6,383,-3.83187e-10,-6,-78.0246,461.025,3.012
1.4778,1.47636,0.593069,0.654513,0,1.11656e-07,-0.05227,-0.00103682,-6,385,-3.06468e-10,-6,-78.025,463.025,3.016
1.4778,1.47636,0.59286,0.654507,0,7.44375e-08,-0.0523487,-0.00120945,-6,386,-2.38329e-10,-6,-78.0253,464.025,3.02
1.4778,1.47636,0.59265,0.654501,0,-2.87413e-05,-0.0524273,-0.00129574,-6,387,9.85878e-08,-6,-78.0257,465.026,3.024
1.4778,1.47636,0.59244,0.654495,0,9.63006e-06,-0.0525058,-0.00141086,-6,389,-3.59673e-08,-6,-78.0261,467.026,3.028
1.4778,1.47636,0.59223,0.654488,0,6.42004e-06,-0.0525843,-0.0014876,-6,390,-2.52824e-08,-6,-78.0265,468.026,3.032
1.4778,1.47636,0.59202,0.654481,0,4.28003e-06,-0.0526626,-0.00156755,-6,391,-1.77607e-08,-6,-78.0269,469.027,3.036
1.4778,1.47636,0.591809,0.654474,0,2.85335e-06,-0.0527408,-0.00162085,-6,393,-1.22431e-08,-6,-78.0273,471.027,3.04
1.4778,1.47636,0.591598,0.654468,0,1.90223e-06,-0.0528189,-0.0015988,-6,394,-8.05099e-09,-6,-78.0277,472.028,3.044
1.4778,1.47636,0.591386,0.654462,0,1.26816e-06,-0.0528969,-0.00158411,-6,396,-5.31796e-09,-6,-78.0281,474.028,3.048
1.4778,1.47636,0.591174,0.654456,0,8.45437e-07,-0.0529749,-0.00151673,-6,397,-3.3945e-09,-6,-78.0284,475.028,3.052
1.4778,1.47636,0.590962,0.654451,0,5.63625e-07,-0.0530527,-0.00141422,-6,399,-2.11006e-09,-6,-78.0287,477.029,3.056
1.4778,1.47636,0.59075,0.654448,0,3.7575e-07,-0.0531304,-0.00125952,-6,401,-1.25282e-09,-6,-78.0289,479.029,3.06
1.4778,1.47636,0.590537,0.654445,0,2.505e-07,-0.053208,-0.00107,-6,402,-7.09541e-10,-6,-78.0291,480.029,3.064
1.4778,1.47636,0.590324,0.654443,0,5.77488e-05,-0.0532855,-0.0008285,-5,404,-1.26654e-07,-5,-78.0291,482.029,3.068
1.4778,1.47636,0.590111,0.654443,0,-1.90826e-05,-0.0533629,-0.000581124,-6,406,2.93556e-08,-6,-78.0292,484.029,3.072
1.4778,1.47636,0.589897,0.654443,0,-1.27217e-05,-0.0534402,-0.000387416,-6,407,1.30469e-08,-6,-78.0292,485.029,3.076
1.4778,1.47636,0.589684,0.654443,0,-8.48116e-06,-0.0535174,-0.000258277,-6,409,5.79864e-09,-6,-78.0292,487.029,3.08
1.4778,1.47636,0.589469,0.654443,0,-5.65411e-06,-0.0535945,-0.000200976,-6,411,3.0081e-09,-6,-78.0292,489.029,3.084
1.4778,1.47636,0.589255,0.654443,0,-3.76941e-06,-0.0536714,-0.000133984,-6,412,1.33693e-09,-6,-78.0292,490.029,3.088
1.4778,1.47636,0.58904,0.654442,0,-2.51294e-06,-0.0537483,-0.000118114,-6,414,7.85715e-10,-6,-78.0292,492.029,3.092
1.4778,1.47636,0.588825,0.654442,0,-1.67529e-06,-0.0538251,-0.000107533,-6,415,4.76889e-10,-6,-78.0292,493.029,3.096
1.4778,1.47636,0.588609,0.654442,0,-1.11686e-06,-0.0539017,-0.00010048,-6,417,2.97072e-10,-6,-78.0293,495.029,3.1
1.4778,1.47636,0.588394,0.654442,0,-7.44574e-07,-0.0539783,-6.69865e-05,-6,418,1.32032e-10,-6,-78.0293,496.029,3.104
1.4778,1.47636,0.588177,0.654441,0,-4.96383e-07,-0.0540547,-0.00010224,-6,420,1.34344e-10,-6,-78.0293,498.029,3.108
1.4778,1.47636,0.587961,0.65444,0,-3.30922e-07,-0.0541311,-0.000125742,-6,421,1.10151e-10,-6,-78.0293,499.029,3.112
1.4778,1.47636,0.587744,0.65444,0,-2.20615e-07,-0.0542073,-0.00014141,-6,423,8.2584e-11,-6,-78.0294,501.029,3.116
1.4778,1.47636,0.587527,0.654439,0,-1.47076e-07,-0.0542834,-0.000151855,-6,424,5.91228e-11,-6,-78.0294,502.029,3.12
1.4778,1.47636,0.58731,0.654438,0,-9.80509e-08,-0.0543594,-0.000158818,-6,426,4.12226e-11,-6,-78.0295,504.029,3.124
1.4778,1.47636,0.587093,0.654438,0,-6.53673e-08,-0.0544353,-0.000163461,-6,428,2.8285e-11,-6,-78.0295,506.029,3.128
1.4778,1.47636,0.586875,0.654436,0,-4.35782e-08,-0.0545111,-0.000195347,-6,429,2.2535e-11,-6,-78.0296,507.03,3.132
1.4778,1.47636,0.586656,0.654435,0,-2.90521e-08,-0.0545868,-0.000245395,-6,431,1.88723e-11,-6,-78.0296,509.03,3.136
1.4778,1.47636,0.586438,0.654434,0,-1.93681e-08,-0.0546624,-0.000249969,-6,432,1.28161e-11,-6,-78.0297,510.03,3.14
1.4778,1.47636,0.586219,0.654433,0,-1.29121e-08,-0.0547379,-0.00028181,-6,434,9.63237e-12,-6,-78.0298,512.03,3.144
1.4778,1.47636,0.586,0.654432,0,-8.60803e-09,-0.0548132,-0.000274246,-6,435,6.24922e-12,-6,-78.0298,513.03,3.148
1.4778,1.47636,0.585781,0.65443,0,-5.73869e-09,-0.0548885,-0.000297994,-6,437,4.52691e-12,-6,-78.0299,515.03,3.152
1.4778,1.47636,0.585561,0.654429,0,-3.82579e-09,-0.0549636,-0.000313827,-6,438,3.17828e-12,-6,-78.03,516.03,3.156
1.4778,1.47636,0.585341,0.654428,0,-2.55053e-09,-0.0550386,-0.000295591,-6,440,1.99573e-12,-6,-78.0301,518.03,3.16
1.4778,1.47636,0.585121,0.654427,0,-1.70035e-09,-0.0551135,-0.000283433,-6,441,1.27576e-12,-6,-78.0301,519.03,3.164
1.4778,1.47636,0.5849,0.654426,0,-1.13357e-09,-0.0551883,-0.000246537,-6,443,7.39793e-13,-6,-78.0302,521.03,3.168
1.4778,1.47636,0.584679,0.654425,0,-7.55712e-10,-0.055263,-0.00022194,-6,445,4.43989e-13,-6,-78.0302,523.03,3.172
1.4778,1.47636,0.584458,0.654425,0,-2.87914e-05,-0.0553376,-0.000176751,-6,446,1.34712e-08,-6,-78.0302,524.03,3.176
1.4778,1.47636,0.584236,0.654424,0,6.71785e-05,-0.055412,-0.000204207,-5,448,-3.63145e-08,-5,-78.0303,526.03,3.18
1.4778,1.47636,0.584015,0.654423,0,-1.27962e-05,-0.0554864,-0.00019372,-6,449,6.56196e-09,-6,-78.0303,527.03,3.184
1.4778,1.47636,0.583793,0.654422,0,-8.53079e-06,-0.0555606,-0.00024431,-6,451,5.51709e-09,-6,-78.0304,529.03,3.188
1.4778,1.47636,0.58357,0.654421,0,-5.6872e-06,-0.0556347,-0.000278037,-6,452,4.18581e-09,-6,-78.0305,530.031,3.192
1.4778,1.47636,0.583347,0.654419,0,-3.79146e-06,-0.0557087,-0.000329313,-6,454,3.30517e-09,-6,-78.0306,532.031,3.196
1.4778,1.47636,0.583125,0.654417,0,-2.52764e-06,-0.0557826,-0.000392287,-6,456,2.62481e-09,-6,-78.0307,534.031,3.2
1.4778,1.47636,0.582901,0.654415,0,-1.6851e-06,-0.0558564,-0.00043427,-6,457,1.93714e-09,-6,-78.0309,535.031,3.204
1.4778,1.47636,0.582678,0.654412,0,-1.1234e-06,-0.0559301,-0.00049105,-6,459,1.46028e-09,-6,-78.031,537.031,3.208
1.4778,1.47636,0.582454,0.654409,0,-7.48931e-07,-0.0560036,-0.000586485,-6,460,1.16272e-09,-6,-78.0312,538.031,3.212
1.4778,1.47636,0.58223,0.654405,0,-4.99287e-07,-0.056077,-0.00070769,-6,462,9.35339e-10,-6,-78.0314,540.031,3.216
1.4778,1.47636,0.582005,0.654401,0,-3.32858e-07,-0.0561503,-0.000846075,-6,463,7.45492e-10,-6,-78.0317,541.032,3.22
1.4778,1.47636,0.58178,0.654396,0,5.73599e-05,-0.0562235,-0.000995914,-5,464,-1.51218e-07,-5,-78.032,542.032,3.224
1.4778,1.47636,0.581555,0.65439,0,-1.93419e-05,-0.0562966,-0.00118218,-6,466,6.05277e-08,-6,-78.0324,544.032,3.228
1.4778,1.47636,0.58133,0.654383,0,-1.28946e-05,-0.0563695,-0.00136394,-6,467,4.65556e-08,-6,-78.0328,545.033,3.232
1.4778,1.47636,0.581104,0.654373,0,-8.59639e-06,-0.0564424,-0.00168665,-6,469,3.83803e-08,-6,-78.0333,547.033,3.236
1.4778,1.47636,0.580879,0.654363,0,-5.73093e-06,-0.0565151,-0.00195937,-6,470,2.9724e-08,-6,-78.0339,548.034,3.24
1.4778,1.47636,0.580652,0.654352,0,-3.82062e-06,-0.0565877,-0.00225635,-6,471,2.28193e-08,-6,-78.0346,549.035,3.244
1.4778,1.47636,0.580426,0.65434,0,-2.54708e-06,-0.0566602,-0.00251191,-6,472,1.69359e-08,-6,-78.0354,550.035,3.248
1.4778,1.47636,0.580199,0.654329,0,-1.69805e-06,-0.0567326,-0.00259592,-6,474,1.16681e-08,-6,-78.036,552.036,3.252
1.4778,1.47636,0.579972,0.65432,0,-1.13204e-06,-0.0568048,-0.00247918,-6,476,7.42887e-09,-6,-78.0366,554.037,3.256
1.4778,1.47636,0.579745,0.654314,0,-7.5469e-07,-0.0568769,-0.00214223,-6,477,4.27946e-09,-6,-78.0369,555.037,3.26
1.4778,1.47636,0.579517,0.65431,0,-5.03127e-07,-0.0569489,-0.00177364,-6,479,2.36209e-09,-6,-78.0372,557.037,3.264
1.4778,1.47636,0.579289,0.654308,0,-3.35418e-07,-0.0570208,-0.00129759,-6,481,1.15207e-09,-6,-78.0372,559.037,3.268
1.4778,1.47636,0.579061,0.654308,0,-2.23612e-07,-0.0570926,-0.000865062,-6,483,5.12029e-10,-6,-78.0372,561.037,3.272
1.4778,1.47636,0.578832,0.654308,0,-1.49075e-07,-0.0571642,-0.000576708,-6,485,2.27569e-10,-6,-78.0372,563.037,3.276
1.4778,1.47636,0.578603,0.654308,0,-9.93831e-08,-0.0572357,-0.000384472,-6,487,1.01142e-10,-6,-78.0372,565.037,3.28
1.4778,1.47636,0.578374,0.654308,0,-6.62554e-08,-0.0573072,-0.000256315,-6,489,4.49518e-11,-6,-78.0372,567.037,3.284
1.4778,1.47636,0.578145,0.654308,0,-4.41703e-08,-0.0573784,-0.000199667,-6,490,2.33448e-11,-6,-78.0373,568.037,3.288
1.4778,1.47636,0.577915,0.654308,0,-2.94468e-08,-0.0574496,-0.000133112,-6,492,1.03755e-11,-6,-78.0373,570.037,3.292
1.4778,1.47636,0.577685,0.654308,0,-1.96312e-08,-0.0575206,-8.87411e-05,-6,494,4.61131e-12,-6,-78.0373,572.037,3.296
1.4778,1.47636,0.577455,0.654308,0,-1.30875e-08,-0.0575915,-8.79516e-05,-6,495,3.04686e-12,-6,-78.0373,573.037,3.3
1.4778,1.47636,0.577225,0.654308,0,-8.72499e-09,-0.0576623,-5.86344e-05,-6,497,1.35416e-12,-6,-78.0373,575.037,3.304
1.4778,1.47636,0.576994,0.654307,0,-5.81666e-09,-0.057733,-6.78805e-05,-6,499,1.04513e-12,-6,-78.0373,577.037,3.308
1.4778,1.47636,0.576763,0.654307,0,-3.87777e-09,-0.0578035,-7.40446e-05,-6,500,7.60026e-13,-6,-78.0373,578.037,3.312
1.4778,1.47636,0.576531,0.654307,0,-2.58518e-09,-0.0578739,-4.93631e-05,-6,502,3.37789e-13,-6,-78.0373,580.037,3.316
1.4778,1.47636,0.5763,0.654307,0,-1.72345e-09,-0.0579442,-3.29087e-05,-6,504,1.50129e-13,-6,-78.0373,582.037,3.32
1.4778,1.47636,0.576068,0.654307,0,-1.14897e-09,-0.0580144,-5.07301e-05,-6,505,1.54286e-13,-6,-78.0373,583.037,3.324
1.4778,1.47636,0.575836,0.654306,0,-7.6598e-10,-0.0580844,-6.2611e-05,-6,507,1.26946e-13,-6,-78.0374,585.037,3.328
1.4778,1.47636,0.575603,0.654306,0,-5.10653e-10,-0.0581544,-7.05316e-05,-6,509,9.53371e-14,-6,-78.0374,587.037,3.332
1.4778,1.47636,0.57537,0.654306,0,-3.40436e-10,-0.0582242,-7.5812e-05,-6,510,6.83163e-14,-6,-78.0374,588.037,3.336
1.4778,1.47636,0.575137,0.654305,0,-2.26957e-10,-0.0582938,-0.000108123,-6,512,6.49552e-14,-6,-78.0374,590.037,3.34
1.4778,1.47636,0.574904,0.654304,0,-1.51305e-10,-0.0583634,-0.000129664,-6,513,5.19306e-14,-6,-78.0375,591.037,3.344
1.4778,1.47636,0.574671,0.654303,0,-1.0087e-10,-0.0584328,-0.000144024,-6,515,3.84547e-14,-6,-78.0375,593.038,3.348
1.4778,1.47636,0.574437,0.654303,0,2.87909e-05,-0.0585021,-0.000153598,-6,517,-1.17056e-08,-6,-78.0376,595.038,3.352
1.4778,1.47636,0.574203,0.654302,0,-9.59702e-06,-0.0585712,-0.000188772,-6,518,4.79539e-09,-6,-78.0376,596.038,3.356
1.4778,1.47636,0.573968,0.654301,0,-6.39801e-06,-0.0586403,-0.00021222,-6,520,3.59404e-09,-6,-78.0377,598.038,3.36
1.4778,1.47636,0.573733,0.6543,0,-4.26534e-06,-0.0587092,-0.000227853,-6,522,2.57252e-09,-6,-78.0378,600.038,3.364
1.4778,1.47636,0.573498,0.654298,0,-2.84356e-06,-0.0587779,-0.000295857,-6,523,2.22687e-09,-6,-78.0379,601.038,3.368
1.4778,1.47636,0.573263,0.654296,0,-1.89571e-06,-0.0588466,-0.000341192,-6,525,1.71207e-09,-6,-78.038,603.038,3.372
1.4778,1.47636,0.573028,0.654294,0,-1.26381e-06,-0.0589151,-0.000400207,-6,526,1.3388e-09,-6,-78.0381,604.038,3.376
1.4778,1.47636,0.572792,0.654291,0,-8.42537e-07,-0.0589835,-0.000525923,-6,528,1.1729e-09,-6,-78.0383,606.038,3.38
1.4778,1.47636,0.572556,0.654287,0,-5.61691e-07,-0.0590518,-0.000696106,-6,529,1.03495e-09,-6,-78.0385,607.039,3.384
1.4778,1.47636,0.572319,0.654283,0,-3.74461e-07,-0.0591199,-0.000809562,-6,531,8.02423e-10,-6,-78.0388,609.039,3.388
1.4778,1.47636,0.572083,0.654277,0,-2.49641e-07,-0.0591879,-0.00105794,-6,532,6.99074e-10,-6,-78.0391,610.039,3.392
1.4778,1.47636,0.571846,0.65427,0,2.86245e-05,-0.0592558,-0.00122353,-6,534,-9.27038e-08,-6,-78.0395,612.04,3.396
1.4778,1.47636,0.571609,0.654262,0,-9.70793e-06,-0.0593235,-0.00150667,-6,535,3.87157e-08,-6,-78.04,613.04,3.4
1.4778,1.47636,0.571371,0.654251,0,-6.47195e-06,-0.0593911,-0.00192576,-6,537,3.29895e-08,-6,-78.0407,615.041,3.404
1.4778,1.47636,0.571134,0.654239,0,-4.31463e-06,-0.0594586,-0.00232031,-6,538,2.64988e-08,-6,-78.0414,616.041,3.408
1.4778,1.47636,0.570896,0.654224,0,-2.87642e-06,-0.059526,-0.0027273,-6,539,2.07644e-08,-6,-78.0423,617.042,3.412
1.4778,1.47636,0.570657,0.654211,0,-1.91762e-06,-0.0595932,-0.00291226,-6,541,1.47816e-08,-6,-78.043,619.043,3.416
1.4778,1.47636,0.570419,0.6542,0,-1.27841e-06,-0.0596603,-0.0028916,-6,542,9.78445e-09,-6,-78.0437,620.044,3.42
1.4778,1.47636,0.57018,0.654189,0,-8.52273e-07,-0.0597272,-0.00279146,-6,544,6.29703e-09,-6,-78.0443,622.044,3.424
1.4778,1.47636,0.569941,0.654177,0,-5.68182e-07,-0.059794,-0.00286866,-6,545,4.31408e-09,-6,-78.0451,623.045,3.428
1.4778,1.47636,0.569702,0.65416,0,-3.78788e-07,-0.0598607,-0.00335199,-6,547,3.3606e-09,-6,-78.0461,625.046,3.432
1.4778,1.47636,0.569462,0.654135,0,-2.52525e-07,-0.0599273,-0.00433639,-6,547,2.89832e-09,-6,-78.0476,625.048,3.436
1.4778,1.47636,0.569222,0.6541,0,-1.6835e-07,-0.0599937,-0.00579881,-6,548,2.58379e-09,-6,-78.0497,626.05,3.44
