peachynonah/Fire_monitor_/csv_datas/trial11/cdsl_data_t11_4.csv
joint1_pos_desired, joint1_pos, joint2_pos_desired, joint2_pos, joint1_vel_desired, joint1_vel_filtered, joint2_vel_desired, joint2_vel_filtered, target_torque_joint1, target_torque_joint2, nonlinear_term_torque_joint1, PD_term_torque_joint1, nonlinear_term_torque_joint2, PD_term_torque_joint2, current_time
1.4778,1.47636,0.5755,0.181662,0,0,1.7696e-08,0,-9,-2255,0,-9,-96.7311,-2158.27,0.004
1.4778,1.47636,0.5755,0.181552,0,2.87909e-05,7.07583e-08,-0.00912672,-9,-2256,-2.55782e-07,-9,-96.733,-2159.27,0.008
1.4778,1.47636,0.5755,0.181474,0,1.91939e-05,1.59148e-07,-0.0125912,-9,-2256,-2.35154e-07,-9,-96.7344,-2159.27,0.012
1.4778,1.47636,0.5755,0.181468,0,4.15869e-05,2.82827e-07,-0.0088836,-9,-2256,-3.59462e-07,-9,-96.7345,-2159.27,0.016
1.4778,1.47636,0.5755,0.181553,0,5.65155e-05,4.41757e-07,0.00113138,-9,-2256,6.22408e-08,-9,-96.733,-2159.27,0.02
1.4778,1.47636,0.5755,0.181722,0,6.64679e-05,6.35898e-07,0.014833,-9,-2255,9.60568e-07,-9,-96.73,-2158.27,0.024
1.4778,1.47636,0.5755,0.181974,0,1.5521e-05,8.65213e-07,0.0309061,-9,-2253,4.67979e-07,-9,-96.7255,-2156.27,0.028
1.4778,1.47636,0.5755,0.182306,0,1.03474e-05,1.12966e-06,0.0482721,-9,-2251,4.8814e-07,-9,-96.7196,-2154.28,0.032
1.4778,1.47636,0.5755,0.182711,0,6.89824e-06,1.42921e-06,0.0658956,-9,-2249,4.45177e-07,-9,-96.7124,-2152.29,0.036
1.4778,1.47636,0.5755,0.183163,0,4.59882e-06,1.76381e-06,0.0816465,-9,-2247,3.68594e-07,-9,-96.7043,-2150.3,0.04
1.4778,1.47636,0.5755,0.183625,0,3.06588e-06,2.13344e-06,0.0929533,-9,-2244,2.80433e-07,-9,-96.696,-2147.3,0.044
1.4778,1.47636,0.5755,0.184069,0,2.04392e-06,2.53804e-06,0.0989652,-9,-2242,1.99506e-07,-9,-96.688,-2145.31,0.048
1.4778,1.47636,0.5755,0.184493,0,1.36261e-06,2.97759e-06,0.101246,-9,-2239,1.36368e-07,-9,-96.6804,-2142.32,0.052
1.4778,1.47636,0.5755,0.184891,0,9.0841e-07,3.45204e-06,0.100693,-9,-2237,9.06019e-08,-9,-96.6732,-2140.33,0.056
1.4778,1.47636,0.5755,0.18527,0,6.05607e-07,3.96135e-06,0.0986836,-9,-2235,5.93115e-08,-9,-96.6663,-2138.33,0.06
1.4778,1.47636,0.5755,0.185632,0,4.03738e-07,4.5055e-06,0.0960195,-9,-2233,3.85454e-08,-9,-96.6598,-2136.34,0.064
1.4778,1.47636,0.5755,0.185979,0,2.69158e-07,5.08443e-06,0.0928903,-9,-2231,2.49037e-08,-9,-96.6535,-2134.35,0.068
1.4778,1.47636,0.5755,0.186311,0,1.79439e-07,5.69811e-06,0.0896237,-9,-2229,1.60459e-08,-9,-96.6474,-2132.35,0.072
1.4778,1.47636,0.5755,0.18663,0,1.19626e-07,6.3465e-06,0.0862944,-9,-2228,1.03167e-08,-9,-96.6416,-2131.36,0.076
1.4778,1.47636,0.5755,0.186942,0,7.97507e-08,7.02957e-06,0.0835566,-9,-2226,6.67021e-09,-9,-96.6359,-2129.36,0.08
1.4778,1.47636,0.5755,0.187243,0,5.31671e-08,7.74727e-06,0.0808101,-9,-2224,4.30724e-09,-9,-96.6304,-2127.37,0.084
1.4778,1.47636,0.5755,0.187532,0,3.54447e-08,8.49957e-06,0.0779138,-9,-2223,2.77264e-09,-9,-96.6251,-2126.37,0.088
1.4778,1.47636,0.5755,0.187806,0,2.36298e-08,9.28643e-06,0.074745,-9,-2221,1.77572e-09,-9,-96.6201,-2124.38,0.092
1.4778,1.47636,0.5755,0.188052,0,1.57532e-08,1.01078e-05,0.0703579,-9,-2220,1.11572e-09,-9,-96.6156,-2123.38,0.096
1.4778,1.47636,0.5755,0.18827,0,1.05021e-08,1.09637e-05,0.0650723,-9,-2219,6.88695e-10,-9,-96.6115,-2122.39,0.1
1.4778,1.47636,0.5755,0.188454,0,7.00143e-09,1.1854e-05,0.0587559,-9,-2218,4.1495e-10,-9,-96.6082,-2121.39,0.104
1.4778,1.47636,0.5755,0.188598,0,4.66762e-09,1.27787e-05,0.0511764,-9,-2217,2.41123e-10,-9,-96.6055,-2120.39,0.108
1.4778,1.47636,0.575501,0.188707,0,3.11175e-09,1.37378e-05,0.0431292,-9,-2216,1.35546e-10,-9,-96.6035,-2119.4,0.112
1.4778,1.47636,0.575501,0.188783,0,2.0745e-09,1.47312e-05,0.0351156,-9,-2216,7.36022e-11,-9,-96.6021,-2119.4,0.116
1.4778,1.47636,0.575501,0.188836,0,1.383e-09,1.57589e-05,0.0278154,-9,-2216,3.88777e-11,-9,-96.6011,-2119.4,0.12
1.4778,1.47636,0.575501,0.188871,0,9.21999e-10,1.68208e-05,0.0214515,-9,-2215,1.99921e-11,-9,-96.6005,-2118.4,0.124
1.4778,1.47636,0.575501,0.188883,0,6.14666e-10,1.7917e-05,0.0153663,-9,-2215,9.54784e-12,-9,-96.6002,-2118.4,0.128
1.4778,1.47636,0.575501,0.188883,0,4.09777e-10,1.90473e-05,0.0102154,-9,-2215,4.23155e-12,-9,-96.6002,-2118.4,0.132
1.4778,1.47636,0.575501,0.188883,0,2.73185e-10,2.02118e-05,0.00681025,-9,-2215,1.88069e-12,-9,-96.6002,-2118.4,0.136
1.4778,1.47636,0.575501,0.188883,0,1.82123e-10,2.14104e-05,0.00454017,-9,-2215,8.35862e-13,-9,-96.6002,-2118.4,0.14
1.4778,1.47636,0.575501,0.188883,0,-2.87908e-05,2.2643e-05,0.00302678,-9,-2215,-8.8091e-08,-9,-96.6002,-2118.4,0.144
1.4778,1.47636,0.575501,0.188883,0,9.59706e-06,2.39097e-05,0.00201785,-9,-2215,1.9576e-08,-9,-96.6002,-2118.4,0.148
1.4778,1.47636,0.575501,0.188883,0,6.39804e-06,2.52103e-05,0.00134523,-9,-2215,8.70046e-09,-9,-96.6002,-2118.4,0.152
1.4778,1.47636,0.575501,0.188883,0,4.26536e-06,2.65449e-05,0.000896823,-9,-2215,3.86687e-09,-9,-96.6002,-2118.4,0.156
1.4778,1.47636,0.575501,0.188883,0,2.84357e-06,2.79134e-05,0.000597882,-9,-2215,1.71861e-09,-9,-96.6002,-2118.4,0.16
1.4778,1.47636,0.575502,0.188883,0,1.89571e-06,2.93158e-05,0.000398588,-9,-2215,7.63826e-10,-9,-96.6002,-2118.4,0.164
1.4778,1.47636,0.575502,0.188883,0,1.26381e-06,3.0752e-05,0.000265725,-9,-2215,3.39478e-10,-9,-96.6002,-2118.4,0.168
1.4778,1.47636,0.575502,0.188883,0,8.4254e-07,3.2222e-05,0.00017715,-9,-2215,1.50879e-10,-9,-96.6002,-2118.4,0.172
1.4778,1.47636,0.575502,0.188883,0,5.61693e-07,3.37258e-05,0.0001181,-9,-2215,6.70574e-11,-9,-96.6002,-2118.4,0.176
1.4778,1.47636,0.575502,0.188883,0,3.74462e-07,3.52632e-05,0.000107524,-9,-2215,4.07017e-11,-9,-96.6002,-2118.4,0.18
1.4778,1.47636,0.575502,0.188883,0,2.49641e-07,3.68344e-05,4.2892e-05,-9,-2215,1.08241e-11,-9,-96.6002,-2118.4,0.184
1.4778,1.47636,0.575502,0.188883,0,1.66428e-07,3.84392e-05,5.73856e-05,-9,-2215,9.65442e-12,-9,-96.6002,-2118.4,0.188
1.4778,1.47636,0.575503,0.188883,0,1.10952e-07,4.00776e-05,9.46613e-06,-9,-2215,1.06171e-12,-9,-96.6002,-2118.4,0.192
1.4778,1.47636,0.575503,0.188883,0,7.39678e-08,4.17496e-05,6.31076e-06,-9,-2215,4.71869e-13,-9,-96.6002,-2118.4,0.196
1.4778,1.47636,0.575503,0.188883,0,4.93119e-08,4.34551e-05,4.20717e-06,-9,-2215,2.0972e-13,-9,-96.6002,-2118.4,0.2
1.4778,1.47636,0.575503,0.188883,0,3.28746e-08,4.51941e-05,2.80478e-06,-9,-2215,9.32087e-14,-9,-96.6002,-2118.4,0.204
1.4778,1.47636,0.575503,0.188882,0,2.19164e-08,4.69665e-05,-5.5712e-05,-9,-2215,-1.23428e-12,-9,-96.6003,-2118.4,0.208
1.4778,1.47636,0.575503,0.188883,0,1.46109e-08,4.87724e-05,2.04405e-05,-9,-2215,3.01903e-13,-9,-96.6002,-2118.4,0.212
1.4778,1.47636,0.575504,0.188883,0,9.74062e-09,5.06116e-05,1.3627e-05,-9,-2215,1.34179e-13,-9,-96.6002,-2118.4,0.216
1.4778,1.47636,0.575504,0.188883,0,6.49375e-09,5.24842e-05,9.08467e-06,-9,-2215,5.96351e-14,-9,-96.6002,-2118.4,0.22
1.4778,1.47636,0.575504,0.188883,0,4.32916e-09,5.43901e-05,6.05645e-06,-9,-2215,2.65045e-14,-9,-96.6002,-2118.4,0.224
1.4778,1.47636,0.575504,0.188883,0,2.88611e-09,5.63293e-05,4.03763e-06,-9,-2215,1.17798e-14,-9,-96.6002,-2118.4,0.228
1.4778,1.47636,0.575505,0.188883,0,1.92407e-09,5.83016e-05,2.69176e-06,-9,-2215,5.23545e-15,-9,-96.6002,-2118.4,0.232
1.4778,1.47636,0.575505,0.188883,0,1.28272e-09,6.03072e-05,1.7945e-06,-9,-2215,2.32687e-15,-9,-96.6002,-2118.4,0.236
1.4778,1.47636,0.575505,0.188883,0,8.55144e-10,6.23459e-05,1.19634e-06,-9,-2215,1.03416e-15,-9,-96.6002,-2118.4,0.24
1.4778,1.47636,0.575505,0.188883,0,5.70096e-10,6.44177e-05,7.97557e-07,-9,-2215,4.59628e-16,-9,-96.6002,-2118.4,0.244
1.4778,1.47636,0.575506,0.188883,0,3.80064e-10,6.65226e-05,5.31705e-07,-9,-2215,2.04279e-16,-9,-96.6002,-2118.4,0.248
1.4778,1.47636,0.575506,0.188883,0,2.53376e-10,6.86606e-05,3.5447e-07,-9,-2215,9.07908e-17,-9,-96.6002,-2118.4,0.252
1.4778,1.47636,0.575506,0.188883,0,1.68917e-10,7.08315e-05,2.36313e-07,-9,-2215,4.03515e-17,-9,-96.6002,-2118.4,0.256
1.4778,1.47636,0.575506,0.188883,0,1.12612e-10,7.30354e-05,1.57542e-07,-9,-2215,1.7934e-17,-9,-96.6002,-2118.4,0.26
1.4778,1.47636,0.575507,0.188883,0,7.50743e-11,7.52722e-05,1.05028e-07,-9,-2215,7.97066e-18,-9,-96.6002,-2118.4,0.264
1.4778,1.47636,0.575507,0.188883,0,5.00496e-11,7.75419e-05,7.00187e-08,-9,-2215,3.54251e-18,-9,-96.6002,-2118.4,0.268
1.4778,1.47636,0.575507,0.188883,0,3.33664e-11,7.98445e-05,4.66792e-08,-9,-2215,1.57445e-18,-9,-96.6002,-2118.4,0.272
1.4778,1.47636,0.575508,0.188883,0,2.22442e-11,8.21799e-05,3.11194e-08,-9,-2215,6.99756e-19,-9,-96.6002,-2118.4,0.276
1.4778,1.47636,0.575508,0.188883,0,1.48295e-11,8.4548e-05,2.07463e-08,-9,-2215,3.11003e-19,-9,-96.6002,-2118.4,0.28
1.4778,1.47636,0.575508,0.188883,0,9.88633e-12,8.69489e-05,1.38309e-08,-9,-2215,1.38223e-19,-9,-96.6002,-2118.4,0.284
1.4778,1.47636,0.575509,0.188883,0,6.59089e-12,8.93825e-05,9.22057e-09,-9,-2215,6.14326e-20,-9,-96.6002,-2118.4,0.288
1.4778,1.47636,0.575509,0.188883,0,4.39393e-12,9.18487e-05,6.14705e-09,-9,-2215,2.73034e-20,-9,-96.6002,-2118.4,0.292
1.4778,1.47636,0.575509,0.188883,0,2.92928e-12,9.43476e-05,2.8795e-05,-9,-2215,8.52662e-17,-9,-96.6002,-2118.4,0.296
1.4778,1.47636,0.57551,0.188883,0,1.95286e-12,9.6879e-05,-9.59424e-06,-9,-2215,-1.89399e-17,-9,-96.6002,-2118.4,0.3
1.4778,1.47636,0.57551,0.188883,0,1.3019e-12,9.9443e-05,-6.39616e-06,-9,-2215,-8.41774e-18,-9,-96.6002,-2118.4,0.304
1.4778,1.47636,0.575511,0.188883,0,8.67936e-13,0.00010204,-4.26411e-06,-9,-2215,-3.74122e-18,-9,-96.6002,-2118.4,0.308
1.4778,1.47636,0.575511,0.188883,0,5.78624e-13,0.000104668,-2.84274e-06,-9,-2215,-1.66276e-18,-9,-96.6002,-2118.4,0.312
1.4778,1.47636,0.575511,0.188883,0,3.85749e-13,0.00010733,2.68958e-05,-9,-2215,1.04879e-17,-9,-96.6002,-2118.4,0.316
1.4778,1.47636,0.575512,0.188883,0,2.57166e-13,0.000110024,-1.08604e-05,-9,-2215,-2.8233e-18,-9,-96.6002,-2118.4,0.32
1.4778,1.47636,0.575512,0.188883,0,1.71444e-13,0.00011275,-7.24028e-06,-9,-2215,-1.2548e-18,-9,-96.6002,-2118.4,0.324
1.4778,1.47636,0.575513,0.188883,0,1.14296e-13,0.000115508,-4.82685e-06,-9,-2215,-5.57689e-19,-9,-96.6002,-2118.4,0.328
1.4778,1.47636,0.575513,0.188883,0,7.61974e-14,0.000118299,-3.2179e-06,-9,-2215,-2.47862e-19,-9,-96.6002,-2118.4,0.332
1.4778,1.47636,0.575514,0.188883,0,5.07983e-14,0.000121122,-2.14527e-06,-9,-2215,-1.10161e-19,-9,-96.6002,-2118.4,0.336
1.4778,1.47636,0.575514,0.188883,0,3.38655e-14,0.000123977,-1.43018e-06,-9,-2215,-4.89604e-20,-9,-96.6002,-2118.4,0.34
1.4778,1.47636,0.575515,0.188883,0,2.2577e-14,0.000126865,-9.53452e-07,-9,-2215,-2.17602e-20,-9,-96.6002,-2118.4,0.344
1.4778,1.47636,0.575515,0.188883,0,1.50513e-14,0.000129784,-6.35635e-07,-9,-2215,-9.67119e-21,-9,-96.6002,-2118.4,0.348
1.4778,1.47636,0.575516,0.188883,0,1.00342e-14,0.000132736,-4.23756e-07,-9,-2215,-4.29831e-21,-9,-96.6002,-2118.4,0.352
1.4778,1.47636,0.575516,0.188883,0,6.68948e-15,0.00013572,-2.82504e-07,-9,-2215,-1.91036e-21,-9,-96.6002,-2118.4,0.356
1.4778,1.47636,0.575517,0.188883,0,4.45966e-15,0.000138735,-1.88336e-07,-9,-2215,-8.49048e-22,-9,-96.6002,-2118.4,0.36
1.4778,1.47636,0.575517,0.188883,0,2.9731e-15,0.000141783,-1.25557e-07,-9,-2215,-3.77355e-22,-9,-96.6002,-2118.4,0.364
1.4778,1.47636,0.575518,0.188883,0,1.98207e-15,0.000144863,-8.3705e-08,-9,-2215,-1.67713e-22,-9,-96.6002,-2118.4,0.368
1.4778,1.47636,0.575519,0.188883,0,1.32138e-15,0.000147974,-5.58033e-08,-9,-2215,-7.45392e-23,-9,-96.6002,-2118.4,0.372
1.4778,1.47636,0.575519,0.188883,0,8.8092e-16,0.000151118,-3.72022e-08,-9,-2215,-3.31285e-23,-9,-96.6002,-2118.4,0.376
1.4778,1.47636,0.57552,0.188883,0,5.8728e-16,0.000154293,-2.48015e-08,-9,-2215,-1.47238e-23,-9,-96.6002,-2118.4,0.38
1.4778,1.47636,0.57552,0.188883,0,3.9152e-16,0.0001575,-1.65343e-08,-9,-2215,-6.54391e-24,-9,-96.6002,-2118.4,0.384
1.4778,1.47636,0.575521,0.188883,0,2.61013e-16,0.000160739,-1.10229e-08,-9,-2215,-2.9084e-24,-9,-96.6002,-2118.4,0.388
1.4778,1.47636,0.575522,0.188883,0,1.74009e-16,0.00016401,-7.34859e-09,-9,-2215,-1.29262e-24,-9,-96.6002,-2118.4,0.392
1.4778,1.47636,0.575522,0.188883,0,1.16006e-16,0.000167312,-4.89906e-09,-9,-2215,-5.74499e-25,-9,-96.6002,-2118.4,0.396
1.4778,1.47636,0.575523,0.188883,0,7.73372e-17,0.000170646,-3.26604e-09,-9,-2215,-2.55333e-25,-9,-96.6002,-2118.4,0.4
1.4778,1.47636,0.575524,0.188883,0,5.15582e-17,0.000174011,-2.17736e-09,-9,-2215,-1.13481e-25,-9,-96.6002,-2118.4,0.404
1.4778,1.47636,0.575524,0.188883,0,3.43721e-17,0.000177408,-1.45157e-09,-9,-2215,-5.04362e-26,-9,-96.6002,-2118.4,0.408
1.4778,1.47636,0.575525,0.188883,0,2.29147e-17,0.000180837,-9.67715e-10,-9,-2215,-2.24161e-26,-9,-96.6002,-2118.4,0.412
1.4778,1.47636,0.575526,0.188883,0,1.52765e-17,0.000184297,-6.45143e-10,-9,-2215,-9.9627e-27,-9,-96.6002,-2118.4,0.416
1.4778,1.47636,0.575527,0.188883,0,1.01843e-17,0.000187789,-4.30096e-10,-9,-2215,-4.42787e-27,-9,-96.6002,-2118.4,0.42
1.4778,1.47636,0.575527,0.188883,0,6.78955e-18,0.000191312,-2.8673e-10,-9,-2215,-1.96794e-27,-9,-96.6002,-2118.4,0.424
1.4778,1.47636,0.575528,0.188883,0,4.52637e-18,0.000194866,-1.91154e-10,-9,-2215,-8.7464e-28,-9,-96.6002,-2118.4,0.428
1.4778,1.47636,0.575529,0.188883,0,3.01758e-18,0.000198452,-1.27436e-10,-9,-2215,-3.88729e-28,-9,-96.6002,-2118.4,0.432
1.4778,1.47636,0.57553,0.188883,0,2.01172e-18,0.000202069,-8.49571e-11,-9,-2215,-1.72768e-28,-9,-96.6002,-2118.4,0.436
1.4778,1.47636,0.57553,0.188883,0,1.34115e-18,0.000205717,-5.66381e-11,-9,-2215,-7.6786e-29,-9,-96.6002,-2118.4,0.44
1.4778,1.47636,0.575531,0.188883,0,8.94097e-19,0.000209397,-3.77587e-11,-9,-2215,-3.41271e-29,-9,-96.6002,-2118.4,0.444
1.4778,1.47636,0.575532,0.188883,0,5.96065e-19,0.000213108,-2.51725e-11,-9,-2215,-1.51676e-29,-9,-96.6002,-2118.4,0.448
1.4778,1.47636,0.575533,0.188883,0,3.97377e-19,0.00021685,-1.67817e-11,-9,-2215,-6.74116e-30,-9,-96.6002,-2118.4,0.452
1.4778,1.47636,0.575534,0.188883,0,2.64918e-19,0.000220623,-1.11878e-11,-9,-2215,-2.99607e-30,-9,-96.6002,-2118.4,0.456
1.4778,1.47636,0.575535,0.188883,0,1.76612e-19,0.000224427,-7.45851e-12,-9,-2215,-1.33159e-30,-9,-96.6002,-2118.4,0.46
1.4778,1.47636,0.575536,0.188883,0,1.17741e-19,0.000228262,-4.97234e-12,-9,-2215,-5.91816e-31,-9,-96.6002,-2118.4,0.464
1.4778,1.47636,0.575537,0.188883,0,7.84942e-20,0.000232128,-3.3149e-12,-9,-2215,-2.63029e-31,-9,-96.6002,-2118.4,0.468
1.4778,1.47636,0.575538,0.188883,0,5.23294e-20,0.000236026,-2.20993e-12,-9,-2215,-1.16902e-31,-9,-96.6002,-2118.4,0.472
1.4778,1.47636,0.575538,0.188883,0,3.48863e-20,0.000239954,-1.47329e-12,-9,-2215,-5.19564e-32,-9,-96.6002,-2118.4,0.476
1.4778,1.47636,0.575539,0.188883,0,2.32575e-20,0.000243913,-9.82191e-13,-9,-2215,-2.30917e-32,-9,-96.6002,-2118.4,0.48
1.4778,1.47636,0.57554,0.188883,0,1.5505e-20,0.000247903,-6.54794e-13,-9,-2215,-1.0263e-32,-9,-96.6002,-2118.4,0.484
1.4778,1.47636,0.575541,0.188883,0,1.03367e-20,0.000251924,-4.36529e-13,-9,-2215,-4.56133e-33,-9,-96.6002,-2118.4,0.488
1.4778,1.47636,0.575542,0.188883,0,6.89112e-21,0.000255975,-2.9102e-13,-9,-2215,-2.02726e-33,-9,-96.6002,-2118.4,0.492
1.4778,1.47636,0.575543,0.188883,0,4.59408e-21,0.000260058,-1.94013e-13,-9,-2216,-9.01004e-34,-9,-96.6002,-2119.4,0.496
1.4778,1.47636,0.575545,0.188883,0,3.06272e-21,0.000264171,-1.29342e-13,-9,-2216,-4.00446e-34,-9,-96.6002,-2119.4,0.5
1.4778,1.47636,0.575546,0.188883,0,2.04181e-21,0.000268314,-8.6228e-14,-9,-2216,-1.77976e-34,-9,-96.6002,-2119.4,0.504
1.4778,1.47636,0.575547,0.188883,0,-2.87909e-05,0.000272489,-5.74854e-14,-9,-2216,1.67305e-18,-9,-96.6002,-2119.4,0.508
1.4778,1.47636,0.575548,0.188883,0,9.59697e-06,0.000276694,-3.83236e-14,-9,-2216,-3.7179e-19,-9,-96.6002,-2119.4,0.512
1.4778,1.47636,0.575549,0.188883,0,6.39798e-06,0.00028093,-2.5549e-14,-9,-2216,-1.6524e-19,-9,-96.6002,-2119.4,0.516
1.4778,1.47636,0.57555,0.188883,0,4.26532e-06,0.000285196,-1.70327e-14,-9,-2216,-7.344e-20,-9,-96.6002,-2119.4,0.52
1.4778,1.47636,0.575551,0.188883,0,2.84355e-06,0.000289492,-1.13551e-14,-9,-2216,-3.264e-20,-9,-96.6002,-2119.4,0.524
1.4778,1.47636,0.575552,0.188883,0,1.8957e-06,0.000293819,-7.57009e-15,-9,-2216,-1.45067e-20,-9,-96.6002,-2119.4,0.528
1.4778,1.47636,0.575554,0.188883,0,1.2638e-06,0.000298177,-5.04673e-15,-9,-2216,-6.4474e-21,-9,-96.6002,-2119.4,0.532
1.4778,1.47636,0.575555,0.188883,0,8.42533e-07,0.000302565,-3.36448e-15,-9,-2216,-2.86551e-21,-9,-96.6002,-2119.4,0.536
1.4778,1.47636,0.575556,0.188883,0,5.61689e-07,0.000306983,-2.24299e-15,-9,-2216,-1.27356e-21,-9,-96.6002,-2119.4,0.54
1.4778,1.47636,0.575557,0.188883,0,3.74459e-07,0.000311432,-1.49533e-15,-9,-2216,-5.66027e-22,-9,-96.6002,-2119.4,0.544
1.4778,1.47636,0.575558,0.188883,0,2.49639e-07,0.000315911,-9.96884e-16,-9,-2216,-2.51568e-22,-9,-96.6002,-2119.4,0.548
1.4778,1.47636,0.57556,0.188883,0,1.66426e-07,0.00032042,-6.64589e-16,-9,-2216,-1.11808e-22,-9,-96.6002,-2119.4,0.552
1.4778,1.47636,0.575561,0.188883,0,1.10951e-07,0.000324959,-4.4306e-16,-9,-2216,-4.96924e-23,-9,-96.6002,-2119.4,0.556
1.4778,1.47636,0.575562,0.188883,0,7.39672e-08,0.000329529,-2.95373e-16,-9,-2216,-2.20855e-23,-9,-96.6002,-2119.4,0.56
1.4778,1.47636,0.575564,0.188883,0,4.93115e-08,0.000334128,-1.96915e-16,-9,-2216,-9.81578e-24,-9,-96.6002,-2119.4,0.564
1.4778,1.47636,0.575565,0.188883,0,3.28743e-08,0.000338758,-1.31277e-16,-9,-2216,-4.36257e-24,-9,-96.6002,-2119.4,0.568
1.4778,1.47636,0.575566,0.188883,0,2.19162e-08,0.000343418,-8.75179e-17,-9,-2216,-1.93892e-24,-9,-96.6002,-2119.4,0.572
1.4778,1.47636,0.575568,0.188883,0,1.46108e-08,0.000348108,-5.83453e-17,-9,-2216,-8.61742e-25,-9,-96.6002,-2119.4,0.576
1.4778,1.47636,0.575569,0.188883,0,9.74054e-09,0.000352828,-3.88969e-17,-9,-2216,-3.82996e-25,-9,-96.6002,-2119.4,0.58
1.4778,1.47636,0.575571,0.188883,0,6.49369e-09,0.000357577,-2.59312e-17,-9,-2216,-1.70221e-25,-9,-96.6002,-2119.4,0.584
1.4778,1.47636,0.575572,0.188883,0,4.32913e-09,0.000362357,-1.72875e-17,-9,-2216,-7.56536e-26,-9,-96.6002,-2119.4,0.588
1.4778,1.47636,0.575573,0.188883,0,2.88609e-09,0.000367167,-1.1525e-17,-9,-2216,-3.36238e-26,-9,-96.6002,-2119.4,0.592
1.4778,1.47636,0.575575,0.188883,0,1.92406e-09,0.000372006,-7.68333e-18,-9,-2216,-1.49439e-26,-9,-96.6002,-2119.4,0.596
1.4778,1.47636,0.575576,0.188883,0,1.2827e-09,0.000376875,-5.12222e-18,-9,-2216,-6.64174e-27,-9,-96.6002,-2119.4,0.6
1.4778,1.47636,0.575578,0.188883,0,8.55136e-10,0.000381774,-3.41481e-18,-9,-2216,-2.95189e-27,-9,-96.6002,-2119.4,0.604
1.4778,1.47636,0.575579,0.188883,0,5.70091e-10,0.000386703,-2.27654e-18,-9,-2216,-1.31195e-27,-9,-96.6002,-2119.4,0.608
1.4778,1.47636,0.575581,0.188883,0,3.80061e-10,0.000391662,-1.51769e-18,-9,-2216,-5.83089e-28,-9,-96.6002,-2119.4,0.612
1.4778,1.47636,0.575583,0.188883,0,2.53374e-10,0.00039665,-1.0118e-18,-9,-2216,-2.5915e-28,-9,-96.6002,-2119.4,0.616
1.4778,1.47636,0.575584,0.188883,0,1.68916e-10,0.000401667,-6.74531e-19,-9,-2216,-1.15178e-28,-9,-96.6002,-2119.4,0.62
1.4778,1.47636,0.575586,0.188883,0,1.12611e-10,0.000406715,-4.49687e-19,-9,-2216,-5.11902e-29,-9,-96.6002,-2119.4,0.624
1.4778,1.47636,0.575587,0.188883,0,7.50737e-11,0.000411791,-2.99792e-19,-9,-2216,-2.27512e-29,-9,-96.6002,-2119.4,0.628
1.4778,1.47636,0.575589,0.188883,0,5.00491e-11,0.000416898,-1.99861e-19,-9,-2216,-1.01116e-29,-9,-96.6002,-2119.4,0.632
1.4778,1.47636,0.575591,0.188883,0,3.33661e-11,0.000422034,-1.33241e-19,-9,-2216,-4.49407e-30,-9,-96.6002,-2119.4,0.636
1.4778,1.47636,0.575593,0.188883,0,2.22441e-11,0.000427199,-8.88271e-20,-9,-2216,-1.99736e-30,-9,-96.6002,-2119.4,0.64
1.4778,1.47636,0.575594,0.188883,0,1.48294e-11,0.000432394,-5.92181e-20,-9,-2216,-8.87717e-31,-9,-96.6002,-2119.4,0.644
1.4778,1.47636,0.575596,0.188883,0,9.88625e-12,0.000437618,-3.94787e-20,-9,-2216,-3.94541e-31,-9,-96.6002,-2119.4,0.648
1.4778,1.47636,0.575598,0.188883,0,6.59083e-12,0.000442871,-2.63192e-20,-9,-2216,-1.75351e-31,-9,-96.6002,-2119.4,0.652
1.4778,1.47636,0.5756,0.188883,0,4.39389e-12,0.000448154,-1.75461e-20,-9,-2216,-7.7934e-32,-9,-96.6002,-2119.4,0.656
1.4778,1.47636,0.575601,0.188883,0,2.92926e-12,0.000453466,-1.16974e-20,-9,-2216,-3.46373e-32,-9,-96.6002,-2119.4,0.66
1.4778,1.47636,0.575603,0.188883,0,1.95284e-12,0.000458807,-2.87909e-05,-9,-2216,-5.68353e-17,-9,-96.6002,-2119.4,0.664
1.4778,1.47636,0.575605,0.188883,0,1.30189e-12,0.000464177,9.59697e-06,-9,-2216,1.26301e-17,-9,-96.6002,-2119.4,0.668
1.4778,1.47636,0.575607,0.188883,0,8.67929e-13,0.000469577,6.39798e-06,-9,-2216,5.61338e-18,-9,-96.6002,-2119.4,0.672
1.4778,1.47636,0.575609,0.188883,0,5.78619e-13,0.000475005,4.26532e-06,-9,-2216,2.49483e-18,-9,-96.6002,-2119.4,0.676
1.4778,1.47636,0.575611,0.188883,0,3.85746e-13,0.000480463,2.84355e-06,-9,-2216,1.10882e-18,-9,-96.6002,-2119.4,0.68
1.4778,1.47636,0.575613,0.188883,0,2.57164e-13,0.00048595,1.8957e-06,-9,-2216,4.92807e-19,-9,-96.6002,-2119.4,0.684
1.4778,1.47636,0.575615,0.188883,0,1.71443e-13,0.000491465,1.2638e-06,-9,-2216,2.19025e-19,-9,-96.6002,-2119.4,0.688
1.4778,1.47636,0.575617,0.188883,0,1.14295e-13,0.00049701,8.42533e-07,-9,-2216,9.73446e-20,-9,-96.6002,-2119.4,0.692
1.4778,1.47636,0.575619,0.188883,0,7.61967e-14,0.000502584,5.61689e-07,-9,-2216,4.32642e-20,-9,-96.6002,-2119.4,0.696
1.4778,1.47636,0.575621,0.188883,0,5.07978e-14,0.000508186,3.74459e-07,-9,-2216,1.92286e-20,-9,-96.6002,-2119.4,0.7
1.4778,1.47636,0.575623,0.188883,0,3.38652e-14,0.000513818,2.49639e-07,-9,-2216,8.54602e-21,-9,-96.6002,-2119.4,0.704
1.4778,1.47636,0.575625,0.188883,0,2.25768e-14,0.000519478,1.66426e-07,-9,-2216,3.79823e-21,-9,-96.6002,-2119.4,0.708
1.4778,1.47636,0.575627,0.188883,0,1.50512e-14,0.000525167,1.10951e-07,-9,-2216,1.6881e-21,-9,-96.6002,-2119.4,0.712
1.4778,1.47636,0.575629,0.188883,0,1.00341e-14,0.000530885,7.39672e-08,-9,-2216,7.50268e-22,-9,-96.6002,-2119.4,0.716
1.4778,1.47636,0.575631,0.188883,0,6.68943e-15,0.000536631,4.93115e-08,-9,-2216,3.33453e-22,-9,-96.6002,-2119.4,0.72
1.4778,1.47636,0.575633,0.188883,0,4.45962e-15,0.000542406,3.28743e-08,-9,-2216,1.48201e-22,-9,-96.6002,-2119.4,0.724
1.4778,1.47636,0.575635,0.188883,0,2.97308e-15,0.00054821,2.19162e-08,-9,-2216,6.58672e-23,-9,-96.6002,-2119.4,0.728
1.4778,1.47636,0.575638,0.188883,0,1.98205e-15,0.000554043,1.46108e-08,-9,-2216,2.92743e-23,-9,-96.6002,-2119.4,0.732
1.4778,1.47636,0.57564,0.188883,0,1.32137e-15,0.000559904,9.74054e-09,-9,-2216,1.30108e-23,-9,-96.6002,-2119.4,0.736
1.4778,1.47636,0.575642,0.188883,0,8.80912e-16,0.000565793,6.49369e-09,-9,-2216,5.78258e-24,-9,-96.6002,-2119.4,0.74
1.4778,1.47636,0.575644,0.188883,0,5.87275e-16,0.000571711,4.32913e-09,-9,-2216,2.57003e-24,-9,-96.6002,-2119.4,0.744
1.4778,1.47636,0.575647,0.188883,0,3.91517e-16,0.000577658,2.88609e-09,-9,-2216,1.14224e-24,-9,-96.6002,-2119.4,0.748
1.4778,1.47636,0.575649,0.188883,0,2.61011e-16,0.000583633,1.92406e-09,-9,-2216,5.07661e-25,-9,-96.6002,-2119.4,0.752
1.4778,1.47636,0.575651,0.188883,0,1.74007e-16,0.000589636,1.2827e-09,-9,-2216,2.25627e-25,-9,-96.6002,-2119.4,0.756
1.4778,1.47636,0.575654,0.188883,0,-2.87909e-05,0.000595668,8.55136e-10,-9,-2216,-2.48879e-14,-9,-96.6002,-2119.4,0.76
1.4778,1.47636,0.575656,0.188883,0,9.59697e-06,0.000601728,5.70091e-10,-9,-2216,5.53064e-15,-9,-96.6002,-2119.4,0.764
1.4778,1.47636,0.575658,0.188883,0,6.39798e-06,0.000607816,3.80061e-10,-9,-2216,2.45806e-15,-9,-96.6002,-2119.4,0.768
1.4778,1.47636,0.575661,0.188883,0,4.26532e-06,0.000613932,2.53374e-10,-9,-2216,1.09247e-15,-9,-96.6002,-2119.4,0.772
1.4778,1.47636,0.575663,0.188883,0,2.84355e-06,0.000620077,1.68916e-10,-9,-2216,4.85543e-16,-9,-96.6002,-2119.4,0.776
1.4778,1.47636,0.575666,0.188883,0,1.8957e-06,0.00062625,1.12611e-10,-9,-2216,2.15797e-16,-9,-96.6002,-2119.4,0.78
1.4778,1.47636,0.575668,0.188883,0,1.2638e-06,0.000632451,7.50737e-11,-9,-2216,9.59098e-17,-9,-96.6002,-2119.4,0.784
1.4778,1.47636,0.575671,0.188883,0,8.42533e-07,0.00063868,5.00491e-11,-9,-2216,4.26266e-17,-9,-96.6002,-2119.4,0.788
1.4778,1.47636,0.575673,0.188883,0,5.61689e-07,0.000644937,3.33661e-11,-9,-2216,1.89451e-17,-9,-96.6002,-2119.4,0.792
1.4778,1.47636,0.575676,0.188883,0,3.74459e-07,0.000651223,2.22441e-11,-9,-2216,8.42007e-18,-9,-96.6002,-2119.4,0.796
1.4778,1.47636,0.575679,0.188883,0,2.49639e-07,0.000657536,1.48294e-11,-9,-2216,3.74225e-18,-9,-96.6002,-2119.4,0.8
1.4778,1.47636,0.575681,0.188883,0,1.66426e-07,0.000663877,9.88625e-12,-9,-2216,1.66322e-18,-9,-96.6002,-2119.4,0.804
1.4778,1.47636,0.575684,0.188883,0,1.10951e-07,0.000670246,6.59083e-12,-9,-2216,7.3921e-19,-9,-96.6002,-2119.4,0.808
1.4778,1.47636,0.575687,0.188883,0,7.39672e-08,0.000676643,4.39389e-12,-9,-2216,3.28538e-19,-9,-96.6002,-2119.4,0.812
1.4778,1.47636,0.575689,0.188883,0,4.93115e-08,0.000683068,2.92926e-12,-9,-2216,1.46017e-19,-9,-96.6002,-2119.4,0.816
1.4778,1.47636,0.575692,0.188883,0,3.28743e-08,0.000689521,1.95284e-12,-9,-2216,6.48964e-20,-9,-96.6002,-2119.4,0.82
1.4778,1.47636,0.575695,0.188883,0,2.19162e-08,0.000696001,1.30189e-12,-9,-2216,2.88428e-20,-9,-96.6002,-2119.4,0.824
1.4778,1.47636,0.575698,0.188883,0,1.46108e-08,0.000702509,8.67929e-13,-9,-2216,1.2819e-20,-9,-96.6002,-2119.4,0.828
1.4778,1.47636,0.575701,0.188883,0,9.74054e-09,0.000709045,5.78619e-13,-9,-2216,5.69735e-21,-9,-96.6002,-2119.4,0.832
1.4778,1.47636,0.575703,0.188883,0,6.49369e-09,0.000715609,3.85746e-13,-9,-2216,2.53216e-21,-9,-96.6002,-2119.4,0.836
1.4778,1.47636,0.575706,0.188883,0,4.32913e-09,0.0007222,2.57164e-13,-9,-2216,1.1254e-21,-9,-96.6002,-2119.4,0.84
1.4778,1.47636,0.575709,0.188883,0,2.88609e-09,0.000728819,1.71443e-13,-9,-2216,5.00179e-22,-9,-96.6002,-2119.4,0.844
1.4778,1.47636,0.575712,0.188883,0,1.92406e-09,0.000735466,1.14295e-13,-9,-2216,2.22302e-22,-9,-96.6002,-2119.4,0.848
1.4778,1.47636,0.575715,0.188883,0,1.2827e-09,0.000742139,7.61967e-14,-9,-2216,9.88008e-23,-9,-96.6002,-2119.4,0.852
1.4778,1.47636,0.575718,0.188883,0,8.55136e-10,0.000748841,5.07978e-14,-9,-2216,4.39114e-23,-9,-96.6002,-2119.4,0.856
1.4778,1.47636,0.575721,0.188883,0,5.70091e-10,0.00075557,3.38652e-14,-9,-2216,1.95162e-23,-9,-96.6002,-2119.4,0.86
1.4778,1.47636,0.575724,0.188883,0,3.80061e-10,0.000762326,2.25768e-14,-9,-2216,8.67387e-24,-9,-96.6002,-2119.4,0.864
1.4778,1.47636,0.575727,0.188883,0,2.53374e-10,0.00076911,1.50512e-14,-9,-2217,3.85505e-24,-9,-96.6002,-2120.4,0.868
1.4778,1.47636,0.57573,0.188883,0,1.68916e-10,0.000775921,1.00341e-14,-9,-2217,1.71336e-24,-9,-96.6002,-2120.4,0.872
1.4778,1.47636,0.575733,0.188883,0,1.12611e-10,0.000782759,6.68943e-15,-9,-2217,7.61492e-25,-9,-96.6002,-2120.4,0.876
1.4778,1.47636,0.575736,0.188883,0,7.50737e-11,0.000789625,4.45962e-15,-9,-2217,3.38441e-25,-9,-96.6002,-2120.4,0.88
1.4778,1.47636,0.57574,0.188883,0,5.00491e-11,0.000796518,2.97308e-15,-9,-2217,1.50418e-25,-9,-96.6002,-2120.4,0.884
1.4778,1.47636,0.575743,0.188883,0,3.33661e-11,0.000803438,1.98205e-15,-9,-2217,6.68525e-26,-9,-96.6002,-2120.4,0.888
1.4778,1.47636,0.575746,0.188883,0,2.22441e-11,0.000810385,1.32137e-15,-9,-2217,2.97122e-26,-9,-96.6002,-2120.4,0.892
1.4778,1.47636,0.575749,0.188883,0,1.48294e-11,0.00081736,8.80912e-16,-9,-2217,1.32054e-26,-9,-96.6002,-2120.4,0.896
1.4778,1.47636,0.575753,0.188883,0,9.88625e-12,0.000824361,5.87275e-16,-9,-2217,5.86908e-27,-9,-96.6002,-2120.4,0.9
1.4778,1.47636,0.575756,0.188883,0,6.59083e-12,0.00083139,3.91517e-16,-9,-2217,2.60848e-27,-9,-96.6002,-2120.4,0.904
1.4778,1.47636,0.575759,0.188883,0,4.39389e-12,0.000838446,2.61011e-16,-9,-2217,1.15932e-27,-9,-96.6002,-2120.4,0.908
1.4778,1.47636,0.575763,0.188883,0,2.92926e-12,0.000845528,1.74007e-16,-9,-2217,5.15255e-28,-9,-96.6002,-2120.4,0.912
1.4778,1.47636,0.575766,0.188883,0,1.95284e-12,0.000852638,1.16005e-16,-9,-2217,2.29002e-28,-9,-96.6002,-2120.4,0.916
1.4778,1.47636,0.575769,0.188883,0,1.30189e-12,0.000859775,7.73366e-17,-9,-2217,1.01779e-28,-9,-96.6002,-2120.4,0.92
1.4778,1.47636,0.575773,0.188883,0,8.67929e-13,0.000866938,5.15577e-17,-9,-2217,4.5235e-29,-9,-96.6002,-2120.4,0.924
1.4778,1.47636,0.575776,0.188883,0,5.78619e-13,0.000874128,3.43718e-17,-9,-2217,2.01045e-29,-9,-96.6002,-2120.4,0.928
1.4778,1.47636,0.57578,0.188883,0,3.85746e-13,0.000881345,2.29145e-17,-9,-2217,8.93532e-30,-9,-96.6002,-2120.4,0.932
1.4778,1.47636,0.575783,0.188883,0,2.57164e-13,0.000888589,1.52764e-17,-9,-2217,3.97125e-30,-9,-96.6002,-2120.4,0.936
1.4778,1.47636,0.575787,0.188883,0,1.71443e-13,0.00089586,1.01842e-17,-9,-2217,1.765e-30,-9,-96.6002,-2120.4,0.94
1.4778,1.47636,0.575791,0.188883,0,1.14295e-13,0.000903157,6.7895e-18,-9,-2217,7.84445e-31,-9,-96.6002,-2120.4,0.944
1.4778,1.47636,0.575794,0.188883,0,7.61967e-14,0.000910482,4.52633e-18,-9,-2217,3.48642e-31,-9,-96.6002,-2120.4,0.948
1.4778,1.47636,0.575798,0.188883,0,5.07978e-14,0.000917832,3.01755e-18,-9,-2217,1.54952e-31,-9,-96.6002,-2120.4,0.952
1.4778,1.47636,0.575802,0.188883,0,3.38652e-14,0.00092521,2.0117e-18,-9,-2217,6.88676e-32,-9,-96.6002,-2120.4,0.956
1.4778,1.47636,0.575805,0.188883,0,2.25768e-14,0.000932613,1.34113e-18,-9,-2217,3.06078e-32,-9,-96.6002,-2120.4,0.96
1.4778,1.47636,0.575809,0.188883,0,1.50512e-14,0.000940044,8.9409e-19,-9,-2217,1.36035e-32,-9,-96.6002,-2120.4,0.964
1.4778,1.47636,0.575813,0.188883,0,1.00341e-14,0.000947501,5.9606e-19,-9,-2217,6.04599e-33,-9,-96.6002,-2120.4,0.968
1.4778,1.47636,0.575817,0.188883,0,6.68943e-15,0.000954984,-2.87909e-05,-9,-2217,-1.94689e-19,-9,-96.6002,-2120.4,0.972
1.4778,1.47636,0.57582,0.188883,0,4.45962e-15,0.000962494,9.59697e-06,-9,-2217,4.32642e-20,-9,-96.6002,-2120.4,0.976
1.4778,1.47636,0.575824,0.188883,0,2.97308e-15,0.00097003,6.39798e-06,-9,-2217,1.92286e-20,-9,-96.6002,-2120.4,0.98
1.4778,1.47636,0.575828,0.188883,0,1.98205e-15,0.000977593,4.26532e-06,-9,-2217,8.54602e-21,-9,-96.6002,-2120.4,0.984
1.4778,1.47636,0.575832,0.188883,0,1.32137e-15,0.000985182,2.84355e-06,-9,-2217,3.79823e-21,-9,-96.6002,-2120.4,0.988
1.4778,1.47636,0.575836,0.188883,0,8.80912e-16,0.000992797,1.8957e-06,-9,-2217,1.6881e-21,-9,-96.6002,-2120.4,0.992
1.4778,1.47636,0.57584,0.188883,0,5.87275e-16,0.00100044,1.2638e-06,-9,-2217,7.50268e-22,-9,-96.6002,-2120.4,0.996
1.4778,1.47636,0.575844,0.188883,0,3.91517e-16,0.00100811,8.42533e-07,-9,-2217,3.33453e-22,-9,-96.6002,-2120.4,1
1.4778,1.47636,0.575848,0.188883,0,2.61011e-16,0.0010158,5.61689e-07,-9,-2217,1.48201e-22,-9,-96.6002,-2120.4,1.004
1.4778,1.47636,0.575852,0.188883,0,1.74007e-16,0.00102352,3.74459e-07,-9,-2217,6.58672e-23,-9,-96.6002,-2120.4,1.008
1.4778,1.47636,0.575856,0.188883,0,1.16005e-16,0.00103127,2.49639e-07,-9,-2217,2.92743e-23,-9,-96.6002,-2120.4,1.012
1.4778,1.47636,0.57586,0.188883,0,7.73366e-17,0.00103904,1.66426e-07,-9,-2217,1.30108e-23,-9,-96.6002,-2120.4,1.016
1.4778,1.47636,0.575865,0.188883,0,5.15577e-17,0.00104684,1.10951e-07,-9,-2217,5.78258e-24,-9,-96.6002,-2120.4,1.02
1.4778,1.47636,0.575869,0.188883,0,3.43718e-17,0.00105466,7.39672e-08,-9,-2217,2.57003e-24,-9,-96.6002,-2120.4,1.024
1.4778,1.47636,0.575873,0.188883,0,2.29145e-17,0.00106251,4.93115e-08,-9,-2217,1.14224e-24,-9,-96.6002,-2120.4,1.028
1.4778,1.47636,0.575877,0.188883,0,1.52764e-17,0.00107039,3.28743e-08,-9,-2217,5.07661e-25,-9,-96.6002,-2120.4,1.032
1.4778,1.47636,0.575882,0.188883,0,1.01842e-17,0.00107829,2.19162e-08,-9,-2217,2.25627e-25,-9,-96.6002,-2120.4,1.036
1.4778,1.47636,0.575886,0.188883,0,6.7895e-18,0.00108622,1.46108e-08,-9,-2217,1.00279e-25,-9,-96.6002,-2120.4,1.04
1.4778,1.47636,0.57589,0.188883,0,4.52633e-18,0.00109417,9.74054e-09,-9,-2217,4.45683e-26,-9,-96.6002,-2120.4,1.044
1.4778,1.47636,0.575895,0.188883,0,3.01755e-18,0.00110215,6.49369e-09,-9,-2217,1.98081e-26,-9,-96.6002,-2120.4,1.048
1.4778,1.47636,0.575899,0.188883,0,2.0117e-18,0.00111016,4.32913e-09,-9,-2217,8.80362e-27,-9,-96.6002,-2120.4,1.052
1.4778,1.47636,0.575904,0.188883,0,1.34113e-18,0.00111819,2.88609e-09,-9,-2217,3.91272e-27,-9,-96.6002,-2120.4,1.056
1.4778,1.47636,0.575908,0.188883,0,8.9409e-19,0.00112624,1.92406e-09,-9,-2218,1.73899e-27,-9,-96.6002,-2121.4,1.06
1.4778,1.47636,0.575913,0.188883,0,5.9606e-19,0.00113433,1.2827e-09,-9,-2218,7.72883e-28,-9,-96.6002,-2121.4,1.064
1.4778,1.47636,0.575917,0.188883,0,3.97373e-19,0.00114244,8.55136e-10,-9,-2218,3.43504e-28,-9,-96.6002,-2121.4,1.068
1.4778,1.47636,0.575922,0.188883,0,2.64916e-19,0.00115057,5.70091e-10,-9,-2218,1.52668e-28,-9,-96.6002,-2121.4,1.072
1.4778,1.47636,0.575926,0.188883,0,1.7661e-19,0.00115873,3.80061e-10,-9,-2218,6.78526e-29,-9,-96.6002,-2121.4,1.076
1.4778,1.47636,0.575931,0.188883,0,1.1774e-19,0.00116691,2.53374e-10,-9,-2218,3.01567e-29,-9,-96.6002,-2121.4,1.08
1.4778,1.47636,0.575936,0.188883,0,7.84935e-20,0.00117512,1.68916e-10,-9,-2218,1.3403e-29,-9,-96.6002,-2121.4,1.084
1.4778,1.47636,0.57594,0.188883,0,5.2329e-20,0.00118336,1.12611e-10,-9,-2218,5.95688e-30,-9,-96.6002,-2121.4,1.088
1.4778,1.47636,0.575945,0.188883,0,3.4886e-20,0.00119162,7.50737e-11,-9,-2218,2.6475e-30,-9,-96.6002,-2121.4,1.092
1.4778,1.47636,0.57595,0.188883,0,2.32573e-20,0.00119991,5.00491e-11,-9,-2218,1.17667e-30,-9,-96.6002,-2121.4,1.096
1.4778,1.47636,0.575955,0.188883,0,1.55049e-20,0.00120822,3.33661e-11,-9,-2218,5.22963e-31,-9,-96.6002,-2121.4,1.1
1.4778,1.47636,0.57596,0.188883,0,1.03366e-20,0.00121656,2.22441e-11,-9,-2218,2.32428e-31,-9,-96.6002,-2121.4,1.104
1.4778,1.47636,0.575965,0.188883,0,6.89106e-21,0.00122492,1.48294e-11,-9,-2218,1.03301e-31,-9,-96.6002,-2121.4,1.108
1.4778,1.47636,0.575969,0.188883,0,4.59404e-21,0.00123331,9.88625e-12,-9,-2218,4.59117e-32,-9,-96.6002,-2121.4,1.112
1.4778,1.47636,0.575974,0.188883,0,3.06269e-21,0.00124172,6.59083e-12,-9,-2218,2.04052e-32,-9,-96.6002,-2121.4,1.116
1.4778,1.47636,0.575979,0.188883,0,2.0418e-21,0.00125016,4.39389e-12,-9,-2218,9.06898e-33,-9,-96.6002,-2121.4,1.12
1.4778,1.47636,0.575984,0.188883,0,1.3612e-21,0.00125862,2.92926e-12,-9,-2218,4.03066e-33,-9,-96.6002,-2121.4,1.124
1.4778,1.47636,0.575989,0.188883,0,9.07465e-22,0.00126711,1.95284e-12,-9,-2218,1.7914e-33,-9,-96.6002,-2121.4,1.128
1.4778,1.47636,0.575995,0.188883,0,6.04977e-22,0.00127562,1.30189e-12,-9,-2218,7.96179e-34,-9,-96.6002,-2121.4,1.132
1.4778,1.47636,0.576,0.188883,0,4.03318e-22,0.00128416,8.67929e-13,-9,-2218,3.53858e-34,-9,-96.6002,-2121.4,1.136
1.4778,1.47636,0.576005,0.188883,0,2.68878e-22,0.00129272,5.78619e-13,-9,-2218,1.5727e-34,-9,-96.6002,-2121.4,1.14
1.4778,1.47636,0.57601,0.188883,0,1.79252e-22,0.00130131,3.85746e-13,-9,-2218,6.98978e-35,-9,-96.6002,-2121.4,1.144
1.4778,1.47636,0.576015,0.188883,0,1.19502e-22,0.00130993,2.57164e-13,-9,-2218,3.10657e-35,-9,-96.6002,-2121.4,1.148
1.4778,1.47636,0.57602,0.188883,0,7.96677e-23,0.00131856,1.71443e-13,-9,-2218,1.3807e-35,-9,-96.6002,-2121.4,1.152
1.4778,1.47636,0.576026,0.188883,0,5.31118e-23,0.00132723,1.14295e-13,-9,-2218,6.13643e-36,-9,-96.6002,-2121.4,1.156
1.4778,1.47636,0.576031,0.188883,0,3.54079e-23,0.00133592,7.61967e-14,-9,-2218,2.7273e-36,-9,-96.6002,-2121.4,1.16
1.4778,1.47636,0.576036,0.188883,0,2.36052e-23,0.00134463,5.07978e-14,-9,-2218,1.21213e-36,-9,-96.6002,-2121.4,1.164
1.4778,1.47636,0.576042,0.188883,0,1.57368e-23,0.00135337,3.38652e-14,-9,-2218,5.38726e-37,-9,-96.6002,-2121.4,1.168
1.4778,1.47636,0.576047,0.188883,0,1.04912e-23,0.00136213,2.25768e-14,-9,-2218,2.39434e-37,-9,-96.6002,-2121.4,1.172
1.4778,1.47636,0.576053,0.188883,0,6.99415e-24,0.00137092,1.50512e-14,-9,-2218,1.06415e-37,-9,-96.6002,-2121.4,1.176
1.4778,1.47636,0.576058,0.188883,0,4.66276e-24,0.00137973,1.00341e-14,-9,-2218,4.72956e-38,-9,-96.6002,-2121.4,1.18
1.4778,1.47636,0.576064,0.188883,0,3.10851e-24,0.00138856,6.68943e-15,-9,-2218,2.10203e-38,-9,-96.6002,-2121.4,1.184
1.4778,1.47636,0.576069,0.188883,0,2.07234e-24,0.00139742,4.45962e-15,-9,-2218,9.34234e-39,-9,-96.6002,-2121.4,1.188
1.4778,1.47636,0.576075,0.188883,0,1.38156e-24,0.00140631,2.97308e-15,-9,-2218,4.15215e-39,-9,-96.6002,-2121.4,1.192
1.4778,1.47636,0.576081,0.188883,0,9.2104e-25,0.00141522,1.98205e-15,-9,-2218,1.8454e-39,-9,-96.6002,-2121.4,1.196
1.4778,1.47636,0.576086,0.188883,0,6.14027e-25,0.00142415,1.32137e-15,-9,-2218,8.20178e-40,-9,-96.6002,-2121.4,1.2
1.4778,1.47636,0.576092,0.188883,0,4.09351e-25,0.00143311,8.80912e-16,-9,-2219,3.64524e-40,-9,-96.6002,-2122.4,1.204
1.4778,1.47636,0.576098,0.188883,0,2.72901e-25,0.0014421,5.87275e-16,-9,-2219,1.6201e-40,-9,-96.6002,-2122.4,1.208
1.4778,1.47636,0.576104,0.188883,0,1.81934e-25,0.0014511,3.91517e-16,-9,-2219,7.20047e-41,-9,-96.6002,-2122.4,1.212
1.4778,1.47636,0.576109,0.188883,0,1.21289e-25,0.00146014,2.61011e-16,-9,-2219,3.20021e-41,-9,-96.6002,-2122.4,1.216
1.4778,1.47636,0.576115,0.188883,0,8.08595e-26,0.00146919,1.74007e-16,-9,-2219,1.42231e-41,-9,-96.6002,-2122.4,1.22
1.4778,1.47636,0.576121,0.188883,0,5.39063e-26,0.00147827,1.16005e-16,-9,-2219,6.3214e-42,-9,-96.6002,-2122.4,1.224
1.4778,1.47636,0.576127,0.188883,0,3.59375e-26,0.00148738,7.73366e-17,-9,-2219,2.80951e-42,-9,-96.6002,-2122.4,1.228
1.4778,1.47636,0.576133,0.188883,0,2.39584e-26,0.00149651,5.15577e-17,-9,-2219,1.24867e-42,-9,-96.6002,-2122.4,1.232
1.4778,1.47636,0.576139,0.188883,0,1.59722e-26,0.00150566,3.43718e-17,-9,-2219,5.54965e-43,-9,-96.6002,-2122.4,1.236
1.4778,1.47636,0.576145,0.188883,0,1.06482e-26,0.00151484,2.29145e-17,-9,-2219,2.46651e-43,-9,-96.6002,-2122.4,1.24
1.4778,1.47636,0.576151,0.188883,0,7.09877e-27,0.00152404,1.52764e-17,-9,-2219,1.09623e-43,-9,-96.6002,-2122.4,1.244
1.4778,1.47636,0.576157,0.188883,0,4.73252e-27,0.00153326,1.01842e-17,-9,-2219,4.87212e-44,-9,-96.6002,-2122.4,1.248
1.4778,1.47636,0.576163,0.188883,0,3.15501e-27,0.00154251,6.7895e-18,-9,-2219,2.16539e-44,-9,-96.6002,-2122.4,1.252
1.4778,1.47636,0.57617,0.188883,0,2.10334e-27,0.00155179,4.52633e-18,-9,-2219,9.62394e-45,-9,-96.6002,-2122.4,1.256
1.4778,1.47636,0.576176,0.188883,0,1.40223e-27,0.00156108,3.01755e-18,-9,-2219,4.27731e-45,-9,-96.6002,-2122.4,1.26
1.4778,1.47636,0.576182,0.188883,0,9.34818e-28,0.00157041,2.0117e-18,-9,-2219,1.90103e-45,-9,-96.6002,-2122.4,1.264
1.4778,1.47636,0.576188,0.188883,0,6.23212e-28,0.00157975,1.34113e-18,-9,-2219,8.449e-46,-9,-96.6002,-2122.4,1.268
1.4778,1.47636,0.576195,0.188883,0,4.15475e-28,0.00158912,8.9409e-19,-9,-2219,3.75511e-46,-9,-96.6002,-2122.4,1.272
1.4778,1.47636,0.576201,0.188883,0,2.76983e-28,0.00159851,5.9606e-19,-9,-2219,1.66894e-46,-9,-96.6002,-2122.4,1.276
1.4778,1.47636,0.576208,0.188883,0,1.84655e-28,0.00160793,3.97373e-19,-9,-2219,7.4175e-47,-9,-96.6002,-2122.4,1.28
1.4778,1.47636,0.576214,0.188883,0,1.23104e-28,0.00161737,2.64916e-19,-9,-2219,3.29667e-47,-9,-96.6002,-2122.4,1.284
1.4778,1.47636,0.57622,0.188883,0,8.20691e-29,0.00162684,1.7661e-19,-9,-2219,1.46519e-47,-9,-96.6002,-2122.4,1.288
1.4778,1.47636,0.576227,0.188883,0,5.47127e-29,0.00163632,1.1774e-19,-9,-2219,6.51194e-48,-9,-96.6002,-2122.4,1.292
1.4778,1.47636,0.576234,0.188883,0,3.64751e-29,0.00164583,7.84935e-20,-9,-2219,2.89419e-48,-9,-96.6002,-2122.4,1.296
1.4778,1.47636,0.57624,0.188883,0,2.43168e-29,0.00165537,5.2329e-20,-9,-2219,1.28631e-48,-9,-96.6002,-2122.4,1.3
1.4778,1.47636,0.576247,0.188883,0,1.62112e-29,0.00166493,3.4886e-20,-9,-2219,5.71693e-49,-9,-96.6002,-2122.4,1.304
1.4778,1.47636,0.576253,0.188883,0,1.08074e-29,0.00167451,2.32573e-20,-9,-2219,2.54086e-49,-9,-96.6002,-2122.4,1.308
1.4778,1.47636,0.57626,0.188883,0,7.20496e-30,0.00168412,1.55049e-20,-9,-2219,1.12927e-49,-9,-96.6002,-2122.4,1.312
1.4778,1.47636,0.576267,0.188883,0,4.80331e-30,0.00169375,1.03366e-20,-9,-2219,5.01898e-50,-9,-96.6002,-2122.4,1.316
1.4778,1.47636,0.576274,0.188883,0,3.20221e-30,0.0017034,6.89106e-21,-9,-2220,2.23066e-50,-9,-96.6002,-2123.4,1.32
1.4778,1.47636,0.576281,0.188883,0,2.1348e-30,0.00171308,4.59404e-21,-9,-2220,9.91403e-51,-9,-96.6002,-2123.4,1.324
1.4778,1.47636,0.576287,0.188883,0,1.4232e-30,0.00172278,3.06269e-21,-9,-2220,4.40623e-51,-9,-96.6002,-2123.4,1.328
1.4778,1.47636,0.576294,0.188883,0,9.48802e-31,0.0017325,2.0418e-21,-9,-2220,1.95833e-51,-9,-96.6002,-2123.4,1.332
1.4778,1.47636,0.576301,0.188883,0,6.32535e-31,0.00174225,1.3612e-21,-9,-2220,8.70367e-52,-9,-96.6002,-2123.4,1.336
1.4778,1.47636,0.576308,0.188883,0,4.2169e-31,0.00175202,9.07465e-22,-9,-2220,3.8683e-52,-9,-96.6002,-2123.4,1.34
1.4778,1.47636,0.576315,0.188883,0,2.81127e-31,0.00176181,6.04977e-22,-9,-2220,1.71924e-52,-9,-96.6002,-2123.4,1.344
1.4778,1.47636,0.576322,0.188883,0,1.87418e-31,0.00177162,4.03318e-22,-9,-2220,7.64108e-53,-9,-96.6002,-2123.4,1.348
1.4778,1.47636,0.576329,0.188883,0,1.24945e-31,0.00178146,2.68878e-22,-9,-2220,3.39604e-53,-9,-96.6002,-2123.4,1.352
1.4778,1.47636,0.576337,0.188883,0,8.32967e-32,0.00179133,1.79252e-22,-9,-2220,1.50935e-53,-9,-96.6002,-2123.4,1.356
1.4778,1.47636,0.576344,0.188883,0,5.55312e-32,0.00180121,1.19502e-22,-9,-2220,6.70822e-54,-9,-96.6002,-2123.4,1.36
1.4778,1.47636,0.576351,0.188883,0,3.70208e-32,0.00181112,7.96677e-23,-9,-2220,2.98143e-54,-9,-96.6002,-2123.4,1.364
1.4778,1.47636,0.576358,0.188883,0,2.46805e-32,0.00182105,5.31118e-23,-9,-2220,1.32508e-54,-9,-96.6002,-2123.4,1.368
1.4778,1.47636,0.576366,0.188883,0,1.64537e-32,0.00183101,3.54079e-23,-9,-2220,5.88925e-55,-9,-96.6002,-2123.4,1.372
1.4778,1.47636,0.576373,0.188883,0,1.09691e-32,0.00184099,2.36052e-23,-9,-2220,2.61744e-55,-9,-96.6002,-2123.4,1.376
1.4778,1.47636,0.57638,0.188883,0,7.31275e-33,0.00185099,1.57368e-23,-9,-2220,1.16331e-55,-9,-96.6002,-2123.4,1.38
1.4778,1.47636,0.576388,0.188883,0,4.87516e-33,0.00186101,1.04912e-23,-9,-2220,5.17026e-56,-9,-96.6002,-2123.4,1.384
1.4778,1.47636,0.576395,0.188883,0,3.25011e-33,0.00187106,6.99415e-24,-9,-2220,2.29789e-56,-9,-96.6002,-2123.4,1.388
1.4778,1.47636,0.576403,0.188883,0,2.16674e-33,0.00188113,4.66276e-24,-9,-2220,1.02129e-56,-9,-96.6002,-2123.4,1.392
1.4778,1.47636,0.57641,0.188883,0,1.44449e-33,0.00189122,3.10851e-24,-9,-2220,4.53905e-57,-9,-96.6002,-2123.4,1.396
1.4778,1.47636,0.576418,0.188883,0,9.62995e-34,0.00190133,2.07234e-24,-9,-2220,2.01735e-57,-9,-96.6002,-2123.4,1.4
1.4778,1.47636,0.576425,0.188883,0,6.41997e-34,0.00191147,1.38156e-24,-9,-2220,8.96602e-58,-9,-96.6002,-2123.4,1.404
1.4778,1.47636,0.576433,0.188883,0,4.27998e-34,0.00192163,9.2104e-25,-9,-2220,3.9849e-58,-9,-96.6002,-2123.4,1.408
1.4778,1.47636,0.576441,0.188883,0,2.85332e-34,0.00193181,6.14027e-25,-9,-2220,1.77107e-58,-9,-96.6002,-2123.4,1.412
1.4778,1.47636,0.576449,0.188883,0,1.90221e-34,0.00194202,4.09351e-25,-9,-2220,7.8714e-59,-9,-96.6002,-2123.4,1.416
1.4778,1.47636,0.576456,0.188883,0,1.26814e-34,0.00195225,2.72901e-25,-9,-2221,3.4984e-59,-9,-96.6002,-2124.4,1.42
1.4778,1.47636,0.576464,0.188883,0,8.45428e-35,0.0019625,1.81934e-25,-9,-2221,1.55485e-59,-9,-96.6002,-2124.4,1.424
1.4778,1.47636,0.576472,0.188883,0,5.63619e-35,0.00197277,1.21289e-25,-9,-2221,6.91042e-60,-9,-96.6002,-2124.4,1.428
1.4778,1.47636,0.57648,0.188883,0,3.75746e-35,0.00198307,8.08595e-26,-9,-2221,3.0713e-60,-9,-96.6002,-2124.4,1.432
1.4778,1.47636,0.576488,0.188883,0,2.50497e-35,0.00199339,5.39063e-26,-9,-2221,1.36502e-60,-9,-96.6002,-2124.4,1.436
1.4778,1.47636,0.576496,0.188883,0,1.66998e-35,0.00200373,3.59375e-26,-9,-2221,6.06676e-61,-9,-96.6002,-2124.4,1.44
1.4778,1.47636,0.576504,0.188883,0,1.11332e-35,0.00201409,2.39584e-26,-9,-2221,2.69634e-61,-9,-96.6002,-2124.4,1.444
1.4778,1.47636,0.576512,0.188883,0,7.42214e-36,0.00202448,1.59722e-26,-9,-2221,1.19837e-61,-9,-96.6002,-2124.4,1.448
1.4778,1.47636,0.57652,0.188883,0,4.94809e-36,0.00203489,1.06482e-26,-9,-2221,5.3261e-62,-9,-96.6002,-2124.4,1.452
1.4778,1.47636,0.576528,0.188883,0,3.29873e-36,0.00204532,7.09877e-27,-9,-2221,2.36716e-62,-9,-96.6002,-2124.4,1.456
1.4778,1.47636,0.576537,0.188883,0,2.19915e-36,0.00205577,4.73252e-27,-9,-2221,1.05207e-62,-9,-96.6002,-2124.4,1.46
1.4778,1.47636,0.576545,0.188883,0,1.4661e-36,0.00206624,3.15501e-27,-9,-2221,4.67586e-63,-9,-96.6002,-2124.4,1.464
1.4778,1.47636,0.576553,0.188883,0,9.77401e-37,0.00207674,2.10334e-27,-9,-2221,2.07816e-63,-9,-96.6002,-2124.4,1.468
1.4778,1.47636,0.576561,0.188883,0,6.51601e-37,0.00208726,1.40223e-27,-9,-2221,9.23628e-64,-9,-96.6002,-2124.4,1.472
1.4778,1.47636,0.57657,0.188883,0,4.344e-37,0.0020978,9.34818e-28,-9,-2221,4.10501e-64,-9,-96.6002,-2124.4,1.476
1.4778,1.47636,0.576578,0.188883,0,2.896e-37,0.00210837,6.23212e-28,-9,-2221,1.82445e-64,-9,-96.6002,-2124.4,1.48
1.4778,1.47636,0.576587,0.188883,0,1.93067e-37,0.00211895,4.15475e-28,-9,-2221,8.10866e-65,-9,-96.6002,-2124.4,1.484
1.4778,1.47636,0.576595,0.188883,0,1.28711e-37,0.00212956,2.76983e-28,-9,-2221,3.60385e-65,-9,-96.6002,-2124.4,1.488
1.4778,1.47636,0.576604,0.188883,0,8.58075e-38,0.00214019,1.84655e-28,-9,-2221,1.60171e-65,-9,-96.6002,-2124.4,1.492
1.4778,1.47636,0.576612,0.188883,0,5.7205e-38,0.00215084,1.23104e-28,-9,-2221,7.11872e-66,-9,-96.6002,-2124.4,1.496
1.4778,1.47636,0.576621,0.188883,0,3.81367e-38,0.00216151,8.20691e-29,-9,-2221,3.16387e-66,-9,-96.6002,-2124.4,1.5
1.4778,1.47636,0.57663,0.188883,0,2.54244e-38,0.00217221,5.47127e-29,-9,-2221,1.40617e-66,-9,-96.6002,-2124.4,1.504
1.4778,1.47636,0.576638,0.188883,0,1.69496e-38,0.00218293,3.64751e-29,-9,-2222,6.24963e-67,-9,-96.6002,-2125.4,1.508
1.4778,1.47636,0.576647,0.188883,0,1.12998e-38,0.00219367,2.43168e-29,-9,-2222,2.77761e-67,-9,-96.6002,-2125.4,1.512
1.4778,1.47636,0.576656,0.188883,0,7.53317e-39,0.00220443,1.62112e-29,-9,-2222,1.23449e-67,-9,-96.6002,-2125.4,1.516
1.4778,1.47636,0.576665,0.188883,0,5.02211e-39,0.00221521,1.08074e-29,-9,-2222,5.48664e-68,-9,-96.6002,-2125.4,1.52
1.4778,1.47636,0.576674,0.188883,0,3.34807e-39,0.00222601,7.20496e-30,-9,-2222,2.43851e-68,-9,-96.6002,-2125.4,1.524
1.4778,1.47636,0.576682,0.188883,0,2.23205e-39,0.00223684,4.80331e-30,-9,-2222,1.08378e-68,-9,-96.6002,-2125.4,1.528
1.4778,1.47636,0.576691,0.188883,0,1.48803e-39,0.00224769,3.20221e-30,-9,-2222,4.81681e-69,-9,-96.6002,-2125.4,1.532
1.4778,1.47636,0.5767,0.188883,0,9.92022e-40,0.00225856,2.1348e-30,-9,-2222,2.1408e-69,-9,-96.6002,-2125.4,1.536
1.4778,1.47636,0.576709,0.188883,0,6.61348e-40,0.00226945,1.4232e-30,-9,-2222,9.51468e-70,-9,-96.6002,-2125.4,1.54
1.4778,1.47636,0.576719,0.188883,0,4.40899e-40,0.00228036,9.48802e-31,-9,-2222,4.22875e-70,-9,-96.6002,-2125.4,1.544
1.4778,1.47636,0.576728,0.188883,0,2.93932e-40,0.0022913,6.32535e-31,-9,-2222,1.87944e-70,-9,-96.6002,-2125.4,1.548
1.4778,1.47636,0.576737,0.188883,0,1.95955e-40,0.00230225,4.2169e-31,-9,-2222,8.35308e-71,-9,-96.6002,-2125.4,1.552
1.4778,1.47636,0.576746,0.188883,0,1.30637e-40,0.00231323,2.81127e-31,-9,-2222,3.71248e-71,-9,-96.6002,-2125.4,1.556
1.4778,1.47636,0.576755,0.188883,0,8.70911e-41,0.00232423,1.87418e-31,-9,-2222,1.64999e-71,-9,-96.6002,-2125.4,1.56
1.4778,1.47636,0.576765,0.188883,0,5.80607e-41,0.00233525,1.24945e-31,-9,-2222,7.33329e-72,-9,-96.6002,-2125.4,1.564
1.4778,1.47636,0.576774,0.188883,0,3.87072e-41,0.00234629,8.32967e-32,-9,-2222,3.25924e-72,-9,-96.6002,-2125.4,1.568
1.4778,1.47636,0.576784,0.188883,0,2.58048e-41,0.00235735,5.55312e-32,-9,-2222,1.44855e-72,-9,-96.6002,-2125.4,1.572
1.4778,1.47636,0.576793,0.188883,0,1.72032e-41,0.00236844,3.70208e-32,-9,-2222,6.43801e-73,-9,-96.6002,-2125.4,1.576
1.4778,1.47636,0.576802,0.188883,0,1.14688e-41,0.00237954,2.46805e-32,-9,-2222,2.86134e-73,-9,-96.6002,-2125.4,1.58
1.4778,1.47636,0.576812,0.188883,0,7.64586e-42,0.00239067,1.64537e-32,-9,-2222,1.27171e-73,-9,-96.6002,-2125.4,1.584
1.4778,1.47636,0.576822,0.188883,0,5.09724e-42,0.00240182,1.09691e-32,-9,-2223,5.65202e-74,-9,-96.6002,-2126.4,1.588
1.4778,1.47636,0.576831,0.188883,0,3.39816e-42,0.00241299,7.31275e-33,-9,-2223,2.51201e-74,-9,-96.6002,-2126.4,1.592
1.4778,1.47636,0.576841,0.188883,0,2.26544e-42,0.00242418,4.87516e-33,-9,-2223,1.11645e-74,-9,-96.6002,-2126.4,1.596
1.4778,1.47636,0.576851,0.188883,0,1.51029e-42,0.00243539,3.25011e-33,-9,-2223,4.96199e-75,-9,-96.6002,-2126.4,1.6
1.4778,1.47636,0.57686,0.188883,0,1.00686e-42,0.00244662,2.16674e-33,-9,-2223,2.20533e-75,-9,-96.6002,-2126.4,1.604
1.4778,1.47636,0.57687,0.188883,0,6.71241e-43,0.00245787,1.44449e-33,-9,-2223,9.80147e-76,-9,-96.6002,-2126.4,1.608
1.4778,1.47636,0.57688,0.188883,0,4.47494e-43,0.00246915,9.62995e-34,-9,-2223,4.35621e-76,-9,-96.6002,-2126.4,1.612
1.4778,1.47636,0.57689,0.188883,0,2.98329e-43,0.00248044,6.41997e-34,-9,-2223,1.93609e-76,-9,-96.6002,-2126.4,1.616
1.4778,1.47636,0.5769,0.188883,0,1.98886e-43,0.00249176,4.27998e-34,-9,-2223,8.60486e-77,-9,-96.6002,-2126.4,1.62
1.4778,1.47636,0.57691,0.188883,0,1.32591e-43,0.0025031,2.85332e-34,-9,-2223,3.82438e-77,-9,-96.6002,-2126.4,1.624
1.4778,1.47636,0.57692,0.188882,0,8.83939e-44,0.00251446,-5.75818e-05,-9,-2223,-5.14522e-48,-9,-96.6003,-2126.4,1.628
1.4778,1.47636,0.57693,0.188883,0,5.89293e-44,0.00252583,1.91939e-05,-9,-2223,1.14339e-48,-9,-96.6002,-2126.4,1.632
1.4778,1.47636,0.57694,0.188883,0,3.92862e-44,0.00253723,1.2796e-05,-9,-2223,5.08171e-49,-9,-96.6002,-2126.4,1.636
1.4778,1.47636,0.57695,0.188883,0,2.61908e-44,0.00254865,8.53064e-06,-9,-2223,2.25854e-49,-9,-96.6002,-2126.4,1.64
1.4778,1.47636,0.57696,0.188883,0,1.74605e-44,0.0025601,5.6871e-06,-9,-2223,1.0038e-49,-9,-96.6002,-2126.4,1.644
1.4778,1.47636,0.576971,0.188883,0,1.16404e-44,0.00257156,3.7914e-06,-9,-2223,4.46131e-50,-9,-96.6002,-2126.4,1.648
1.4778,1.47636,0.576981,0.188883,0,7.76023e-45,0.00258304,2.5276e-06,-9,-2223,1.98281e-50,-9,-96.6002,-2126.4,1.652
1.4778,1.47636,0.576991,0.188883,0,5.17349e-45,0.00259454,1.68507e-06,-9,-2223,8.81247e-51,-9,-96.6002,-2126.4,1.656
1.4778,1.47636,0.577002,0.188883,0,3.44899e-45,0.00260607,1.12338e-06,-9,-2224,3.91665e-51,-9,-96.6002,-2127.4,1.66
1.4778,1.47636,0.577012,0.188883,0,-2.87909e-05,0.00261761,7.48918e-07,-9,-2224,-2.17965e-11,-9,-96.6002,-2127.4,1.664
1.4778,1.47636,0.577023,0.188883,0,9.59697e-06,0.00262918,4.99279e-07,-9,-2224,4.84367e-12,-9,-96.6002,-2127.4,1.668
1.4778,1.47636,0.577033,0.188883,0,6.39798e-06,0.00264076,3.32852e-07,-9,-2224,2.15274e-12,-9,-96.6002,-2127.4,1.672
1.4778,1.47636,0.577044,0.188883,0,4.26532e-06,0.00265237,2.21902e-07,-9,-2224,9.56774e-13,-9,-96.6002,-2127.4,1.676
1.4778,1.47636,0.577055,0.188883,0,2.84355e-06,0.002664,1.47934e-07,-9,-2224,4.25233e-13,-9,-96.6002,-2127.4,1.68
1.4778,1.47636,0.577065,0.188883,0,1.8957e-06,0.00267564,9.86229e-08,-9,-2224,1.88992e-13,-9,-96.6002,-2127.4,1.684
1.4778,1.47636,0.577076,0.188883,0,1.2638e-06,0.00268731,6.57486e-08,-9,-2224,8.39966e-14,-9,-96.6002,-2127.4,1.688
1.4778,1.47636,0.577087,0.188883,0,8.42533e-07,0.002699,4.38324e-08,-9,-2224,3.73318e-14,-9,-96.6002,-2127.4,1.692
1.4778,1.47636,0.577098,0.188883,0,5.61689e-07,0.00271071,2.92216e-08,-9,-2224,1.65919e-14,-9,-96.6002,-2127.4,1.696
1.4778,1.47636,0.577108,0.188883,0,3.74459e-07,0.00272244,1.94811e-08,-9,-2224,7.37419e-15,-9,-96.6002,-2127.4,1.7
1.4778,1.47636,0.577119,0.188883,0,2.49639e-07,0.00273418,1.29874e-08,-9,-2224,3.27742e-15,-9,-96.6002,-2127.4,1.704
1.4778,1.47636,0.57713,0.188883,0,1.66426e-07,0.00274595,8.65826e-09,-9,-2224,1.45663e-15,-9,-96.6002,-2127.4,1.708
1.4778,1.47636,0.577141,0.188883,0,1.10951e-07,0.00275774,5.77217e-09,-9,-2224,6.47391e-16,-9,-96.6002,-2127.4,1.712
1.4778,1.47636,0.577152,0.188883,0,7.39672e-08,0.00276955,3.84811e-09,-9,-2224,2.87729e-16,-9,-96.6002,-2127.4,1.716
1.4778,1.47636,0.577163,0.188883,0,4.93115e-08,0.00278138,2.56541e-09,-9,-2224,1.2788e-16,-9,-96.6002,-2127.4,1.72
1.4778,1.47636,0.577175,0.188883,0,-2.87581e-05,0.00279323,1.71027e-09,-9,-2224,-4.9719e-14,-9,-96.6002,-2127.4,1.724
1.4778,1.47636,0.577186,0.188883,0,9.61889e-06,0.0028051,1.14018e-09,-9,-2225,1.10865e-14,-9,-96.6002,-2128.4,1.728
1.4778,1.47636,0.577197,0.188883,0,6.41259e-06,0.00281699,7.60121e-10,-9,-2225,4.92735e-15,-9,-96.6002,-2128.4,1.732
1.4778,1.47636,0.577208,0.188883,0,4.27506e-06,0.0028289,5.06748e-10,-9,-2225,2.18994e-15,-9,-96.6002,-2128.4,1.736
1.4778,1.47636,0.57722,0.188883,0,2.85004e-06,0.00284083,3.37832e-10,-9,-2225,9.73305e-16,-9,-96.6002,-2128.4,1.74
1.4778,1.47636,0.577231,0.188883,0,1.90003e-06,0.00285278,2.25221e-10,-9,-2225,4.3258e-16,-9,-96.6002,-2128.4,1.744
1.4778,1.47636,0.577242,0.188883,0,1.26669e-06,0.00286475,1.50147e-10,-9,-2225,1.92258e-16,-9,-96.6002,-2128.4,1.748
1.4778,1.47636,0.577254,0.188883,0,8.44457e-07,0.00287674,1.00098e-10,-9,-2225,8.54479e-17,-9,-96.6002,-2128.4,1.752
1.4778,1.47636,0.577265,0.188883,0,5.62971e-07,0.00288875,6.67322e-11,-9,-2225,3.79768e-17,-9,-96.6002,-2128.4,1.756
1.4778,1.47636,0.577277,0.188883,0,3.75314e-07,0.00290078,4.44881e-11,-9,-2225,1.68786e-17,-9,-96.6002,-2128.4,1.76
1.4778,1.47636,0.577289,0.188883,0,2.50209e-07,0.00291282,2.96587e-11,-9,-2225,7.5016e-18,-9,-96.6002,-2128.4,1.764
1.4778,1.47636,0.5773,0.188883,0,1.66806e-07,0.00292489,1.97725e-11,-9,-2225,3.33404e-18,-9,-96.6002,-2128.4,1.768
1.4778,1.47636,0.577312,0.188883,0,1.11204e-07,0.00293698,1.31817e-11,-9,-2225,1.4818e-18,-9,-96.6002,-2128.4,1.772
1.4778,1.47636,0.577324,0.188883,0,7.41361e-08,0.00294909,8.78778e-12,-9,-2225,6.58576e-19,-9,-96.6002,-2128.4,1.776
1.4778,1.47636,0.577336,0.188883,0,4.94241e-08,0.00296122,5.85852e-12,-9,-2225,2.92701e-19,-9,-96.6002,-2128.4,1.78
1.4778,1.47636,0.577348,0.188883,0,3.29494e-08,0.00297336,3.90568e-12,-9,-2225,1.30089e-19,-9,-96.6002,-2128.4,1.784
1.4778,1.47636,0.577359,0.188883,0,2.19663e-08,0.00298553,2.60379e-12,-9,-2225,5.78174e-20,-9,-96.6002,-2128.4,1.788
1.4778,1.47636,0.577371,0.188883,0,1.46442e-08,0.00299772,1.73586e-12,-9,-2226,2.56966e-20,-9,-96.6002,-2129.4,1.792
1.4778,1.47636,0.577383,0.188883,0,9.76278e-09,0.00300992,1.15724e-12,-9,-2226,1.14207e-20,-9,-96.6002,-2129.4,1.796
1.4778,1.47636,0.577396,0.188883,0,6.50852e-09,0.00302215,7.71492e-13,-9,-2226,5.07588e-21,-9,-96.6002,-2129.4,1.8
1.4778,1.47636,0.577408,0.188883,0,4.33901e-09,0.00303439,5.14328e-13,-9,-2226,2.25594e-21,-9,-96.6002,-2129.4,1.804
1.4778,1.47636,0.57742,0.188883,0,2.89268e-09,0.00304665,3.42885e-13,-9,-2226,1.00264e-21,-9,-96.6002,-2129.4,1.808
1.4778,1.47636,0.577432,0.188883,0,1.92845e-09,0.00305894,2.2859e-13,-9,-2226,4.45619e-22,-9,-96.6002,-2129.4,1.812
1.4778,1.47636,0.577444,0.188883,0,1.28563e-09,0.00307124,1.52393e-13,-9,-2226,1.98053e-22,-9,-96.6002,-2129.4,1.816
1.4778,1.47636,0.577457,0.188883,0,8.57089e-10,0.00308356,1.01596e-13,-9,-2226,8.80235e-23,-9,-96.6002,-2129.4,1.82
1.4778,1.47636,0.577469,0.188883,0,5.71393e-10,0.0030959,6.77304e-14,-9,-2226,3.91215e-23,-9,-96.6002,-2129.4,1.824
1.4778,1.47636,0.577481,0.188883,0,3.80929e-10,0.00310826,4.51536e-14,-9,-2226,1.73873e-23,-9,-96.6002,-2129.4,1.828
1.4778,1.47636,0.577494,0.188883,0,2.53952e-10,0.00312064,3.01024e-14,-9,-2226,7.72771e-24,-9,-96.6002,-2129.4,1.832
1.4778,1.47636,0.577506,0.188883,0,1.69302e-10,0.00313304,2.00683e-14,-9,-2226,3.43454e-24,-9,-96.6002,-2129.4,1.836
1.4778,1.47636,0.577519,0.188883,0,1.12868e-10,0.00314546,1.33789e-14,-9,-2226,1.52646e-24,-9,-96.6002,-2129.4,1.84
1.4778,1.47636,0.577531,0.188883,0,7.52451e-11,0.0031579,8.91924e-15,-9,-2226,6.78427e-25,-9,-96.6002,-2129.4,1.844
1.4778,1.47636,0.577544,0.188883,0,5.01634e-11,0.00317036,5.94616e-15,-9,-2226,3.01523e-25,-9,-96.6002,-2129.4,1.848
1.4778,1.47636,0.577557,0.188883,0,3.34423e-11,0.00318283,3.9641e-15,-9,-2227,1.3401e-25,-9,-96.6002,-2130.4,1.852
1.4778,1.47636,0.57757,0.188883,0,2.22949e-11,0.00319533,2.64274e-15,-9,-2227,5.95601e-26,-9,-96.6002,-2130.4,1.856
1.4778,1.47636,0.577582,0.188883,0,1.48632e-11,0.00320784,1.76182e-15,-9,-2227,2.64712e-26,-9,-96.6002,-2130.4,1.86
1.4778,1.47636,0.577595,0.188883,0,9.90883e-12,0.00322037,1.17455e-15,-9,-2227,1.1765e-26,-9,-96.6002,-2130.4,1.864
1.4778,1.47636,0.577608,0.188883,0,6.60588e-12,0.00323292,7.83033e-16,-9,-2227,5.22887e-27,-9,-96.6002,-2130.4,1.868
1.4778,1.47636,0.577621,0.188883,0,4.40392e-12,0.00324549,5.22022e-16,-9,-2227,2.32394e-27,-9,-96.6002,-2130.4,1.872
1.4778,1.47636,0.577634,0.188883,0,2.93595e-12,0.00325808,3.48015e-16,-9,-2227,1.03286e-27,-9,-96.6002,-2130.4,1.876
1.4778,1.47636,0.577647,0.188883,0,1.9573e-12,0.00327069,2.3201e-16,-9,-2227,4.59051e-28,-9,-96.6002,-2130.4,1.88
1.4778,1.47636,0.57766,0.188883,0,1.30487e-12,0.00328332,1.54673e-16,-9,-2227,2.04023e-28,-9,-96.6002,-2130.4,1.884
1.4778,1.47636,0.577673,0.188883,0,8.69911e-13,0.00329596,1.03115e-16,-9,-2227,9.06767e-29,-9,-96.6002,-2130.4,1.888
1.4778,1.47636,0.577687,0.188883,0,5.7994e-13,0.00330863,6.87436e-17,-9,-2227,4.03007e-29,-9,-96.6002,-2130.4,1.892
1.4778,1.47636,0.5777,0.188883,0,3.86627e-13,0.00332131,4.58291e-17,-9,-2227,1.79114e-29,-9,-96.6002,-2130.4,1.896
1.4778,1.47636,0.577713,0.188883,0,2.57751e-13,0.00333401,3.05527e-17,-9,-2227,7.96064e-30,-9,-96.6002,-2130.4,1.9
1.4778,1.47636,0.577727,0.188883,0,1.71834e-13,0.00334673,2.03685e-17,-9,-2227,3.53806e-30,-9,-96.6002,-2130.4,1.904
1.4778,1.47636,0.57774,0.188883,0,1.14556e-13,0.00335947,1.3579e-17,-9,-2228,1.57247e-30,-9,-96.6002,-2131.4,1.908
1.4778,1.47636,0.577753,0.188883,0,7.63708e-14,0.00337223,9.05266e-18,-9,-2228,6.98877e-31,-9,-96.6002,-2131.4,1.912
1.4778,1.47636,0.577767,0.188883,0,5.09138e-14,0.003385,6.03511e-18,-9,-2228,3.10612e-31,-9,-96.6002,-2131.4,1.916
1.4778,1.47636,0.577781,0.188883,0,3.39426e-14,0.0033978,4.0234e-18,-9,-2228,1.3805e-31,-9,-96.6002,-2131.4,1.92
1.4778,1.47636,0.577794,0.188883,0,2.26284e-14,0.00341061,2.68227e-18,-9,-2228,6.13554e-32,-9,-96.6002,-2131.4,1.924
1.4778,1.47636,0.577808,0.188883,0,1.50856e-14,0.00342344,1.78818e-18,-9,-2228,2.72691e-32,-9,-96.6002,-2131.4,1.928
1.4778,1.47636,0.577822,0.188883,0,1.00571e-14,0.00343629,1.19212e-18,-9,-2228,1.21196e-32,-9,-96.6002,-2131.4,1.932
1.4778,1.47636,0.577835,0.188883,0,6.7047e-15,0.00344916,7.94747e-19,-9,-2228,5.38648e-33,-9,-96.6002,-2131.4,1.936
1.4778,1.47636,0.577849,0.188883,0,4.4698e-15,0.00346205,5.29831e-19,-9,-2228,2.39399e-33,-9,-96.6002,-2131.4,1.94
1.4778,1.47636,0.577863,0.188883,0,2.97987e-15,0.00347495,3.53221e-19,-9,-2228,1.064e-33,-9,-96.6002,-2131.4,1.944
1.4778,1.47636,0.577877,0.188883,0,1.98658e-15,0.00348788,2.3548e-19,-9,-2228,4.72887e-34,-9,-96.6002,-2131.4,1.948
1.4778,1.47636,0.577891,0.188883,0,1.32439e-15,0.00350082,1.56987e-19,-9,-2228,2.10172e-34,-9,-96.6002,-2131.4,1.952
1.4778,1.47636,0.577905,0.188883,0,8.82924e-16,0.00351378,1.04658e-19,-9,-2228,9.34099e-35,-9,-96.6002,-2131.4,1.956
1.4778,1.47636,0.577919,0.188883,0,5.88616e-16,0.00352676,6.9772e-20,-9,-2229,4.15155e-35,-9,-96.6002,-2132.4,1.96
1.4778,1.47636,0.577933,0.188883,0,3.92411e-16,0.00353975,4.65147e-20,-9,-2229,1.84513e-35,-9,-96.6002,-2132.4,1.964
1.4778,1.47636,0.577947,0.188883,0,2.61607e-16,0.00355277,3.10098e-20,-9,-2229,8.20059e-36,-9,-96.6002,-2132.4,1.968
1.4778,1.47636,0.577962,0.188883,0,1.74405e-16,0.0035658,2.06732e-20,-9,-2229,3.64471e-36,-9,-96.6002,-2132.4,1.972
1.4778,1.47636,0.577976,0.188883,0,1.1627e-16,0.00357885,1.37821e-20,-9,-2229,1.61987e-36,-9,-96.6002,-2132.4,1.976
1.4778,1.47636,0.57799,0.188883,0,7.75132e-17,0.00359192,9.18808e-21,-9,-2229,7.19942e-37,-9,-96.6002,-2132.4,1.98
1.4778,1.47636,0.578005,0.188883,0,5.16755e-17,0.003605,6.12539e-21,-9,-2229,3.19974e-37,-9,-96.6002,-2132.4,1.984
1.4778,1.47636,0.578019,0.188883,0,3.44503e-17,0.00361811,4.08359e-21,-9,-2229,1.42211e-37,-9,-96.6002,-2132.4,1.988
1.4778,1.47636,0.578034,0.188883,0,2.29669e-17,0.00363123,2.72239e-21,-9,-2229,6.32048e-38,-9,-96.6002,-2132.4,1.992
1.4778,1.47636,0.578048,0.188883,0,1.53113e-17,0.00364437,1.81493e-21,-9,-2229,2.8091e-38,-9,-96.6002,-2132.4,1.996
1.4778,1.47636,0.578063,0.188883,0,1.02075e-17,0.00365753,1.20995e-21,-9,-2229,1.24849e-38,-9,-96.6002,-2132.4,2
1.4778,1.47636,0.578077,0.188883,0,6.805e-18,0.0036707,8.06635e-22,-9,-2229,5.54884e-39,-9,-96.6002,-2132.4,2.004
1.4778,1.47636,0.578092,0.188883,0,4.53667e-18,0.0036839,5.37757e-22,-9,-2229,2.46615e-39,-9,-96.6002,-2132.4,2.008
1.4778,1.47636,0.578107,0.188883,0,3.02444e-18,0.00369711,3.58505e-22,-9,-2230,1.09607e-39,-9,-96.6002,-2133.4,2.012
1.4778,1.47636,0.578122,0.188883,0,2.0163e-18,0.00371034,2.39003e-22,-9,-2230,4.87141e-40,-9,-96.6002,-2133.4,2.016
1.4778,1.47636,0.578137,0.188883,0,1.3442e-18,0.00372359,1.59335e-22,-9,-2230,2.16507e-40,-9,-96.6002,-2133.4,2.02
1.4778,1.47636,0.578151,0.188883,0,8.96132e-19,0.00373685,1.06224e-22,-9,-2230,9.62255e-41,-9,-96.6002,-2133.4,2.024
1.4778,1.47636,0.578166,0.188883,0,5.97421e-19,0.00375013,7.08157e-23,-9,-2230,4.27669e-41,-9,-96.6002,-2133.4,2.028
1.4778,1.47636,0.578181,0.188883,0,3.98281e-19,0.00376343,4.72105e-23,-9,-2230,1.90075e-41,-9,-96.6002,-2133.4,2.032
1.4778,1.47636,0.578197,0.188883,0,2.65521e-19,0.00377675,3.14737e-23,-9,-2230,8.44778e-42,-9,-96.6002,-2133.4,2.036
1.4778,1.47636,0.578212,0.188883,0,1.77014e-19,0.00379009,2.09824e-23,-9,-2230,3.75457e-42,-9,-96.6002,-2133.4,2.04
1.4778,1.47636,0.578227,0.188883,0,1.18009e-19,0.00380344,1.39883e-23,-9,-2230,1.6687e-42,-9,-96.6002,-2133.4,2.044
1.4778,1.47636,0.578242,0.188883,0,7.86727e-20,0.00381681,9.32553e-24,-9,-2230,7.41643e-43,-9,-96.6002,-2133.4,2.048
1.4778,1.47636,0.578257,0.188883,0,5.24485e-20,0.0038302,6.21702e-24,-9,-2230,3.29619e-43,-9,-96.6002,-2133.4,2.052
1.4778,1.47636,0.578273,0.188883,0,3.49657e-20,0.0038436,4.14468e-24,-9,-2230,1.46497e-43,-9,-96.6002,-2133.4,2.056
1.4778,1.47636,0.578288,0.188883,0,2.33104e-20,0.00385703,2.76312e-24,-9,-2231,6.51099e-44,-9,-96.6002,-2134.4,2.06
1.4778,1.47636,0.578304,0.188883,0,1.55403e-20,0.00387047,1.84208e-24,-9,-2231,2.89378e-44,-9,-96.6002,-2134.4,2.064
1.4778,1.47636,0.578319,0.188883,0,1.03602e-20,0.00388392,1.22805e-24,-9,-2231,1.28612e-44,-9,-96.6002,-2134.4,2.068
1.4778,1.47636,0.578335,0.188883,0,6.9068e-21,0.0038974,8.18702e-25,-9,-2231,5.7161e-45,-9,-96.6002,-2134.4,2.072
1.4778,1.47636,0.57835,0.188883,0,4.60453e-21,0.00391089,5.45801e-25,-9,-2231,2.54049e-45,-9,-96.6002,-2134.4,2.076
1.4778,1.47636,0.578366,0.188883,0,3.06969e-21,0.0039244,3.63868e-25,-9,-2231,1.12911e-45,-9,-96.6002,-2134.4,2.08
1.4778,1.47636,0.578382,0.188883,0,2.04646e-21,0.00393792,2.42578e-25,-9,-2231,5.01825e-46,-9,-96.6002,-2134.4,2.084
1.4778,1.47636,0.578397,0.188883,0,1.36431e-21,0.00395147,1.61719e-25,-9,-2231,2.23033e-46,-9,-96.6002,-2134.4,2.088
1.4778,1.47636,0.578413,0.188883,0,9.09537e-22,0.00396503,1.07813e-25,-9,-2231,9.91259e-47,-9,-96.6002,-2134.4,2.092
1.4778,1.47636,0.578429,0.188883,0,6.06358e-22,0.00397861,7.18751e-26,-9,-2231,4.4056e-47,-9,-96.6002,-2134.4,2.096
1.4778,1.47636,0.578445,0.188883,0,4.04239e-22,0.0039922,4.79167e-26,-9,-2231,1.95804e-47,-9,-96.6002,-2134.4,2.1
1.4778,1.47636,0.578461,0.188883,0,2.69492e-22,0.00400581,3.19445e-26,-9,-2232,8.70241e-48,-9,-96.6002,-2135.4,2.104
1.4778,1.47636,0.578477,0.188883,0,1.79662e-22,0.00401944,2.12963e-26,-9,-2232,3.86774e-48,-9,-96.6002,-2135.4,2.108
1.4778,1.47636,0.578493,0.188883,0,1.19774e-22,0.00403309,1.41975e-26,-9,-2232,1.71899e-48,-9,-96.6002,-2135.4,2.112
1.4778,1.47636,0.578509,0.188883,0,7.98496e-23,0.00404675,9.46503e-27,-9,-2232,7.63998e-49,-9,-96.6002,-2135.4,2.116
1.4778,1.47636,0.578526,0.188883,0,5.32331e-23,0.00406043,6.31002e-27,-9,-2232,3.39555e-49,-9,-96.6002,-2135.4,2.12
1.4778,1.47636,0.578542,0.188883,0,3.54887e-23,0.00407413,4.20668e-27,-9,-2232,1.50913e-49,-9,-96.6002,-2135.4,2.124
1.4778,1.47636,0.578558,0.188883,0,2.36591e-23,0.00408784,2.80445e-27,-9,-2232,6.70725e-50,-9,-96.6002,-2135.4,2.128
1.4778,1.47636,0.578575,0.188883,0,1.57728e-23,0.00410157,1.86964e-27,-9,-2232,2.981e-50,-9,-96.6002,-2135.4,2.132
1.4778,1.47636,0.578591,0.188883,0,1.05152e-23,0.00411532,1.24642e-27,-9,-2232,1.32489e-50,-9,-96.6002,-2135.4,2.136
1.4778,1.47636,0.578608,0.188883,0,7.01012e-24,0.00412908,8.30949e-28,-9,-2232,5.8884e-51,-9,-96.6002,-2135.4,2.14
1.4778,1.47636,0.578624,0.188883,0,4.67341e-24,0.00414287,5.53966e-28,-9,-2232,2.61706e-51,-9,-96.6002,-2135.4,2.144
1.4778,1.47636,0.578641,0.188883,0,3.11561e-24,0.00415666,3.69311e-28,-9,-2232,1.16314e-51,-9,-96.6002,-2135.4,2.148
1.4778,1.47636,0.578657,0.188883,0,2.07707e-24,0.00417048,2.46207e-28,-9,-2233,5.16951e-52,-9,-96.6002,-2136.4,2.152
1.4778,1.47636,0.578674,0.188883,0,1.38471e-24,0.00418431,1.64138e-28,-9,-2233,2.29756e-52,-9,-96.6002,-2136.4,2.156
1.4778,1.47636,0.578691,0.188883,0,9.23143e-25,0.00419816,1.09425e-28,-9,-2233,1.02114e-52,-9,-96.6002,-2136.4,2.16
1.4778,1.47636,0.578708,0.188883,0,6.15429e-25,0.00421202,7.29503e-29,-9,-2233,4.53839e-53,-9,-96.6002,-2136.4,2.164
1.4778,1.47636,0.578724,0.188883,0,4.10286e-25,0.0042259,4.86335e-29,-9,-2233,2.01706e-53,-9,-96.6002,-2136.4,2.168
1.4778,1.47636,0.578741,0.188883,0,2.73524e-25,0.0042398,3.24223e-29,-9,-2233,8.96472e-54,-9,-96.6002,-2136.4,2.172
1.4778,1.47636,0.578758,0.188883,0,1.82349e-25,0.00425371,2.16149e-29,-9,-2233,3.98432e-54,-9,-96.6002,-2136.4,2.176
1.4778,1.47636,0.578775,0.188883,0,1.21566e-25,0.00426764,1.44099e-29,-9,-2233,1.77081e-54,-9,-96.6002,-2136.4,2.18
1.4778,1.47636,0.578793,0.188883,0,8.10441e-26,0.00428159,9.60662e-30,-9,-2233,7.87026e-55,-9,-96.6002,-2136.4,2.184
1.4778,1.47636,0.57881,0.188883,0,5.40294e-26,0.00429555,6.40441e-30,-9,-2233,3.49789e-55,-9,-96.6002,-2136.4,2.188
1.4778,1.47636,0.578827,0.188883,0,3.60196e-26,0.00430953,4.26961e-30,-9,-2234,1.55462e-55,-9,-96.6002,-2137.4,2.192
1.4778,1.47636,0.578844,0.188883,0,2.40131e-26,0.00432353,2.84641e-30,-9,-2234,6.90942e-56,-9,-96.6002,-2137.4,2.196
1.4778,1.47636,0.578862,0.188883,0,1.60087e-26,0.00433754,1.8976e-30,-9,-2234,3.07085e-56,-9,-96.6002,-2137.4,2.2
1.4778,1.47636,0.578879,0.188883,0,1.06725e-26,0.00435157,1.26507e-30,-9,-2234,1.36482e-56,-9,-96.6002,-2137.4,2.204
1.4778,1.47636,0.578896,0.188883,0,7.11498e-27,0.00436561,8.4338e-31,-9,-2234,6.06588e-57,-9,-96.6002,-2137.4,2.208
1.4778,1.47636,0.578914,0.188883,0,4.74332e-27,0.00437967,5.62253e-31,-9,-2234,2.69595e-57,-9,-96.6002,-2137.4,2.212
1.4778,1.47636,0.578931,0.188883,0,3.16222e-27,0.00439375,3.74835e-31,-9,-2234,1.1982e-57,-9,-96.6002,-2137.4,2.216
1.4778,1.47636,0.578949,0.188883,0,2.10814e-27,0.00440784,2.4989e-31,-9,-2234,5.32533e-58,-9,-96.6002,-2137.4,2.22
1.4778,1.47636,0.578967,0.188883,0,1.40543e-27,0.00442195,1.66593e-31,-9,-2234,2.36681e-58,-9,-96.6002,-2137.4,2.224
1.4778,1.47636,0.578984,0.188883,0,9.36953e-28,0.00443608,1.11062e-31,-9,-2234,1.05192e-58,-9,-96.6002,-2137.4,2.228
1.4778,1.47636,0.579002,0.188883,0,6.24635e-28,0.00445022,7.40415e-32,-9,-2234,4.67519e-59,-9,-96.6002,-2137.4,2.232
1.4778,1.47636,0.57902,0.188883,0,4.16423e-28,0.00446438,4.9361e-32,-9,-2235,2.07786e-59,-9,-96.6002,-2138.4,2.236
1.4778,1.47636,0.579038,0.188883,0,2.77616e-28,0.00447855,3.29074e-32,-9,-2235,9.23494e-60,-9,-96.6002,-2138.4,2.24
1.4778,1.47636,0.579056,0.188883,0,1.85077e-28,0.00449274,2.19382e-32,-9,-2235,4.10442e-60,-9,-96.6002,-2138.4,2.244
1.4778,1.47636,0.579074,0.188883,0,1.23385e-28,0.00450695,1.46255e-32,-9,-2235,1.82419e-60,-9,-96.6002,-2138.4,2.248
1.4778,1.47636,0.579092,0.188883,0,8.22565e-29,0.00452117,9.75033e-33,-9,-2235,8.10749e-61,-9,-96.6002,-2138.4,2.252
1.4778,1.47636,0.57911,0.188883,0,5.48376e-29,0.00453541,6.50022e-33,-9,-2235,3.60333e-61,-9,-96.6002,-2138.4,2.256
1.4778,1.47636,0.579128,0.188883,0,3.65584e-29,0.00454966,4.33348e-33,-9,-2235,1.60148e-61,-9,-96.6002,-2138.4,2.26
1.4778,1.47636,0.579146,0.188883,0,2.43723e-29,0.00456393,2.88899e-33,-9,-2235,7.11769e-62,-9,-96.6002,-2138.4,2.264
1.4778,1.47636,0.579165,0.188883,0,1.62482e-29,0.00457821,1.92599e-33,-9,-2235,3.16342e-62,-9,-96.6002,-2138.4,2.268
1.4778,1.47636,0.579183,0.188883,0,1.08321e-29,0.00459251,1.28399e-33,-9,-2235,1.40596e-62,-9,-96.6002,-2138.4,2.272
1.4778,1.47636,0.579201,0.188883,0,7.22142e-30,0.00460683,8.55996e-34,-9,-2236,6.24872e-63,-9,-96.6002,-2139.4,2.276
1.4778,1.47636,0.57922,0.188883,0,4.81428e-30,0.00462116,5.70664e-34,-9,-2236,2.77721e-63,-9,-96.6002,-2139.4,2.28
1.4778,1.47636,0.579238,0.188883,0,3.20952e-30,0.00463551,3.80443e-34,-9,-2236,1.23432e-63,-9,-96.6002,-2139.4,2.284
1.4778,1.47636,0.579257,0.188883,0,2.13968e-30,0.00464987,2.53628e-34,-9,-2236,5.48585e-64,-9,-96.6002,-2139.4,2.288
1.4778,1.47636,0.579276,0.188883,0,1.42645e-30,0.00466425,1.69086e-34,-9,-2236,2.43815e-64,-9,-96.6002,-2139.4,2.292
1.4778,1.47636,0.579294,0.188883,0,9.50969e-31,0.00467865,1.12724e-34,-9,-2236,1.08362e-64,-9,-96.6002,-2139.4,2.296
1.4778,1.47636,0.579313,0.188883,0,6.33979e-31,0.00469306,7.51492e-35,-9,-2236,4.81611e-65,-9,-96.6002,-2139.4,2.3
1.4778,1.47636,0.579332,0.188883,0,4.22653e-31,0.00470748,5.00994e-35,-9,-2236,2.14049e-65,-9,-96.6002,-2139.4,2.304
1.4778,1.47636,0.579351,0.188883,0,2.81769e-31,0.00472192,3.33996e-35,-9,-2236,9.5133e-66,-9,-96.6002,-2139.4,2.308
1.4778,1.47636,0.57937,0.188883,0,1.87846e-31,0.00473638,2.22664e-35,-9,-2236,4.22813e-66,-9,-96.6002,-2139.4,2.312
1.4778,1.47636,0.579389,0.188883,0,1.2523e-31,0.00475085,1.48443e-35,-9,-2237,1.87917e-66,-9,-96.6002,-2140.4,2.316
1.4778,1.47636,0.579408,0.188883,0,8.3487e-32,0.00476534,9.89618e-36,-9,-2237,8.35187e-67,-9,-96.6002,-2140.4,2.32
1.4778,1.47636,0.579427,0.188883,0,5.5658e-32,0.00477984,6.59746e-36,-9,-2237,3.71194e-67,-9,-96.6002,-2140.4,2.324
1.4778,1.47636,0.579446,0.188883,0,3.71053e-32,0.00479436,4.3983e-36,-9,-2237,1.64975e-67,-9,-96.6002,-2140.4,2.328
1.4778,1.47636,0.579465,0.188883,0,2.47369e-32,0.00480889,2.9322e-36,-9,-2237,7.33223e-68,-9,-96.6002,-2140.4,2.332
1.4778,1.47636,0.579484,0.188883,0,1.64913e-32,0.00482344,1.9548e-36,-9,-2237,3.25877e-68,-9,-96.6002,-2140.4,2.336
1.4778,1.47636,0.579504,0.188883,0,1.09942e-32,0.00483801,1.3032e-36,-9,-2237,1.44834e-68,-9,-96.6002,-2140.4,2.34
1.4778,1.47636,0.579523,0.188883,0,7.32945e-33,0.00485259,8.68801e-37,-9,-2237,6.43707e-69,-9,-96.6002,-2140.4,2.344
1.4778,1.47636,0.579542,0.188883,0,4.8863e-33,0.00486718,5.79201e-37,-9,-2237,2.86092e-69,-9,-96.6002,-2140.4,2.348
1.4778,1.47636,0.579562,0.188883,0,3.25753e-33,0.00488179,3.86134e-37,-9,-2238,1.27152e-69,-9,-96.6002,-2141.4,2.352
1.4778,1.47636,0.579581,0.188883,0,2.17169e-33,0.00489641,2.57422e-37,-9,-2238,5.6512e-70,-9,-96.6002,-2141.4,2.356
1.4778,1.47636,0.579601,0.188883,0,1.44779e-33,0.00491105,1.71615e-37,-9,-2238,2.51165e-70,-9,-96.6002,-2141.4,2.36
1.4778,1.47636,0.579621,0.188883,0,9.65194e-34,0.00492571,1.1441e-37,-9,-2238,1.11629e-70,-9,-96.6002,-2141.4,2.364
1.4778,1.47636,0.57964,0.188883,0,6.43463e-34,0.00494038,7.62733e-38,-9,-2238,4.96128e-71,-9,-96.6002,-2141.4,2.368
1.4778,1.47636,0.57966,0.188883,0,4.28975e-34,0.00495506,5.08489e-38,-9,-2238,2.20501e-71,-9,-96.6002,-2141.4,2.372
1.4778,1.47636,0.57968,0.188883,0,2.85984e-34,0.00496976,3.38993e-38,-9,-2238,9.80005e-72,-9,-96.6002,-2141.4,2.376
1.4778,1.47636,0.5797,0.188883,0,1.90656e-34,0.00498448,2.25995e-38,-9,-2238,4.35558e-72,-9,-96.6002,-2141.4,2.38
1.4778,1.47636,0.57972,0.188883,0,1.27104e-34,0.00499921,1.50663e-38,-9,-2238,1.93581e-72,-9,-96.6002,-2141.4,2.384
1.4778,1.47636,0.57974,0.188883,0,8.47359e-35,0.00501395,1.00442e-38,-9,-2239,8.60361e-73,-9,-96.6002,-2142.4,2.388
1.4778,1.47636,0.57976,0.188883,0,5.64906e-35,0.00502871,6.69615e-39,-9,-2239,3.82383e-73,-9,-96.6002,-2142.4,2.392
1.4778,1.47636,0.57978,0.188883,0,3.76604e-35,0.00504349,4.4641e-39,-9,-2239,1.69948e-73,-9,-96.6002,-2142.4,2.396
1.4778,1.47636,0.5798,0.188883,0,2.51069e-35,0.00505827,2.97607e-39,-9,-2239,7.55324e-74,-9,-96.6002,-2142.4,2.4
1.4778,1.47636,0.579821,0.188883,0,1.67379e-35,0.00507308,1.98404e-39,-9,-2239,3.357e-74,-9,-96.6002,-2142.4,2.404
1.4778,1.47636,0.579841,0.188883,0,1.11586e-35,0.0050879,1.3227e-39,-9,-2239,1.492e-74,-9,-96.6002,-2142.4,2.408
1.4778,1.47636,0.579861,0.188883,0,7.43909e-36,0.00510273,8.81797e-40,-9,-2239,6.6311e-75,-9,-96.6002,-2142.4,2.412
1.4778,1.47636,0.579882,0.188883,0,4.95939e-36,0.00511758,5.87865e-40,-9,-2239,2.94716e-75,-9,-96.6002,-2142.4,2.416
1.4778,1.47636,0.579902,0.188883,0,3.30626e-36,0.00513244,3.9191e-40,-9,-2239,1.30985e-75,-9,-96.6002,-2142.4,2.42
1.4778,1.47636,0.579923,0.188883,0,2.20417e-36,0.00514732,2.61273e-40,-9,-2240,5.82154e-76,-9,-96.6002,-2143.4,2.424
1.4778,1.47636,0.579944,0.188883,0,-2.87909e-05,0.00516221,1.74182e-40,-9,-2240,-5.0694e-45,-9,-96.6002,-2143.4,2.428
1.4778,1.47636,0.579964,0.188883,0,9.59697e-06,0.00517711,1.16121e-40,-9,-2240,1.12653e-45,-9,-96.6002,-2143.4,2.432
1.4778,1.47636,0.579985,0.188883,0,6.39798e-06,0.00519204,7.74143e-41,-9,-2240,5.00681e-46,-9,-96.6002,-2143.4,2.436
1.4778,1.47636,0.580006,0.188883,0,4.26532e-06,0.00520697,5.16095e-41,-9,-2240,2.22525e-46,-9,-96.6002,-2143.4,2.44
1.4778,1.47636,0.580027,0.188883,0,2.84355e-06,0.00522192,3.44064e-41,-9,-2240,9.89e-47,-9,-96.6002,-2143.4,2.444
1.4778,1.47636,0.580048,0.188883,0,1.8957e-06,0.00523688,2.29376e-41,-9,-2240,4.39556e-47,-9,-96.6002,-2143.4,2.448
1.4778,1.47636,0.580068,0.188883,0,1.2638e-06,0.00525186,1.52917e-41,-9,-2240,1.95358e-47,-9,-96.6002,-2143.4,2.452
1.4778,1.47636,0.58009,0.188883,0,8.42533e-07,0.00526686,1.01945e-41,-9,-2240,8.68258e-48,-9,-96.6002,-2143.4,2.456
1.4778,1.47636,0.580111,0.188883,0,5.61689e-07,0.00528186,6.79632e-42,-9,-2241,3.85893e-48,-9,-96.6002,-2144.4,2.46
1.4778,1.47636,0.580132,0.188883,0,3.74459e-07,0.00529688,4.53088e-42,-9,-2241,1.71508e-48,-9,-96.6002,-2144.4,2.464
1.4778,1.47636,0.580153,0.188883,0,2.49639e-07,0.00531192,3.02059e-42,-9,-2241,7.62257e-49,-9,-96.6002,-2144.4,2.468
1.4778,1.47636,0.580174,0.188883,0,1.66426e-07,0.00532697,2.01372e-42,-9,-2241,3.38781e-49,-9,-96.6002,-2144.4,2.472
1.4778,1.47636,0.580196,0.188883,0,1.10951e-07,0.00534203,1.34248e-42,-9,-2241,1.50569e-49,-9,-96.6002,-2144.4,2.476
1.4778,1.47636,0.580217,0.188883,0,7.39672e-08,0.00535711,8.94988e-43,-9,-2241,6.69197e-50,-9,-96.6002,-2144.4,2.48
1.4778,1.47636,0.580238,0.188883,0,4.93115e-08,0.0053722,5.96659e-43,-9,-2241,2.97421e-50,-9,-96.6002,-2144.4,2.484
1.4778,1.47636,0.58026,0.188883,0,3.28743e-08,0.00538731,3.97773e-43,-9,-2241,1.32187e-50,-9,-96.6002,-2144.4,2.488
1.4778,1.47636,0.580282,0.188883,0,2.19162e-08,0.00540243,2.65182e-43,-9,-2241,5.87498e-51,-9,-96.6002,-2144.4,2.492
1.4778,1.47636,0.580303,0.188883,0,1.46108e-08,0.00541757,1.76788e-43,-9,-2242,2.6111e-51,-9,-96.6002,-2145.4,2.496
1.4778,1.47636,0.580325,0.188883,0,9.74054e-09,0.00543272,1.17859e-43,-9,-2242,1.16049e-51,-9,-96.6002,-2145.4,2.5
1.4778,1.47636,0.580347,0.188883,0,6.49369e-09,0.00544788,7.85724e-44,-9,-2242,5.15773e-52,-9,-96.6002,-2145.4,2.504
1.4778,1.47636,0.580368,0.188883,0,4.32913e-09,0.00546306,5.23816e-44,-9,-2242,2.29233e-52,-9,-96.6002,-2145.4,2.508
1.4778,1.47636,0.58039,0.188883,0,2.88609e-09,0.00547825,3.49211e-44,-9,-2242,1.01881e-52,-9,-96.6002,-2145.4,2.512
1.4778,1.47636,0.580412,0.188883,0,1.92406e-09,0.00549345,2.32807e-44,-9,-2242,4.52805e-53,-9,-96.6002,-2145.4,2.516
1.4778,1.47636,0.580434,0.188883,0,1.2827e-09,0.00550867,1.55205e-44,-9,-2242,2.01247e-53,-9,-96.6002,-2145.4,2.52
1.4778,1.47636,0.580456,0.188883,0,8.55136e-10,0.0055239,1.0347e-44,-9,-2242,8.9443e-54,-9,-96.6002,-2145.4,2.524
1.4778,1.47636,0.580479,0.188883,0,5.70091e-10,0.00553915,6.89799e-45,-9,-2243,3.97524e-54,-9,-96.6002,-2146.4,2.528
1.4778,1.47636,0.580501,0.188883,0,3.80061e-10,0.00555441,4.59866e-45,-9,-2243,1.76677e-54,-9,-96.6002,-2146.4,2.532
1.4778,1.47636,0.580523,0.188883,0,2.53374e-10,0.00556968,3.06577e-45,-9,-2243,7.85233e-55,-9,-96.6002,-2146.4,2.536
1.4778,1.47636,0.580545,0.188883,0,-5.75817e-05,0.00558497,2.04385e-45,-10,-2243,-1.18968e-49,-10,-96.6002,-2146.4,2.54
1.4778,1.47636,0.580568,0.188883,0,1.91941e-05,0.00560027,1.36257e-45,-9,-2243,2.64376e-50,-9,-96.6002,-2146.4,2.544
1.4778,1.47636,0.58059,0.188883,0,1.2796e-05,0.00561559,9.08377e-46,-9,-2243,1.175e-50,-9,-96.6002,-2146.4,2.548
1.4778,1.47636,0.580613,0.188883,0,8.53069e-06,0.00563091,6.05585e-46,-9,-2243,5.22223e-51,-9,-96.6002,-2146.4,2.552
1.4778,1.47636,0.580635,0.188883,0,5.68713e-06,0.00564626,4.03723e-46,-9,-2243,2.32099e-51,-9,-96.6002,-2146.4,2.556
1.4778,1.47636,0.580658,0.188883,0,3.79142e-06,0.00566161,2.69149e-46,-9,-2244,1.03155e-51,-9,-96.6002,-2147.4,2.56
1.4778,1.47636,0.58068,0.188883,0,2.52761e-06,0.00567698,1.79432e-46,-9,-2244,4.58468e-52,-9,-96.6002,-2147.4,2.564
1.4778,1.47636,0.580703,0.188883,0,1.68508e-06,0.00569237,1.19622e-46,-9,-2244,2.03763e-52,-9,-96.6002,-2147.4,2.568
1.4778,1.47636,0.580726,0.188883,0,1.12338e-06,0.00570776,7.97478e-47,-9,-2244,9.05615e-53,-9,-96.6002,-2147.4,2.572
1.4778,1.47636,0.580749,0.188883,0,7.48922e-07,0.00572317,5.31652e-47,-9,-2244,4.02496e-53,-9,-96.6002,-2147.4,2.576
1.4778,1.47636,0.580772,0.188883,0,4.99282e-07,0.0057386,3.54434e-47,-9,-2244,1.78887e-53,-9,-96.6002,-2147.4,2.58
1.4778,1.47636,0.580795,0.188883,0,3.32854e-07,0.00575403,2.3629e-47,-9,-2244,7.95053e-54,-9,-96.6002,-2147.4,2.584
1.4778,1.47636,0.580818,0.188883,0,2.21903e-07,0.00576948,1.57526e-47,-9,-2244,3.53357e-54,-9,-96.6002,-2147.4,2.588
1.4778,1.47636,0.580841,0.188883,0,1.47935e-07,0.00578495,1.05018e-47,-9,-2245,1.57048e-54,-9,-96.6002,-2148.4,2.592
1.4778,1.47636,0.580864,0.188883,0,9.86235e-08,0.00580042,7.00117e-48,-9,-2245,6.97989e-55,-9,-96.6002,-2148.4,2.596
1.4778,1.47636,0.580887,0.188883,0,6.5749e-08,0.00581591,4.66745e-48,-9,-2245,3.10217e-55,-9,-96.6002,-2148.4,2.6
1.4778,1.47636,0.580911,0.188883,0,4.38327e-08,0.00583142,3.11163e-48,-9,-2245,1.37874e-55,-9,-96.6002,-2148.4,2.604
1.4778,1.47636,0.580934,0.188883,0,2.92218e-08,0.00584693,2.07442e-48,-9,-2245,6.12775e-56,-9,-96.6002,-2148.4,2.608
1.4778,1.47636,0.580957,0.188883,0,1.94812e-08,0.00586246,1.38295e-48,-9,-2245,2.72344e-56,-9,-96.6002,-2148.4,2.612
1.4778,1.47636,0.580981,0.188883,0,1.29875e-08,0.00587801,9.21965e-49,-9,-2245,1.21042e-56,-9,-96.6002,-2148.4,2.616
1.4778,1.47636,0.581004,0.188883,0,8.65831e-09,0.00589356,6.14644e-49,-9,-2245,5.37964e-57,-9,-96.6002,-2148.4,2.62
1.4778,1.47636,0.581028,0.188883,0,5.7722e-09,0.00590913,4.09762e-49,-9,-2246,2.39095e-57,-9,-96.6002,-2149.4,2.624
1.4778,1.47636,0.581052,0.188883,0,3.84814e-09,0.00592471,2.73175e-49,-9,-2246,1.06265e-57,-9,-96.6002,-2149.4,2.628
1.4778,1.47636,0.581075,0.188883,0,2.56542e-09,0.00594031,1.82117e-49,-9,-2246,4.72287e-58,-9,-96.6002,-2149.4,2.632
1.4778,1.47636,0.581099,0.188883,0,1.71028e-09,0.00595592,1.21411e-49,-9,-2246,2.09905e-58,-9,-96.6002,-2149.4,2.636
1.4778,1.47636,0.581123,0.188883,0,1.14019e-09,0.00597154,8.09407e-50,-9,-2246,9.32913e-59,-9,-96.6002,-2149.4,2.64
1.4778,1.47636,0.581147,0.188883,0,7.60126e-10,0.00598717,5.39605e-50,-9,-2246,4.14628e-59,-9,-96.6002,-2149.4,2.644
1.4778,1.47636,0.581171,0.188883,0,5.0675e-10,0.00600282,3.59737e-50,-9,-2246,1.84279e-59,-9,-96.6002,-2149.4,2.648
1.4778,1.47636,0.581195,0.188883,0,3.37834e-10,0.00601848,2.39824e-50,-9,-2246,8.19018e-60,-9,-96.6002,-2149.4,2.652
1.4778,1.47636,0.581219,0.188883,0,2.25222e-10,0.00603415,1.59883e-50,-9,-2247,3.64008e-60,-9,-96.6002,-2150.4,2.656
1.4778,1.47636,0.581243,0.188883,0,1.50148e-10,0.00604984,1.06589e-50,-9,-2247,1.61781e-60,-9,-96.6002,-2150.4,2.66
1.4778,1.47636,0.581267,0.188883,0,1.00099e-10,0.00606554,7.10591e-51,-9,-2247,7.19028e-61,-9,-96.6002,-2150.4,2.664
1.4778,1.47636,0.581292,0.188883,0,6.67326e-11,0.00608125,4.73727e-51,-9,-2247,3.19568e-61,-9,-96.6002,-2150.4,2.668
1.4778,1.47636,0.581316,0.188883,0,4.44884e-11,0.00609698,3.15818e-51,-9,-2247,1.4203e-61,-9,-96.6002,-2150.4,2.672
1.4778,1.47636,0.581341,0.188883,0,2.96589e-11,0.00611271,2.10545e-51,-9,-2247,6.31245e-62,-9,-96.6002,-2150.4,2.676
1.4778,1.47636,0.581365,0.188883,0,1.97726e-11,0.00612846,1.40364e-51,-9,-2247,2.80554e-62,-9,-96.6002,-2150.4,2.68
1.4778,1.47636,0.58139,0.188883,0,1.31817e-11,0.00614423,9.35757e-52,-9,-2248,1.2469e-62,-9,-96.6002,-2151.4,2.684
1.4778,1.47636,0.581414,0.188883,0,8.78783e-12,0.00616,6.23838e-52,-9,-2248,5.5418e-63,-9,-96.6002,-2151.4,2.688
1.4778,1.47636,0.581439,0.188883,0,5.85855e-12,0.00617579,4.15892e-52,-9,-2248,2.46302e-63,-9,-96.6002,-2151.4,2.692
1.4778,1.47636,0.581464,0.188883,0,3.9057e-12,0.00619159,2.77261e-52,-9,-2248,1.09468e-63,-9,-96.6002,-2151.4,2.696
1.4778,1.47636,0.581488,0.188883,0,2.6038e-12,0.0062074,1.84841e-52,-9,-2248,4.86523e-64,-9,-96.6002,-2151.4,2.7
1.4778,1.47636,0.581513,0.188883,0,1.73587e-12,0.00622323,1.23227e-52,-9,-2248,2.16232e-64,-9,-96.6002,-2151.4,2.704
1.4778,1.47636,0.581538,0.188883,0,1.15724e-12,0.00623907,8.21515e-53,-9,-2248,9.61033e-65,-9,-96.6002,-2151.4,2.708
1.4778,1.47636,0.581563,0.188883,0,7.71497e-13,0.00625492,5.47677e-53,-9,-2249,4.27126e-65,-9,-96.6002,-2152.4,2.712
1.4778,1.47636,0.581588,0.188883,0,5.14331e-13,0.00627078,3.65118e-53,-9,-2249,1.89834e-65,-9,-96.6002,-2152.4,2.716
1.4778,1.47636,0.581613,0.188883,0,-5.75818e-05,0.00628665,2.43412e-53,-10,-2249,-1.41685e-57,-10,-96.6002,-2152.4,2.72
1.4778,1.47636,0.581638,0.188883,0,1.9194e-05,0.00630254,1.62275e-53,-9,-2249,3.14856e-58,-9,-96.6002,-2152.4,2.724
1.4778,1.47636,0.581664,0.188883,0,1.2796e-05,0.00631844,1.08183e-53,-9,-2249,1.39936e-58,-9,-96.6002,-2152.4,2.728
1.4778,1.47636,0.581689,0.188883,0,8.53064e-06,0.00633436,7.21221e-54,-9,-2249,6.21938e-59,-9,-96.6002,-2152.4,2.732
1.4778,1.47636,0.581714,0.188883,0,5.6871e-06,0.00635028,4.80814e-54,-9,-2249,2.76417e-59,-9,-96.6002,-2152.4,2.736
1.4778,1.47636,0.58174,0.188883,0,3.7914e-06,0.00636622,3.20542e-54,-9,-2249,1.22852e-59,-9,-96.6002,-2152.4,2.74
1.4778,1.47636,0.581765,0.188883,0,2.5276e-06,0.00638217,2.13695e-54,-9,-2250,5.46009e-60,-9,-96.6002,-2153.4,2.744
1.4778,1.47636,0.581791,0.188883,0,1.68507e-06,0.00639813,1.42463e-54,-9,-2250,2.42671e-60,-9,-96.6002,-2153.4,2.748
1.4778,1.47636,0.581817,0.188883,0,1.12338e-06,0.0064141,9.49756e-55,-9,-2250,1.07854e-60,-9,-96.6002,-2153.4,2.752
1.4778,1.47636,0.581842,0.188883,0,7.48918e-07,0.00643009,6.3317e-55,-9,-2250,4.79349e-61,-9,-96.6002,-2153.4,2.756
1.4778,1.47636,0.581868,0.188883,0,4.99279e-07,0.00644609,4.22114e-55,-9,-2250,2.13044e-61,-9,-96.6002,-2153.4,2.76
1.4778,1.47636,0.581894,0.188883,0,3.32852e-07,0.0064621,2.81409e-55,-9,-2250,9.46863e-62,-9,-96.6002,-2153.4,2.764
1.4778,1.47636,0.58192,0.188883,0,2.21902e-07,0.00647812,1.87606e-55,-9,-2250,4.20828e-62,-9,-96.6002,-2153.4,2.768
1.4778,1.47636,0.581946,0.188883,0,1.47934e-07,0.00649415,1.25071e-55,-9,-2251,1.87035e-62,-9,-96.6002,-2154.4,2.772
1.4778,1.47636,0.581972,0.188883,0,9.8623e-08,0.0065102,8.33805e-56,-9,-2251,8.31265e-63,-9,-96.6002,-2154.4,2.776
1.4778,1.47636,0.581998,0.188883,0,6.57486e-08,0.00652626,5.5587e-56,-9,-2251,3.69451e-63,-9,-96.6002,-2154.4,2.78
1.4778,1.47636,0.582024,0.188883,0,4.38324e-08,0.00654233,3.7058e-56,-9,-2251,1.642e-63,-9,-96.6002,-2154.4,2.784
1.4778,1.47636,0.58205,0.188883,0,2.92216e-08,0.00655841,2.47053e-56,-9,-2251,7.2978e-64,-9,-96.6002,-2154.4,2.788
1.4778,1.47636,0.582076,0.188883,0,1.94811e-08,0.0065745,1.64702e-56,-9,-2251,3.24347e-64,-9,-96.6002,-2154.4,2.792
1.4778,1.47636,0.582103,0.188883,0,1.29874e-08,0.00659061,1.09801e-56,-9,-2251,1.44154e-64,-9,-96.6002,-2154.4,2.796
1.4778,1.47636,0.582129,0.188883,0,8.65826e-09,0.00660673,7.32009e-57,-9,-2252,6.40685e-65,-9,-96.6002,-2155.4,2.8
1.4778,1.47636,0.582155,0.188883,0,5.77217e-09,0.00662285,4.88006e-57,-9,-2252,2.84749e-65,-9,-96.6002,-2155.4,2.804
1.4778,1.47636,0.582182,0.188883,0,3.84811e-09,0.006639,3.25338e-57,-9,-2252,1.26555e-65,-9,-96.6002,-2155.4,2.808
1.4778,1.47636,0.582209,0.188883,0,2.56541e-09,0.00665515,2.16892e-57,-9,-2252,5.62467e-66,-9,-96.6002,-2155.4,2.812
1.4778,1.47636,0.582235,0.188883,0,1.71027e-09,0.00667131,1.44594e-57,-9,-2252,2.49985e-66,-9,-96.6002,-2155.4,2.816
1.4778,1.47636,0.582262,0.188883,0,1.14018e-09,0.00668749,9.63963e-58,-9,-2252,1.11105e-66,-9,-96.6002,-2155.4,2.82
1.4778,1.47636,0.582289,0.188883,0,7.60121e-10,0.00670368,6.42642e-58,-9,-2252,4.93798e-67,-9,-96.6002,-2155.4,2.824
1.4778,1.47636,0.582316,0.188883,0,5.06748e-10,0.00671988,4.28428e-58,-9,-2253,2.19466e-67,-9,-96.6002,-2156.4,2.828
1.4778,1.47636,0.582342,0.188883,0,3.37832e-10,0.00673609,2.85619e-58,-9,-2253,9.75403e-68,-9,-96.6002,-2156.4,2.832
1.4778,1.47636,0.582369,0.188883,0,2.25221e-10,0.00675231,1.90412e-58,-9,-2253,4.33513e-68,-9,-96.6002,-2156.4,2.836
1.4778,1.47636,0.582397,0.188883,0,1.50147e-10,0.00676855,1.26942e-58,-9,-2253,1.92672e-68,-9,-96.6002,-2156.4,2.84
1.4778,1.47636,0.582424,0.188883,0,1.00098e-10,0.00678479,8.46278e-59,-9,-2253,8.56321e-69,-9,-96.6002,-2156.4,2.844
1.4778,1.47636,0.582451,0.188883,0,6.67322e-11,0.00680105,5.64185e-59,-9,-2253,3.80587e-69,-9,-96.6002,-2156.4,2.848
1.4778,1.47636,0.582478,0.188883,0,4.44881e-11,0.00681732,3.76123e-59,-9,-2254,1.6915e-69,-9,-96.6002,-2157.4,2.852
1.4778,1.47636,0.582505,0.188883,0,2.96587e-11,0.0068336,2.50749e-59,-9,-2254,7.51777e-70,-9,-96.6002,-2157.4,2.856
1.4778,1.47636,0.582533,0.188883,0,1.97725e-11,0.00684989,1.67166e-59,-9,-2254,3.34123e-70,-9,-96.6002,-2157.4,2.86
1.4778,1.47636,0.58256,0.188883,0,2.87909e-05,0.00686619,1.11444e-59,-9,-2254,3.24347e-64,-9,-96.6002,-2157.4,2.864
1.4778,1.47636,0.582588,0.188883,0,-9.59697e-06,0.00688251,7.4296e-60,-9,-2254,-7.2077e-65,-9,-96.6002,-2157.4,2.868
1.4778,1.47636,0.582615,0.188883,0,-6.39798e-06,0.00689883,4.95307e-60,-9,-2254,-3.20342e-65,-9,-96.6002,-2157.4,2.872
1.4778,1.47636,0.582643,0.188883,0,-4.26532e-06,0.00691517,3.30204e-60,-9,-2254,-1.42374e-65,-9,-96.6002,-2157.4,2.876
1.4778,1.47636,0.582671,0.188883,0,-2.84355e-06,0.00693152,2.20136e-60,-9,-2255,-6.32774e-66,-9,-96.6002,-2158.4,2.88
1.4778,1.47636,0.582698,0.188883,0,-1.8957e-06,0.00694788,1.46757e-60,-9,-2255,-2.81233e-66,-9,-96.6002,-2158.4,2.884
1.4778,1.47636,0.582726,0.188883,0,-1.2638e-06,0.00696425,9.78383e-61,-9,-2255,-1.24992e-66,-9,-96.6002,-2158.4,2.888
1.4778,1.47636,0.582754,0.188883,0,-8.42532e-07,0.00698063,6.52256e-61,-9,-2255,-5.55522e-67,-9,-96.6002,-2158.4,2.892
1.4778,1.47636,0.582782,0.188883,0,-5.61688e-07,0.00699703,4.34837e-61,-9,-2255,-2.46899e-67,-9,-96.6002,-2158.4,2.896
1.4778,1.47636,0.58281,0.188883,0,-3.74459e-07,0.00701343,2.89891e-61,-9,-2255,-1.09733e-67,-9,-96.6002,-2158.4,2.9
1.4778,1.47636,0.582838,0.188883,0,-2.49639e-07,0.00702985,1.93261e-61,-9,-2255,-4.87701e-68,-9,-96.6002,-2158.4,2.904
1.4778,1.47636,0.582866,0.188883,0,-1.66426e-07,0.00704627,1.28841e-61,-9,-2256,-2.16756e-68,-9,-96.6002,-2159.4,2.908
1.4778,1.47636,0.582894,0.188883,0,-1.10951e-07,0.00706271,8.58937e-62,-9,-2256,-9.6336e-69,-9,-96.6002,-2159.4,2.912
1.4778,1.47636,0.582923,0.188883,0,-7.39671e-08,0.00707916,5.72625e-62,-9,-2256,-4.2816e-69,-9,-96.6002,-2159.4,2.916
1.4778,1.47636,0.582951,0.188883,0,-4.93114e-08,0.00709562,3.8175e-62,-9,-2256,-1.90293e-69,-9,-96.6002,-2159.4,2.92
1.4778,1.47636,0.582979,0.188883,0,-3.28743e-08,0.00711209,2.545e-62,-9,-2256,-8.45748e-70,-9,-96.6002,-2159.4,2.924
1.4778,1.47636,0.583008,0.188883,0,-2.19162e-08,0.00712857,1.69667e-62,-9,-2256,-3.75888e-70,-9,-96.6002,-2159.4,2.928
1.4778,1.47636,0.583036,0.188883,0,-1.46108e-08,0.00714506,1.13111e-62,-9,-2257,-1.67061e-70,-9,-96.6002,-2160.4,2.932
1.4778,1.47636,0.583065,0.188883,0,-9.74053e-09,0.00716156,7.54074e-63,-9,-2257,-7.42495e-71,-9,-96.6002,-2160.4,2.936
1.4778,1.47636,0.583094,0.188883,0,-6.49369e-09,0.00717808,5.02716e-63,-9,-2257,-3.29998e-71,-9,-96.6002,-2160.4,2.94
1.4778,1.47636,0.583123,0.188883,0,-4.32912e-09,0.0071946,3.35144e-63,-9,-2257,-1.46666e-71,-9,-96.6002,-2160.4,2.944
1.4778,1.47636,0.583151,0.188883,0,-2.88608e-09,0.00721114,-2.87909e-05,-9,-2257,8.39964e-14,-9,-96.6002,-2160.4,2.948
1.4778,1.47636,0.58318,0.188883,0,-1.92406e-09,0.00722768,9.59697e-06,-9,-2257,-1.86659e-14,-9,-96.6002,-2160.4,2.952
1.4778,1.47636,0.583209,0.188883,0,-1.2827e-09,0.00724424,6.39798e-06,-9,-2258,-8.29596e-15,-9,-96.6002,-2161.4,2.956
1.4778,1.47636,0.583238,0.188883,0,-8.55136e-10,0.00726081,4.26532e-06,-9,-2258,-3.68709e-15,-9,-96.6002,-2161.4,2.96
1.4778,1.47636,0.583267,0.188883,0,-5.7009e-10,0.00727739,2.84355e-06,-9,-2258,-1.63871e-15,-9,-96.6002,-2161.4,2.964
1.4778,1.47636,0.583296,0.188883,0,-3.8006e-10,0.00729398,1.8957e-06,-9,-2258,-7.28315e-16,-9,-96.6002,-2161.4,2.968
1.4778,1.47636,0.583326,0.188883,0,-2.53374e-10,0.00731058,1.2638e-06,-9,-2258,-3.23695e-16,-9,-96.6002,-2161.4,2.972
1.4778,1.47636,0.583355,0.188883,0,-1.68916e-10,0.00732719,8.42533e-07,-9,-2258,-1.43865e-16,-9,-96.6002,-2161.4,2.976
1.4778,1.47636,0.583384,0.188883,0,-1.1261e-10,0.00734381,5.61689e-07,-9,-2258,-6.39398e-17,-9,-96.6002,-2161.4,2.98
1.4778,1.47636,0.583414,0.188883,0,-7.50736e-11,0.00736044,3.74459e-07,-9,-2259,-2.84177e-17,-9,-96.6002,-2162.4,2.984
1.4778,1.47636,0.583443,0.188883,0,-5.00491e-11,0.00737708,2.49639e-07,-9,-2259,-1.26301e-17,-9,-96.6002,-2162.4,2.988
1.4778,1.47636,0.583473,0.188883,0,-3.33661e-11,0.00739373,1.66426e-07,-9,-2259,-5.61337e-18,-9,-96.6002,-2162.4,2.992
1.4778,1.47636,0.583502,0.188883,0,-2.2244e-11,0.0074104,1.10951e-07,-9,-2259,-2.49483e-18,-9,-96.6002,-2162.4,2.996
1.4778,1.47636,0.583532,0.188883,0,-1.48294e-11,0.00742707,7.39672e-08,-9,-2259,-1.10881e-18,-9,-96.6002,-2162.4,3
1.4778,1.47636,0.583562,0.188883,0,-9.88624e-12,0.00744375,4.93115e-08,-9,-2259,-4.92806e-19,-9,-96.6002,-2162.4,3.004
1.4778,1.47636,0.583591,0.188883,0,-6.59083e-12,0.00746045,3.28743e-08,-9,-2260,-2.19025e-19,-9,-96.6002,-2163.4,3.008
1.4778,1.47636,0.583621,0.188883,0,-4.39388e-12,0.00747715,2.19162e-08,-9,-2260,-9.73445e-20,-9,-96.6002,-2163.4,3.012
1.4778,1.47636,0.583651,0.188883,0,-2.92926e-12,0.00749386,1.46108e-08,-9,-2260,-4.32642e-20,-9,-96.6002,-2163.4,3.016
1.4778,1.47636,0.583681,0.188883,0,-1.95284e-12,0.00751059,9.74054e-09,-9,-2260,-1.92285e-20,-9,-96.6002,-2163.4,3.02
1.4778,1.47636,0.583711,0.188883,0,-5.75819e-05,0.00752732,6.49369e-09,-10,-2260,-3.77985e-13,-10,-96.6002,-2163.4,3.024
1.4778,1.47636,0.583742,0.188883,0,1.91939e-05,0.00754407,4.32913e-09,-9,-2260,8.39966e-14,-9,-96.6002,-2163.4,3.028
1.4778,1.47636,0.583772,0.188883,0,1.2796e-05,0.00756083,2.88609e-09,-9,-2261,3.73318e-14,-9,-96.6002,-2164.4,3.032
1.4778,1.47636,0.583802,0.188883,0,8.53064e-06,0.00757759,1.92406e-09,-9,-2261,1.65919e-14,-9,-96.6002,-2164.4,3.036
1.4778,1.47636,0.583832,0.188883,0,5.6871e-06,0.00759437,1.2827e-09,-9,-2261,7.37419e-15,-9,-96.6002,-2164.4,3.04
1.4778,1.47636,0.583863,0.188883,0,3.7914e-06,0.00761115,8.55136e-10,-9,-2261,3.27742e-15,-9,-96.6002,-2164.4,3.044
1.4778,1.47636,0.583893,0.188883,0,2.5276e-06,0.00762795,5.70091e-10,-9,-2261,1.45663e-15,-9,-96.6002,-2164.4,3.048
1.4778,1.47636,0.583924,0.188883,0,1.68507e-06,0.00764475,3.80061e-10,-9,-2261,6.47391e-16,-9,-96.6002,-2164.4,3.052
1.4778,1.47636,0.583954,0.188883,0,1.12338e-06,0.00766157,2.53374e-10,-9,-2262,2.87729e-16,-9,-96.6002,-2165.4,3.056
1.4778,1.47636,0.583985,0.188883,0,7.48918e-07,0.0076784,1.68916e-10,-9,-2262,1.2788e-16,-9,-96.6002,-2165.4,3.06
1.4778,1.47636,0.584016,0.188883,0,4.99279e-07,0.00769523,1.12611e-10,-9,-2262,5.68354e-17,-9,-96.6002,-2165.4,3.064
1.4778,1.47636,0.584047,0.188883,0,3.32852e-07,0.00771208,7.50737e-11,-9,-2262,2.52602e-17,-9,-96.6002,-2165.4,3.068
1.4778,1.47636,0.584078,0.188883,0,2.21902e-07,0.00772893,5.00491e-11,-9,-2262,1.12268e-17,-9,-96.6002,-2165.4,3.072
1.4778,1.47636,0.584108,0.188883,0,1.47934e-07,0.0077458,3.33661e-11,-9,-2262,4.98967e-18,-9,-96.6002,-2165.4,3.076
1.4778,1.47636,0.584139,0.188883,0,9.86229e-08,0.00776268,2.22441e-11,-9,-2263,2.21763e-18,-9,-96.6002,-2166.4,3.08
1.4778,1.47636,0.584171,0.188883,0,6.57486e-08,0.00777956,1.48294e-11,-9,-2263,9.85614e-19,-9,-96.6002,-2166.4,3.084
1.4778,1.47636,0.584202,0.188883,0,4.38324e-08,0.00779646,9.88625e-12,-9,-2263,4.3805e-19,-9,-96.6002,-2166.4,3.088
1.4778,1.47636,0.584233,0.188883,0,2.92216e-08,0.00781336,6.59083e-12,-9,-2263,1.94689e-19,-9,-96.6002,-2166.4,3.092
1.4778,1.47636,0.584264,0.188883,0,1.94811e-08,0.00783028,4.39389e-12,-9,-2263,8.65285e-20,-9,-96.6002,-2166.4,3.096
1.4778,1.47636,0.584296,0.188883,0,1.29874e-08,0.0078472,2.92926e-12,-9,-2263,3.84571e-20,-9,-96.6002,-2166.4,3.1
1.4778,1.47636,0.584327,0.188883,0,8.65826e-09,0.00786413,1.95284e-12,-9,-2264,1.7092e-20,-9,-96.6002,-2167.4,3.104
1.4778,1.47636,0.584359,0.188883,0,5.77217e-09,0.00788108,1.30189e-12,-9,-2264,7.59647e-21,-9,-96.6002,-2167.4,3.108
1.4778,1.47636,0.58439,0.188883,0,3.84811e-09,0.00789803,8.67929e-13,-9,-2264,3.37621e-21,-9,-96.6002,-2167.4,3.112
1.4778,1.47636,0.584422,0.188883,0,2.56541e-09,0.00791499,5.78619e-13,-9,-2264,1.50054e-21,-9,-96.6002,-2167.4,3.116
1.4778,1.47636,0.584453,0.188883,0,1.71027e-09,0.00793197,3.85746e-13,-9,-2264,6.66905e-22,-9,-96.6002,-2167.4,3.12
1.4778,1.47636,0.584485,0.188883,0,1.14018e-09,0.00794895,2.57164e-13,-9,-2265,2.96402e-22,-9,-96.6002,-2168.4,3.124
1.4778,1.47636,0.584517,0.188883,0,7.60121e-10,0.00796594,1.71443e-13,-9,-2265,1.31734e-22,-9,-96.6002,-2168.4,3.128
1.4778,1.47636,0.584549,0.188883,0,5.06747e-10,0.00798294,1.14295e-13,-9,-2265,5.85486e-23,-9,-96.6002,-2168.4,3.132
1.4778,1.47636,0.584581,0.188883,0,3.37832e-10,0.00799995,7.61967e-14,-9,-2265,2.60216e-23,-9,-96.6002,-2168.4,3.136
1.4778,1.47636,0.584613,0.188883,0,2.25221e-10,0.00801697,5.07978e-14,-9,-2265,1.15652e-23,-9,-96.6002,-2168.4,3.14
1.4778,1.47636,0.584645,0.188883,0,1.50147e-10,0.008034,3.38652e-14,-9,-2265,5.14007e-24,-9,-96.6002,-2168.4,3.144
1.4778,1.47636,0.584677,0.188883,0,1.00098e-10,0.00805104,2.25768e-14,-9,-2266,2.28447e-24,-9,-96.6002,-2169.4,3.148
1.4778,1.47636,0.584709,0.188883,0,6.67322e-11,0.00806809,1.50512e-14,-9,-2266,1.01532e-24,-9,-96.6002,-2169.4,3.152
1.4778,1.47636,0.584742,0.188883,0,4.44881e-11,0.00808515,1.00341e-14,-9,-2266,4.51254e-25,-9,-96.6002,-2169.4,3.156
1.4778,1.47636,0.584774,0.188883,0,2.96587e-11,0.00810221,6.68943e-15,-9,-2266,2.00557e-25,-9,-96.6002,-2169.4,3.16
1.4778,1.47636,0.584807,0.188883,0,1.97725e-11,0.00811929,4.45962e-15,-9,-2266,8.91367e-26,-9,-96.6002,-2169.4,3.164
1.4778,1.47636,0.584839,0.188883,0,1.31817e-11,0.00813638,2.97308e-15,-9,-2266,3.96163e-26,-9,-96.6002,-2169.4,3.168
1.4778,1.47636,0.584872,0.188883,0,8.78778e-12,0.00815347,1.98205e-15,-9,-2267,1.76072e-26,-9,-96.6002,-2170.4,3.172
1.4778,1.47636,0.584904,0.188883,0,5.85852e-12,0.00817057,1.32137e-15,-9,-2267,7.82544e-27,-9,-96.6002,-2170.4,3.176
1.4778,1.47636,0.584937,0.188883,0,3.90568e-12,0.00818769,8.80912e-16,-9,-2267,3.47797e-27,-9,-96.6002,-2170.4,3.18
1.4778,1.47636,0.58497,0.188883,0,2.60379e-12,0.00820481,5.87275e-16,-9,-2267,1.54577e-27,-9,-96.6002,-2170.4,3.184
1.4778,1.47636,0.585003,0.188883,0,1.73586e-12,0.00822194,3.91517e-16,-9,-2267,6.87007e-28,-9,-96.6002,-2170.4,3.188
1.4778,1.47636,0.585036,0.188883,0,1.15724e-12,0.00823908,2.87909e-05,-9,-2268,3.36803e-17,-9,-96.6002,-2171.4,3.192
1.4778,1.47636,0.585069,0.188883,0,7.71492e-13,0.00825623,-9.59697e-06,-9,-2268,-7.4845e-18,-9,-96.6002,-2171.4,3.196
1.4778,1.47636,0.585102,0.188883,0,5.14328e-13,0.00827339,-6.39798e-06,-9,-2268,-3.32645e-18,-9,-96.6002,-2171.4,3.2
1.4778,1.47636,0.585135,0.188883,0,3.42885e-13,0.00829056,-4.26532e-06,-9,-2268,-1.47842e-18,-9,-96.6002,-2171.4,3.204
1.4778,1.47636,0.585168,0.188883,0,2.2859e-13,0.00830773,-2.84355e-06,-9,-2268,-6.57076e-19,-9,-96.6002,-2171.4,3.208
1.4778,1.47636,0.585201,0.188883,0,1.52393e-13,0.00832492,-1.8957e-06,-9,-2268,-2.92034e-19,-9,-96.6002,-2171.4,3.212
1.4778,1.47636,0.585234,0.188883,0,1.01596e-13,0.00834211,-1.2638e-06,-9,-2269,-1.29793e-19,-9,-96.6002,-2172.4,3.216
1.4778,1.47636,0.585268,0.188883,0,6.77304e-14,0.00835931,-8.42533e-07,-9,-2269,-5.76857e-20,-9,-96.6002,-2172.4,3.22
1.4778,1.47636,0.585301,0.188883,0,4.51536e-14,0.00837653,-5.61689e-07,-9,-2269,-2.56381e-20,-9,-96.6002,-2172.4,3.224
1.4778,1.47636,0.585335,0.188883,0,3.01024e-14,0.00839375,-3.74459e-07,-9,-2269,-1.13947e-20,-9,-96.6002,-2172.4,3.228
1.4778,1.47636,0.585369,0.188883,0,2.00683e-14,0.00841098,-2.49639e-07,-9,-2269,-5.06431e-21,-9,-96.6002,-2172.4,3.232
1.4778,1.47636,0.585402,0.188883,0,1.33789e-14,0.00842822,-1.66426e-07,-9,-2270,-2.2508e-21,-9,-96.6002,-2173.4,3.236
1.4778,1.47636,0.585436,0.188883,0,8.91923e-15,0.00844546,-1.10951e-07,-9,-2270,-1.00036e-21,-9,-96.6002,-2173.4,3.24
1.4778,1.47636,0.58547,0.188883,0,5.94616e-15,0.00846272,-7.39672e-08,-9,-2270,-4.44603e-22,-9,-96.6002,-2173.4,3.244
1.4778,1.47636,0.585504,0.188883,0,3.9641e-15,0.00847998,-4.93115e-08,-9,-2270,-1.97602e-22,-9,-96.6002,-2173.4,3.248
1.4778,1.47636,0.585538,0.188883,0,2.64274e-15,0.00849726,-3.28743e-08,-9,-2270,-8.78229e-23,-9,-96.6002,-2173.4,3.252
1.4778,1.47636,0.585572,0.188883,0,1.76182e-15,0.00851454,-2.19162e-08,-9,-2270,-3.90324e-23,-9,-96.6002,-2173.4,3.256
1.4778,1.47636,0.585606,0.188883,0,1.17455e-15,0.00853183,-1.46108e-08,-9,-2271,-1.73477e-23,-9,-96.6002,-2174.4,3.26
1.4778,1.47636,0.58564,0.188883,0,7.83033e-16,0.00854913,-9.74054e-09,-9,-2271,-7.7101e-24,-9,-96.6002,-2174.4,3.264
1.4778,1.47636,0.585674,0.188883,0,5.22022e-16,0.00856644,-6.49369e-09,-9,-2271,-3.42671e-24,-9,-96.6002,-2174.4,3.268
1.4778,1.47636,0.585708,0.188883,0,3.48015e-16,0.00858375,-4.32913e-09,-9,-2271,-1.52298e-24,-9,-96.6002,-2174.4,3.272
1.4778,1.47636,0.585743,0.188883,0,2.3201e-16,0.00860108,-2.88609e-09,-9,-2271,-6.76881e-25,-9,-96.6002,-2174.4,3.276
1.4778,1.47636,0.585777,0.188883,0,1.54673e-16,0.00861841,-1.92406e-09,-9,-2272,-3.00836e-25,-9,-96.6002,-2175.4,3.28
1.4778,1.47636,0.585812,0.188883,0,1.03115e-16,0.00863575,-1.2827e-09,-9,-2272,-1.33705e-25,-9,-96.6002,-2175.4,3.284
1.4778,1.47636,0.585846,0.188883,0,6.87436e-17,0.0086531,-8.55136e-10,-9,-2272,-5.94244e-26,-9,-96.6002,-2175.4,3.288
1.4778,1.47636,0.585881,0.188883,0,4.58291e-17,0.00867046,-5.70091e-10,-9,-2272,-2.64109e-26,-9,-96.6002,-2175.4,3.292
1.4778,1.47636,0.585916,0.188883,0,3.05527e-17,0.00868783,-3.80061e-10,-9,-2272,-1.17382e-26,-9,-96.6002,-2175.4,3.296
1.4778,1.47636,0.58595,0.188883,0,2.03685e-17,0.0087052,-2.53374e-10,-9,-2273,-5.21696e-27,-9,-96.6002,-2176.4,3.3
1.4778,1.47636,0.585985,0.188883,0,1.3579e-17,0.00872259,-1.68916e-10,-9,-2273,-2.31865e-27,-9,-96.6002,-2176.4,3.304
1.4778,1.47636,0.58602,0.188883,0,9.05266e-18,0.00873998,-1.12611e-10,-9,-2273,-1.03051e-27,-9,-96.6002,-2176.4,3.308
1.4778,1.47636,0.586055,0.188883,0,6.03511e-18,0.00875738,-7.50737e-11,-9,-2273,-4.58005e-28,-9,-96.6002,-2176.4,3.312
1.4778,1.47636,0.58609,0.188883,0,4.0234e-18,0.00877479,-5.00491e-11,-9,-2273,-2.03558e-28,-9,-96.6002,-2176.4,3.316
1.4778,1.47636,0.586125,0.188883,0,2.68227e-18,0.0087922,-3.33661e-11,-9,-2274,-9.04701e-29,-9,-96.6002,-2177.4,3.32
1.4778,1.47636,0.586161,0.188883,0,1.78818e-18,0.00880963,-2.22441e-11,-9,-2274,-4.02089e-29,-9,-96.6002,-2177.4,3.324
1.4778,1.47636,0.586196,0.188883,0,1.19212e-18,0.00882706,-1.48294e-11,-9,-2274,-1.78706e-29,-9,-96.6002,-2177.4,3.328
1.4778,1.47636,0.586231,0.188883,0,7.94747e-19,0.0088445,-9.88625e-12,-9,-2274,-7.9425e-30,-9,-96.6002,-2177.4,3.332
1.4778,1.47636,0.586267,0.188883,0,5.29831e-19,0.00886195,-6.59083e-12,-9,-2274,-3.53e-30,-9,-96.6002,-2177.4,3.336
1.4778,1.47636,0.586302,0.188883,0,3.53221e-19,0.00887941,-4.39389e-12,-9,-2274,-1.56889e-30,-9,-96.6002,-2177.4,3.34
1.4778,1.47636,0.586338,0.188883,0,2.3548e-19,0.00889687,-2.92926e-12,-9,-2275,-6.97284e-31,-9,-96.6002,-2178.4,3.344
1.4778,1.47636,0.586373,0.188883,0,1.56987e-19,0.00891435,-1.95284e-12,-9,-2275,-3.09904e-31,-9,-96.6002,-2178.4,3.348
1.4778,1.47636,0.586409,0.188883,0,1.04658e-19,0.00893183,-1.30189e-12,-9,-2275,-1.37735e-31,-9,-96.6002,-2178.4,3.352
1.4778,1.47636,0.586445,0.188883,0,6.9772e-20,0.00894932,-8.67929e-13,-9,-2275,-6.12156e-32,-9,-96.6002,-2178.4,3.356
1.4778,1.47636,0.586481,0.188883,0,4.65147e-20,0.00896681,-5.78619e-13,-9,-2275,-2.72069e-32,-9,-96.6002,-2178.4,3.36
1.4778,1.47636,0.586517,0.188883,0,3.10098e-20,0.00898432,-3.85746e-13,-9,-2276,-1.2092e-32,-9,-96.6002,-2179.4,3.364
1.4778,1.47636,0.586552,0.188883,0,2.06732e-20,0.00900183,-2.57164e-13,-9,-2276,-5.37421e-33,-9,-96.6002,-2179.4,3.368
1.4778,1.47636,0.586589,0.188883,0,1.37821e-20,0.00901935,-1.71443e-13,-9,-2276,-2.38854e-33,-9,-96.6002,-2179.4,3.372
1.4778,1.47636,0.586625,0.188883,0,9.18808e-21,0.00903688,-1.14295e-13,-9,-2276,-1.06157e-33,-9,-96.6002,-2179.4,3.376
1.4778,1.47636,0.586661,0.188883,0,6.12539e-21,0.00905442,-7.61967e-14,-9,-2276,-4.7181e-34,-9,-96.6002,-2179.4,3.38
1.4778,1.47636,0.586697,0.188883,0,4.08359e-21,0.00907196,-5.07978e-14,-9,-2277,-2.09693e-34,-9,-96.6002,-2180.4,3.384
1.4778,1.47636,0.586733,0.188883,0,2.72239e-21,0.00908951,-3.38652e-14,-9,-2277,-9.3197e-35,-9,-96.6002,-2180.4,3.388
1.4778,1.47636,0.58677,0.188883,0,1.81493e-21,0.00910707,-2.25768e-14,-9,-2277,-4.14209e-35,-9,-96.6002,-2180.4,3.392
1.4778,1.47636,0.586806,0.188883,0,1.20995e-21,0.00912464,-1.50512e-14,-9,-2277,-1.84093e-35,-9,-96.6002,-2180.4,3.396
1.4778,1.47636,0.586843,0.188883,0,8.06635e-22,0.00914222,-1.00341e-14,-9,-2277,-8.18191e-36,-9,-96.6002,-2180.4,3.4
1.4778,1.47636,0.586879,0.188883,0,5.37757e-22,0.0091598,-6.68943e-15,-9,-2278,-3.6364e-36,-9,-96.6002,-2181.4,3.404
1.4778,1.47636,0.586916,0.188883,0,3.58505e-22,0.00917739,-4.45962e-15,-9,-2278,-1.61618e-36,-9,-96.6002,-2181.4,3.408
1.4778,1.47636,0.586953,0.188883,0,2.39003e-22,0.00919499,-2.97308e-15,-9,-2278,-7.18302e-37,-9,-96.6002,-2181.4,3.412
