peachynonah/Fire_monitor_/csv_datas/trial11/cdsl_data_t11_10.csv
joint1_pos_desired, joint1_pos, joint2_pos_desired, joint2_pos, joint1_vel_desired, joint1_vel_filtered, joint2_vel_desired, joint2_vel_filtered, target_torque_joint1, target_torque_joint2, nonlinear_term_torque_joint1, PD_term_torque_joint1, nonlinear_term_torque_joint2, PD_term_torque_joint2, current_time
1.4778,1.47636,0.415,0.413246,0,0,-1.88345e-07,0,-8,-102,0,-8,-90.0706,-11.9294,0.004
1.4778,1.47636,0.415,0.41311,0,0,-7.52776e-07,-0.0113436,-8,-112,-0,-8,-90.0759,-21.9241,0.008
1.4778,1.47636,0.415,0.413017,0,0,-1.69239e-06,-0.0153648,-8,-116,-0,-8,-90.0796,-25.9204,0.012
1.4778,1.47636,0.415,0.412947,0,0,-3.00629e-06,-0.0160301,-8,-117,-0,-8,-90.0824,-26.9176,0.016
1.4778,1.47636,0.415,0.412902,0,-2.87909e-05,-4.69356e-06,-0.0144296,-8,-116,8.36961e-07,-8,-90.0842,-25.9158,0.02
1.4778,1.47636,0.415,0.412884,0,9.59697e-06,-6.75331e-06,-0.0111744,-8,-113,-2.16043e-07,-8,-90.0849,-22.9151,0.024
1.4778,1.47636,0.415,0.412887,0,6.39798e-06,-9.18463e-06,-0.0071905,-8,-110,-9.26799e-08,-8,-90.0848,-19.9152,0.028
1.4778,1.47636,0.415,0.412903,0,4.26532e-06,-1.19866e-05,-0.0034405,-8,-107,-2.95644e-08,-8,-90.0841,-16.9159,0.032
1.4778,1.47636,0.415,0.412931,0,2.84355e-06,-1.51584e-05,3.84011e-05,-8,-104,2.2e-10,-8,-90.083,-13.917,0.036
1.4778,1.47636,0.415,0.412969,0,1.8957e-06,-1.86991e-05,0.00322139,-8,-101,1.23045e-08,-8,-90.0815,-10.9185,0.04
1.4778,1.47636,0.415,0.413015,0,1.2638e-06,-2.26077e-05,0.00597679,-8,-98,1.52206e-08,-8,-90.0797,-7.92031,0.044
1.4778,1.47636,0.415,0.413068,0,8.42533e-07,-2.68834e-05,0.00841833,-8,-96,1.42936e-08,-8,-90.0776,-5.92241,0.048
1.4778,1.47636,0.414999,0.413127,0,5.61689e-07,-3.15253e-05,0.0105067,-8,-94,1.18942e-08,-8,-90.0753,-3.92473,0.052
1.4778,1.47636,0.414999,0.413192,0,3.74459e-07,-3.65325e-05,0.0124459,-8,-92,9.3942e-09,-8,-90.0727,-1.9273,0.056
1.4778,1.47636,0.414999,0.413264,0,2.49639e-07,-4.19041e-05,0.0142282,-8,-90,7.16059e-09,-8,-90.0699,0.0698856,0.06
1.4778,1.47636,0.414999,0.41334,0,1.66426e-07,-4.76392e-05,0.0158771,-8,-88,5.32768e-09,-8,-90.0669,2.06686,0.064
1.4778,1.47636,0.414999,0.413419,0,1.10951e-07,-5.37369e-05,0.0171778,-8,-86,3.84334e-09,-8,-90.0637,4.06373,0.068
1.4778,1.47636,0.414999,0.413502,0,7.39672e-08,-6.01963e-05,0.0183041,-8,-85,2.73064e-09,-8,-90.0605,5.06048,0.072
1.4778,1.47636,0.414998,0.413589,0,4.93115e-08,-6.70165e-05,0.0194869,-8,-83,1.93836e-09,-8,-90.057,7.05703,0.076
1.4778,1.47636,0.414998,0.413681,0,3.28743e-08,-7.41967e-05,0.0206496,-8,-82,1.36958e-09,-8,-90.0534,8.05339,0.08
1.4778,1.47636,0.414998,0.413775,0,2.19162e-08,-8.17359e-05,0.0215688,-8,-80,9.53858e-10,-8,-90.0497,10.0497,0.084
1.4778,1.47636,0.414997,0.413871,0,1.46108e-08,-8.96332e-05,0.0224118,-8,-79,6.60879e-10,-8,-90.0459,11.0459,0.088
1.4778,1.47636,0.414997,0.413971,0,9.74054e-09,-9.78879e-05,0.0232906,-8,-77,4.57945e-10,-8,-90.0419,13.0419,0.092
1.4778,1.47636,0.414997,0.414075,0,6.49369e-09,-0.000106499,0.0241355,-8,-76,3.16433e-10,-8,-90.0378,14.0378,0.096
1.4778,1.47636,0.414996,0.414175,0,4.32913e-09,-0.000115465,0.0244397,-8,-75,2.13653e-10,-8,-90.0339,15.0339,0.1
1.4778,1.47636,0.414996,0.414268,0,2.88609e-09,-0.000124786,0.0240955,-8,-75,1.40453e-10,-8,-90.0302,15.0302,0.104
1.4778,1.47636,0.414995,0.414351,0,1.92406e-09,-0.000134461,0.0229159,-8,-75,8.90651e-11,-8,-90.0269,15.0269,0.108
1.4778,1.47636,0.414995,0.414418,0,1.2827e-09,-0.000144489,0.0208915,-8,-76,5.4138e-11,-8,-90.0242,14.0242,0.112
1.4778,1.47636,0.414994,0.414468,0,8.55136e-10,-0.000154868,0.0180736,-8,-78,3.12266e-11,-8,-90.0223,12.0223,0.116
1.4778,1.47636,0.414993,0.414498,0,5.70091e-10,-0.000165599,0.0145539,-8,-81,1.67645e-11,-8,-90.0211,9.02107,0.12
1.4778,1.47636,0.414993,0.414508,0,3.80061e-10,-0.00017668,0.0105663,-8,-84,8.11435e-12,-8,-90.0207,6.02066,0.124
1.4778,1.47636,0.414992,0.414503,0,2.53374e-10,-0.00018811,0.00658354,-8,-87,3.3705e-12,-8,-90.0209,3.02088,0.128
1.4778,1.47636,0.414991,0.414491,0,1.68916e-10,-0.000199888,0.00338135,-8,-90,1.15405e-12,-8,-90.0214,0.0213612,0.132
1.4778,1.47636,0.41499,0.414479,0,1.12611e-10,-0.000212014,0.00130413,-8,-92,2.96725e-13,-8,-90.0218,-1.97819,0.136
1.4778,1.47636,0.414989,0.414469,0,7.50737e-11,-0.000224487,3.4483e-05,-8,-93,5.23046e-15,-8,-90.0222,-2.97779,0.14
1.4778,1.47636,0.414989,0.414461,0,5.00491e-11,-0.000237305,-0.000639203,-8,-93,-6.46362e-14,-8,-90.0225,-2.97748,0.144
1.4778,1.47636,0.414988,0.414454,0,3.33661e-11,-0.000250469,-0.00103074,-8,-94,-6.9485e-14,-8,-90.0228,-3.97719,0.148
1.4778,1.47636,0.414987,0.414449,0,2.22441e-11,-0.000263976,-0.00111903,-8,-94,-5.02904e-14,-8,-90.023,-3.97698,0.152
1.4778,1.47636,0.414985,0.414447,0,1.48294e-11,-0.000277826,-0.000861182,-8,-94,-2.58016e-14,-8,-90.0231,-3.97693,0.156
1.4778,1.47636,0.414984,0.414447,0,9.88625e-12,-0.000292019,-0.000602912,-8,-93,-1.20424e-14,-8,-90.0231,-2.97691,0.16
1.4778,1.47636,0.414983,0.414447,0,6.59083e-12,-0.000306553,-0.00037315,-8,-93,-4.96883e-15,-8,-90.0231,-2.97693,0.164
1.4778,1.47636,0.414982,0.414447,0,4.39389e-12,-0.000321428,-0.000248767,-8,-93,-2.20837e-15,-8,-90.0231,-2.97693,0.168
1.4778,1.47636,0.414981,0.414447,0,2.92926e-12,-0.000336642,-0.000165845,-8,-93,-9.81497e-16,-8,-90.0231,-2.97693,0.172
1.4778,1.47636,0.414979,0.414447,0,1.95284e-12,-0.000352195,-0.000110563,-8,-93,-4.36221e-16,-8,-90.0231,-2.97693,0.176
1.4778,1.47636,0.414978,0.414447,0,1.30189e-12,-0.000368086,-7.37087e-05,-8,-93,-1.93876e-16,-8,-90.0231,-2.97693,0.18
1.4778,1.47636,0.414976,0.414447,0,8.67929e-13,-0.000384314,-4.91391e-05,-8,-93,-8.61671e-17,-8,-90.0231,-2.97693,0.184
1.4778,1.47636,0.414975,0.414447,0,5.78619e-13,-0.000400878,-3.27594e-05,-8,-93,-3.82965e-17,-8,-90.0231,-2.97693,0.188
1.4778,1.47636,0.414973,0.414447,0,3.85746e-13,-0.000417777,-2.18396e-05,-8,-93,-1.70207e-17,-8,-90.0231,-2.97693,0.192
1.4778,1.47636,0.414971,0.414447,0,2.57164e-13,-0.000435011,-1.45597e-05,-8,-93,-7.56473e-18,-8,-90.0231,-2.97693,0.196
1.4778,1.47636,0.41497,0.414447,0,1.71443e-13,-0.000452578,-9.7065e-06,-8,-93,-3.3621e-18,-8,-90.0231,-2.97693,0.2
1.4778,1.47636,0.414968,0.414447,0,1.14295e-13,-0.000470478,-6.471e-06,-8,-93,-1.49427e-18,-8,-90.0231,-2.97693,0.204
1.4778,1.47636,0.414966,0.414447,0,7.61967e-14,-0.000488709,-4.314e-06,-8,-93,-6.64119e-19,-8,-90.0231,-2.97693,0.208
1.4778,1.47636,0.414964,0.414447,0,5.07978e-14,-0.000507272,-2.876e-06,-8,-93,-2.95164e-19,-8,-90.0231,-2.97693,0.212
1.4778,1.47636,0.414962,0.414447,0,3.38652e-14,-0.000526164,-1.91733e-06,-8,-93,-1.31184e-19,-8,-90.0231,-2.97693,0.216
1.4778,1.47636,0.41496,0.414447,0,2.25768e-14,-0.000545386,-1.27822e-06,-8,-93,-5.8304e-20,-8,-90.0231,-2.97693,0.22
1.4778,1.47636,0.414957,0.414447,0,1.50512e-14,-0.000564936,-8.52148e-07,-8,-93,-2.59129e-20,-8,-90.0231,-2.97693,0.224
1.4778,1.47636,0.414955,0.414447,0,1.00341e-14,-0.000584814,-5.68099e-07,-8,-93,-1.15168e-20,-8,-90.0231,-2.97693,0.228
1.4778,1.47636,0.414953,0.414447,0,6.68943e-15,-0.000605018,-3.78732e-07,-8,-92,-5.1186e-21,-8,-90.0231,-1.97693,0.232
1.4778,1.47636,0.41495,0.414447,0,4.45962e-15,-0.000625548,-2.52488e-07,-8,-92,-2.27493e-21,-8,-90.0231,-1.97693,0.236
1.4778,1.47636,0.414948,0.414447,0,2.97308e-15,-0.000646403,-1.68326e-07,-8,-92,-1.01108e-21,-8,-90.0231,-1.97693,0.24
1.4778,1.47636,0.414945,0.414447,0,1.98205e-15,-0.000667582,-1.12217e-07,-8,-92,-4.49369e-22,-8,-90.0231,-1.97693,0.244
1.4778,1.47636,0.414942,0.414447,0,1.32137e-15,-0.000689084,-7.48113e-08,-8,-92,-1.9972e-22,-8,-90.0231,-1.97693,0.248
1.4778,1.47636,0.41494,0.414447,0,8.80912e-16,-0.000710908,-4.98742e-08,-8,-92,-8.87643e-23,-8,-90.0231,-1.97693,0.252
1.4778,1.47636,0.414937,0.414447,0,5.87275e-16,-0.000733053,-3.32495e-08,-8,-92,-3.94508e-23,-8,-90.0231,-1.97693,0.256
1.4778,1.47636,0.414934,0.414447,0,3.91517e-16,-0.00075552,-2.21663e-08,-8,-92,-1.75337e-23,-8,-90.0231,-1.97693,0.26
1.4778,1.47636,0.414931,0.414447,0,2.61011e-16,-0.000778306,-1.47776e-08,-8,-92,-7.79275e-24,-8,-90.0231,-1.97693,0.264
1.4778,1.47636,0.414927,0.414447,0,1.74007e-16,-0.00080141,-9.8517e-09,-8,-92,-3.46345e-24,-8,-90.0231,-1.97693,0.268
1.4778,1.47636,0.414924,0.414447,0,1.16005e-16,-0.000824833,-6.5678e-09,-8,-92,-1.53931e-24,-8,-90.0231,-1.97693,0.272
1.4778,1.47636,0.414921,0.414447,0,7.73366e-17,-0.000848573,-4.37853e-09,-8,-92,-6.84137e-25,-8,-90.0231,-1.97693,0.276
1.4778,1.47636,0.414917,0.414447,0,5.15577e-17,-0.000872629,-2.91902e-09,-8,-92,-3.04061e-25,-8,-90.0231,-1.97693,0.28
1.4778,1.47636,0.414914,0.414447,0,3.43718e-17,-0.000897001,-1.94601e-09,-8,-92,-1.35138e-25,-8,-90.0231,-1.97693,0.284
1.4778,1.47636,0.41491,0.414447,0,2.29145e-17,-0.000921687,-1.29734e-09,-8,-92,-6.00614e-26,-8,-90.0231,-1.97693,0.288
1.4778,1.47636,0.414906,0.414447,0,1.52764e-17,-0.000946687,-8.64895e-10,-8,-92,-2.6694e-26,-8,-90.0231,-1.97693,0.292
1.4778,1.47636,0.414903,0.414447,0,1.01842e-17,-0.000972,-5.76597e-10,-8,-92,-1.1864e-26,-8,-90.0231,-1.97693,0.296
1.4778,1.47636,0.414899,0.414447,0,6.7895e-18,-0.000997625,-3.84398e-10,-8,-92,-5.27288e-27,-8,-90.0231,-1.97693,0.3
1.4778,1.47636,0.414895,0.414447,0,4.52633e-18,-0.00102356,-2.56265e-10,-8,-92,-2.3435e-27,-8,-90.0231,-1.97693,0.304
1.4778,1.47636,0.41489,0.414447,0,3.01755e-18,-0.00104981,-1.70844e-10,-8,-92,-1.04156e-27,-8,-90.0231,-1.97693,0.308
1.4778,1.47636,0.414886,0.414447,0,2.0117e-18,-0.00107636,-1.13896e-10,-8,-92,-4.62914e-28,-8,-90.0231,-1.97693,0.312
1.4778,1.47636,0.414882,0.414447,0,1.34113e-18,-0.00110323,-7.59305e-11,-8,-92,-2.0574e-28,-8,-90.0231,-1.97693,0.316
1.4778,1.47636,0.414877,0.414447,0,8.9409e-19,-0.0011304,-5.06203e-11,-8,-92,-9.14399e-29,-8,-90.0231,-1.97693,0.32
1.4778,1.47636,0.414873,0.414447,0,5.9606e-19,-0.00115788,-3.37469e-11,-8,-91,-4.06399e-29,-8,-90.0231,-0.976928,0.324
1.4778,1.47636,0.414868,0.414447,0,3.97373e-19,-0.00118566,-2.24979e-11,-8,-91,-1.80622e-29,-8,-90.0231,-0.976928,0.328
1.4778,1.47636,0.414863,0.414447,0,2.64916e-19,-0.00121375,-1.49986e-11,-8,-91,-8.02764e-30,-8,-90.0231,-0.976928,0.332
1.4778,1.47636,0.414858,0.414447,0,1.7661e-19,-0.00124215,-9.99907e-12,-8,-91,-3.56784e-30,-8,-90.0231,-0.976928,0.336
1.4778,1.47636,0.414853,0.414447,0,1.1774e-19,-0.00127085,-6.66605e-12,-8,-91,-1.58571e-30,-8,-90.0231,-0.976928,0.34
1.4778,1.47636,0.414848,0.414447,0,7.84935e-20,-0.00129985,-4.44403e-12,-8,-91,-7.04759e-31,-8,-90.0231,-0.976928,0.344
1.4778,1.47636,0.414843,0.414447,0,5.2329e-20,-0.00132915,-2.96269e-12,-8,-91,-3.13226e-31,-8,-90.0231,-0.976928,0.348
1.4778,1.47636,0.414838,0.414447,0,3.4886e-20,-0.00135875,-1.97513e-12,-8,-91,-1.39212e-31,-8,-90.0231,-0.976928,0.352
1.4778,1.47636,0.414832,0.414447,0,2.32573e-20,-0.00138866,-1.31675e-12,-8,-91,-6.18718e-32,-8,-90.0231,-0.976928,0.356
1.4778,1.47636,0.414827,0.414447,0,1.55049e-20,-0.00141886,-8.77834e-13,-8,-91,-2.74986e-32,-8,-90.0231,-0.976928,0.36
1.4778,1.47636,0.414821,0.414447,0,1.03366e-20,-0.00144936,-5.85222e-13,-8,-91,-1.22216e-32,-8,-90.0231,-0.976928,0.364
1.4778,1.47636,0.414815,0.414447,0,6.89106e-21,-0.00148016,-3.90148e-13,-8,-91,-5.43182e-33,-8,-90.0231,-0.976928,0.368
1.4778,1.47636,0.414809,0.414447,0,4.59404e-21,-0.00151126,-2.60099e-13,-8,-91,-2.41414e-33,-8,-90.0231,-0.976928,0.372
1.4778,1.47636,0.414803,0.414447,0,3.06269e-21,-0.00154265,-1.73399e-13,-8,-91,-1.07295e-33,-8,-90.0231,-0.976928,0.376
1.4778,1.47636,0.414797,0.414447,0,2.0418e-21,-0.00157434,-1.15599e-13,-8,-91,-4.76868e-34,-8,-90.0231,-0.976928,0.38
1.4778,1.47636,0.41479,0.414447,0,1.3612e-21,-0.00160632,-7.70663e-14,-8,-91,-2.11941e-34,-8,-90.0231,-0.976928,0.384
1.4778,1.47636,0.414784,0.414447,0,9.07465e-22,-0.0016386,-5.13776e-14,-8,-90,-9.41961e-35,-8,-90.0231,0.0230716,0.388
1.4778,1.47636,0.414777,0.414447,0,6.04977e-22,-0.00167116,-3.42517e-14,-8,-90,-4.18649e-35,-8,-90.0231,0.0230716,0.392
1.4778,1.47636,0.41477,0.414447,0,4.03318e-22,-0.00170402,-2.28345e-14,-8,-90,-1.86066e-35,-8,-90.0231,0.0230716,0.396
1.4778,1.47636,0.414764,0.414447,0,2.68878e-22,-0.00173718,-1.5223e-14,-8,-90,-8.26961e-36,-8,-90.0231,0.0230716,0.4
1.4778,1.47636,0.414756,0.414447,0,1.79252e-22,-0.00177062,-1.01487e-14,-8,-90,-3.67538e-36,-8,-90.0231,0.0230716,0.404
1.4778,1.47636,0.414749,0.414447,0,1.19502e-22,-0.00180435,-6.76577e-15,-8,-90,-1.6335e-36,-8,-90.0231,0.0230716,0.408
1.4778,1.47636,0.414742,0.414447,0,7.96677e-23,-0.00183836,-4.51051e-15,-8,-90,-7.26002e-37,-8,-90.0231,0.0230716,0.412
1.4778,1.47636,0.414735,0.414447,0,5.31118e-23,-0.00187267,-3.00701e-15,-8,-90,-3.22667e-37,-8,-90.0231,0.0230716,0.416
1.4778,1.47636,0.414727,0.414447,0,3.54079e-23,-0.00190726,-2.00467e-15,-8,-90,-1.43408e-37,-8,-90.0231,0.0230716,0.42
1.4778,1.47636,0.414719,0.414447,0,2.36052e-23,-0.00194214,-1.33645e-15,-8,-90,-6.37368e-38,-8,-90.0231,0.0230716,0.424
1.4778,1.47636,0.414712,0.414447,0,1.57368e-23,-0.00197731,-8.90965e-16,-8,-90,-2.83275e-38,-8,-90.0231,0.0230716,0.428
1.4778,1.47636,0.414704,0.414447,0,1.04912e-23,-0.00201276,-5.93977e-16,-8,-90,-1.259e-38,-8,-90.0231,0.0230716,0.432
1.4778,1.47636,0.414695,0.414447,0,6.99415e-24,-0.00204849,-3.95985e-16,-8,-90,-5.59555e-39,-8,-90.0231,0.0230716,0.436
1.4778,1.47636,0.414687,0.414447,0,4.66276e-24,-0.0020845,-2.6399e-16,-8,-89,-2.48691e-39,-8,-90.0231,1.02307,0.44
1.4778,1.47636,0.414679,0.414447,0,3.10851e-24,-0.0021208,-1.75993e-16,-8,-89,-1.10529e-39,-8,-90.0231,1.02307,0.444
1.4778,1.47636,0.41467,0.414447,0,2.07234e-24,-0.00215738,-1.17329e-16,-8,-89,-4.91241e-40,-8,-90.0231,1.02307,0.448
1.4778,1.47636,0.414662,0.414447,0,1.38156e-24,-0.00219423,-7.82192e-17,-8,-89,-2.1833e-40,-8,-90.0231,1.02307,0.452
1.4778,1.47636,0.414653,0.414447,0,9.2104e-25,-0.00223137,-5.21461e-17,-8,-89,-9.70354e-41,-8,-90.0231,1.02307,0.456
1.4778,1.47636,0.414644,0.414447,0,6.14027e-25,-0.00226879,-3.47641e-17,-8,-89,-4.31268e-41,-8,-90.0231,1.02307,0.46
1.4778,1.47636,0.414635,0.414447,0,4.09351e-25,-0.00230648,-2.31761e-17,-8,-89,-1.91675e-41,-8,-90.0231,1.02307,0.464
1.4778,1.47636,0.414625,0.414447,0,2.72901e-25,-0.00234445,-1.54507e-17,-8,-89,-8.51888e-42,-8,-90.0231,1.02307,0.468
1.4778,1.47636,0.414616,0.414447,0,1.81934e-25,-0.0023827,-1.03005e-17,-8,-89,-3.78617e-42,-8,-90.0231,1.02307,0.472
1.4778,1.47636,0.414606,0.414447,0,1.21289e-25,-0.00242122,-6.86698e-18,-8,-89,-1.68274e-42,-8,-90.0231,1.02307,0.476
1.4778,1.47636,0.414596,0.414447,0,8.08595e-26,-0.00246001,-4.57799e-18,-8,-88,-7.47885e-43,-8,-90.0231,2.02307,0.48
1.4778,1.47636,0.414586,0.414447,0,5.39063e-26,-0.00249908,-3.05199e-18,-8,-88,-3.32393e-43,-8,-90.0231,2.02307,0.484
1.4778,1.47636,0.414576,0.414447,0,3.59375e-26,-0.00253843,-2.03466e-18,-8,-88,-1.4773e-43,-8,-90.0231,2.02307,0.488
1.4778,1.47636,0.414566,0.414447,0,2.39584e-26,-0.00257804,-1.35644e-18,-8,-88,-6.5658e-44,-8,-90.0231,2.02307,0.492
1.4778,1.47636,0.414556,0.414447,0,1.59722e-26,-0.00261793,-9.04294e-19,-8,-88,-2.91813e-44,-8,-90.0231,2.02307,0.496
1.4778,1.47636,0.414545,0.414447,0,1.06482e-26,-0.00265808,-6.02862e-19,-8,-88,-1.29695e-44,-8,-90.0231,2.02307,0.5
1.4778,1.47636,0.414534,0.414447,0,7.09877e-27,-0.00269851,-4.01908e-19,-8,-88,-5.76421e-45,-8,-90.0231,2.02307,0.504
1.4778,1.47636,0.414524,0.414447,0,4.73252e-27,-0.0027392,-2.67939e-19,-8,-88,-2.56187e-45,-8,-90.0231,2.02307,0.508
1.4778,1.47636,0.414513,0.414447,0,3.15501e-27,-0.00278016,-1.78626e-19,-8,-88,-1.13861e-45,-8,-90.0231,2.02307,0.512
1.4778,1.47636,0.414501,0.414447,0,2.10334e-27,-0.00282139,-1.19084e-19,-8,-88,-5.06049e-46,-8,-90.0231,2.02307,0.516
1.4778,1.47636,0.41449,0.414447,0,1.40223e-27,-0.00286289,-7.93893e-20,-8,-87,-2.2491e-46,-8,-90.0231,3.02307,0.52
1.4778,1.47636,0.414478,0.414447,0,9.34818e-28,-0.00290465,-5.29262e-20,-8,-87,-9.99602e-47,-8,-90.0231,3.02307,0.524
1.4778,1.47636,0.414467,0.414447,0,6.23212e-28,-0.00294668,-3.52841e-20,-8,-87,-4.44268e-47,-8,-90.0231,3.02307,0.528
1.4778,1.47636,0.414455,0.414447,0,4.15475e-28,-0.00298897,-2.35227e-20,-8,-87,-1.97452e-47,-8,-90.0231,3.02307,0.532
1.4778,1.47636,0.414443,0.414447,0,2.76983e-28,-0.00303152,-1.56818e-20,-8,-87,-8.77566e-48,-8,-90.0231,3.02307,0.536
1.4778,1.47636,0.414431,0.414447,0,1.84655e-28,-0.00307433,-1.04546e-20,-8,-87,-3.90029e-48,-8,-90.0231,3.02307,0.54
1.4778,1.47636,0.414418,0.414447,0,1.23104e-28,-0.00311741,-6.9697e-21,-8,-87,-1.73346e-48,-8,-90.0231,3.02307,0.544
1.4778,1.47636,0.414406,0.414447,0,8.20691e-29,-0.00316075,-4.64647e-21,-8,-87,-7.70428e-49,-8,-90.0231,3.02307,0.548
1.4778,1.47636,0.414393,0.414447,0,5.47127e-29,-0.00320434,-3.09765e-21,-8,-86,-3.42412e-49,-8,-90.0231,4.02307,0.552
1.4778,1.47636,0.41438,0.414447,0,3.64751e-29,-0.0032482,-2.0651e-21,-8,-86,-1.52183e-49,-8,-90.0231,4.02307,0.556
1.4778,1.47636,0.414367,0.414447,0,2.43168e-29,-0.00329231,-1.37673e-21,-8,-86,-6.7637e-50,-8,-90.0231,4.02307,0.56
1.4778,1.47636,0.414354,0.414447,0,1.62112e-29,-0.00333669,-9.17821e-22,-8,-86,-3.00609e-50,-8,-90.0231,4.02307,0.564
1.4778,1.47636,0.41434,0.414447,0,1.08074e-29,-0.00338131,-6.11881e-22,-8,-86,-1.33604e-50,-8,-90.0231,4.02307,0.568
1.4778,1.47636,0.414327,0.414447,0,7.20496e-30,-0.0034262,-4.0792e-22,-8,-86,-5.93796e-51,-8,-90.0231,4.02307,0.572
1.4778,1.47636,0.414313,0.414447,0,4.80331e-30,-0.00347134,-2.71947e-22,-8,-86,-2.63909e-51,-8,-90.0231,4.02307,0.576
1.4778,1.47636,0.414299,0.414447,0,3.20221e-30,-0.00351673,-1.81298e-22,-8,-86,-1.17293e-51,-8,-90.0231,4.02307,0.58
1.4778,1.47636,0.414285,0.414447,0,2.1348e-30,-0.00356238,-1.20865e-22,-8,-85,-5.21302e-52,-8,-90.0231,5.02307,0.584
1.4778,1.47636,0.41427,0.414447,0,1.4232e-30,-0.00360828,-8.05769e-23,-8,-85,-2.3169e-52,-8,-90.0231,5.02307,0.588
1.4778,1.47636,0.414256,0.414447,0,9.48802e-31,-0.00365443,-5.37179e-23,-8,-85,-1.02973e-52,-8,-90.0231,5.02307,0.592
1.4778,1.47636,0.414241,0.414447,0,6.32535e-31,-0.00370083,-3.58119e-23,-8,-85,-4.57659e-53,-8,-90.0231,5.02307,0.596
1.4778,1.47636,0.414226,0.414447,0,4.2169e-31,-0.00374748,-2.38746e-23,-8,-85,-2.03404e-53,-8,-90.0231,5.02307,0.6
1.4778,1.47636,0.414211,0.414447,0,2.81127e-31,-0.00379438,-1.59164e-23,-8,-85,-9.04017e-54,-8,-90.0231,5.02307,0.604
1.4778,1.47636,0.414196,0.414447,0,1.87418e-31,-0.00384153,-1.06109e-23,-8,-85,-4.01786e-54,-8,-90.0231,5.02307,0.608
1.4778,1.47636,0.41418,0.414447,0,1.24945e-31,-0.00388893,-7.07396e-24,-8,-84,-1.78571e-54,-8,-90.0231,6.02307,0.612
1.4778,1.47636,0.414165,0.414447,0,8.32967e-32,-0.00393658,-4.71598e-24,-8,-84,-7.9365e-55,-8,-90.0231,6.02307,0.616
1.4778,1.47636,0.414149,0.414447,0,5.55312e-32,-0.00398447,-3.14398e-24,-8,-84,-3.52734e-55,-8,-90.0231,6.02307,0.62
1.4778,1.47636,0.414133,0.414447,0,3.70208e-32,-0.0040326,-2.09599e-24,-8,-84,-1.5677e-55,-8,-90.0231,6.02307,0.624
1.4778,1.47636,0.414117,0.414447,0,2.46805e-32,-0.00408098,-1.39733e-24,-8,-84,-6.96758e-56,-8,-90.0231,6.02307,0.628
1.4778,1.47636,0.4141,0.414447,0,1.64537e-32,-0.00412961,-9.31551e-25,-8,-84,-3.0967e-56,-8,-90.0231,6.02307,0.632
1.4778,1.47636,0.414084,0.414447,0,1.09691e-32,-0.00417848,-6.21034e-25,-8,-84,-1.37631e-56,-8,-90.0231,6.02307,0.636
1.4778,1.47636,0.414067,0.414447,0,7.31275e-33,-0.00422759,-4.14023e-25,-8,-83,-6.11694e-57,-8,-90.0231,7.02307,0.64
1.4778,1.47636,0.41405,0.414447,0,4.87516e-33,-0.00427694,-2.76015e-25,-8,-83,-2.71864e-57,-8,-90.0231,7.02307,0.644
1.4778,1.47636,0.414033,0.414447,0,3.25011e-33,-0.00432653,-1.8401e-25,-8,-83,-1.20828e-57,-8,-90.0231,7.02307,0.648
1.4778,1.47636,0.414015,0.414447,0,2.16674e-33,-0.00437637,-1.22673e-25,-8,-83,-5.37015e-58,-8,-90.0231,7.02307,0.652
1.4778,1.47636,0.413998,0.414447,0,1.44449e-33,-0.00442644,-8.17822e-26,-8,-83,-2.38673e-58,-8,-90.0231,7.02307,0.656
1.4778,1.47636,0.41398,0.414447,0,9.62995e-34,-0.00447675,-5.45215e-26,-8,-83,-1.06077e-58,-8,-90.0231,7.02307,0.66
1.4778,1.47636,0.413962,0.414447,0,6.41997e-34,-0.0045273,-3.63477e-26,-8,-82,-4.71454e-59,-8,-90.0231,8.02307,0.664
1.4778,1.47636,0.413944,0.414447,0,4.27998e-34,-0.00457808,-2.42318e-26,-8,-82,-2.09535e-59,-8,-90.0231,8.02307,0.668
1.4778,1.47636,0.413925,0.414447,0,2.85332e-34,-0.0046291,-1.61545e-26,-8,-82,-9.31267e-60,-8,-90.0231,8.02307,0.672
1.4778,1.47636,0.413907,0.414447,0,1.90221e-34,-0.00468036,-1.07697e-26,-8,-82,-4.13896e-60,-8,-90.0231,8.02307,0.676
1.4778,1.47636,0.413888,0.414447,0,1.26814e-34,-0.00473185,-7.17979e-27,-8,-82,-1.83954e-60,-8,-90.0231,8.02307,0.68
1.4778,1.47636,0.413869,0.414447,0,8.45428e-35,-0.00478357,-4.78652e-27,-8,-82,-8.17573e-61,-8,-90.0231,8.02307,0.684
1.4778,1.47636,0.413849,0.414447,0,5.63619e-35,-0.00483553,-3.19102e-27,-8,-81,-3.63366e-61,-8,-90.0231,9.02307,0.688
1.4778,1.47636,0.41383,0.414447,0,3.75746e-35,-0.00488772,-2.12734e-27,-8,-81,-1.61496e-61,-8,-90.0231,9.02307,0.692
1.4778,1.47636,0.41381,0.414447,0,2.50497e-35,-0.00494014,-1.41823e-27,-8,-81,-7.17759e-62,-8,-90.0231,9.02307,0.696
1.4778,1.47636,0.413791,0.414447,0,1.66998e-35,-0.00499279,-9.45486e-28,-8,-81,-3.19004e-62,-8,-90.0231,9.02307,0.7
1.4778,1.47636,0.41377,0.414447,0,1.11332e-35,-0.00504567,-6.30324e-28,-8,-81,-1.4178e-62,-8,-90.0231,9.02307,0.704
1.4778,1.47636,0.41375,0.414447,0,7.42214e-36,-0.00509878,-4.20216e-28,-8,-81,-6.30132e-63,-8,-90.0231,9.02307,0.708
1.4778,1.47636,0.41373,0.414447,0,4.94809e-36,-0.00515211,-2.80144e-28,-8,-80,-2.80059e-63,-8,-90.0231,10.0231,0.712
1.4778,1.47636,0.413709,0.414447,0,3.29873e-36,-0.00520568,-1.86763e-28,-8,-80,-1.2447e-63,-8,-90.0231,10.0231,0.716
1.4778,1.47636,0.413688,0.414447,0,2.19915e-36,-0.00525947,-1.24508e-28,-8,-80,-5.53202e-64,-8,-90.0231,10.0231,0.72
1.4778,1.47636,0.413667,0.414447,0,1.4661e-36,-0.00531349,-8.30056e-29,-8,-80,-2.45868e-64,-8,-90.0231,10.0231,0.724
1.4778,1.47636,0.413645,0.414447,0,9.77401e-37,-0.00536773,-5.53371e-29,-8,-80,-1.09274e-64,-8,-90.0231,10.0231,0.728
1.4778,1.47636,0.413624,0.414447,0,6.51601e-37,-0.0054222,-3.68914e-29,-8,-79,-4.85664e-65,-8,-90.0231,11.0231,0.732
1.4778,1.47636,0.413602,0.414447,0,4.344e-37,-0.00547689,-2.45943e-29,-8,-79,-2.15851e-65,-8,-90.0231,11.0231,0.736
1.4778,1.47636,0.41358,0.414447,0,2.896e-37,-0.0055318,-1.63962e-29,-8,-79,-9.59337e-66,-8,-90.0231,11.0231,0.74
1.4778,1.47636,0.413558,0.414447,0,1.93067e-37,-0.00558694,-1.09308e-29,-8,-79,-4.26372e-66,-8,-90.0231,11.0231,0.744
1.4778,1.47636,0.413535,0.414447,0,1.28711e-37,-0.00564229,-7.28719e-30,-8,-79,-1.89499e-66,-8,-90.0231,11.0231,0.748
1.4778,1.47636,0.413513,0.414447,0,8.58075e-38,-0.00569787,-4.85813e-30,-8,-78,-8.42216e-67,-8,-90.0231,12.0231,0.752
1.4778,1.47636,0.41349,0.414447,0,5.7205e-38,-0.00575367,-3.23875e-30,-8,-78,-3.74318e-67,-8,-90.0231,12.0231,0.756
1.4778,1.47636,0.413467,0.414447,0,3.81367e-38,-0.00580968,-2.15917e-30,-8,-78,-1.66364e-67,-8,-90.0231,12.0231,0.76
1.4778,1.47636,0.413443,0.414447,0,2.54244e-38,-0.00586591,-1.43944e-30,-8,-78,-7.39394e-68,-8,-90.0231,12.0231,0.764
1.4778,1.47636,0.41342,0.414447,0,1.69496e-38,-0.00592237,-9.5963e-31,-8,-78,-3.2862e-68,-8,-90.0231,12.0231,0.768
1.4778,1.47636,0.413396,0.414447,0,1.12998e-38,-0.00597903,-6.39753e-31,-8,-77,-1.46053e-68,-8,-90.0231,13.0231,0.772
1.4778,1.47636,0.413372,0.414447,0,7.53317e-39,-0.00603592,-4.26502e-31,-8,-77,-6.49125e-69,-8,-90.0231,13.0231,0.776
1.4778,1.47636,0.413348,0.414447,0,5.02211e-39,-0.00609301,-2.84335e-31,-8,-77,-2.885e-69,-8,-90.0231,13.0231,0.78
1.4778,1.47636,0.413323,0.414447,0,3.34807e-39,-0.00615033,-1.89557e-31,-8,-77,-1.28222e-69,-8,-90.0231,13.0231,0.784
1.4778,1.47636,0.413298,0.414447,0,2.23205e-39,-0.00620785,-1.26371e-31,-8,-77,-5.69877e-70,-8,-90.0231,13.0231,0.788
1.4778,1.47636,0.413274,0.414447,0,1.48803e-39,-0.00626559,-8.42473e-32,-8,-76,-2.53279e-70,-8,-90.0231,14.0231,0.792
1.4778,1.47636,0.413248,0.414447,0,9.92022e-40,-0.00632354,-5.61649e-32,-8,-76,-1.12568e-70,-8,-90.0231,14.0231,0.796
1.4778,1.47636,0.413223,0.414447,0,6.61348e-40,-0.00638171,-3.74433e-32,-8,-76,-5.00303e-71,-8,-90.0231,14.0231,0.8
1.4778,1.47636,0.413197,0.414447,0,4.40899e-40,-0.00644008,-2.49622e-32,-8,-76,-2.22357e-71,-8,-90.0231,14.0231,0.804
1.4778,1.47636,0.413171,0.414447,0,2.93932e-40,-0.00649866,-1.66415e-32,-8,-75,-9.88254e-72,-8,-90.0231,15.0231,0.808
1.4778,1.47636,0.413145,0.414447,0,1.95955e-40,-0.00655745,-1.10943e-32,-8,-75,-4.39224e-72,-8,-90.0231,15.0231,0.812
1.4778,1.47636,0.413119,0.414447,0,1.30637e-40,-0.00661645,-7.3962e-33,-8,-75,-1.95211e-72,-8,-90.0231,15.0231,0.816
1.4778,1.47636,0.413092,0.414447,0,8.70911e-41,-0.00667566,-4.9308e-33,-8,-75,-8.67603e-73,-8,-90.0231,15.0231,0.82
1.4778,1.47636,0.413066,0.414447,0,5.80607e-41,-0.00673507,-3.2872e-33,-8,-74,-3.85601e-73,-8,-90.0231,16.0231,0.824
1.4778,1.47636,0.413038,0.414447,0,3.87072e-41,-0.00679469,-2.19147e-33,-8,-74,-1.71378e-73,-8,-90.0231,16.0231,0.828
1.4778,1.47636,0.413011,0.414447,0,2.58048e-41,-0.00685452,-1.46098e-33,-8,-74,-7.61681e-74,-8,-90.0231,16.0231,0.832
1.4778,1.47636,0.412984,0.414447,0,1.72032e-41,-0.00691455,-9.73985e-34,-8,-74,-3.38525e-74,-8,-90.0231,16.0231,0.836
1.4778,1.47636,0.412956,0.414447,0,1.14688e-41,-0.00697478,-6.49324e-34,-8,-74,-1.50456e-74,-8,-90.0231,16.0231,0.84
1.4778,1.47636,0.412928,0.414447,0,7.64586e-42,-0.00703522,-4.32882e-34,-8,-73,-6.68691e-75,-8,-90.0231,17.0231,0.844
1.4778,1.47636,0.4129,0.414447,0,5.09724e-42,-0.00709586,-2.88588e-34,-8,-73,-2.97196e-75,-8,-90.0231,17.0231,0.848
1.4778,1.47636,0.412871,0.414447,0,3.39816e-42,-0.0071567,-1.92392e-34,-8,-73,-1.32087e-75,-8,-90.0231,17.0231,0.852
1.4778,1.47636,0.412842,0.414447,0,2.26544e-42,-0.00721774,-1.28261e-34,-8,-73,-5.87054e-76,-8,-90.0231,17.0231,0.856
1.4778,1.47636,0.412813,0.414447,0,1.51029e-42,-0.00727898,-8.55076e-35,-8,-72,-2.60913e-76,-8,-90.0231,18.0231,0.86
1.4778,1.47636,0.412784,0.414447,0,1.00686e-42,-0.00734042,-5.70051e-35,-8,-72,-1.15961e-76,-8,-90.0231,18.0231,0.864
1.4778,1.47636,0.412755,0.414447,0,6.71241e-43,-0.00740206,-3.80034e-35,-8,-72,-5.15384e-77,-8,-90.0231,18.0231,0.868
1.4778,1.47636,0.412725,0.414447,0,4.47494e-43,-0.00746389,-2.53356e-35,-8,-72,-2.29059e-77,-8,-90.0231,18.0231,0.872
1.4778,1.47636,0.412695,0.414447,0,2.98329e-43,-0.00752593,-1.68904e-35,-8,-71,-1.01804e-77,-8,-90.0231,19.0231,0.876
1.4778,1.47636,0.412665,0.414447,0,1.98886e-43,-0.00758815,-1.12603e-35,-8,-71,-4.52463e-78,-8,-90.0231,19.0231,0.88
1.4778,1.47636,0.412634,0.414447,0,1.32591e-43,-0.00765058,-7.50684e-36,-8,-71,-2.01095e-78,-8,-90.0231,19.0231,0.884
1.4778,1.47636,0.412603,0.414447,0,8.83939e-44,-0.0077132,-5.00456e-36,-8,-71,-8.93754e-79,-8,-90.0231,19.0231,0.888
1.4778,1.47636,0.412572,0.414447,0,5.89293e-44,-0.00777601,-3.33637e-36,-8,-70,-3.97224e-79,-8,-90.0231,20.0231,0.892
1.4778,1.47636,0.412541,0.414447,0,3.92862e-44,-0.00783902,-2.22425e-36,-8,-70,-1.76544e-79,-8,-90.0231,20.0231,0.896
1.4778,1.47636,0.41251,0.414447,0,2.61908e-44,-0.00790222,-1.48283e-36,-8,-70,-7.8464e-80,-8,-90.0231,20.0231,0.9
1.4778,1.47636,0.412478,0.414447,0,1.74605e-44,-0.00796561,-9.88555e-37,-8,-69,-3.48729e-80,-8,-90.0231,21.0231,0.904
1.4778,1.47636,0.412446,0.414447,0,1.16404e-44,-0.00802919,-6.59037e-37,-8,-69,-1.54991e-80,-8,-90.0231,21.0231,0.908
1.4778,1.47636,0.412414,0.414447,0,7.76023e-45,-0.00809296,-4.39358e-37,-8,-69,-6.88847e-81,-8,-90.0231,21.0231,0.912
1.4778,1.47636,0.412381,0.414447,0,5.17349e-45,-0.00815692,-2.92905e-37,-8,-69,-3.06154e-81,-8,-90.0231,21.0231,0.916
1.4778,1.47636,0.412349,0.414447,0,3.44899e-45,-0.00822107,-1.9527e-37,-8,-68,-1.36069e-81,-8,-90.0231,22.0231,0.92
1.4778,1.47636,0.412316,0.414447,0,2.29933e-45,-0.00828541,-1.3018e-37,-8,-68,-6.04749e-82,-8,-90.0231,22.0231,0.924
1.4778,1.47636,0.412282,0.414447,0,1.53289e-45,-0.00834994,-8.67868e-38,-8,-68,-2.68777e-82,-8,-90.0231,22.0231,0.928
1.4778,1.47636,0.412249,0.414447,0,1.02192e-45,-0.00841465,-5.78578e-38,-8,-67,-1.19457e-82,-8,-90.0231,23.0231,0.932
1.4778,1.47636,0.412215,0.414447,0,6.81283e-46,-0.00847955,-3.85719e-38,-8,-67,-5.30918e-83,-8,-90.0231,23.0231,0.936
1.4778,1.47636,0.412181,0.414447,0,4.54188e-46,-0.00854463,-2.57146e-38,-8,-67,-2.35964e-83,-8,-90.0231,23.0231,0.94
1.4778,1.47636,0.412147,0.414447,0,3.02792e-46,-0.0086099,-1.71431e-38,-8,-67,-1.04873e-83,-8,-90.0231,23.0231,0.944
1.4778,1.47636,0.412112,0.414447,0,2.01862e-46,-0.00867535,-1.14287e-38,-8,-66,-4.66101e-84,-8,-90.0231,24.0231,0.948
1.4778,1.47636,0.412077,0.414447,0,1.34574e-46,-0.00874098,-7.61914e-39,-8,-66,-2.07156e-84,-8,-90.0231,24.0231,0.952
1.4778,1.47636,0.412042,0.414447,0,8.97162e-47,-0.0088068,-5.07943e-39,-8,-66,-9.20694e-85,-8,-90.0231,24.0231,0.956
1.4778,1.47636,0.412007,0.414447,0,5.98108e-47,-0.0088728,-3.38628e-39,-8,-65,-4.09197e-85,-8,-90.0231,25.0231,0.96
1.4778,1.47636,0.411971,0.414447,0,3.98739e-47,-0.00893897,-2.25752e-39,-8,-65,-1.81865e-85,-8,-90.0231,25.0231,0.964
1.4778,1.47636,0.411935,0.414447,0,2.65826e-47,-0.00900533,-1.50502e-39,-8,-65,-8.08291e-86,-8,-90.0231,25.0231,0.968
1.4778,1.47636,0.411899,0.414447,0,1.77217e-47,-0.00907187,-1.00334e-39,-8,-65,-3.5924e-86,-8,-90.0231,25.0231,0.972
1.4778,1.47636,0.411863,0.414447,0,1.18145e-47,-0.00913858,-6.68896e-40,-8,-64,-1.59662e-86,-8,-90.0231,26.0231,0.976
1.4778,1.47636,0.411826,0.414447,0,7.87632e-48,-0.00920548,-4.4593e-40,-8,-64,-7.09611e-87,-8,-90.0231,26.0231,0.98
1.4778,1.47636,0.411789,0.414447,0,5.25088e-48,-0.00927255,-2.97287e-40,-8,-64,-3.15383e-87,-8,-90.0231,26.0231,0.984
1.4778,1.47636,0.411752,0.414447,0,3.50059e-48,-0.0093398,-1.98191e-40,-8,-63,-1.4017e-87,-8,-90.0231,27.0231,0.988
1.4778,1.47636,0.411714,0.414447,0,2.33372e-48,-0.00940722,-1.32128e-40,-8,-63,-6.22978e-88,-8,-90.0231,27.0231,0.992
1.4778,1.47636,0.411677,0.414447,0,1.55582e-48,-0.00947482,-8.8085e-41,-8,-63,-2.76879e-88,-8,-90.0231,27.0231,0.996
1.4778,1.47636,0.411638,0.414447,0,1.03721e-48,-0.00954259,-5.87233e-41,-8,-62,-1.23057e-88,-8,-90.0231,28.0231,1
1.4778,1.47636,0.4116,0.414447,0,6.91474e-49,-0.00961053,-3.91489e-41,-8,-62,-5.46922e-89,-8,-90.0231,28.0231,1.004
1.4778,1.47636,0.411562,0.414447,0,4.60983e-49,-0.00967865,-2.60993e-41,-8,-62,-2.43076e-89,-8,-90.0231,28.0231,1.008
1.4778,1.47636,0.411523,0.414447,0,3.07322e-49,-0.00974694,-1.73995e-41,-8,-61,-1.08034e-89,-8,-90.0231,29.0231,1.012
1.4778,1.47636,0.411484,0.414447,0,2.04881e-49,-0.0098154,-1.15997e-41,-8,-61,-4.80151e-90,-8,-90.0231,29.0231,1.016
1.4778,1.47636,0.411444,0.414447,0,1.36587e-49,-0.00988403,-7.73312e-42,-8,-61,-2.134e-90,-8,-90.0231,29.0231,1.02
1.4778,1.47636,0.411405,0.414447,0,9.10583e-50,-0.00995283,-5.15541e-42,-8,-60,-9.48446e-91,-8,-90.0231,30.0231,1.024
1.4778,1.47636,0.411365,0.414447,0,6.07055e-50,-0.0100218,-3.43694e-42,-8,-60,-4.21531e-91,-8,-90.0231,30.0231,1.028
1.4778,1.47636,0.411324,0.414447,0,4.04704e-50,-0.0100909,-2.29129e-42,-8,-60,-1.87347e-91,-8,-90.0231,30.0231,1.032
1.4778,1.47636,0.411284,0.414447,0,2.69802e-50,-0.0101602,-1.52753e-42,-8,-59,-8.32655e-92,-8,-90.0231,31.0231,1.036
1.4778,1.47636,0.411243,0.414447,0,1.79868e-50,-0.0102297,-1.01835e-42,-8,-59,-3.70069e-92,-8,-90.0231,31.0231,1.04
1.4778,1.47636,0.411202,0.414447,0,1.19912e-50,-0.0102994,-6.78902e-43,-8,-59,-1.64475e-92,-8,-90.0231,31.0231,1.044
1.4778,1.47636,0.411161,0.414447,0,7.99415e-51,-0.0103692,-2.87909e-05,-8,-58,-4.65004e-55,-8,-90.0231,32.0231,1.048
1.4778,1.47636,0.411119,0.414447,0,5.32943e-51,-0.0104391,-1.91939e-05,-8,-58,-2.06669e-55,-8,-90.0231,32.0231,1.052
1.4778,1.47636,0.411077,0.414447,0,3.55295e-51,-0.0105093,1.5995e-05,-8,-58,1.14816e-55,-8,-90.0231,32.0231,1.056
1.4778,1.47636,0.411035,0.414447,0,2.36864e-51,-0.0105796,1.06633e-05,-8,-57,5.10293e-56,-8,-90.0231,33.0231,1.06
1.4778,1.47636,0.410993,0.414448,0,1.57909e-51,-0.01065,3.58998e-05,-8,-57,1.14533e-55,-8,-90.0231,33.0231,1.064
1.4778,1.47636,0.41095,0.414447,0,1.05273e-51,-0.0107206,-4.85773e-06,-8,-57,-1.03319e-56,-8,-90.0231,33.0231,1.068
1.4778,1.47636,0.410907,0.414447,0,7.01818e-52,-0.0107914,-3.23849e-06,-8,-56,-4.59194e-57,-8,-90.0231,34.0231,1.072
1.4778,1.47636,0.410863,0.414447,0,4.67879e-52,-0.0108624,-2.15899e-06,-8,-56,-2.04086e-57,-8,-90.0231,34.0231,1.076
1.4778,1.47636,0.41082,0.414448,0,3.11919e-52,-0.0109335,2.73516e-05,-8,-56,1.72367e-56,-8,-90.0231,34.0231,1.08
1.4778,1.47636,0.410776,0.414447,0,2.07946e-52,-0.0110047,-3.93475e-05,-8,-55,-1.65309e-56,-8,-90.0231,35.0231,1.084
1.4778,1.47636,0.410732,0.414447,0,1.38631e-52,-0.0110762,-5.50226e-05,-8,-55,-1.54109e-56,-8,-90.0231,35.0231,1.088
1.4778,1.47636,0.410687,0.414447,0,9.24205e-53,-0.0111477,-7.89078e-06,-8,-55,-1.47339e-57,-8,-90.0231,35.0231,1.092
1.4778,1.47636,0.410643,0.414447,0,6.16136e-53,-0.0112195,-5.26052e-06,-8,-54,-6.5484e-58,-8,-90.0231,36.0231,1.096
1.4778,1.47636,0.410598,0.414447,0,4.10758e-53,-0.0112914,-3.50701e-06,-8,-54,-2.9104e-58,-8,-90.0231,36.0231,1.1
1.4778,1.47636,0.410552,0.414447,0,2.73838e-53,-0.0113634,-2.33801e-06,-8,-53,-1.29351e-58,-8,-90.0231,37.0231,1.104
1.4778,1.47636,0.410507,0.414447,0,1.82559e-53,-0.0114356,-1.55867e-06,-8,-53,-5.74894e-59,-8,-90.0231,37.0231,1.108
1.4778,1.47636,0.410461,0.414447,0,1.21706e-53,-0.011508,-1.03912e-06,-8,-53,-2.55508e-59,-8,-90.0231,37.0231,1.112
1.4778,1.47636,0.410415,0.414447,0,8.11373e-54,-0.0115805,-6.92743e-07,-8,-52,-1.13559e-59,-8,-90.0231,38.0231,1.116
1.4778,1.47636,0.410368,0.414447,0,5.40915e-54,-0.0116531,-4.61829e-07,-8,-52,-5.04708e-60,-8,-90.0231,38.0231,1.12
1.4778,1.47636,0.410321,0.414447,0,3.6061e-54,-0.011726,-3.07886e-07,-8,-52,-2.24315e-60,-8,-90.0231,38.0231,1.124
1.4778,1.47636,0.410274,0.414447,0,2.40407e-54,-0.0117989,2.85857e-05,-8,-51,1.38843e-58,-8,-90.0231,39.0231,1.128
1.4778,1.47636,0.410227,0.414447,0,1.60271e-54,-0.011872,-3.85247e-05,-8,-51,-1.24745e-58,-8,-90.0231,39.0231,1.132
1.4778,1.47636,0.410179,0.414447,0,1.06847e-54,-0.0119453,-2.56832e-05,-8,-50,-5.54424e-59,-8,-90.0231,40.0231,1.136
1.4778,1.47636,0.410132,0.414446,0,7.12317e-55,-0.0120187,-7.4704e-05,-8,-50,-1.07509e-58,-8,-90.0231,40.0231,1.14
1.4778,1.47636,0.410083,0.414446,0,4.74878e-55,-0.0120923,-2.10117e-05,-8,-50,-2.01591e-59,-8,-90.0231,40.0231,1.144
1.4778,1.47636,0.410035,0.414446,0,3.16585e-55,-0.012166,-1.40078e-05,-8,-49,-8.95962e-60,-8,-90.0231,41.0231,1.148
1.4778,1.47636,0.409986,0.414446,0,2.11057e-55,-0.0122399,-9.33854e-06,-8,-49,-3.98205e-60,-8,-90.0231,41.0231,1.152
1.4778,1.47636,0.409937,0.414446,0,1.40705e-55,-0.0123139,-6.38075e-05,-8,-49,-1.81388e-59,-8,-90.0231,41.0231,1.156
1.4778,1.47636,0.409887,0.414446,0,9.3803e-56,-0.012388,-1.37474e-05,-8,-48,-2.60536e-60,-8,-90.0231,42.0231,1.16
1.4778,1.47636,0.409838,0.414446,0,6.25353e-56,-0.0124623,-9.16496e-06,-8,-48,-1.15794e-60,-8,-90.0231,42.0231,1.164
1.4778,1.47636,0.409788,0.414446,0,4.16902e-56,-0.0125367,-6.10997e-06,-8,-47,-5.14638e-61,-8,-90.0231,43.0231,1.168
1.4778,1.47636,0.409737,0.414446,0,2.77935e-56,-0.0126113,-4.07331e-06,-8,-47,-2.28728e-61,-8,-90.0231,43.0231,1.172
1.4778,1.47636,0.409687,0.414446,0,1.8529e-56,-0.0126861,-3.15065e-05,-8,-46,-1.17945e-60,-8,-90.0231,44.0231,1.176
1.4778,1.47636,0.409636,0.414446,0,1.23527e-56,-0.0127609,-2.10043e-05,-8,-46,-5.242e-61,-8,-90.0231,44.0231,1.18
1.4778,1.47636,0.409585,0.414446,0,8.23511e-57,-0.0128359,-1.40029e-05,-8,-46,-2.32978e-61,-8,-90.0231,44.0231,1.184
1.4778,1.47636,0.409533,0.414446,0,5.49007e-57,-0.0129111,-9.33525e-06,-8,-45,-1.03546e-61,-8,-90.0231,45.0231,1.188
1.4778,1.47636,0.409481,0.414445,0,3.66005e-57,-0.0129864,-6.38053e-05,-8,-45,-4.71815e-61,-8,-90.0232,45.0232,1.192
1.4778,1.47636,0.409429,0.414445,0,2.44003e-57,-0.0130618,-1.3746e-05,-8,-44,-6.7764e-62,-8,-90.0232,46.0232,1.196
1.4778,1.47636,0.409377,0.414445,0,1.62669e-57,-0.0131374,-9.16398e-06,-8,-44,-3.01173e-62,-8,-90.0232,46.0232,1.2
1.4778,1.47636,0.409324,0.414445,0,1.08446e-57,-0.0132131,-3.49002e-05,-8,-44,-7.64661e-62,-8,-90.0232,46.0232,1.204
1.4778,1.47636,0.409271,0.414444,0,7.22972e-58,-0.0132889,-8.08487e-05,-8,-43,-1.18092e-61,-8,-90.0232,47.0232,1.208
1.4778,1.47636,0.409218,0.414445,0,4.81982e-58,-0.0133649,-2.51082e-05,-8,-43,-2.44497e-62,-8,-90.0232,47.0232,1.212
1.4778,1.47636,0.409164,0.414444,0,3.21321e-58,-0.013441,-7.43206e-05,-8,-42,-4.82476e-62,-8,-90.0232,48.0232,1.216
1.4778,1.47636,0.40911,0.414444,0,2.14214e-58,-0.0135173,-2.07562e-05,-8,-42,-8.98302e-63,-8,-90.0232,48.0232,1.22
1.4778,1.47636,0.409056,0.414444,0,1.42809e-58,-0.0135937,-4.26284e-05,-8,-41,-1.22994e-62,-8,-90.0232,49.0232,1.224
1.4778,1.47636,0.409002,0.414444,0,9.52062e-59,-0.0136702,-5.72098e-05,-8,-41,-1.10043e-62,-8,-90.0232,49.0232,1.228
1.4778,1.47636,0.408947,0.414444,0,6.34708e-59,-0.0137469,-3.81399e-05,-8,-41,-4.8908e-63,-8,-90.0232,49.0232,1.232
1.4778,1.47636,0.408892,0.414442,0,4.23139e-59,-0.0138237,-0.000111799,-8,-40,-9.55758e-63,-8,-90.0233,50.0233,1.236
1.4778,1.47636,0.408836,0.414441,0,2.82093e-59,-0.0139006,-0.000160906,-8,-40,-9.17039e-63,-8,-90.0233,50.0233,1.24
1.4778,1.47636,0.408781,0.414441,0,1.88062e-59,-0.0139776,-0.00010727,-8,-39,-4.07573e-63,-8,-90.0233,51.0233,1.244
1.4778,1.47636,0.408724,0.414441,0,1.25374e-59,-0.0140548,-0.000129095,-8,-39,-3.26998e-63,-8,-90.0233,51.0233,1.248
1.4778,1.47636,0.408668,0.41444,0,8.3583e-60,-0.0141321,-0.000172436,-8,-38,-2.91186e-63,-8,-90.0234,52.0234,1.252
1.4778,1.47636,0.408611,0.414438,0,5.5722e-60,-0.0142096,-0.000258912,-8,-38,-2.91475e-63,-8,-90.0234,52.0234,1.256
1.4778,1.47636,0.408554,0.414437,0,3.7148e-60,-0.0142871,-0.000258981,-8,-38,-1.94368e-63,-8,-90.0235,52.0235,1.26
1.4778,1.47636,0.408497,0.414435,0,2.47653e-60,-0.0143648,-0.000316609,-8,-37,-1.58412e-63,-8,-90.0236,53.0236,1.264
1.4778,1.47636,0.408439,0.414435,0,1.65102e-60,-0.0144427,-0.000268654,-8,-37,-8.9612e-64,-8,-90.0236,53.0236,1.268
1.4778,1.47636,0.408382,0.414433,0,1.10068e-60,-0.0145206,-0.000294267,-8,-36,-6.54366e-64,-8,-90.0236,54.0236,1.272
1.4778,1.47636,0.408323,0.414432,0,7.33787e-61,-0.0145987,-0.000311341,-8,-36,-4.61556e-64,-8,-90.0237,54.0237,1.276
1.4778,1.47636,0.408265,0.41443,0,4.89192e-61,-0.0146769,-0.000351516,-8,-35,-3.47408e-64,-8,-90.0238,55.0238,1.28
1.4778,1.47636,0.408206,0.414429,0,3.26128e-61,-0.0147552,-0.000291926,-8,-35,-1.92342e-64,-8,-90.0238,55.0238,1.284
1.4778,1.47636,0.408147,0.414428,0,2.17419e-61,-0.0148337,-0.000338572,-8,-35,-1.48717e-64,-8,-90.0239,55.0239,1.288
1.4778,1.47636,0.408087,0.414427,0,1.44946e-61,-0.0149122,-0.000312087,-8,-34,-9.13891e-65,-8,-90.0239,56.0239,1.292
1.4778,1.47636,0.408027,0.414425,0,9.66304e-62,-0.0149909,-0.000352013,-8,-34,-6.87202e-65,-8,-90.024,56.024,1.296
1.4778,1.47636,0.407967,0.414424,0,6.44203e-62,-0.0150698,-0.000292257,-8,-33,-3.80364e-65,-8,-90.024,57.024,1.3
1.4778,1.47636,0.407907,0.414423,0,4.29469e-62,-0.0151487,-0.000310002,-8,-33,-2.68971e-65,-8,-90.024,57.024,1.304
1.4778,1.47636,0.407846,0.414421,0,2.86312e-62,-0.0152278,-0.000350622,-8,-32,-2.0281e-65,-8,-90.0241,58.0241,1.308
1.4778,1.47636,0.407785,0.41442,0,1.90875e-62,-0.0153069,-0.00029133,-8,-32,-1.12342e-65,-8,-90.0241,58.0241,1.312
1.4778,1.47636,0.407724,0.414419,0,1.2725e-62,-0.0153862,-0.000309384,-8,-31,-7.95357e-66,-8,-90.0242,59.0242,1.316
1.4778,1.47636,0.407662,0.414418,0,8.48333e-63,-0.0154657,-0.00032142,-8,-31,-5.50864e-66,-8,-90.0242,59.0242,1.32
1.4778,1.47636,0.4076,0.414417,0,5.65555e-63,-0.0155452,-0.000300652,-8,-30,-3.43515e-66,-8,-90.0243,60.0243,1.324
1.4778,1.47636,0.407538,0.414416,0,3.77037e-63,-0.0156248,-0.000258017,-8,-30,-1.96533e-66,-8,-90.0243,60.0243,1.328
1.4778,1.47636,0.407475,0.414415,0,2.51358e-63,-0.0157046,-0.000258384,-8,-29,-1.31209e-66,-8,-90.0244,61.0244,1.332
1.4778,1.47636,0.407412,0.414413,0,1.67572e-63,-0.0157845,-0.000316211,-8,-29,-1.07048e-66,-8,-90.0244,61.0244,1.336
1.4778,1.47636,0.407349,0.414411,0,1.11715e-63,-0.0158645,-0.000354762,-8,-28,-8.0066e-67,-8,-90.0245,62.0245,1.34
1.4778,1.47636,0.407285,0.41441,0,7.44764e-64,-0.0159446,-0.000380462,-8,-28,-5.7244e-67,-8,-90.0246,62.0246,1.344
1.4778,1.47636,0.407221,0.414408,0,4.9651e-64,-0.0160248,-0.000368805,-8,-27,-3.69933e-67,-8,-90.0246,63.0246,1.348
1.4778,1.47636,0.407157,0.414406,0,3.31006e-64,-0.0161052,-0.000447407,-8,-27,-2.99182e-67,-8,-90.0247,63.0247,1.352
1.4778,1.47636,0.407092,0.414403,0,2.20671e-64,-0.0161856,-0.000499808,-8,-26,-2.22814e-67,-8,-90.0248,64.0248,1.356
1.4778,1.47636,0.407027,0.414402,0,1.47114e-64,-0.0162662,-0.00047716,-8,-26,-1.41811e-67,-8,-90.0249,64.0249,1.36
1.4778,1.47636,0.406962,0.414399,0,9.8076e-65,-0.0163469,-0.000577225,-8,-26,-1.14366e-67,-8,-90.025,64.025,1.364
1.4778,1.47636,0.406897,0.414396,0,6.5384e-65,-0.0164277,-0.000615144,-8,-25,-8.12525e-68,-8,-90.0251,65.0251,1.368
1.4778,1.47636,0.406831,0.414393,0,4.35893e-65,-0.0165086,-0.000640423,-8,-25,-5.63941e-68,-8,-90.0252,65.0252,1.372
1.4778,1.47636,0.406765,0.41439,0,2.90595e-65,-0.0165896,-0.000657276,-8,-24,-3.85852e-68,-8,-90.0253,66.0253,1.376
1.4778,1.47636,0.406698,0.414387,0,1.9373e-65,-0.0166707,-0.000697303,-8,-24,-2.72898e-68,-8,-90.0255,66.0255,1.38
1.4778,1.47636,0.406631,0.414385,0,1.29154e-65,-0.0167519,-0.000666405,-8,-23,-1.7387e-68,-8,-90.0255,67.0255,1.384
1.4778,1.47636,0.406564,0.414382,0,8.61024e-66,-0.0168333,-0.000645806,-8,-23,-1.1233e-68,-8,-90.0256,67.0256,1.388
1.4778,1.47636,0.406496,0.41438,0,5.74016e-66,-0.0169147,-0.000603283,-8,-22,-6.99554e-69,-8,-90.0257,68.0257,1.392
1.4778,1.47636,0.406429,0.414379,0,3.82677e-66,-0.0169962,-0.000546143,-8,-21,-4.22196e-69,-8,-90.0258,69.0258,1.396
1.4778,1.47636,0.406361,0.414378,0,2.55118e-66,-0.0170779,-0.000450468,-8,-21,-2.32156e-69,-8,-90.0258,69.0258,1.4
1.4778,1.47636,0.406292,0.414376,0,1.70079e-66,-0.0171596,-0.000415476,-8,-20,-1.42748e-69,-8,-90.0259,70.0259,1.404
1.4778,1.47636,0.406223,0.414375,0,1.13386e-66,-0.0172415,-0.000334566,-8,-20,-7.66324e-70,-8,-90.0259,70.0259,1.408
1.4778,1.47636,0.406154,0.414375,0,7.55905e-67,-0.0173235,-0.000251835,-8,-19,-3.84552e-70,-8,-90.0259,71.0259,1.412
1.4778,1.47636,0.406085,0.414375,0,5.03937e-67,-0.0174055,-0.000196681,-8,-19,-2.00221e-70,-8,-90.0259,71.0259,1.416
1.4778,1.47636,0.406015,0.414375,0,3.35958e-67,-0.0174877,-0.000131121,-8,-18,-8.89872e-71,-8,-90.0259,72.0259,1.42
1.4778,1.47636,0.405945,0.414375,0,2.23972e-67,-0.01757,-8.74137e-05,-8,-17,-3.95499e-71,-8,-90.0259,73.0259,1.424
1.4778,1.47636,0.405874,0.414374,0,1.49315e-67,-0.0176523,-8.70667e-05,-8,-17,-2.62619e-71,-8,-90.026,73.026,1.428
1.4778,1.47636,0.405804,0.414374,0,9.95431e-68,-0.0177348,-5.80445e-05,-8,-16,-1.1672e-71,-8,-90.026,74.026,1.432
1.4778,1.47636,0.405732,0.414374,0,6.63621e-68,-0.0178174,-6.74872e-05,-8,-16,-9.04717e-72,-8,-90.026,74.026,1.436
1.4778,1.47636,0.405661,0.414374,0,4.42414e-68,-0.0179,-7.37824e-05,-8,-15,-6.59406e-72,-8,-90.026,75.026,1.44
1.4778,1.47636,0.405589,0.414373,0,2.94943e-68,-0.0179828,-7.79792e-05,-8,-15,-4.64608e-72,-8,-90.026,75.026,1.444
1.4778,1.47636,0.405517,0.414373,0,1.96628e-68,-0.0180657,-8.07771e-05,-8,-14,-3.20852e-72,-8,-90.026,76.026,1.448
1.4778,1.47636,0.405445,0.414372,0,1.31086e-68,-0.0181486,-0.000140224,-8,-13,-3.71319e-72,-8,-90.0261,77.0261,1.452
1.4778,1.47636,0.405372,0.414372,0,8.73904e-69,-0.0182317,-0.000122274,-8,-13,-2.15857e-72,-8,-90.0261,77.0261,1.456
1.4778,1.47636,0.405299,0.414371,0,5.82603e-69,-0.0183148,-0.000167889,-8,-12,-1.97589e-72,-8,-90.0261,78.0261,1.46
1.4778,1.47636,0.405225,0.414369,0,3.88402e-69,-0.0183981,-0.000227089,-8,-12,-1.78174e-72,-8,-90.0262,78.0262,1.464
1.4778,1.47636,0.405152,0.414368,0,2.58934e-69,-0.0184814,-0.000237766,-8,-11,-1.24367e-72,-8,-90.0262,79.0262,1.468
1.4778,1.47636,0.405078,0.414366,0,1.72623e-69,-0.0185648,-0.000302465,-8,-11,-1.05472e-72,-8,-90.0263,79.0263,1.472
1.4778,1.47636,0.405003,0.414365,0,1.15082e-69,-0.0186484,-0.000345598,-8,-10,-8.0342e-73,-8,-90.0263,80.0263,1.476
1.4778,1.47636,0.404928,0.414363,0,7.67213e-70,-0.018732,-0.000374353,-8,-10,-5.80177e-73,-8,-90.0264,80.0264,1.48
1.4778,1.47636,0.404853,0.414362,0,5.11475e-70,-0.0188157,-0.000364733,-8,-9,-3.76843e-73,-8,-90.0265,81.0265,1.484
1.4778,1.47636,0.404778,0.41436,0,3.40984e-70,-0.0188995,-0.000358319,-8,-9,-2.4681e-73,-8,-90.0265,81.0265,1.488
1.4778,1.47636,0.404702,0.414359,0,2.27322e-70,-0.0189834,-0.000354043,-8,-8,-1.62576e-73,-8,-90.0266,82.0266,1.492
1.4778,1.47636,0.404626,0.414357,0,1.51548e-70,-0.0190674,-0.000351192,-8,-7,-1.07511e-73,-8,-90.0266,83.0266,1.496
1.4778,1.47636,0.40455,0.414357,0,1.01032e-70,-0.0191514,-0.00029171,-8,-7,-5.95345e-74,-8,-90.0267,83.0267,1.5
1.4778,1.47636,0.404473,0.414356,0,6.73548e-71,-0.0192356,-0.000280846,-8,-6,-3.82115e-74,-8,-90.0267,84.0267,1.504
1.4778,1.47636,0.404396,0.414355,0,4.49032e-71,-0.0193199,-0.000273604,-8,-6,-2.48173e-74,-8,-90.0267,84.0267,1.508
1.4778,1.47636,0.404318,0.414354,0,2.99355e-71,-0.0194042,-0.000239984,-8,-5,-1.45119e-74,-8,-90.0268,85.0268,1.512
1.4778,1.47636,0.40424,0.414353,0,1.9957e-71,-0.0194886,-0.000217571,-8,-4,-8.77104e-75,-8,-90.0268,86.0268,1.516
1.4778,1.47636,0.404162,0.414353,0,1.33047e-71,-0.0195731,-0.000202629,-8,-4,-5.44578e-75,-8,-90.0268,86.0268,1.52
1.4778,1.47636,0.404084,0.414352,0,8.86977e-72,-0.0196577,-0.000163877,-8,-3,-2.93619e-75,-8,-90.0268,87.0268,1.524
1.4778,1.47636,0.404005,0.414352,0,5.91318e-72,-0.0197424,-0.000166833,-8,-2,-1.99277e-75,-8,-90.0269,88.0269,1.528
1.4778,1.47636,0.403926,0.414351,0,3.94212e-72,-0.0198272,-0.000140013,-8,-2,-1.11494e-75,-8,-90.0269,88.0269,1.532
1.4778,1.47636,0.403846,0.414351,0,2.62808e-72,-0.019912,-0.000150924,-8,-1,-8.01215e-76,-8,-90.0269,89.0269,1.536
1.4778,1.47636,0.403767,0.41435,0,1.75205e-72,-0.0199969,-0.000129407,-8,-1,-4.57991e-76,-8,-90.0269,89.0269,1.54
1.4778,1.47636,0.403686,0.41435,0,1.16804e-72,-0.0200819,-0.000115062,-8,0,-2.71482e-76,-8,-90.0269,90.0269,1.544
1.4778,1.47636,0.403606,0.41435,0,7.7869e-73,-0.020167,-0.000105499,-8,0,-1.65945e-76,-8,-90.0269,90.0269,1.548
1.4778,1.47636,0.403525,0.414349,0,5.19127e-73,-0.0202522,-9.91236e-05,-8,0,-1.03945e-76,-8,-90.027,90.027,1.552
1.4778,1.47636,0.403444,0.414349,0,3.46084e-73,-0.0203375,-9.48733e-05,-8,1,-6.6325e-77,-8,-90.027,91.027,1.556
1.4778,1.47636,0.403362,0.414349,0,2.30723e-73,-0.0204228,-9.20398e-05,-8,2,-4.28961e-77,-8,-90.027,92.027,1.56
1.4778,1.47636,0.403281,0.414349,0,1.53815e-73,-0.0205082,-6.13599e-05,-8,2,-1.90649e-77,-8,-90.027,92.027,1.564
1.4778,1.47636,0.403198,0.414348,0,1.02544e-73,-0.0205937,-6.96975e-05,-8,3,-1.4437e-77,-8,-90.027,93.027,1.568
1.4778,1.47636,0.403116,0.414348,0,6.83624e-74,-0.0206793,-7.52559e-05,-8,3,-1.03922e-77,-8,-90.027,93.027,1.572
1.4778,1.47636,0.403033,0.414347,0,4.55749e-74,-0.0207649,-7.89615e-05,-8,4,-7.26928e-78,-8,-90.027,94.027,1.576
1.4778,1.47636,0.40295,0.414347,0,3.03833e-74,-0.0208506,-5.2641e-05,-8,5,-3.23079e-78,-8,-90.027,95.027,1.58
1.4778,1.47636,0.402866,0.414347,0,2.02555e-74,-0.0209364,-6.38849e-05,-8,5,-2.61392e-78,-8,-90.027,95.027,1.584
1.4778,1.47636,0.402782,0.414346,0,1.35037e-74,-0.0210223,-0.000100172,-8,6,-2.73242e-78,-8,-90.0271,96.0271,1.588
1.4778,1.47636,0.402698,0.414345,0,9.00245e-75,-0.0211083,-0.000210736,-8,7,-3.83219e-78,-8,-90.0271,97.0271,1.592
1.4778,1.47636,0.402613,0.414343,0,6.00163e-75,-0.0211943,-0.000313236,-8,7,-3.79741e-78,-8,-90.0272,97.0272,1.596
1.4778,1.47636,0.402528,0.41434,0,4.00109e-75,-0.0212804,-0.000410361,-8,8,-3.31656e-78,-8,-90.0273,98.0273,1.6
1.4778,1.47636,0.402443,0.414337,0,2.66739e-75,-0.0213666,-0.000532692,-8,8,-2.87015e-78,-8,-90.0274,98.0274,1.604
1.4778,1.47636,0.402357,0.414334,0,1.77826e-75,-0.0214528,-0.000643037,-8,9,-2.30978e-78,-8,-90.0276,99.0276,1.608
1.4778,1.47636,0.402271,0.41433,0,1.18551e-75,-0.0215391,-0.000774183,-8,9,-1.85389e-78,-8,-90.0277,99.0277,1.612
1.4778,1.47636,0.402185,0.414325,0,7.90339e-76,-0.0216255,-0.000890404,-8,10,-1.42145e-78,-8,-90.0279,100.028,1.616
1.4778,1.47636,0.402098,0.414321,0,5.26892e-76,-0.021712,-0.000967885,-8,10,-1.03009e-78,-8,-90.0281,100.028,1.62
1.4778,1.47636,0.402011,0.414315,0,3.51262e-76,-0.0217985,-0.00107712,-8,11,-7.64222e-79,-8,-90.0283,101.028,1.624
1.4778,1.47636,0.401924,0.414309,0,2.34174e-76,-0.0218851,-0.00120753,-8,11,-5.71157e-79,-8,-90.0285,101.029,1.628
1.4778,1.47636,0.401836,0.414303,0,1.56116e-76,-0.0219718,-0.00135204,-8,12,-4.26338e-79,-8,-90.0288,102.029,1.632
1.4778,1.47636,0.401748,0.414295,0,1.04078e-76,-0.0220585,-0.00153476,-8,12,-3.22632e-79,-8,-90.0291,102.029,1.636
1.4778,1.47636,0.40166,0.414286,0,6.9385e-77,-0.0221453,-0.00177174,-8,13,-2.48294e-79,-8,-90.0294,103.029,1.64
1.4778,1.47636,0.401571,0.414277,0,4.62567e-77,-0.0222322,-0.00192972,-8,13,-1.80287e-79,-8,-90.0298,103.03,1.644
1.4778,1.47636,0.401482,0.414268,0,3.08378e-77,-0.0223191,-0.00209263,-8,14,-1.30335e-79,-8,-90.0302,104.03,1.648
1.4778,1.47636,0.401393,0.414258,0,2.05585e-77,-0.0224061,-0.00220123,-8,14,-9.1398e-80,-8,-90.0306,104.031,1.652
1.4778,1.47636,0.401303,0.414248,0,1.37057e-77,-0.0224932,-0.00230242,-8,15,-6.37319e-80,-8,-90.031,105.031,1.656
1.4778,1.47636,0.401213,0.414239,0,9.13712e-78,-0.0225803,-0.0023123,-8,15,-4.26695e-80,-8,-90.0313,105.031,1.66
1.4778,1.47636,0.401122,0.41423,0,6.09141e-78,-0.0226675,-0.00226131,-8,16,-2.78186e-80,-8,-90.0317,106.032,1.664
1.4778,1.47636,0.401031,0.414222,0,4.06094e-78,-0.0227547,-0.00219852,-8,17,-1.80305e-80,-8,-90.032,107.032,1.668
1.4778,1.47636,0.40094,0.414215,0,2.7073e-78,-0.0228421,-0.00198392,-8,18,-1.08469e-80,-8,-90.0323,108.032,1.672
1.4778,1.47636,0.400849,0.414211,0,1.80486e-78,-0.0229294,-0.00172568,-8,19,-6.28995e-81,-8,-90.0324,109.032,1.676
1.4778,1.47636,0.400757,0.414207,0,1.20324e-78,-0.0230169,-0.00146716,-8,19,-3.56507e-81,-8,-90.0326,109.033,1.68
1.4778,1.47636,0.400664,0.414204,0,8.02162e-79,-0.0231044,-0.00123722,-8,20,-2.00422e-81,-8,-90.0327,110.033,1.684
1.4778,1.47636,0.400572,0.414202,0,5.34774e-79,-0.0231919,-0.00096877,-8,21,-1.04623e-81,-8,-90.0328,111.033,1.688
1.4778,1.47636,0.400479,0.414201,0,3.56516e-79,-0.0232796,-0.00076101,-8,22,-5.47902e-82,-8,-90.0328,112.033,1.692
1.4778,1.47636,0.400386,0.4142,0,2.37678e-79,-0.0233672,-0.000593713,-8,23,-2.84969e-82,-8,-90.0329,113.033,1.696
1.4778,1.47636,0.400292,0.414199,0,1.58452e-79,-0.023455,-0.00045339,-8,24,-1.45078e-82,-8,-90.0329,114.033,1.7
1.4778,1.47636,0.400198,0.414198,0,1.05634e-79,-0.0235428,-0.000359842,-8,25,-7.67624e-83,-8,-90.0329,115.033,1.704
1.4778,1.47636,0.400104,0.414198,0,7.0423e-80,-0.0236306,-0.000297477,-8,25,-4.23056e-83,-8,-90.033,115.033,1.708
1.4778,1.47636,0.400009,0.414197,0,4.69486e-80,-0.0237186,-0.0002559,-8,26,-2.42618e-83,-8,-90.033,116.033,1.712
1.4778,1.47636,0.399914,0.414196,0,3.12991e-80,-0.0238065,-0.000256973,-8,27,-1.62423e-83,-8,-90.033,117.033,1.716
1.4778,1.47636,0.399818,0.414194,0,2.08661e-80,-0.0238945,-0.000286479,-8,27,-1.20715e-83,-8,-90.0331,117.033,1.72
1.4778,1.47636,0.399723,0.414193,0,1.39107e-80,-0.0239826,-0.00030615,-8,28,-8.60023e-84,-8,-90.0331,118.033,1.724
1.4778,1.47636,0.399627,0.414191,0,9.27381e-81,-0.0240708,-0.000405636,-8,29,-7.59661e-84,-8,-90.0332,119.033,1.728
1.4778,1.47636,0.39953,0.414188,0,6.18254e-81,-0.0241589,-0.000500751,-8,29,-6.2519e-84,-8,-90.0333,119.033,1.732
1.4778,1.47636,0.399433,0.414184,0,4.12169e-81,-0.0242472,-0.000621744,-8,30,-5.17496e-84,-8,-90.0335,120.033,1.736
1.4778,1.47636,0.399336,0.414181,0,2.74779e-81,-0.0243355,-0.000731196,-8,31,-4.05728e-84,-8,-90.0336,121.034,1.74
1.4778,1.47636,0.399239,0.414176,0,1.83186e-81,-0.0244238,-0.000861746,-8,31,-3.18776e-84,-8,-90.0338,121.034,1.744
1.4778,1.47636,0.399141,0.414171,0,1.22124e-81,-0.0245122,-0.00097757,-8,32,-2.41079e-84,-8,-90.034,122.034,1.748
1.4778,1.47636,0.399043,0.414166,0,8.14161e-82,-0.0246007,-0.00111237,-8,32,-1.82879e-84,-8,-90.0342,122.034,1.752
1.4778,1.47636,0.398944,0.414159,0,5.42774e-82,-0.0246891,-0.00128861,-8,33,-1.41234e-84,-8,-90.0345,123.034,1.756
1.4778,1.47636,0.398845,0.414153,0,3.61849e-82,-0.0247777,-0.0014061,-8,34,-1.0274e-84,-8,-90.0347,124.035,1.76
1.4778,1.47636,0.398746,0.414146,0,2.41233e-82,-0.0248663,-0.00151322,-8,34,-7.37102e-85,-8,-90.035,124.035,1.764
1.4778,1.47636,0.398646,0.414138,0,1.60822e-82,-0.0249549,-0.00161342,-8,35,-5.23934e-85,-8,-90.0353,125.035,1.768
1.4778,1.47636,0.398546,0.414131,0,1.07215e-82,-0.0250436,-0.00170901,-8,35,-3.69979e-85,-8,-90.0356,125.036,1.772
1.4778,1.47636,0.398446,0.414122,0,7.14764e-83,-0.0251324,-0.00185912,-8,36,-2.68312e-85,-8,-90.0359,126.036,1.776
1.4778,1.47636,0.398345,0.414113,0,4.7651e-83,-0.0252211,-0.00198797,-8,37,-1.9127e-85,-8,-90.0363,127.036,1.78
1.4778,1.47636,0.398244,0.414104,0,3.17673e-83,-0.02531,-0.00213146,-8,37,-1.36714e-85,-8,-90.0367,127.037,1.784
1.4778,1.47636,0.398143,0.414093,0,2.11782e-83,-0.0253988,-0.00231349,-8,38,-9.89247e-86,-8,-90.0371,128.037,1.788
1.4778,1.47636,0.398041,0.414081,0,1.41188e-83,-0.0254878,-0.00249243,-8,38,-7.10491e-86,-8,-90.0376,128.038,1.792
1.4778,1.47636,0.397939,0.414069,0,9.41253e-84,-0.0255767,-0.00269809,-8,39,-5.12734e-86,-8,-90.038,129.038,1.796
1.4778,1.47636,0.397836,0.414055,0,6.27502e-84,-0.0256657,-0.00295037,-8,39,-3.73773e-86,-8,-90.0386,129.039,1.8
1.4778,1.47636,0.397733,0.41404,0,4.18335e-84,-0.0257548,-0.00320492,-8,40,-2.70674e-86,-8,-90.0392,130.039,1.804
1.4778,1.47636,0.39763,0.414024,0,2.7889e-84,-0.0258439,-0.00351858,-8,40,-1.98103e-86,-8,-90.0398,130.04,1.808
1.4778,1.47636,0.397527,0.414006,0,1.85927e-84,-0.025933,-0.00378526,-8,41,-1.42075e-86,-8,-90.0405,131.041,1.812
1.4778,1.47636,0.397423,0.413989,0,1.23951e-84,-0.0260222,-0.00399185,-8,41,-9.98823e-87,-8,-90.0412,131.041,1.816
1.4778,1.47636,0.397318,0.413971,0,8.26341e-85,-0.0261114,-0.00415836,-8,42,-6.93635e-87,-8,-90.0419,132.042,1.82
1.4778,1.47636,0.397214,0.413952,0,5.50894e-85,-0.0262007,-0.00432695,-8,42,-4.81155e-87,-8,-90.0427,132.043,1.824
1.4778,1.47636,0.397109,0.413933,0,3.67262e-85,-0.02629,-0.00449692,-8,43,-3.33359e-87,-8,-90.0434,133.043,1.828
1.4778,1.47636,0.397003,0.413913,0,2.44842e-85,-0.0263793,-0.00466782,-8,43,-2.30676e-87,-8,-90.0442,133.044,1.832
1.4778,1.47636,0.396898,0.413891,0,1.63228e-85,-0.0264687,-0.00489692,-8,44,-1.61326e-87,-8,-90.0451,134.045,1.836
1.4778,1.47636,0.396792,0.413869,0,1.08819e-85,-0.0265581,-0.00516481,-8,44,-1.13429e-87,-8,-90.046,134.046,1.84
1.4778,1.47636,0.396685,0.413845,0,7.25457e-86,-0.0266476,-0.00542978,-8,45,-7.94956e-88,-8,-90.0469,135.047,1.844
1.4778,1.47636,0.396579,0.41382,0,4.83638e-86,-0.026737,-0.0056928,-8,45,-5.55617e-88,-8,-90.0479,135.048,1.848
1.4778,1.47636,0.396471,0.413795,0,3.22425e-86,-0.0268266,-0.00589694,-8,45,-3.83676e-88,-8,-90.0489,135.049,1.852
1.4778,1.47636,0.396364,0.413769,0,2.1495e-86,-0.0269161,-0.00609061,-8,46,-2.64172e-88,-8,-90.0499,136.05,1.856
1.4778,1.47636,0.396256,0.413743,0,1.433e-86,-0.0270057,-0.00624852,-8,46,-1.80672e-88,-8,-90.051,136.051,1.86
1.4778,1.47636,0.396148,0.413716,0,9.55334e-87,-0.0270954,-0.00641137,-8,47,-1.23581e-88,-8,-90.052,137.052,1.864
1.4778,1.47636,0.396039,0.413688,0,6.36889e-87,-0.027185,-0.00657752,-8,47,-8.45182e-89,-8,-90.0531,137.053,1.868
1.4778,1.47636,0.39593,0.413659,0,4.24593e-87,-0.0272747,-0.00683224,-8,48,-5.85244e-89,-8,-90.0543,138.054,1.872
1.4778,1.47636,0.395821,0.413628,0,2.83062e-87,-0.0273644,-0.00708843,-8,48,-4.0477e-89,-8,-90.0555,138.055,1.876
1.4778,1.47636,0.395711,0.413598,0,1.88708e-87,-0.0274542,-0.00725922,-8,49,-2.76333e-89,-8,-90.0567,139.057,1.88
1.4778,1.47636,0.395601,0.413567,0,1.25805e-87,-0.027544,-0.00743066,-8,49,-1.88562e-89,-8,-90.0579,139.058,1.884
1.4778,1.47636,0.395491,0.413535,0,8.38702e-88,-0.0276338,-0.00760254,-8,50,-1.28608e-89,-8,-90.0592,140.059,1.888
1.4778,1.47636,0.39538,0.413503,0,5.59135e-88,-0.0277237,-0.00771713,-8,50,-8.70259e-90,-8,-90.0604,140.06,1.892
1.4778,1.47636,0.395269,0.413471,0,3.72756e-88,-0.0278136,-0.0078511,-8,51,-5.90209e-90,-8,-90.0617,141.062,1.896
1.4778,1.47636,0.395158,0.413437,0,2.48504e-88,-0.0279035,-0.00799799,-8,51,-4.0081e-90,-8,-90.063,141.063,1.9
1.4778,1.47636,0.395046,0.413403,0,1.6567e-88,-0.0279934,-0.00823988,-8,52,-2.7527e-90,-8,-90.0644,142.064,1.904
1.4778,1.47636,0.394934,0.413367,0,1.10446e-88,-0.0280834,-0.00845872,-8,52,-1.88375e-90,-8,-90.0658,142.066,1.908
1.4778,1.47636,0.394821,0.41333,0,7.36309e-89,-0.0281734,-0.00869098,-8,52,-1.29023e-90,-8,-90.0673,142.067,1.912
1.4778,1.47636,0.394709,0.413292,0,4.90873e-89,-0.0282634,-0.00898978,-8,53,-8.89663e-91,-8,-90.0688,143.069,1.916
1.4778,1.47636,0.394595,0.413252,0,3.27248e-89,-0.0283535,-0.00930414,-8,53,-6.13804e-91,-8,-90.0703,143.07,1.92
1.4778,1.47636,0.394482,0.413212,0,2.18166e-89,-0.0284436,-0.0095713,-8,53,-4.20921e-91,-8,-90.0719,143.072,1.924
1.4778,1.47636,0.394368,0.413171,0,1.45444e-89,-0.0285337,-0.00974941,-8,54,-2.85815e-91,-8,-90.0735,144.074,1.928
1.4778,1.47636,0.394253,0.413133,0,9.69625e-90,-0.0286238,-0.0096954,-8,54,-1.89474e-91,-8,-90.075,144.075,1.932
1.4778,1.47636,0.394139,0.413098,0,6.46417e-90,-0.0287139,-0.00937148,-8,55,-1.22088e-91,-8,-90.0764,145.076,1.936
1.4778,1.47636,0.394024,0.413068,0,4.30944e-90,-0.0288041,-0.00878126,-8,56,-7.62616e-92,-8,-90.0776,146.078,1.94
1.4778,1.47636,0.393908,0.413041,0,2.87296e-90,-0.0288943,-0.00809986,-8,58,-4.68937e-92,-8,-90.0787,148.079,1.944
1.4778,1.47636,0.393793,0.41302,0,1.91531e-90,-0.0289846,-0.00712736,-8,59,-2.75079e-92,-8,-90.0795,149.08,1.948
1.4778,1.47636,0.393676,0.413006,0,1.27687e-90,-0.0290748,-0.00590321,-8,61,-1.51885e-92,-8,-90.08,151.08,1.952
1.4778,1.47636,0.39356,0.413002,0,8.51248e-91,-0.0291651,-0.00430976,-8,63,-7.39238e-93,-8,-90.0802,153.08,1.956
1.4778,1.47636,0.393443,0.413002,0,5.67499e-91,-0.0292554,-0.00284438,-8,65,-3.25258e-93,-8,-90.0802,155.08,1.96
1.4778,1.47636,0.393326,0.413002,0,3.78333e-91,-0.0293457,-0.00186746,-8,67,-1.42364e-93,-8,-90.0802,157.08,1.964
1.4778,1.47636,0.393208,0.413002,0,2.52222e-91,-0.029436,-0.00124498,-8,68,-6.32731e-94,-8,-90.0802,158.08,1.968
1.4778,1.47636,0.39309,0.413003,0,1.68148e-91,-0.0295263,-0.000801193,-8,70,-2.71459e-94,-8,-90.0802,160.08,1.972
1.4778,1.47636,0.392972,0.413003,0,1.12099e-91,-0.0296167,-0.000534128,-8,71,-1.20648e-94,-8,-90.0802,161.08,1.976
1.4778,1.47636,0.392854,0.413003,0,7.47324e-92,-0.0297071,-0.000356086,-8,72,-5.36215e-95,-8,-90.0802,162.08,1.98
1.4778,1.47636,0.392735,0.413003,0,4.98216e-92,-0.0297975,-0.00023739,-8,73,-2.38318e-95,-8,-90.0802,163.08,1.984
1.4778,1.47636,0.392615,0.413003,0,3.32144e-92,-0.0298879,-0.00015826,-8,74,-1.05919e-95,-8,-90.0802,164.08,1.988
1.4778,1.47636,0.392495,0.413003,0,2.21429e-92,-0.0299784,-0.000105507,-8,75,-4.70752e-96,-8,-90.0802,165.08,1.992
1.4778,1.47636,0.392375,0.413003,0,1.47619e-92,-0.0300688,-7.03379e-05,-8,75,-2.09223e-96,-8,-90.0802,165.08,1.996
1.4778,1.47636,0.392255,0.413003,0,9.8413e-93,-0.0301593,-4.68919e-05,-8,76,-9.2988e-97,-8,-90.0802,166.08,2
1.4778,1.47636,0.392134,0.413003,0,6.56087e-93,-0.0302498,-3.12613e-05,-8,77,-4.1328e-97,-8,-90.0802,167.08,2.004
1.4778,1.47636,0.392013,0.413003,0,4.37391e-93,-0.0303403,-2.08409e-05,-8,78,-1.8368e-97,-8,-90.0802,168.08,2.008
1.4778,1.47636,0.391891,0.413003,0,2.91594e-93,-0.0304308,-1.38939e-05,-8,79,-8.16355e-98,-8,-90.0802,169.08,2.012
1.4778,1.47636,0.391769,0.413003,0,1.94396e-93,-0.0305213,-9.2626e-06,-8,80,-3.62825e-98,-8,-90.0802,170.08,2.016
1.4778,1.47636,0.391647,0.413003,0,1.29597e-93,-0.0306119,-6.17507e-06,-8,81,-1.61255e-98,-8,-90.0802,171.08,2.02
1.4778,1.47636,0.391525,0.413003,0,8.63982e-94,-0.0307024,-4.11671e-06,-8,82,-7.1669e-99,-8,-90.0802,172.08,2.024
1.4778,1.47636,0.391402,0.413003,0,5.75988e-94,-0.030793,-2.74447e-06,-8,83,-3.18529e-99,-8,-90.0802,173.08,2.028
1.4778,1.47636,0.391278,0.413003,0,3.83992e-94,-0.0308835,-1.82965e-06,-8,84,-1.41568e-99,-8,-90.0802,174.08,2.032
1.4778,1.47636,0.391154,0.413003,0,2.55995e-94,-0.0309741,-1.21977e-06,-8,85,-6.29193e-100,-8,-90.0802,175.08,2.036
1.4778,1.47636,0.39103,0.413003,0,1.70663e-94,-0.0310647,-8.13178e-07,-8,86,-2.79641e-100,-8,-90.0802,176.08,2.04
1.4778,1.47636,0.390906,0.413003,0,1.13775e-94,-0.0311553,-5.42119e-07,-8,86,-1.24285e-100,-8,-90.0802,176.08,2.044
1.4778,1.47636,0.390781,0.413002,0,7.58503e-95,-0.031246,-2.91523e-05,-8,87,-4.4556e-99,-8,-90.0802,177.08,2.048
1.4778,1.47636,0.390656,0.413002,0,5.05669e-95,-0.0313366,-1.94349e-05,-8,88,-1.98027e-99,-8,-90.0802,178.08,2.052
1.4778,1.47636,0.39053,0.413002,0,3.37112e-95,-0.0314272,-1.29566e-05,-8,89,-8.80119e-100,-8,-90.0802,179.08,2.056
1.4778,1.47636,0.390405,0.413002,0,2.24742e-95,-0.0315179,-8.63773e-06,-8,90,-3.91164e-100,-8,-90.0802,180.08,2.06
1.4778,1.47636,0.390278,0.413002,0,1.49828e-95,-0.0316085,-5.75849e-06,-8,91,-1.73851e-100,-8,-90.0802,181.08,2.064
1.4778,1.47636,0.390152,0.413002,0,9.98852e-96,-0.0316992,-3.83899e-06,-8,92,-7.7267e-101,-8,-90.0802,182.08,2.068
1.4778,1.47636,0.390025,0.413002,0,6.65901e-96,-0.0317898,-2.55933e-06,-8,93,-3.43409e-101,-8,-90.0802,183.08,2.072
1.4778,1.47636,0.389897,0.413002,0,4.43934e-96,-0.0318805,-1.70622e-06,-8,94,-1.52626e-101,-8,-90.0802,184.08,2.076
1.4778,1.47636,0.38977,0.413002,0,2.95956e-96,-0.0319711,-1.13748e-06,-8,95,-6.78339e-102,-8,-90.0802,185.08,2.08
1.4778,1.47636,0.389642,0.413002,0,1.97304e-96,-0.0320618,-7.58319e-07,-8,96,-3.01484e-102,-8,-90.0802,186.08,2.084
1.4778,1.47636,0.389513,0.413002,0,1.31536e-96,-0.0321525,-5.05546e-07,-8,97,-1.33993e-102,-8,-90.0802,187.08,2.088
1.4778,1.47636,0.389384,0.413002,0,8.76907e-97,-0.0322432,-3.37031e-07,-8,98,-5.95524e-103,-8,-90.0802,188.08,2.092
1.4778,1.47636,0.389255,0.413002,0,5.84605e-97,-0.0323339,-2.24687e-07,-8,99,-2.64677e-103,-8,-90.0802,189.08,2.096
1.4778,1.47636,0.389126,0.413002,0,3.89736e-97,-0.0324245,-2.89407e-05,-8,100,-2.27277e-101,-8,-90.0802,190.08,2.1
1.4778,1.47636,0.388996,0.413002,0,2.59824e-97,-0.0325152,9.49711e-06,-8,101,4.97219e-102,-8,-90.0802,191.08,2.104
1.4778,1.47636,0.388866,0.413002,0,1.73216e-97,-0.0326059,-2.24595e-05,-8,102,-7.83907e-102,-8,-90.0802,192.08,2.108
1.4778,1.47636,0.388735,0.413002,0,1.15477e-97,-0.0326966,-1.4973e-05,-8,103,-3.48403e-102,-8,-90.0802,193.08,2.112
1.4778,1.47636,0.388604,0.413002,0,7.6985e-98,-0.0327873,-9.98201e-06,-8,104,-1.54846e-102,-8,-90.0802,194.08,2.116
1.4778,1.47636,0.388473,0.413002,0,5.13233e-98,-0.032878,-6.65467e-06,-8,105,-6.88204e-103,-8,-90.0802,195.08,2.12
1.4778,1.47636,0.388341,0.413002,0,3.42155e-98,-0.0329687,-4.43645e-06,-8,106,-3.05868e-103,-8,-90.0802,196.08,2.124
1.4778,1.47636,0.388209,0.413002,0,2.28104e-98,-0.0330594,-2.95763e-06,-8,107,-1.35941e-103,-8,-90.0802,197.08,2.128
1.4778,1.47636,0.388077,0.413002,0,1.52069e-98,-0.0331501,-1.97175e-06,-8,108,-6.04184e-104,-8,-90.0802,198.08,2.132
1.4778,1.47636,0.387944,0.413002,0,1.01379e-98,-0.0332407,-1.3145e-06,-8,109,-2.68526e-104,-8,-90.0802,199.08,2.136
1.4778,1.47636,0.387811,0.413002,0,6.75862e-99,-0.0333314,-2.96673e-05,-8,109,-4.04028e-103,-8,-90.0802,199.08,2.14
1.4778,1.47636,0.387677,0.413002,0,4.50575e-99,-0.0334221,-1.97782e-05,-8,110,-1.79568e-103,-8,-90.0802,200.08,2.144
1.4778,1.47636,0.387543,0.413002,0,3.00383e-99,-0.0335128,-1.31854e-05,-8,111,-7.98079e-104,-8,-90.0802,201.08,2.148
1.4778,1.47636,0.387409,0.413002,0,2.00256e-99,-0.0336034,-8.7903e-06,-8,112,-3.54702e-104,-8,-90.0802,202.08,2.152
1.4778,1.47636,0.387274,0.413002,0,1.33504e-99,-0.0336941,-5.8602e-06,-8,113,-1.57645e-104,-8,-90.0802,203.08,2.156
1.4778,1.47636,0.387139,0.413002,0,8.90025e-100,-0.0337848,-3.9068e-06,-8,114,-7.00646e-105,-8,-90.0802,204.08,2.16
1.4778,1.47636,0.387004,0.413002,0,5.9335e-100,-0.0338754,-2.60453e-06,-8,115,-3.11398e-105,-8,-90.0802,205.08,2.164
1.4778,1.47636,0.386868,0.413001,0,3.95567e-100,-0.0339661,-3.05273e-05,-8,116,-2.43323e-104,-8,-90.0802,206.08,2.168
1.4778,1.47636,0.386732,0.413001,0,2.63711e-100,-0.0340567,-2.03515e-05,-8,117,-1.08143e-104,-8,-90.0802,207.08,2.172
1.4778,1.47636,0.386596,0.413001,0,1.75807e-100,-0.0341473,-1.35677e-05,-8,118,-4.80638e-105,-8,-90.0802,208.08,2.176
1.4778,1.47636,0.386459,0.413001,0,1.17205e-100,-0.0342379,-3.7836e-05,-8,119,-8.93565e-105,-8,-90.0803,209.08,2.18
1.4778,1.47636,0.386322,0.413001,0,7.81366e-101,-0.0343286,-2.5224e-05,-8,120,-3.9714e-105,-8,-90.0803,210.08,2.184
1.4778,1.47636,0.386185,0.413001,0,5.20911e-101,-0.0344192,-1.6816e-05,-8,122,-1.76507e-105,-8,-90.0803,212.08,2.188
1.4778,1.47636,0.386047,0.413001,0,3.47274e-101,-0.0345098,-1.12107e-05,-8,123,-7.84474e-106,-8,-90.0803,213.08,2.192
1.4778,1.47636,0.385909,0.413001,0,2.31516e-101,-0.0346003,-3.62647e-05,-8,124,-1.69176e-105,-8,-90.0803,214.08,2.196
1.4778,1.47636,0.38577,0.413001,0,1.54344e-101,-0.0346909,-2.41765e-05,-8,125,-7.51895e-106,-8,-90.0803,215.08,2.2
1.4778,1.47636,0.385631,0.413,0,1.02896e-101,-0.0347815,-4.49086e-05,-8,126,-9.31112e-106,-8,-90.0803,216.08,2.204
1.4778,1.47636,0.385492,0.413,0,6.85973e-102,-0.034872,-2.9939e-05,-8,127,-4.13827e-106,-8,-90.0803,217.08,2.208
1.4778,1.47636,0.385352,0.413,0,4.57315e-102,-0.0349626,-4.87503e-05,-8,128,-4.49228e-106,-8,-90.0803,218.08,2.212
1.4778,1.47636,0.385212,0.413,0,3.04877e-102,-0.0350531,-3.25002e-05,-8,129,-1.99657e-106,-8,-90.0803,219.08,2.216
1.4778,1.47636,0.385072,0.413,0,2.03251e-102,-0.0351436,-5.04577e-05,-8,130,-2.0665e-106,-8,-90.0803,220.08,2.22
1.4778,1.47636,0.384931,0.412999,0,1.35501e-102,-0.0352341,-9.12203e-05,-8,131,-2.49062e-106,-8,-90.0803,221.08,2.224
1.4778,1.47636,0.38479,0.412999,0,9.03339e-103,-0.0353246,-8.96045e-05,-8,132,-1.631e-106,-8,-90.0803,222.08,2.228
1.4778,1.47636,0.384648,0.412999,0,6.02226e-103,-0.0354151,-3.09454e-05,-8,133,-3.75516e-107,-8,-90.0803,223.08,2.232
1.4778,1.47636,0.384506,0.412998,0,4.01484e-103,-0.0355055,-7.82121e-05,-8,134,-6.32725e-107,-8,-90.0804,224.08,2.236
1.4778,1.47636,0.384364,0.412997,0,2.67656e-103,-0.035596,-0.000138514,-8,135,-7.47038e-107,-8,-90.0804,225.08,2.24
1.4778,1.47636,0.384222,0.412997,0,1.78437e-103,-0.0356864,-0.000121134,-8,136,-4.35534e-107,-8,-90.0804,226.08,2.244
1.4778,1.47636,0.384079,0.412996,0,1.18958e-103,-0.0357768,-0.00019592,-8,137,-4.69616e-107,-8,-90.0805,227.08,2.248
1.4778,1.47636,0.383935,0.412995,0,7.93055e-104,-0.0358672,-0.000216986,-8,138,-3.4674e-107,-8,-90.0805,228.081,2.252
1.4778,1.47636,0.383792,0.412994,0,5.28703e-104,-0.0359575,-0.000173448,-8,139,-1.84778e-107,-8,-90.0805,229.081,2.256
1.4778,1.47636,0.383648,0.412993,0,3.52469e-104,-0.0360479,-0.000202005,-8,140,-1.43467e-107,-8,-90.0806,230.081,2.26
1.4778,1.47636,0.383503,0.412992,0,2.34979e-104,-0.0361382,-0.000221043,-8,141,-1.04658e-107,-8,-90.0806,231.081,2.264
1.4778,1.47636,0.383359,0.412991,0,1.56653e-104,-0.0362285,-0.000233735,-8,142,-7.37782e-108,-8,-90.0806,232.081,2.268
1.4778,1.47636,0.383214,0.41299,0,1.04435e-104,-0.0363188,-0.000242196,-8,143,-5.09659e-108,-8,-90.0807,233.081,2.272
1.4778,1.47636,0.383068,0.412989,0,6.96234e-105,-0.0364091,-0.000247837,-8,144,-3.47685e-108,-8,-90.0807,234.081,2.276
1.4778,1.47636,0.382922,0.412988,0,4.64156e-105,-0.0364994,-0.000251597,-8,145,-2.35307e-108,-8,-90.0808,235.081,2.28
1.4778,1.47636,0.382776,0.412987,0,3.09438e-105,-0.0365896,-0.000254104,-8,146,-1.58434e-108,-8,-90.0808,236.081,2.284
1.4778,1.47636,0.38263,0.412986,0,2.06292e-105,-0.0366798,-0.000284567,-8,147,-1.18285e-108,-8,-90.0809,237.081,2.288
1.4778,1.47636,0.382483,0.412984,0,1.37528e-105,-0.03677,-0.000304875,-8,148,-8.44838e-109,-8,-90.0809,238.081,2.292
1.4778,1.47636,0.382335,0.412983,0,9.16852e-106,-0.0368602,-0.000318414,-8,150,-5.88235e-109,-8,-90.081,240.081,2.296
1.4778,1.47636,0.382188,0.412981,0,6.11235e-106,-0.0369503,-0.000327439,-8,151,-4.03272e-109,-8,-90.081,241.081,2.3
1.4778,1.47636,0.38204,0.41298,0,4.0749e-106,-0.0370404,-0.000333457,-8,152,-2.73788e-109,-8,-90.0811,242.081,2.304
1.4778,1.47636,0.381891,0.412979,0,2.7166e-106,-0.0371305,-0.000337468,-8,153,-1.8472e-109,-8,-90.0811,243.081,2.308
1.4778,1.47636,0.381743,0.412977,0,1.81107e-106,-0.0372206,-0.000340142,-8,154,-1.24123e-109,-8,-90.0812,244.081,2.312
1.4778,1.47636,0.381594,0.412976,0,1.20738e-106,-0.0373107,-0.000370716,-8,155,-9.0186e-110,-8,-90.0813,245.081,2.316
1.4778,1.47636,0.381444,0.412973,0,8.04918e-107,-0.0374007,-0.000448681,-8,156,-7.27682e-110,-8,-90.0814,246.081,2.32
1.4778,1.47636,0.381294,0.412971,0,5.36612e-107,-0.0374907,-0.000443075,-8,157,-4.79059e-110,-8,-90.0814,247.081,2.324
1.4778,1.47636,0.381144,0.412969,0,3.57741e-107,-0.0375806,-0.000525711,-8,158,-3.78935e-110,-8,-90.0815,248.082,2.328
1.4778,1.47636,0.380994,0.412965,0,2.38494e-107,-0.0376706,-0.000638383,-8,159,-3.06765e-110,-8,-90.0817,249.082,2.332
1.4778,1.47636,0.380843,0.412961,0,1.58996e-107,-0.0377605,-0.000742289,-8,160,-2.37795e-110,-8,-90.0818,250.082,2.336
1.4778,1.47636,0.380692,0.412957,0,1.05997e-107,-0.0378504,-0.00084035,-8,161,-1.79472e-110,-8,-90.082,251.082,2.34
1.4778,1.47636,0.38054,0.412953,0,7.0665e-108,-0.0379403,-0.000905725,-8,162,-1.28955e-110,-8,-90.0821,252.082,2.344
1.4778,1.47636,0.380388,0.412948,0,4.711e-108,-0.0380301,-0.00100689,-8,163,-9.55712e-111,-8,-90.0823,253.082,2.348
1.4778,1.47636,0.380236,0.412944,0,3.14066e-108,-0.0381199,-0.00104554,-8,164,-6.61594e-111,-8,-90.0825,254.083,2.352
1.4778,1.47636,0.380083,0.412939,0,2.09378e-108,-0.0382097,-0.0011001,-8,165,-4.64075e-111,-8,-90.0827,255.083,2.356
1.4778,1.47636,0.37993,0.412934,0,1.39585e-108,-0.0382994,-0.00110768,-8,166,-3.11513e-111,-8,-90.0829,256.083,2.36
1.4778,1.47636,0.379777,0.41293,0,9.30567e-109,-0.0383891,-0.00108395,-8,167,-2.03223e-111,-8,-90.083,257.083,2.364
1.4778,1.47636,0.379623,0.412926,0,6.20378e-109,-0.0384788,-0.00109691,-8,168,-1.37102e-111,-8,-90.0832,258.083,2.368
1.4778,1.47636,0.379469,0.412922,0,4.13585e-109,-0.0385684,-0.00107677,-8,170,-8.97218e-112,-8,-90.0834,260.083,2.372
1.4778,1.47636,0.379315,0.412918,0,2.75724e-109,-0.038658,-0.00103454,-8,171,-5.74687e-112,-8,-90.0835,261.084,2.376
1.4778,1.47636,0.37916,0.412914,0,1.83816e-109,-0.0387476,-0.0010064,-8,172,-3.72698e-112,-8,-90.0837,262.084,2.38
1.4778,1.47636,0.379005,0.41291,0,1.22544e-109,-0.0388372,-0.00101642,-8,173,-2.50939e-112,-8,-90.0839,263.084,2.384
1.4778,1.47636,0.378849,0.412905,0,8.16959e-110,-0.0389267,-0.00108069,-8,174,-1.77868e-112,-8,-90.084,264.084,2.388
1.4778,1.47636,0.378693,0.4129,0,5.44639e-110,-0.0390162,-0.00115232,-8,175,-1.26438e-112,-8,-90.0842,265.084,2.392
1.4778,1.47636,0.378537,0.412894,0,3.63093e-110,-0.0391056,-0.00125766,-8,176,-9.19963e-113,-8,-90.0845,266.084,2.396
1.4778,1.47636,0.37838,0.412887,0,2.42062e-110,-0.039195,-0.00144305,-8,177,-7.03706e-113,-8,-90.0848,267.085,2.4
1.4778,1.47636,0.378223,0.41288,0,1.61375e-110,-0.0392844,-0.00150906,-8,178,-4.90591e-113,-8,-90.085,268.085,2.404
1.4778,1.47636,0.378066,0.412872,0,1.07583e-110,-0.0393737,-0.00166823,-8,179,-3.61553e-113,-8,-90.0853,269.085,2.408
1.4778,1.47636,0.377908,0.412863,0,7.17221e-111,-0.039463,-0.00186072,-8,180,-2.68842e-113,-8,-90.0857,270.086,2.412
1.4778,1.47636,0.37775,0.412854,0,4.78147e-111,-0.0395523,-0.00204662,-8,181,-1.97132e-113,-8,-90.0861,271.086,2.416
1.4778,1.47636,0.377592,0.412843,0,3.18765e-111,-0.0396415,-0.00222814,-8,182,-1.43074e-113,-8,-90.0865,272.086,2.42
1.4778,1.47636,0.377433,0.412832,0,2.1251e-111,-0.0397307,-0.00237795,-8,183,-1.01794e-113,-8,-90.0869,273.087,2.424
1.4778,1.47636,0.377274,0.412822,0,1.41673e-111,-0.0398199,-0.00242024,-8,184,-6.9068e-114,-8,-90.0873,274.087,2.428
1.4778,1.47636,0.377115,0.412813,0,9.44488e-112,-0.039909,-0.00241964,-8,185,-4.60331e-114,-8,-90.0877,275.088,2.432
1.4778,1.47636,0.376955,0.412804,0,6.29659e-112,-0.039998,-0.00236165,-8,186,-2.99529e-114,-8,-90.088,276.088,2.436
1.4778,1.47636,0.376795,0.412795,0,4.19772e-112,-0.0400871,-0.00229421,-8,187,-1.9398e-114,-8,-90.0884,277.088,2.44
1.4778,1.47636,0.376634,0.412787,0,2.79848e-112,-0.0401761,-0.00219166,-8,188,-1.23538e-114,-8,-90.0887,278.089,2.444
1.4778,1.47636,0.376473,0.412778,0,1.86566e-112,-0.040265,-0.00220967,-8,190,-8.3034e-115,-8,-90.089,280.089,2.448
1.4778,1.47636,0.376312,0.412768,0,1.24377e-112,-0.0403539,-0.00230805,-8,191,-5.78195e-115,-8,-90.0894,281.089,2.452
1.4778,1.47636,0.37615,0.412759,0,8.2918e-113,-0.0404428,-0.00228727,-8,192,-3.81985e-115,-8,-90.0898,282.09,2.456
1.4778,1.47636,0.375989,0.412749,0,5.52787e-113,-0.0405316,-0.00241736,-8,193,-2.69136e-115,-8,-90.0902,283.09,2.46
1.4778,1.47636,0.375826,0.412738,0,3.68524e-113,-0.0406204,-0.00250409,-8,194,-1.85858e-115,-8,-90.0906,284.091,2.464
1.4778,1.47636,0.375664,0.412726,0,2.45683e-113,-0.0407092,-0.0026195,-8,195,-1.29613e-115,-8,-90.0911,285.091,2.468
1.4778,1.47636,0.375501,0.412714,0,1.63789e-113,-0.0407979,-0.0027828,-8,196,-9.17934e-116,-8,-90.0916,286.092,2.472
1.4778,1.47636,0.375337,0.4127,0,1.09192e-113,-0.0408865,-0.00300684,-8,197,-6.61206e-116,-8,-90.0921,287.092,2.476
1.4778,1.47636,0.375173,0.412686,0,7.2795e-114,-0.0409751,-0.0031562,-8,198,-4.62688e-116,-8,-90.0927,288.093,2.48
1.4778,1.47636,0.375009,0.41267,0,4.853e-114,-0.0410637,-0.00342851,-8,198,-3.35063e-116,-8,-90.0933,288.093,2.484
1.4778,1.47636,0.374845,0.412654,0,3.23533e-114,-0.0411522,-0.00366764,-8,199,-2.38947e-116,-8,-90.094,289.094,2.488
1.4778,1.47636,0.37468,0.412635,0,2.15689e-114,-0.0412407,-0.00405739,-8,200,-1.7622e-116,-8,-90.0947,290.095,2.492
1.4778,1.47636,0.374515,0.412613,0,1.43793e-114,-0.0413291,-0.00448996,-8,201,-1.3e-116,-8,-90.0956,291.096,2.496
1.4778,1.47636,0.37435,0.412591,0,9.58617e-115,-0.0414175,-0.00480714,-8,202,-9.2785e-117,-8,-90.0964,292.096,2.5
1.4778,1.47636,0.374184,0.412569,0,6.39078e-115,-0.0415058,-0.00510496,-8,202,-6.56862e-117,-8,-90.0973,292.097,2.504
1.4778,1.47636,0.374017,0.412544,0,4.26052e-115,-0.0415941,-0.00541867,-8,203,-4.64798e-117,-8,-90.0983,293.098,2.508
1.4778,1.47636,0.373851,0.412519,0,2.84035e-115,-0.0416823,-0.00571418,-8,204,-3.26749e-117,-8,-90.0993,294.099,2.512
1.4778,1.47636,0.373684,0.412493,0,1.89356e-115,-0.0417705,-0.00599757,-8,205,-2.28624e-117,-8,-90.1003,295.1,2.516
1.4778,1.47636,0.373517,0.412465,0,1.26238e-115,-0.0418587,-0.00633044,-8,206,-1.60867e-117,-8,-90.1014,296.101,2.52
1.4778,1.47636,0.373349,0.412437,0,8.41584e-116,-0.0419468,-0.00652357,-8,206,-1.10511e-117,-8,-90.1025,296.102,2.524
1.4778,1.47636,0.373181,0.412407,0,5.61056e-116,-0.0420348,-0.00685386,-8,207,-7.73998e-118,-8,-90.1037,297.104,2.528
1.4778,1.47636,0.373013,0.412378,0,3.74037e-116,-0.0421228,-0.00701647,-8,208,-5.28212e-118,-8,-90.1048,298.105,2.532
1.4778,1.47636,0.372844,0.412349,0,2.49358e-116,-0.0422107,-0.00706729,-8,209,-3.54674e-118,-8,-90.106,299.106,2.536
1.4778,1.47636,0.372675,0.412321,0,1.66239e-116,-0.0422986,-0.00704359,-8,210,-2.35644e-118,-8,-90.1071,300.107,2.54
1.4778,1.47636,0.372506,0.412294,0,1.10826e-116,-0.0423865,-0.00697021,-8,211,-1.55451e-118,-8,-90.1081,301.108,2.544
1.4778,1.47636,0.372336,0.41227,0,7.38839e-117,-0.0424742,-0.00663338,-8,213,-9.86219e-119,-8,-90.1091,303.109,2.548
1.4778,1.47636,0.372166,0.41225,0,4.92559e-117,-0.042562,-0.00612092,-8,214,-6.06663e-119,-8,-90.1099,304.11,2.552
1.4778,1.47636,0.371996,0.412232,0,3.28373e-117,-0.0426497,-0.00554895,-8,216,-3.66637e-119,-8,-90.1106,306.111,2.556
1.4778,1.47636,0.371825,0.412219,0,2.18915e-117,-0.0427373,-0.00476456,-8,217,-2.09868e-119,-8,-90.1111,307.111,2.56
1.4778,1.47636,0.371654,0.412211,0,1.45944e-117,-0.0428249,-0.00383857,-8,219,-1.12719e-119,-8,-90.1114,309.111,2.564
1.4778,1.47636,0.371482,0.412208,0,9.72957e-118,-0.0429124,-0.00281816,-8,221,-5.51695e-120,-8,-90.1115,311.112,2.568
1.4778,1.47636,0.37131,0.412209,0,6.48638e-118,-0.0429998,-0.00184998,-8,224,-2.4144e-120,-8,-90.1115,314.112,2.572
1.4778,1.47636,0.371138,0.412209,0,4.32425e-118,-0.0430873,-0.00120453,-8,225,-1.04802e-120,-8,-90.1115,315.111,2.576
1.4778,1.47636,0.370966,0.412209,0,2.88284e-118,-0.0431746,-0.000831812,-8,227,-4.82486e-121,-8,-90.1115,317.112,2.58
1.4778,1.47636,0.370793,0.412209,0,1.92189e-118,-0.0432619,-0.00049696,-8,228,-1.92172e-121,-8,-90.1115,318.111,2.584
1.4778,1.47636,0.37062,0.412209,0,1.28126e-118,-0.0433491,-0.000388888,-8,230,-1.00254e-121,-8,-90.1115,320.112,2.588
1.4778,1.47636,0.370446,0.412209,0,8.54173e-119,-0.0434363,-0.000230468,-8,231,-3.96092e-122,-8,-90.1115,321.111,2.592
1.4778,1.47636,0.370272,0.412208,0,5.69449e-119,-0.0435235,-0.000211227,-8,232,-2.42016e-122,-8,-90.1115,322.112,2.596
1.4778,1.47636,0.370098,0.412209,0,3.79633e-119,-0.0436105,-0.000112027,-8,234,-8.55709e-123,-8,-90.1115,324.112,2.6
1.4778,1.47636,0.369923,0.412209,0,2.53088e-119,-0.0436975,-7.46848e-05,-8,235,-3.80315e-123,-8,-90.1115,325.112,2.604
1.4778,1.47636,0.369748,0.412209,0,1.68726e-119,-0.0437845,7.79199e-06,-8,236,2.64527e-124,-8,-90.1115,326.111,2.608
1.4778,1.47636,0.369573,0.412209,0,1.12484e-119,-0.0438714,-5.23872e-05,-8,238,-1.18564e-123,-8,-90.1115,328.112,2.612
1.4778,1.47636,0.369397,0.412209,0,7.49892e-120,-0.0439582,-3.49248e-05,-8,239,-5.26953e-124,-8,-90.1115,329.112,2.616
1.4778,1.47636,0.369221,0.412209,0,4.99928e-120,-0.044045,-2.32832e-05,-8,240,-2.34201e-124,-8,-90.1115,330.112,2.62
1.4778,1.47636,0.369045,0.412209,0,3.33285e-120,-0.0441317,-1.55221e-05,-8,241,-1.04089e-124,-8,-90.1115,331.112,2.624
1.4778,1.47636,0.368868,0.412209,0,2.2219e-120,-0.0442183,-1.03481e-05,-8,243,-4.6262e-125,-8,-90.1115,333.112,2.628
1.4778,1.47636,0.368691,0.412209,0,1.48127e-120,-0.0443049,-6.89872e-06,-8,244,-2.05609e-125,-8,-90.1115,334.112,2.632
1.4778,1.47636,0.368514,0.412209,0,9.87512e-121,-0.0443915,-4.59915e-06,-8,245,-9.13816e-126,-8,-90.1115,335.112,2.636
1.4778,1.47636,0.368336,0.412208,0,6.58341e-121,-0.0444779,-3.1857e-05,-8,247,-4.21983e-125,-8,-90.1115,337.112,2.64
1.4778,1.47636,0.368158,0.412208,0,4.38894e-121,-0.0445643,-2.1238e-05,-8,248,-1.87548e-125,-8,-90.1115,338.112,2.644
1.4778,1.47636,0.36798,0.412208,0,2.92596e-121,-0.0446507,-1.41587e-05,-8,249,-8.33547e-126,-8,-90.1115,339.112,2.648
1.4778,1.47636,0.367801,0.412208,0,1.95064e-121,-0.044737,-3.823e-05,-8,250,-1.50045e-125,-8,-90.1115,340.112,2.652
1.4778,1.47636,0.367622,0.412208,0,1.30043e-121,-0.0448232,-2.54867e-05,-8,252,-6.66865e-126,-8,-90.1115,342.112,2.656
1.4778,1.47636,0.367442,0.412208,0,8.66951e-122,-0.0449093,-1.69911e-05,-8,253,-2.96385e-126,-8,-90.1115,343.112,2.66
1.4778,1.47636,0.367262,0.412208,0,5.77967e-122,-0.0449954,-4.01183e-05,-8,254,-4.66536e-126,-8,-90.1116,344.112,2.664
1.4778,1.47636,0.367082,0.412207,0,3.85312e-122,-0.0450814,-5.55365e-05,-8,256,-4.30555e-126,-8,-90.1116,346.112,2.668
1.4778,1.47636,0.366902,0.412207,0,2.56874e-122,-0.0451674,-3.70243e-05,-8,257,-1.91358e-126,-8,-90.1116,347.112,2.672
1.4778,1.47636,0.366721,0.412206,0,1.7125e-122,-0.0452533,-8.22647e-05,-8,258,-2.83453e-126,-8,-90.1116,348.112,2.676
1.4778,1.47636,0.36654,0.412207,0,1.14166e-122,-0.0453391,2.73869e-06,-8,260,6.291e-128,-8,-90.1116,350.112,2.68
1.4778,1.47636,0.366358,0.412206,0,7.61109e-123,-0.0454249,-5.57561e-05,-8,261,-8.5384e-127,-8,-90.1116,351.112,2.684
1.4778,1.47636,0.366176,0.412206,0,5.07406e-123,-0.0455105,-9.47526e-05,-8,262,-9.6735e-127,-8,-90.1116,352.112,2.688
1.4778,1.47636,0.365994,0.412205,0,3.38271e-123,-0.0455962,-9.19593e-05,-8,263,-6.25888e-127,-8,-90.1116,353.112,2.692
1.4778,1.47636,0.365812,0.412205,0,2.25514e-123,-0.0456817,-9.00971e-05,-8,265,-4.08809e-127,-8,-90.1116,355.112,2.696
1.4778,1.47636,0.365629,0.412204,0,1.50343e-123,-0.0457672,-0.000117647,-8,266,-3.55875e-127,-8,-90.1117,356.112,2.7
1.4778,1.47636,0.365445,0.412204,0,1.00228e-123,-0.0458526,-0.000136013,-8,267,-2.74288e-127,-8,-90.1117,357.112,2.704
1.4778,1.47636,0.365262,0.412203,0,6.68189e-124,-0.045938,-0.000148257,-8,269,-1.9932e-127,-8,-90.1117,359.112,2.708
1.4778,1.47636,0.365078,0.412202,0,4.4546e-124,-0.0460232,-0.000185211,-8,270,-1.66e-127,-8,-90.1118,360.112,2.712
1.4778,1.47636,0.364894,0.412201,0,2.96973e-124,-0.0461085,-0.000209847,-8,271,-1.25387e-127,-8,-90.1118,361.112,2.716
1.4778,1.47636,0.364709,0.4122,0,1.97982e-124,-0.0461936,-0.000255061,-8,273,-1.01602e-127,-8,-90.1119,363.112,2.72
1.4778,1.47636,0.364524,0.412197,0,1.31988e-124,-0.0462787,-0.000342787,-8,274,-9.10308e-128,-8,-90.1119,364.112,2.724
1.4778,1.47636,0.364339,0.412196,0,8.7992e-125,-0.0463636,-0.000343688,-8,275,-6.08467e-128,-8,-90.112,365.112,2.728
1.4778,1.47636,0.364153,0.412194,0,5.86613e-125,-0.0464486,-0.000430662,-8,276,-5.08295e-128,-8,-90.1121,366.112,2.732
1.4778,1.47636,0.363967,0.412192,0,3.91076e-125,-0.0465334,-0.000431063,-8,278,-3.39177e-128,-8,-90.1122,368.112,2.736
1.4778,1.47636,0.363781,0.41219,0,2.60717e-125,-0.0466182,-0.000460121,-8,279,-2.4136e-128,-8,-90.1122,369.112,2.74
1.4778,1.47636,0.363594,0.412187,0,1.73811e-125,-0.0467029,-0.000508284,-8,280,-1.77749e-128,-8,-90.1123,370.112,2.744
1.4778,1.47636,0.363407,0.412185,0,1.15874e-125,-0.0467875,-0.000540392,-8,282,-1.25984e-128,-8,-90.1124,372.112,2.748
1.4778,1.47636,0.36322,0.412182,0,7.72495e-126,-0.0468721,-0.000648171,-8,283,-1.0074e-128,-8,-90.1126,373.113,2.752
1.4778,1.47636,0.363032,0.412179,0,5.14997e-126,-0.0469566,-0.000662441,-8,284,-6.86384e-129,-8,-90.1127,374.113,2.756
1.4778,1.47636,0.362844,0.412176,0,3.43331e-126,-0.047041,-0.000700746,-8,286,-4.84046e-129,-8,-90.1128,376.113,2.76
1.4778,1.47636,0.362656,0.412173,0,2.28887e-126,-0.0471253,-0.000726282,-8,287,-3.34455e-129,-8,-90.1129,377.113,2.764
1.4778,1.47636,0.362467,0.412169,0,1.52592e-126,-0.0472096,-0.000743306,-8,288,-2.28195e-129,-8,-90.113,378.113,2.768
1.4778,1.47636,0.362278,0.412167,0,1.01728e-126,-0.0472938,-0.000725865,-8,290,-1.4856e-129,-8,-90.1132,380.113,2.772
1.4778,1.47636,0.362089,0.412164,0,6.78185e-127,-0.0473779,-0.000685446,-8,291,-9.35245e-130,-8,-90.1133,381.113,2.776
1.4778,1.47636,0.361899,0.412161,0,4.52123e-127,-0.0474619,-0.000744874,-8,292,-6.77548e-130,-8,-90.1134,382.113,2.78
1.4778,1.47636,0.361709,0.412158,0,3.01416e-127,-0.0475459,-0.00072691,-8,294,-4.40803e-130,-8,-90.1135,384.113,2.784
1.4778,1.47636,0.361519,0.412155,0,2.00944e-127,-0.0476297,-0.000743725,-8,295,-3.00665e-130,-8,-90.1136,385.114,2.788
1.4778,1.47636,0.361328,0.412152,0,1.33962e-127,-0.0477135,-0.000726144,-8,296,-1.95704e-130,-8,-90.1137,386.114,2.792
1.4778,1.47636,0.361137,0.412148,0,8.93083e-128,-0.0477972,-0.000829587,-8,298,-1.49054e-130,-8,-90.1139,388.114,2.796
1.4778,1.47636,0.360946,0.412145,0,5.95389e-128,-0.0478809,-0.000812176,-8,299,-9.72835e-131,-8,-90.114,389.114,2.8
1.4778,1.47636,0.360754,0.412142,0,3.96926e-128,-0.0479644,-0.000800569,-8,300,-6.39284e-131,-8,-90.1141,390.114,2.804
1.4778,1.47636,0.360562,0.412137,0,2.64617e-128,-0.0480479,-0.000907995,-8,302,-4.83374e-131,-8,-90.1143,392.114,2.808
1.4778,1.47636,0.36037,0.412134,0,1.76411e-128,-0.0481313,-0.00092203,-8,303,-3.27228e-131,-8,-90.1145,393.114,2.812
1.4778,1.47636,0.360177,0.412129,0,1.17608e-128,-0.0482147,-0.000960178,-8,304,-2.27176e-131,-8,-90.1146,394.115,2.816
1.4778,1.47636,0.359984,0.412126,0,7.84051e-129,-0.0482979,-0.000956819,-8,306,-1.5092e-131,-8,-90.1148,396.115,2.82
1.4778,1.47636,0.359791,0.412121,0,5.22701e-129,-0.0483811,-0.00098337,-8,307,-1.03404e-131,-8,-90.1149,397.115,2.824
1.4778,1.47636,0.359597,0.412118,0,3.48467e-129,-0.0484641,-0.000914698,-8,308,-6.41219e-132,-8,-90.1151,398.115,2.828
1.4778,1.47636,0.359403,0.412115,0,2.32311e-129,-0.0485471,-0.000897708,-8,310,-4.19536e-132,-8,-90.1152,400.115,2.832
1.4778,1.47636,0.359209,0.412111,0,1.54874e-129,-0.0486301,-0.000886381,-8,311,-2.7616e-132,-8,-90.1153,401.115,2.836
1.4778,1.47636,0.359014,0.412108,0,1.0325e-129,-0.0487129,-0.000907621,-8,313,-1.88517e-132,-8,-90.1155,403.115,2.84
1.4778,1.47636,0.358819,0.412103,0,6.8833e-130,-0.0487956,-0.00100815,-8,314,-1.39598e-132,-8,-90.1157,404.116,2.844
1.4778,1.47636,0.358624,0.412099,0,4.58887e-130,-0.0488783,-0.000988803,-8,315,-9.1278e-133,-8,-90.1158,405.116,2.848
1.4778,1.47636,0.358428,0.412094,0,3.05924e-130,-0.0489609,-0.00106227,-8,317,-6.5373e-133,-8,-90.116,407.116,2.852
1.4778,1.47636,0.358232,0.41209,0,2.0395e-130,-0.0490434,-0.00102488,-8,318,-4.20476e-133,-8,-90.1162,408.116,2.856
1.4778,1.47636,0.358036,0.412087,0,1.35966e-130,-0.0491258,-0.000999956,-8,319,-2.73498e-133,-8,-90.1163,409.116,2.86
1.4778,1.47636,0.357839,0.412082,0,9.06443e-131,-0.0492081,-0.00101213,-8,321,-1.8455e-133,-8,-90.1165,411.116,2.864
1.4778,1.47636,0.357642,0.412079,0,6.04295e-131,-0.0492904,-0.00093387,-8,322,-1.1352e-133,-8,-90.1166,412.117,2.868
1.4778,1.47636,0.357445,0.412076,0,4.02863e-131,-0.0493725,-0.00091049,-8,324,-7.37846e-134,-8,-90.1167,414.117,2.872
1.4778,1.47636,0.357247,0.412072,0,2.68576e-131,-0.0494546,-0.000923693,-8,325,-4.99027e-134,-8,-90.1169,415.117,2.876
1.4778,1.47636,0.357049,0.412068,0,1.7905e-131,-0.0495366,-0.000961287,-8,326,-3.46222e-134,-8,-90.117,416.117,2.88
1.4778,1.47636,0.356851,0.412064,0,1.19367e-131,-0.0496185,-0.000986349,-8,328,-2.3683e-134,-8,-90.1172,418.117,2.884
1.4778,1.47636,0.356652,0.41206,0,7.9578e-132,-0.0497003,-0.000974266,-8,329,-1.55952e-134,-8,-90.1174,419.117,2.888
1.4778,1.47636,0.356453,0.412056,0,5.3052e-132,-0.049782,-0.000966211,-8,331,-1.03108e-134,-8,-90.1175,421.118,2.892
1.4778,1.47636,0.356254,0.412053,0,3.5368e-132,-0.0498637,-0.00093205,-8,332,-6.63076e-135,-8,-90.1176,422.118,2.896
1.4778,1.47636,0.356054,0.412049,0,2.35787e-132,-0.0499452,-0.000938067,-8,333,-4.44901e-135,-8,-90.1178,423.118,2.9
1.4778,1.47636,0.355854,0.412046,0,1.57191e-132,-0.0500267,-0.000855705,-8,335,-2.70558e-135,-8,-90.1179,425.118,2.904
1.4778,1.47636,0.355654,0.412045,0,1.04794e-132,-0.050108,-0.000685634,-8,336,-1.44523e-135,-8,-90.118,426.118,2.908
1.4778,1.47636,0.355453,0.412043,0,6.98627e-133,-0.0501893,-0.000572253,-8,338,-8.04155e-136,-8,-90.118,428.118,2.912
1.4778,1.47636,0.355252,0.412043,0,4.65751e-133,-0.0502705,-0.000410293,-8,340,-3.84374e-136,-8,-90.118,430.118,2.916
1.4778,1.47636,0.355051,0.412043,0,3.10501e-133,-0.0503516,-0.000273529,-8,341,-1.70833e-136,-8,-90.118,431.118,2.92
1.4778,1.47636,0.35485,0.412043,0,2.07001e-133,-0.0504326,-0.000211143,-8,343,-8.79133e-137,-8,-90.118,433.118,2.924
1.4778,1.47636,0.354648,0.412042,0,1.38e-133,-0.0505135,-0.000169553,-8,344,-4.70643e-137,-8,-90.1181,434.118,2.928
1.4778,1.47636,0.354445,0.412042,0,9.20003e-134,-0.0505944,-0.000141826,-8,346,-2.62453e-137,-8,-90.1181,436.118,2.932
1.4778,1.47636,0.354243,0.412042,0,6.13335e-134,-0.0506751,-0.000123342,-8,347,-1.52164e-137,-8,-90.1181,437.118,2.936
1.4778,1.47636,0.35404,0.412041,0,4.0889e-134,-0.0507557,-0.000168601,-8,348,-1.38666e-137,-8,-90.1181,438.118,2.94
1.4778,1.47636,0.353837,0.41204,0,2.72593e-134,-0.0508363,-0.000141191,-8,350,-7.74154e-138,-8,-90.1181,440.118,2.944
1.4778,1.47636,0.353633,0.412039,0,1.81729e-134,-0.0509168,-0.0001805,-8,351,-6.59789e-138,-8,-90.1182,441.118,2.948
1.4778,1.47636,0.35343,0.412038,0,1.21153e-134,-0.0509971,-0.000264288,-8,353,-6.44039e-138,-8,-90.1182,443.118,2.952
1.4778,1.47636,0.353225,0.412036,0,8.07684e-135,-0.0510774,-0.000262565,-8,354,-4.26559e-138,-8,-90.1183,444.118,2.956
1.4778,1.47636,0.353021,0.412035,0,5.38456e-135,-0.0511576,-0.000261416,-8,356,-2.83128e-138,-8,-90.1183,446.118,2.96
1.4778,1.47636,0.352816,0.412034,0,3.58971e-135,-0.0512376,-0.00026065,-8,357,-1.88199e-138,-8,-90.1184,447.118,2.964
1.4778,1.47636,0.352611,0.412034,0,2.39314e-135,-0.0513176,-0.000231349,-8,359,-1.11361e-138,-8,-90.1184,449.118,2.968
1.4778,1.47636,0.352406,0.412033,0,1.59543e-135,-0.0513975,-0.000183023,-8,360,-5.87329e-139,-8,-90.1184,450.118,2.972
1.4778,1.47636,0.3522,0.412033,0,1.06362e-135,-0.0514773,-0.000179597,-8,362,-3.84223e-139,-8,-90.1184,452.118,2.976
1.4778,1.47636,0.351994,0.412033,0,7.09078e-136,-0.051557,-9.09407e-05,-8,363,-1.29703e-139,-8,-90.1184,453.118,2.98
1.4778,1.47636,0.351787,0.412033,0,4.72719e-136,-0.0516366,-6.06271e-05,-8,365,-5.76458e-140,-8,-90.1184,455.118,2.984
1.4778,1.47636,0.351581,0.412033,0,3.15146e-136,-0.0517161,-6.9209e-05,-8,366,-4.38704e-140,-8,-90.1184,456.118,2.988
1.4778,1.47636,0.351374,0.412032,0,2.10097e-136,-0.0517956,-7.49303e-05,-8,368,-3.16647e-140,-8,-90.1185,458.118,2.992
1.4778,1.47636,0.351166,0.412032,0,1.40065e-136,-0.0518749,-7.87444e-05,-8,369,-2.21843e-140,-8,-90.1185,459.118,2.996
1.4778,1.47636,0.350959,0.412031,0,9.33765e-137,-0.0519541,-0.000110078,-8,371,-2.06745e-140,-8,-90.1185,461.118,3
1.4778,1.47636,0.350751,0.412031,0,6.2251e-137,-0.0520332,-0.000130967,-8,372,-1.63985e-140,-8,-90.1185,462.119,3.004
1.4778,1.47636,0.350542,0.41203,0,4.15007e-137,-0.0521122,-0.000144893,-8,373,-1.20948e-140,-8,-90.1185,463.119,3.008
1.4778,1.47636,0.350334,0.412029,0,2.76671e-137,-0.0521912,-0.000211759,-8,375,-1.17842e-140,-8,-90.1186,465.119,3.012
1.4778,1.47636,0.350125,0.412027,0,1.84447e-137,-0.05227,-0.000285127,-8,376,-1.0578e-140,-8,-90.1187,466.119,3.016
1.4778,1.47636,0.349916,0.412024,0,1.22965e-137,-0.0523487,-0.000391621,-8,378,-9.68588e-141,-8,-90.1188,468.119,3.02
1.4778,1.47636,0.349706,0.412021,0,8.19766e-138,-0.0524273,-0.000520199,-8,379,-8.57726e-141,-8,-90.1189,469.119,3.024
1.4778,1.47636,0.349496,0.412018,0,5.46511e-138,-0.0525058,-0.000634709,-8,380,-6.97685e-141,-8,-90.119,470.119,3.028
1.4778,1.47636,0.349286,0.412014,0,3.64341e-138,-0.0525843,-0.00076863,-8,382,-5.63258e-141,-8,-90.1192,472.119,3.032
1.4778,1.47636,0.349076,0.412008,0,2.42894e-138,-0.0526626,-0.000944284,-8,383,-4.61315e-141,-8,-90.1194,473.119,3.036
1.4778,1.47636,0.348865,0.412004,0,1.61929e-138,-0.0527408,-0.0010038,-8,385,-3.26926e-141,-8,-90.1196,475.12,3.04
1.4778,1.47636,0.348654,0.411999,0,1.07953e-138,-0.0528189,-0.00110107,-8,386,-2.39066e-141,-8,-90.1198,476.12,3.044
1.4778,1.47636,0.348442,0.411994,0,7.19685e-139,-0.0528969,-0.00116591,-8,387,-1.68762e-141,-8,-90.12,477.12,3.048
1.4778,1.47636,0.34823,0.411989,0,4.7979e-139,-0.0529749,-0.00118035,-8,389,-1.139e-141,-8,-90.1202,479.12,3.052
1.4778,1.47636,0.348018,0.411983,0,3.1986e-139,-0.0530527,-0.00127634,-8,390,-8.21079e-142,-8,-90.1204,480.12,3.056
1.4778,1.47636,0.347806,0.411977,0,2.1324e-139,-0.0531304,-0.00131155,-8,392,-5.6248e-142,-8,-90.1206,482.121,3.06
1.4778,1.47636,0.347593,0.411972,0,1.4216e-139,-0.053208,-0.00133502,-8,393,-3.81693e-142,-8,-90.1208,483.121,3.064
1.4778,1.47636,0.34738,0.411966,0,9.47733e-140,-0.0532855,-0.00135067,-8,395,-2.57442e-142,-8,-90.1211,485.121,3.068
1.4778,1.47636,0.347167,0.411961,0,6.31822e-140,-0.0533629,-0.0013611,-8,396,-1.72952e-142,-8,-90.1213,486.121,3.072
1.4778,1.47636,0.346953,0.411955,0,4.21215e-140,-0.0534402,-0.00136806,-8,398,-1.15889e-142,-8,-90.1215,488.121,3.076
1.4778,1.47636,0.34674,0.41195,0,2.8081e-140,-0.0535174,-0.0013439,-8,399,-7.58946e-143,-8,-90.1217,489.122,3.08
1.4778,1.47636,0.346525,0.411946,0,1.87207e-140,-0.0535945,-0.00121263,-8,401,-4.56541e-143,-8,-90.1218,491.122,3.084
1.4778,1.47636,0.346311,0.411943,0,1.24804e-140,-0.0536714,-0.00106754,-8,402,-2.67942e-143,-8,-90.122,492.122,3.088
1.4778,1.47636,0.346096,0.411942,0,8.32029e-141,-0.0537483,-0.000826858,-8,404,-1.38355e-143,-8,-90.122,494.122,3.092
1.4778,1.47636,0.345881,0.411941,0,5.54686e-141,-0.0538251,-0.000637611,-8,406,-7.11258e-144,-8,-90.1221,496.122,3.096
1.4778,1.47636,0.345665,0.41194,0,3.69791e-141,-0.0539017,-0.000482656,-8,407,-3.58936e-144,-8,-90.1221,497.122,3.1
1.4778,1.47636,0.34545,0.41194,0,2.46527e-141,-0.0539783,-0.000350562,-8,409,-1.73801e-144,-8,-90.1221,499.122,3.104
1.4778,1.47636,0.345233,0.41194,0,1.64351e-141,-0.0540547,-0.000233708,-8,411,-7.72449e-145,-8,-90.1221,501.122,3.108
1.4778,1.47636,0.345017,0.411939,0,1.09568e-141,-0.0541311,-0.000184596,-8,412,-4.0675e-145,-8,-90.1221,502.122,3.112
1.4778,1.47636,0.3448,0.411939,0,7.30451e-142,-0.0542073,-0.000151855,-8,414,-2.23071e-145,-8,-90.1221,504.122,3.116
1.4778,1.47636,0.344583,0.411938,0,4.86967e-142,-0.0542834,-0.000158819,-8,415,-1.55533e-145,-8,-90.1222,505.122,3.12
1.4778,1.47636,0.344366,0.411937,0,3.24645e-142,-0.0543594,-0.000192252,-8,417,-1.25516e-145,-8,-90.1222,507.122,3.124
1.4778,1.47636,0.344149,0.411936,0,2.1643e-142,-0.0544353,-0.000214541,-8,418,-9.33786e-146,-8,-90.1222,508.122,3.128
1.4778,1.47636,0.343931,0.411935,0,1.44287e-142,-0.0545111,-0.000286982,-8,420,-8.32721e-146,-8,-90.1223,510.122,3.132
1.4778,1.47636,0.343712,0.411933,0,9.61911e-143,-0.0545868,-0.000306485,-8,421,-5.92873e-146,-8,-90.1224,511.122,3.136
1.4778,1.47636,0.343494,0.411931,0,6.41274e-143,-0.0546624,-0.000348278,-8,423,-4.49144e-146,-8,-90.1224,513.122,3.14
1.4778,1.47636,0.343275,0.41193,0,4.27516e-143,-0.0547379,-0.00037614,-8,425,-3.23383e-146,-8,-90.1225,515.122,3.144
1.4778,1.47636,0.343056,0.411928,0,2.85011e-143,-0.0548132,-0.000423505,-8,426,-2.42736e-146,-8,-90.1226,516.123,3.148
1.4778,1.47636,0.342837,0.411926,0,1.90007e-143,-0.0548885,-0.000455083,-8,428,-1.73889e-146,-8,-90.1227,518.123,3.152
1.4778,1.47636,0.342617,0.411924,0,1.26671e-143,-0.0549636,-0.000476134,-8,429,-1.21288e-146,-8,-90.1227,519.123,3.156
1.4778,1.47636,0.342397,0.411921,0,8.44476e-144,-0.0550386,-0.000490168,-8,431,-8.32417e-147,-8,-90.1228,521.123,3.16
1.4778,1.47636,0.342177,0.411919,0,5.62984e-144,-0.0551135,-0.000528315,-8,432,-5.9813e-147,-8,-90.1229,522.123,3.164
1.4778,1.47636,0.341956,0.411917,0,3.75323e-144,-0.0551883,-0.000524956,-8,434,-3.96216e-147,-8,-90.123,524.123,3.168
1.4778,1.47636,0.341735,0.411916,0,2.50215e-144,-0.055263,-0.000436343,-8,435,-2.19556e-147,-8,-90.123,525.123,3.172
1.4778,1.47636,0.341514,0.411915,0,1.6681e-144,-0.0553376,-0.000348477,-8,437,-1.16896e-147,-8,-90.1231,527.123,3.176
1.4778,1.47636,0.341292,0.411915,0,1.11207e-144,-0.055412,-0.000232318,-8,439,-5.19538e-148,-8,-90.1231,529.123,3.18
1.4778,1.47636,0.341071,0.411915,0,7.41378e-145,-0.0554864,-0.00018367,-8,440,-2.7383e-148,-8,-90.1231,530.123,3.184
1.4778,1.47636,0.340849,0.411915,0,4.94252e-145,-0.0555606,-0.000151237,-8,442,-1.50318e-148,-8,-90.1231,532.123,3.188
1.4778,1.47636,0.340626,0.411915,0,3.29501e-145,-0.0556347,-0.000100825,-8,444,-6.68079e-149,-8,-90.1231,534.123,3.192
1.4778,1.47636,0.340403,0.411914,0,2.19668e-145,-0.0557087,-9.60076e-05,-8,445,-4.24106e-149,-8,-90.1231,535.123,3.196
1.4778,1.47636,0.340181,0.411913,0,1.46445e-145,-0.0557826,-0.000150378,-8,447,-4.42854e-149,-8,-90.1231,537.123,3.2
1.4778,1.47636,0.339957,0.411912,0,9.763e-146,-0.0558564,-0.000157834,-8,448,-3.09873e-149,-8,-90.1232,538.123,3.204
1.4778,1.47636,0.339734,0.411911,0,6.50867e-146,-0.0559301,-0.000191595,-8,450,-2.50771e-149,-8,-90.1232,540.123,3.208
1.4778,1.47636,0.33951,0.41191,0,4.33911e-146,-0.0560036,-0.000271685,-8,451,-2.37064e-149,-8,-90.1233,541.123,3.212
1.4778,1.47636,0.339286,0.411908,0,2.89274e-146,-0.056077,-0.000325078,-8,453,-1.89101e-149,-8,-90.1233,543.123,3.216
1.4778,1.47636,0.339061,0.411905,0,1.92849e-146,-0.0561503,-0.000447046,-8,454,-1.73367e-149,-8,-90.1235,544.123,3.22
1.4778,1.47636,0.338836,0.411901,0,1.28566e-146,-0.0562235,-0.000614731,-8,456,-1.58929e-149,-8,-90.1236,546.124,3.224
1.4778,1.47636,0.338611,0.411897,0,8.57109e-147,-0.0562966,-0.000784103,-8,457,-1.35144e-149,-8,-90.1238,547.124,3.228
1.4778,1.47636,0.338386,0.411891,0,5.71406e-147,-0.0563695,-0.00104097,-8,459,-1.1961e-149,-8,-90.124,549.124,3.232
1.4778,1.47636,0.33816,0.411884,0,3.80937e-147,-0.0564424,-0.00124101,-8,460,-9.50619e-150,-8,-90.1243,550.124,3.236
1.4778,1.47636,0.337935,0.411878,0,2.53958e-147,-0.0565151,-0.00137437,-8,461,-7.0184e-150,-8,-90.1245,551.125,3.24
1.4778,1.47636,0.337708,0.41187,0,1.69305e-147,-0.0565877,-0.00152085,-8,463,-5.17757e-150,-8,-90.1248,553.125,3.244
1.4778,1.47636,0.337482,0.411863,0,1.1287e-147,-0.0566602,-0.0016473,-8,464,-3.73865e-150,-8,-90.1251,554.125,3.248
1.4778,1.47636,0.337255,0.411855,0,7.52468e-148,-0.0567326,-0.00176039,-8,466,-2.6635e-150,-8,-90.1254,556.125,3.252
1.4778,1.47636,0.337028,0.411847,0,5.01646e-148,-0.0568048,-0.00183579,-8,467,-1.85169e-150,-8,-90.1258,557.126,3.256
1.4778,1.47636,0.336801,0.411839,0,3.3443e-148,-0.0568769,-0.00191484,-8,469,-1.2876e-150,-8,-90.1261,559.126,3.26
1.4778,1.47636,0.336573,0.411831,0,2.22954e-148,-0.0569489,-0.00190996,-8,470,-8.56199e-151,-8,-90.1264,560.126,3.264
1.4778,1.47636,0.336345,0.411824,0,1.48636e-148,-0.0570208,-0.00187792,-8,472,-5.61215e-151,-8,-90.1267,562.127,3.268
1.4778,1.47636,0.336117,0.411818,0,9.90905e-149,-0.0570926,-0.00174139,-8,474,-3.46939e-151,-8,-90.1269,564.127,3.272
1.4778,1.47636,0.335888,0.411814,0,6.60603e-149,-0.0571642,-0.00147763,-8,475,-1.96258e-151,-8,-90.127,565.127,3.276
1.4778,1.47636,0.335659,0.411812,0,4.40402e-149,-0.0572357,-0.00115783,-8,477,-1.02521e-151,-8,-90.1271,567.127,3.28
1.4778,1.47636,0.33543,0.411812,0,2.93601e-149,-0.0573072,-0.000800678,-8,479,-4.72646e-152,-8,-90.1271,569.127,3.284
1.4778,1.47636,0.335201,0.411812,0,1.95734e-149,-0.0573784,-0.000533785,-8,481,-2.10065e-152,-8,-90.1271,571.127,3.288
1.4778,1.47636,0.334971,0.411812,0,1.3049e-149,-0.0574496,-0.000355857,-8,483,-9.33622e-153,-8,-90.1271,573.127,3.292
1.4778,1.47636,0.334741,0.411812,0,8.6993e-150,-0.0575206,-0.000237238,-8,485,-4.14943e-153,-8,-90.1271,575.127,3.296
1.4778,1.47636,0.334511,0.411812,0,5.79954e-150,-0.0575915,-0.000158159,-8,486,-1.84419e-153,-8,-90.1271,576.127,3.3
1.4778,1.47636,0.334281,0.411811,0,3.86636e-150,-0.0576623,-0.00013423,-8,488,-1.04345e-153,-8,-90.1272,578.127,3.304
1.4778,1.47636,0.33405,0.411811,0,2.57757e-150,-0.057733,-0.000118278,-8,490,-6.12961e-154,-8,-90.1272,580.127,3.308
1.4778,1.47636,0.333819,0.411811,0,1.71838e-150,-0.0578035,-7.88517e-05,-8,491,-2.72427e-154,-8,-90.1272,581.127,3.312
1.4778,1.47636,0.333587,0.411811,0,1.14559e-150,-0.0578739,-8.13587e-05,-8,493,-1.87392e-154,-8,-90.1272,583.127,3.316
1.4778,1.47636,0.333356,0.41181,0,7.63725e-151,-0.0579442,-8.30301e-05,-8,495,-1.27494e-154,-8,-90.1272,585.127,3.32
1.4778,1.47636,0.333124,0.411809,0,5.0915e-151,-0.0580144,-0.000112935,-8,496,-1.15609e-154,-8,-90.1272,586.127,3.324
1.4778,1.47636,0.332892,0.411809,0,3.39433e-151,-0.0580844,-0.000132872,-8,498,-9.06788e-155,-8,-90.1273,588.127,3.328
1.4778,1.47636,0.332659,0.411808,0,2.26289e-151,-0.0581544,-0.000146163,-8,499,-6.64995e-155,-8,-90.1273,589.127,3.332
1.4778,1.47636,0.332426,0.411807,0,1.50859e-151,-0.0582242,-0.000155024,-8,501,-4.70205e-155,-8,-90.1273,591.127,3.336
1.4778,1.47636,0.332193,0.411807,0,1.00573e-151,-0.0582938,-0.000160931,-8,503,-3.25415e-155,-8,-90.1273,593.127,3.34
1.4778,1.47636,0.33196,0.411806,0,6.70485e-152,-0.0583634,-0.00019366,-8,504,-2.61063e-155,-8,-90.1274,594.127,3.344
1.4778,1.47636,0.331727,0.411805,0,4.4699e-152,-0.0584328,-0.00021548,-8,506,-1.93651e-155,-8,-90.1274,596.127,3.348
1.4778,1.47636,0.331493,0.411804,0,2.97994e-152,-0.0585021,-0.000230026,-8,508,-1.37815e-155,-8,-90.1275,598.127,3.352
1.4778,1.47636,0.331259,0.411802,0,1.98662e-152,-0.0585712,-0.000268514,-8,509,-1.0725e-155,-8,-90.1275,599.128,3.356
1.4778,1.47636,0.331024,0.411801,0,1.32442e-152,-0.0586403,-0.000294173,-8,511,-7.83319e-156,-8,-90.1276,601.128,3.36
1.4778,1.47636,0.330789,0.411799,0,8.82944e-153,-0.0587092,-0.000311279,-8,512,-5.52578e-156,-8,-90.1276,602.128,3.364
1.4778,1.47636,0.330554,0.411798,0,5.88629e-153,-0.0587779,-0.000293892,-8,514,-3.47808e-156,-8,-90.1277,604.128,3.368
1.4778,1.47636,0.330319,0.411797,0,3.92419e-153,-0.0588466,-0.000311092,-8,516,-2.45441e-156,-8,-90.1277,606.128,3.372
1.4778,1.47636,0.330084,0.411796,0,2.61613e-153,-0.0589151,-0.000264976,-8,518,-1.39372e-156,-8,-90.1277,608.128,3.376
1.4778,1.47636,0.329848,0.411795,0,1.74409e-153,-0.0589835,-0.000263024,-8,519,-9.22295e-157,-8,-90.1278,609.128,3.38
1.4778,1.47636,0.329612,0.411795,0,1.16272e-153,-0.0590518,-0.000232931,-8,521,-5.44516e-157,-8,-90.1278,611.128,3.384
1.4778,1.47636,0.329375,0.411794,0,7.7515e-154,-0.0591199,-0.000184078,-8,523,-2.86876e-157,-8,-90.1278,613.128,3.388
1.4778,1.47636,0.329139,0.411794,0,5.16766e-154,-0.0591879,-0.000122719,-8,524,-1.275e-157,-8,-90.1278,614.128,3.392
1.4778,1.47636,0.328902,0.411794,0,3.44511e-154,-0.0592558,-0.000139394,-8,526,-9.65504e-158,-8,-90.1279,616.128,3.396
1.4778,1.47636,0.328665,0.411793,0,2.29674e-154,-0.0593235,-0.000121721,-8,528,-5.62058e-158,-8,-90.1279,618.128,3.4
1.4778,1.47636,0.328427,0.411793,0,1.53116e-154,-0.0593911,-0.000138729,-8,529,-4.27063e-158,-8,-90.1279,619.128,3.404
1.4778,1.47636,0.32819,0.411792,0,1.02077e-154,-0.0594586,-0.000150068,-8,531,-3.07979e-158,-8,-90.1279,621.128,3.408
1.4778,1.47636,0.327952,0.411791,0,6.80515e-155,-0.059526,-0.000186418,-8,533,-2.55052e-158,-8,-90.128,623.128,3.412
1.4778,1.47636,0.327713,0.411789,0,4.53677e-155,-0.0595932,-0.000268233,-8,534,-2.44659e-158,-8,-90.128,624.128,3.416
1.4778,1.47636,0.327475,0.411787,0,3.02451e-155,-0.0596603,-0.000351568,-8,536,-2.13779e-158,-8,-90.1281,626.128,3.42
