peachynonah/Fire_monitor_/csv_datas/trial11/cdsl_data_t11_3.csv
joint1_pos_desired, joint1_pos, joint2_pos_desired, joint2_pos, joint1_vel_desired, joint1_vel_filtered, joint2_vel_desired, joint2_vel_filtered, target_torque_joint1, target_torque_joint2, nonlinear_term_torque_joint1, PD_term_torque_joint1, nonlinear_term_torque_joint2, PD_term_torque_joint2, current_time
1.4778,1.47636,0.5635,0.169056,0,0,1.7696e-08,0,-9,-1718,0,-9,-96.9474,-1621.05,0.004
1.4778,1.47636,0.5635,0.16893,0,-2.87909e-05,7.07583e-08,-0.0104799,-9,-1727,2.741e-07,-9,-96.9494,-1630.05,0.008
1.4778,1.47636,0.5635,0.168837,0,-1.91939e-05,1.59148e-07,-0.0147314,-9,-1731,2.56728e-07,-9,-96.951,-1634.05,0.012
1.4778,1.47636,0.5635,0.168816,0,-1.2796e-05,2.82827e-07,-0.0116347,-9,-1729,1.35158e-07,-9,-96.9513,-1632.05,0.016
1.4778,1.47636,0.5635,0.168888,0,-8.53064e-06,4.41757e-07,-0.00171039,-9,-1720,1.32517e-08,-9,-96.9501,-1623.05,0.02
1.4778,1.47636,0.5635,0.169044,0,-5.6871e-06,6.35898e-07,0.0118157,-9,-1708,-6.10836e-08,-9,-96.9476,-1611.05,0.024
1.4778,1.47636,0.5635,0.169285,0,-3.7914e-06,8.65213e-07,0.028002,-9,-1694,-9.66408e-08,-9,-96.9436,-1597.06,0.028
1.4778,1.47636,0.5635,0.169604,0,2.62633e-05,1.12966e-06,0.0452708,-9,-1679,1.08424e-06,-9,-96.9383,-1582.06,0.032
1.4778,1.47636,0.5635,0.170001,0,1.75089e-05,1.42921e-06,0.0632613,-9,-1662,1.01235e-06,-9,-96.9317,-1565.07,0.036
1.4778,1.47636,0.5635,0.170464,0,1.16726e-05,1.76381e-06,0.0806965,-9,-1646,8.63158e-07,-9,-96.924,-1549.08,0.04
1.4778,1.47636,0.5635,0.170962,0,7.78173e-06,2.13344e-06,0.0953717,-9,-1632,6.81999e-07,-9,-96.9156,-1535.08,0.044
1.4778,1.47636,0.5635,0.171451,0,5.18782e-06,2.53804e-06,0.104263,-9,-1622,4.98416e-07,-9,-96.9075,-1525.09,0.048
1.4778,1.47636,0.5635,0.171916,0,3.45855e-06,2.97759e-06,0.10829,-9,-1617,3.46011e-07,-9,-96.8996,-1520.1,0.052
1.4778,1.47636,0.5635,0.172357,0,2.3057e-06,3.45204e-06,0.108902,-9,-1615,2.32548e-07,-9,-96.8922,-1518.11,0.056
1.4778,1.47636,0.5635,0.172772,0,1.53713e-06,3.96135e-06,0.107237,-9,-1614,1.53015e-07,-9,-96.8852,-1517.11,0.06
1.4778,1.47636,0.5635,0.173168,0,1.02475e-06,4.5055e-06,0.104457,-9,-1615,9.95838e-08,-9,-96.8785,-1518.12,0.064
1.4778,1.47636,0.5635,0.173548,0,6.83169e-07,5.08443e-06,0.101308,-9,-1616,6.45235e-08,-9,-96.8721,-1519.13,0.068
1.4778,1.47636,0.5635,0.173914,0,4.55446e-07,5.69811e-06,0.0980281,-9,-1617,4.17073e-08,-9,-96.8658,-1520.13,0.072
1.4778,1.47636,0.5635,0.17427,0,3.03631e-07,6.3465e-06,0.0950355,-9,-1618,2.7009e-08,-9,-96.8598,-1521.14,0.076
1.4778,1.47636,0.5635,0.174615,0,2.02421e-07,7.02957e-06,0.0921192,-9,-1619,1.74866e-08,-9,-96.8539,-1522.15,0.08
1.4778,1.47636,0.5635,0.174956,0,1.34947e-07,7.74727e-06,0.0898006,-9,-1620,1.13856e-08,-9,-96.8481,-1523.15,0.084
1.4778,1.47636,0.5635,0.175289,0,8.99647e-08,8.49957e-06,0.0876215,-9,-1620,7.41971e-09,-9,-96.8423,-1523.16,0.088
1.4778,1.47636,0.5635,0.175611,0,5.99765e-08,9.28643e-06,0.0852763,-9,-1621,4.82257e-09,-9,-96.8368,-1524.16,0.092
1.4778,1.47636,0.5635,0.175912,0,3.99843e-08,1.01078e-05,0.0819278,-9,-1622,3.09387e-09,-9,-96.8316,-1525.17,0.096
1.4778,1.47636,0.5635,0.176188,0,2.66562e-08,1.09637e-05,0.0775937,-9,-1625,1.9564e-09,-9,-96.8269,-1528.17,0.1
1.4778,1.47636,0.5635,0.176437,0,2.88087e-05,1.1854e-05,0.0725162,-9,-1628,1.9787e-06,-9,-96.8226,-1531.18,0.104
1.4778,1.47636,0.5635,0.176653,0,-9.58513e-06,1.27787e-05,0.0663672,-9,-1632,-6.03231e-07,-9,-96.8189,-1535.18,0.108
1.4778,1.47636,0.563501,0.176838,0,-6.39009e-06,1.37378e-05,0.0596192,-9,-1637,-3.61625e-07,-9,-96.8157,-1540.18,0.112
1.4778,1.47636,0.563501,0.176995,0,-4.26006e-06,1.47312e-05,0.0528748,-9,-1642,-2.13994e-07,-9,-96.8129,-1545.19,0.116
1.4778,1.47636,0.563501,0.177125,0,-2.84004e-06,1.57589e-05,0.0460177,-9,-1647,-1.24248e-07,-9,-96.8107,-1550.19,0.12
1.4778,1.47636,0.563501,0.177231,0,-1.89336e-06,1.68208e-05,0.039546,-9,-1652,-7.1224e-08,-9,-96.8089,-1555.19,0.124
1.4778,1.47636,0.563501,0.177317,0,-1.26224e-06,1.7917e-05,0.033533,-9,-1656,-4.02815e-08,-9,-96.8074,-1559.19,0.128
1.4778,1.47636,0.563501,0.177383,0,-8.41493e-07,1.90473e-05,0.0278832,-9,-1661,-2.23378e-08,-9,-96.8062,-1564.19,0.132
1.4778,1.47636,0.563501,0.177431,0,-5.60995e-07,2.02118e-05,0.0225619,-9,-1665,-1.2053e-08,-9,-96.8054,-1568.19,0.136
1.4778,1.47636,0.563501,0.17746,0,2.84169e-05,2.14104e-05,0.0174309,-9,-1669,4.71764e-07,-9,-96.8049,-1572.2,0.14
1.4778,1.47636,0.563501,0.177465,0,-9.84631e-06,2.2643e-05,0.0120813,-9,-1673,-1.13299e-07,-9,-96.8048,-1576.2,0.144
1.4778,1.47636,0.563501,0.177465,0,2.22267e-05,2.39097e-05,0.00805418,-9,-1677,1.70505e-07,-9,-96.8048,-1580.2,0.148
1.4778,1.47636,0.563501,0.177465,0,1.48178e-05,2.52103e-05,0.00536946,-9,-1679,7.57799e-08,-9,-96.8048,-1582.2,0.152
1.4778,1.47636,0.563501,0.177465,0,-1.89124e-05,2.65449e-05,0.00357964,-9,-1680,-6.448e-08,-9,-96.8048,-1583.2,0.156
1.4778,1.47636,0.563501,0.177465,0,1.61827e-05,2.79134e-05,0.00238642,-9,-1681,3.67822e-08,-9,-96.8048,-1584.2,0.16
1.4778,1.47636,0.563502,0.177465,0,-1.80025e-05,2.93158e-05,0.00159095,-9,-1682,-2.7279e-08,-9,-96.8048,-1585.2,0.164
1.4778,1.47636,0.563502,0.177465,0,-1.20017e-05,3.0752e-05,0.00106063,-9,-1682,-1.2124e-08,-9,-96.8048,-1585.2,0.168
1.4778,1.47636,0.563502,0.177465,0,-8.0011e-06,3.2222e-05,0.000707089,-9,-1683,-5.38844e-09,-9,-96.8048,-1586.2,0.172
1.4778,1.47636,0.563502,0.177465,0,-5.33407e-06,3.37258e-05,0.000471393,-9,-1683,-2.39486e-09,-9,-96.8048,-1586.2,0.176
1.4778,1.47636,0.563502,0.177465,0,-3.55605e-06,3.52632e-05,0.000314262,-9,-1683,-1.06438e-09,-9,-96.8048,-1586.2,0.18
1.4778,1.47636,0.563502,0.177465,0,-2.3707e-06,3.68344e-05,0.000209508,-9,-1683,-4.7306e-10,-9,-96.8048,-1586.2,0.184
1.4778,1.47636,0.563502,0.177465,0,-1.58046e-06,3.84392e-05,0.000139672,-9,-1683,-2.10249e-10,-9,-96.8048,-1586.2,0.188
1.4778,1.47636,0.563503,0.177465,0,-1.05364e-06,4.00776e-05,9.31146e-05,-9,-1683,-9.34439e-11,-9,-96.8048,-1586.2,0.192
1.4778,1.47636,0.563503,0.177465,0,2.80885e-05,4.17496e-05,6.20764e-05,-9,-1683,1.66071e-09,-9,-96.8048,-1586.2,0.196
1.4778,1.47636,0.563503,0.177465,0,-1.00653e-05,4.34551e-05,4.13843e-05,-9,-1683,-3.96734e-10,-9,-96.8048,-1586.2,0.2
1.4778,1.47636,0.563503,0.177465,0,-6.71017e-06,4.51941e-05,2.75895e-05,-9,-1683,-1.76326e-10,-9,-96.8048,-1586.2,0.204
1.4778,1.47636,0.563503,0.177465,0,-4.47345e-06,4.69665e-05,1.8393e-05,-9,-1683,-7.83673e-11,-9,-96.8048,-1586.2,0.208
1.4778,1.47636,0.563503,0.177465,0,2.58086e-05,4.87724e-05,1.2262e-05,-9,-1683,3.01416e-10,-9,-96.8048,-1586.2,0.212
1.4778,1.47636,0.563504,0.177465,0,-1.15852e-05,5.06116e-05,8.17467e-06,-9,-1683,-9.02012e-11,-9,-96.8048,-1586.2,0.216
1.4778,1.47636,0.563504,0.177465,0,2.10675e-05,5.24842e-05,5.44978e-06,-9,-1683,1.09353e-10,-9,-96.8048,-1586.2,0.22
1.4778,1.47636,0.563504,0.177465,0,1.4045e-05,5.43901e-05,3.63319e-06,-9,-1683,4.86014e-11,-9,-96.8048,-1586.2,0.224
1.4778,1.47636,0.563504,0.177465,0,-1.94276e-05,5.63293e-05,2.42212e-06,-9,-1683,-4.48183e-11,-9,-96.8048,-1586.2,0.228
1.4778,1.47636,0.563505,0.177465,0,1.58392e-05,5.83016e-05,1.61475e-06,-9,-1683,2.436e-11,-9,-96.8048,-1586.2,0.232
1.4778,1.47636,0.563505,0.177465,0,-1.82315e-05,6.03072e-05,1.0765e-06,-9,-1683,-1.86928e-11,-9,-96.8048,-1586.2,0.236
1.4778,1.47636,0.563505,0.177465,0,-1.21543e-05,6.23459e-05,7.17666e-07,-9,-1683,-8.30792e-12,-9,-96.8048,-1586.2,0.24
1.4778,1.47636,0.563505,0.177465,0,2.06881e-05,6.44177e-05,4.78444e-07,-9,-1683,9.42737e-12,-9,-96.8048,-1586.2,0.244
1.4778,1.47636,0.563506,0.177465,0,1.3792e-05,6.65226e-05,3.18963e-07,-9,-1683,4.18994e-12,-9,-96.8048,-1586.2,0.248
1.4778,1.47636,0.563506,0.177465,0,-1.95962e-05,6.86606e-05,2.12642e-07,-9,-1683,-3.96882e-12,-9,-96.8048,-1586.2,0.252
1.4778,1.47636,0.563506,0.177465,0,1.57268e-05,7.08315e-05,1.41761e-07,-9,-1683,2.12342e-12,-9,-96.8048,-1586.2,0.256
1.4778,1.47636,0.563506,0.177465,0,-1.83064e-05,7.30354e-05,9.45075e-08,-9,-1683,-1.64782e-12,-9,-96.8048,-1586.2,0.26
1.4778,1.47636,0.563507,0.177465,0,1.65866e-05,7.52722e-05,6.3005e-08,-9,-1683,9.95344e-13,-9,-96.8048,-1586.2,0.264
1.4778,1.47636,0.563507,0.177465,0,1.10578e-05,7.75419e-05,4.20033e-08,-9,-1683,4.42375e-13,-9,-96.8048,-1586.2,0.268
1.4778,1.47636,0.563507,0.177465,0,-2.14191e-05,7.98445e-05,2.80022e-08,-9,-1683,-5.71259e-13,-9,-96.8048,-1586.2,0.272
1.4778,1.47636,0.563508,0.177465,0,-1.42794e-05,8.21799e-05,1.86681e-08,-9,-1683,-2.53893e-13,-9,-96.8048,-1586.2,0.276
1.4778,1.47636,0.563508,0.177465,0,1.92713e-05,8.4548e-05,1.24454e-08,-9,-1683,2.28434e-13,-9,-96.8048,-1586.2,0.28
1.4778,1.47636,0.563508,0.177465,0,1.28476e-05,8.69489e-05,8.29695e-09,-9,-1683,1.01526e-13,-9,-96.8048,-1586.2,0.284
1.4778,1.47636,0.563509,0.177465,0,-2.02259e-05,8.93825e-05,5.5313e-09,-9,-1683,-1.06555e-13,-9,-96.8048,-1586.2,0.288
1.4778,1.47636,0.563509,0.177465,0,1.5307e-05,9.18487e-05,3.68754e-09,-9,-1683,5.37608e-14,-9,-96.8048,-1586.2,0.292
1.4778,1.47636,0.563509,0.177465,0,-1.85863e-05,9.43476e-05,2.45836e-09,-9,-1683,-4.35188e-14,-9,-96.8048,-1586.2,0.296
1.4778,1.47636,0.56351,0.177465,0,-1.23908e-05,9.6879e-05,1.6389e-09,-9,-1683,-1.93417e-14,-9,-96.8048,-1586.2,0.3
1.4778,1.47636,0.56351,0.177465,0,-8.26056e-06,9.9443e-05,1.0926e-09,-9,-1683,-8.5963e-15,-9,-96.8048,-1586.2,0.304
1.4778,1.47636,0.563511,0.177465,0,-5.50704e-06,0.00010204,7.28402e-10,-9,-1683,-3.82058e-15,-9,-96.8048,-1586.2,0.308
1.4778,1.47636,0.563511,0.177465,0,-3.67136e-06,0.000104668,4.85601e-10,-9,-1683,-1.69803e-15,-9,-96.8048,-1586.2,0.312
1.4778,1.47636,0.563511,0.177465,0,2.63434e-05,0.00010733,3.23734e-10,-9,-1683,8.12268e-15,-9,-96.8048,-1586.2,0.316
1.4778,1.47636,0.563512,0.177465,0,-1.12287e-05,0.000110024,2.15823e-10,-9,-1683,-2.30816e-15,-9,-96.8048,-1586.2,0.32
1.4778,1.47636,0.563512,0.177465,0,2.13051e-05,0.00011275,1.43882e-10,-9,-1683,2.91964e-15,-9,-96.8048,-1586.2,0.324
1.4778,1.47636,0.563513,0.177465,0,-1.45875e-05,0.000115508,9.59213e-11,-9,-1683,-1.33271e-15,-9,-96.8048,-1586.2,0.328
1.4778,1.47636,0.563513,0.177465,0,-9.725e-06,0.000118299,6.39475e-11,-9,-1683,-5.92315e-16,-9,-96.8048,-1586.2,0.332
1.4778,1.47636,0.563514,0.177465,0,-6.48334e-06,0.000121122,4.26317e-11,-9,-1683,-2.63251e-16,-9,-96.8048,-1586.2,0.336
1.4778,1.47636,0.563514,0.177465,0,-4.32222e-06,0.000123977,2.84211e-11,-9,-1683,-1.17001e-16,-9,-96.8048,-1586.2,0.34
1.4778,1.47636,0.563515,0.177465,0,2.59094e-05,0.000126865,1.89474e-11,-9,-1683,4.67571e-16,-9,-96.8048,-1586.2,0.344
1.4778,1.47636,0.563515,0.177465,0,-1.1518e-05,0.000129784,1.26316e-11,-9,-1683,-1.38571e-16,-9,-96.8048,-1586.2,0.348
1.4778,1.47636,0.563516,0.177465,0,-7.67864e-06,0.000132736,8.42107e-12,-9,-1683,-6.15873e-17,-9,-96.8048,-1586.2,0.352
1.4778,1.47636,0.563516,0.177465,0,2.36718e-05,0.00013572,5.61405e-12,-9,-1683,1.26575e-16,-9,-96.8048,-1586.2,0.356
1.4778,1.47636,0.563517,0.177465,0,-1.30097e-05,0.000138735,3.7427e-12,-9,-1683,-4.63758e-17,-9,-96.8048,-1586.2,0.36
1.4778,1.47636,0.563517,0.177465,0,2.01178e-05,0.000141783,2.49513e-12,-9,-1683,4.78094e-17,-9,-96.8048,-1586.2,0.364
1.4778,1.47636,0.563518,0.177465,0,-1.53791e-05,0.000144863,1.66342e-12,-9,-1683,-2.43653e-17,-9,-96.8048,-1586.2,0.368
1.4778,1.47636,0.563519,0.177465,0,1.85382e-05,0.000147974,1.10895e-12,-9,-1683,1.95803e-17,-9,-96.8048,-1586.2,0.372
1.4778,1.47636,0.563519,0.177465,0,1.23588e-05,0.000151118,7.39298e-13,-9,-1683,8.70234e-18,-9,-96.8048,-1586.2,0.376
1.4778,1.47636,0.56352,0.177465,0,-2.05517e-05,0.000154293,4.92866e-13,-9,-1683,-9.64753e-18,-9,-96.8048,-1586.2,0.38
1.4778,1.47636,0.56352,0.177465,0,1.50898e-05,0.0001575,3.28577e-13,-9,-1683,4.72237e-18,-9,-96.8048,-1586.2,0.384
1.4778,1.47636,0.563521,0.177465,0,1.00599e-05,0.000160739,2.19051e-13,-9,-1684,2.09883e-18,-9,-96.8048,-1587.2,0.388
1.4778,1.47636,0.563522,0.177465,0,6.70657e-06,0.00016401,1.46034e-13,-9,-1684,9.32813e-19,-9,-96.8048,-1587.2,0.392
1.4778,1.47636,0.563522,0.177465,0,4.47105e-06,0.000167312,9.73562e-14,-9,-1684,4.14584e-19,-9,-96.8048,-1587.2,0.396
1.4778,1.47636,0.563523,0.177465,0,-2.58102e-05,0.000170646,6.49041e-14,-9,-1684,-1.59553e-18,-9,-96.8048,-1587.2,0.4
1.4778,1.47636,0.563524,0.177465,0,-1.72068e-05,0.000174011,4.32694e-14,-9,-1684,-7.09122e-19,-9,-96.8048,-1587.2,0.404
1.4778,1.47636,0.563524,0.177465,0,1.73197e-05,0.000177408,2.88463e-14,-9,-1684,4.7585e-19,-9,-96.8048,-1587.2,0.408
1.4778,1.47636,0.563525,0.177465,0,-1.72444e-05,0.000180837,1.92308e-14,-9,-1684,-3.15855e-19,-9,-96.8048,-1587.2,0.412
1.4778,1.47636,0.563526,0.177465,0,1.72946e-05,0.000184297,1.28206e-14,-9,-1684,2.11182e-19,-9,-96.8048,-1587.2,0.416
1.4778,1.47636,0.563527,0.177465,0,1.15297e-05,0.000187789,8.54704e-15,-9,-1684,9.38589e-20,-9,-96.8048,-1587.2,0.42
1.4778,1.47636,0.563527,0.177465,0,7.6865e-06,0.000191312,5.69803e-15,-9,-1684,4.17151e-20,-9,-96.8048,-1587.2,0.424
1.4778,1.47636,0.563528,0.177465,0,5.12433e-06,0.000194866,3.79869e-15,-9,-1684,1.854e-20,-9,-96.8048,-1587.2,0.428
1.4778,1.47636,0.563529,0.177465,0,-2.53747e-05,0.000198452,2.53246e-15,-9,-1684,-6.12044e-20,-9,-96.8048,-1587.2,0.432
1.4778,1.47636,0.56353,0.177465,0,1.18745e-05,0.000202069,1.6883e-15,-9,-1684,1.90943e-20,-9,-96.8048,-1587.2,0.436
1.4778,1.47636,0.56353,0.177465,0,7.9163e-06,0.000205717,1.12554e-15,-9,-1684,8.48636e-21,-9,-96.8048,-1587.2,0.44
1.4778,1.47636,0.563531,0.177465,0,-2.35134e-05,0.000209397,7.50358e-16,-9,-1684,-1.68044e-20,-9,-96.8048,-1587.2,0.444
1.4778,1.47636,0.563532,0.177465,0,1.31153e-05,0.000213108,5.00238e-16,-9,-1684,6.24879e-21,-9,-96.8048,-1587.2,0.448
1.4778,1.47636,0.563533,0.177465,0,-2.00474e-05,0.00021685,3.33492e-16,-9,-1684,-6.3677e-21,-9,-96.8048,-1587.2,0.452
1.4778,1.47636,0.563534,0.177465,0,1.5426e-05,0.000220623,2.22328e-16,-9,-1684,3.26654e-21,-9,-96.8048,-1587.2,0.456
1.4778,1.47636,0.563535,0.177465,0,1.0284e-05,0.000224427,1.48219e-16,-9,-1684,1.4518e-21,-9,-96.8048,-1587.2,0.46
1.4778,1.47636,0.563536,0.177465,0,6.85601e-06,0.000228262,9.88125e-17,-9,-1684,6.45242e-22,-9,-96.8048,-1587.2,0.464
1.4778,1.47636,0.563537,0.177465,0,4.57067e-06,0.000232128,6.5875e-17,-9,-1684,2.86774e-22,-9,-96.8048,-1587.2,0.468
1.4778,1.47636,0.563538,0.177465,0,3.04711e-06,0.000236026,4.39167e-17,-9,-1684,1.27455e-22,-9,-96.8048,-1587.2,0.472
1.4778,1.47636,0.563538,0.177465,0,2.03141e-06,0.000239954,2.92778e-17,-9,-1684,5.66468e-23,-9,-96.8048,-1587.2,0.476
1.4778,1.47636,0.563539,0.177465,0,-2.74367e-05,0.000243913,1.95185e-17,-9,-1684,-5.10056e-22,-9,-96.8048,-1587.2,0.48
1.4778,1.47636,0.56354,0.177465,0,1.04998e-05,0.000247903,1.30124e-17,-9,-1684,1.3013e-22,-9,-96.8048,-1587.2,0.484
1.4778,1.47636,0.563541,0.177465,0,6.99988e-06,0.000251924,8.6749e-18,-9,-1684,5.78355e-23,-9,-96.8048,-1587.2,0.488
1.4778,1.47636,0.563542,0.177465,0,4.66659e-06,0.000255975,5.78327e-18,-9,-1684,2.57047e-23,-9,-96.8048,-1587.2,0.492
1.4778,1.47636,0.563543,0.177465,0,-2.56799e-05,0.000260058,3.85551e-18,-9,-1684,-9.43006e-23,-9,-96.8048,-1587.2,0.496
1.4778,1.47636,0.563545,0.177465,0,1.1671e-05,0.000264171,2.57034e-18,-9,-1684,2.85719e-23,-9,-96.8048,-1587.2,0.5
1.4778,1.47636,0.563546,0.177465,0,7.78068e-06,0.000268314,1.71356e-18,-9,-1684,1.26986e-23,-9,-96.8048,-1587.2,0.504
1.4778,1.47636,0.563547,0.177465,0,5.18712e-06,0.000272489,1.14237e-18,-9,-1684,5.64383e-24,-9,-96.8048,-1587.2,0.508
1.4778,1.47636,0.563548,0.177465,0,3.45808e-06,0.000276694,7.61583e-19,-9,-1684,2.50837e-24,-9,-96.8048,-1587.2,0.512
1.4778,1.47636,0.563549,0.177465,0,2.30539e-06,0.00028093,5.07722e-19,-9,-1684,1.11483e-24,-9,-96.8048,-1587.2,0.516
1.4778,1.47636,0.56355,0.177465,0,1.53692e-06,0.000285196,3.38481e-19,-9,-1684,4.9548e-25,-9,-96.8048,-1587.2,0.52
1.4778,1.47636,0.563551,0.177465,0,-2.77663e-05,0.000289492,2.25654e-19,-9,-1684,-5.96762e-24,-9,-96.8048,-1587.2,0.524
1.4778,1.47636,0.563552,0.177465,0,1.02801e-05,0.000293819,1.50436e-19,-9,-1684,1.47295e-24,-9,-96.8048,-1587.2,0.528
1.4778,1.47636,0.563554,0.177465,0,6.85337e-06,0.000298177,1.00291e-19,-9,-1684,6.54643e-25,-9,-96.8048,-1587.2,0.532
1.4778,1.47636,0.563555,0.177465,0,4.56891e-06,0.000302565,6.68605e-20,-9,-1684,2.90952e-25,-9,-96.8048,-1587.2,0.536
1.4778,1.47636,0.563556,0.177465,0,-2.5745e-05,0.000306983,4.45736e-20,-9,-1684,-1.09298e-24,-9,-96.8048,-1587.2,0.54
1.4778,1.47636,0.563557,0.177465,0,-1.71633e-05,0.000311432,2.97158e-20,-9,-1684,-4.85767e-25,-9,-96.8048,-1587.2,0.544
1.4778,1.47636,0.563558,0.177465,0,1.73487e-05,0.000315911,1.98105e-20,-9,-1684,3.27343e-25,-9,-96.8048,-1587.2,0.548
1.4778,1.47636,0.56356,0.177465,0,1.15658e-05,0.00032042,1.3207e-20,-9,-1684,1.45486e-25,-9,-96.8048,-1587.2,0.552
1.4778,1.47636,0.563561,0.177465,0,7.71054e-06,0.000324959,8.80467e-21,-9,-1684,6.46602e-26,-9,-96.8048,-1587.2,0.556
1.4778,1.47636,0.563562,0.177465,0,5.14036e-06,0.000329529,5.86978e-21,-9,-1684,2.87379e-26,-9,-96.8048,-1587.2,0.56
1.4778,1.47636,0.563564,0.177465,0,-2.5364e-05,0.000334128,3.91319e-21,-9,-1684,-9.4534e-26,-9,-96.8048,-1587.2,0.564
1.4778,1.47636,0.563565,0.177465,0,1.18816e-05,0.000338758,2.60879e-21,-9,-1684,2.95225e-26,-9,-96.8048,-1587.2,0.568
1.4778,1.47636,0.563566,0.177465,0,7.92105e-06,0.000343418,1.73919e-21,-9,-1684,1.31211e-26,-9,-96.8048,-1587.2,0.572
1.4778,1.47636,0.563568,0.177465,0,5.2807e-06,0.000348108,1.15946e-21,-9,-1684,5.8316e-27,-9,-96.8048,-1587.2,0.576
1.4778,1.47636,0.563569,0.177465,0,3.52047e-06,0.000352828,7.72975e-22,-9,-1684,2.59182e-27,-9,-96.8048,-1587.2,0.58
1.4778,1.47636,0.563571,0.177465,0,-2.64439e-05,0.000357577,5.15317e-22,-9,-1684,-1.2979e-26,-9,-96.8048,-1587.2,0.584
1.4778,1.47636,0.563572,0.177465,0,1.11616e-05,0.000362357,3.43545e-22,-9,-1684,3.65216e-27,-9,-96.8048,-1587.2,0.588
1.4778,1.47636,0.563573,0.177465,0,7.44108e-06,0.000367167,2.2903e-22,-9,-1684,1.62318e-27,-9,-96.8048,-1587.2,0.592
1.4778,1.47636,0.563575,0.177465,0,-2.38302e-05,0.000372006,1.52686e-22,-9,-1684,-3.46552e-27,-9,-96.8048,-1587.2,0.596
1.4778,1.47636,0.563576,0.177465,0,-1.58868e-05,0.000376875,1.01791e-22,-9,-1684,-1.54023e-27,-9,-96.8048,-1587.2,0.6
1.4778,1.47636,0.563578,0.177465,0,1.81997e-05,0.000381774,6.78606e-23,-9,-1684,1.17631e-27,-9,-96.8048,-1587.2,0.604
1.4778,1.47636,0.563579,0.177465,0,1.21331e-05,0.000386703,4.52404e-23,-9,-1684,5.22805e-28,-9,-96.8048,-1587.2,0.608
1.4778,1.47636,0.563581,0.177465,0,8.08877e-06,0.000391662,3.01603e-23,-9,-1684,2.32358e-28,-9,-96.8048,-1587.2,0.612
1.4778,1.47636,0.563583,0.177465,0,5.39251e-06,0.00039665,2.01069e-23,-9,-1684,1.0327e-28,-9,-96.8048,-1587.2,0.616
1.4778,1.47636,0.563584,0.177465,0,3.59501e-06,0.000401667,1.34046e-23,-9,-1684,4.58978e-29,-9,-96.8048,-1587.2,0.62
1.4778,1.47636,0.563586,0.177465,0,-2.63943e-05,0.000406715,8.93638e-24,-9,-1684,-2.24652e-28,-9,-96.8048,-1587.2,0.624
1.4778,1.47636,0.563587,0.177465,0,1.11948e-05,0.000411791,5.95759e-24,-9,-1684,6.35221e-29,-9,-96.8048,-1587.2,0.628
1.4778,1.47636,0.563589,0.177465,0,7.46317e-06,0.000416898,3.97173e-24,-9,-1684,2.8232e-29,-9,-96.8048,-1587.2,0.632
1.4778,1.47636,0.563591,0.177465,0,4.97545e-06,0.000422034,2.64782e-24,-9,-1684,1.25476e-29,-9,-96.8048,-1587.2,0.636
1.4778,1.47636,0.563593,0.177465,0,-2.5474e-05,0.000427199,1.76521e-24,-9,-1684,-4.28285e-29,-9,-96.8048,-1587.2,0.64
1.4778,1.47636,0.563594,0.177465,0,1.18083e-05,0.000432394,1.17681e-24,-9,-1684,1.32352e-29,-9,-96.8048,-1587.2,0.644
1.4778,1.47636,0.563596,0.177465,0,7.87219e-06,0.000437618,7.84538e-25,-9,-1684,5.88233e-30,-9,-96.8048,-1587.2,0.648
1.4778,1.47636,0.563598,0.177465,0,5.24813e-06,0.000442871,5.23026e-25,-9,-1684,2.61437e-30,-9,-96.8048,-1587.2,0.652
1.4778,1.47636,0.5636,0.177465,0,3.49875e-06,0.000448154,3.48684e-25,-9,-1684,1.16194e-30,-9,-96.8048,-1587.2,0.656
1.4778,1.47636,0.563601,0.177465,0,2.3325e-06,0.000453466,2.32456e-25,-9,-1684,5.16418e-31,-9,-96.8048,-1587.2,0.66
1.4778,1.47636,0.563603,0.177465,0,-2.72359e-05,0.000458807,1.54971e-25,-9,-1684,-4.02004e-30,-9,-96.8048,-1587.2,0.664
1.4778,1.47636,0.563605,0.177465,0,-1.81573e-05,0.000464177,1.03314e-25,-9,-1684,-1.78669e-30,-9,-96.8048,-1587.2,0.668
1.4778,1.47636,0.563607,0.177465,0,1.66861e-05,0.000469577,6.88758e-26,-9,-1684,1.09461e-30,-9,-96.8048,-1587.2,0.672
1.4778,1.47636,0.563609,0.177465,0,1.1124e-05,0.000475005,4.59172e-26,-9,-1684,4.86494e-31,-9,-96.8048,-1587.2,0.676
1.4778,1.47636,0.563611,0.177465,0,7.41603e-06,0.000480463,3.06115e-26,-9,-1684,2.1622e-31,-9,-96.8048,-1587.2,0.68
1.4778,1.47636,0.563613,0.177465,0,4.94402e-06,0.00048595,2.04076e-26,-9,-1684,9.60976e-32,-9,-96.8048,-1587.2,0.684
1.4778,1.47636,0.563615,0.177465,0,3.29601e-06,0.000491465,1.36051e-26,-9,-1684,4.27101e-32,-9,-96.8048,-1587.2,0.688
1.4778,1.47636,0.563617,0.177465,0,2.19734e-06,0.00049701,9.07006e-27,-9,-1684,1.89822e-32,-9,-96.8048,-1587.2,0.692
1.4778,1.47636,0.563619,0.177465,0,-2.7326e-05,0.000502584,6.04671e-27,-9,-1684,-1.57375e-31,-9,-96.8048,-1587.2,0.696
1.4778,1.47636,0.563621,0.177465,0,1.05736e-05,0.000508186,4.03114e-27,-9,-1684,4.05965e-32,-9,-96.8048,-1587.2,0.7
1.4778,1.47636,0.563623,0.177465,0,7.04905e-06,0.000513818,2.68743e-27,-9,-1684,1.80429e-32,-9,-96.8048,-1587.2,0.704
1.4778,1.47636,0.563625,0.177465,0,4.69937e-06,0.000519478,1.79162e-27,-9,-1684,8.01907e-33,-9,-96.8048,-1587.2,0.708
1.4778,1.47636,0.563627,0.177465,0,3.13291e-06,0.000525167,1.19441e-27,-9,-1684,3.56403e-33,-9,-96.8048,-1587.2,0.712
1.4778,1.47636,0.563629,0.177465,0,2.08861e-06,0.000530885,7.96274e-28,-9,-1684,1.58401e-33,-9,-96.8048,-1587.2,0.716
1.4778,1.47636,0.563631,0.177465,0,1.3924e-06,0.000536631,5.3085e-28,-9,-1684,7.04006e-34,-9,-96.8048,-1587.2,0.72
1.4778,1.47636,0.563633,0.177465,0,9.2827e-07,0.000542406,3.539e-28,-9,-1684,3.12892e-34,-9,-96.8048,-1587.2,0.724
1.4778,1.47636,0.563635,0.177465,0,-5.6963e-05,0.00054821,2.35933e-28,-10,-1684,-1.28003e-32,-10,-96.8048,-1587.2,0.728
1.4778,1.47636,0.563638,0.177465,0,-3.79753e-05,0.000554043,1.57289e-28,-10,-1684,-5.68904e-33,-10,-96.8048,-1587.2,0.732
1.4778,1.47636,0.56364,0.177465,0,-2.53169e-05,0.000559904,1.04859e-28,-9,-1684,-2.52846e-33,-9,-96.8048,-1587.2,0.736
1.4778,1.47636,0.563642,0.177465,0,-1.68779e-05,0.000565793,6.99061e-29,-9,-1684,-1.12376e-33,-9,-96.8048,-1587.2,0.74
1.4778,1.47636,0.563644,0.177465,0,4.63299e-05,0.000571711,4.66041e-29,-9,-1684,2.05648e-33,-9,-96.8048,-1587.2,0.744
1.4778,1.47636,0.563647,0.177465,0,3.08866e-05,0.000577658,3.10694e-29,-9,-1684,9.13992e-34,-9,-96.8048,-1587.2,0.748
1.4778,1.47636,0.563649,0.177465,0,2.05911e-05,0.000583633,2.07129e-29,-9,-1684,4.06219e-34,-9,-96.8048,-1587.2,0.752
1.4778,1.47636,0.563651,0.177465,0,1.37274e-05,0.000589636,1.38086e-29,-9,-1684,1.80542e-34,-9,-96.8048,-1587.2,0.756
1.4778,1.47636,0.563654,0.177465,0,9.15158e-06,0.000595668,9.20574e-30,-9,-1684,8.02407e-35,-9,-96.8048,-1587.2,0.76
1.4778,1.47636,0.563656,0.177465,0,6.10106e-06,0.000601728,6.13716e-30,-9,-1684,3.56625e-35,-9,-96.8048,-1587.2,0.764
1.4778,1.47636,0.563658,0.177465,0,4.06737e-06,0.000607816,4.09144e-30,-9,-1684,1.585e-35,-9,-96.8048,-1587.2,0.768
1.4778,1.47636,0.563661,0.177465,0,2.71158e-06,0.000613932,2.72763e-30,-9,-1684,7.04445e-36,-9,-96.8048,-1587.2,0.772
1.4778,1.47636,0.563663,0.177465,0,1.80772e-06,0.000620077,1.81842e-30,-9,-1684,3.13087e-36,-9,-96.8048,-1587.2,0.776
1.4778,1.47636,0.563666,0.177465,0,-5.63767e-05,0.00062625,1.21228e-30,-10,-1684,-6.50941e-35,-10,-96.8048,-1587.2,0.78
1.4778,1.47636,0.563668,0.177465,0,4.87883e-05,0.000632451,8.08186e-31,-9,-1684,3.75549e-35,-9,-96.8048,-1587.2,0.784
1.4778,1.47636,0.563671,0.177465,0,3.73461e-06,0.00063868,5.38791e-31,-9,-1685,1.91648e-36,-9,-96.8048,-1588.2,0.788
1.4778,1.47636,0.563673,0.177465,0,2.48974e-06,0.000644937,3.59194e-31,-9,-1685,8.51771e-37,-9,-96.8048,-1588.2,0.792
1.4778,1.47636,0.563676,0.177465,0,1.65983e-06,0.000651223,2.39463e-31,-9,-1685,3.78565e-37,-9,-96.8048,-1588.2,0.796
1.4778,1.47636,0.563679,0.177465,0,1.10655e-06,0.000657536,1.59642e-31,-9,-1685,1.68251e-37,-9,-96.8048,-1588.2,0.8
1.4778,1.47636,0.563681,0.177465,0,7.37701e-07,0.000663877,1.06428e-31,-9,-1685,7.47782e-38,-9,-96.8048,-1588.2,0.804
1.4778,1.47636,0.563684,0.177465,0,4.91801e-07,0.000670246,7.09519e-32,-9,-1685,3.32348e-38,-9,-96.8048,-1588.2,0.808
1.4778,1.47636,0.563687,0.177465,0,3.27867e-07,0.000676643,4.73012e-32,-9,-1685,1.4771e-38,-9,-96.8048,-1588.2,0.812
1.4778,1.47636,0.563689,0.177465,0,2.18578e-07,0.000683068,3.15342e-32,-9,-1685,6.56489e-39,-9,-96.8048,-1588.2,0.816
1.4778,1.47636,0.563692,0.177465,0,1.45719e-07,0.000689521,2.10228e-32,-9,-1685,2.91773e-39,-9,-96.8048,-1588.2,0.82
1.4778,1.47636,0.563695,0.177465,0,9.71458e-08,0.000696001,1.40152e-32,-9,-1685,1.29677e-39,-9,-96.8048,-1588.2,0.824
1.4778,1.47636,0.563698,0.177465,0,2.88557e-05,0.000702509,9.34346e-33,-9,-1685,2.5679e-37,-9,-96.8048,-1588.2,0.828
1.4778,1.47636,0.563701,0.177465,0,1.92371e-05,0.000709045,6.22897e-33,-9,-1685,1.14129e-37,-9,-96.8048,-1588.2,0.832
1.4778,1.47636,0.563703,0.177465,0,-1.59662e-05,0.000715609,4.15265e-33,-9,-1685,-6.31488e-38,-9,-96.8048,-1588.2,0.836
1.4778,1.47636,0.563706,0.177465,0,-1.06441e-05,0.0007222,2.76843e-33,-9,-1685,-2.80662e-38,-9,-96.8048,-1588.2,0.84
1.4778,1.47636,0.563709,0.177465,0,-7.09608e-06,0.000728819,1.84562e-33,-9,-1685,-1.24738e-38,-9,-96.8048,-1588.2,0.844
1.4778,1.47636,0.563712,0.177465,0,-4.73072e-06,0.000735466,1.23041e-33,-9,-1685,-5.54393e-39,-9,-96.8048,-1588.2,0.848
1.4778,1.47636,0.563715,0.177465,0,-3.15381e-06,0.000742139,8.20276e-34,-9,-1685,-2.46397e-39,-9,-96.8048,-1588.2,0.852
1.4778,1.47636,0.563718,0.177465,0,-2.10254e-06,0.000748841,5.46851e-34,-9,-1685,-1.0951e-39,-9,-96.8048,-1588.2,0.856
1.4778,1.47636,0.563721,0.177465,0,-1.40169e-06,0.00075557,3.64567e-34,-9,-1685,-4.8671e-40,-9,-96.8048,-1588.2,0.86
1.4778,1.47636,0.563724,0.177465,0,-9.34463e-07,0.000762326,2.43045e-34,-9,-1685,-2.16316e-40,-9,-96.8048,-1588.2,0.864
1.4778,1.47636,0.563727,0.177465,0,-6.22975e-07,0.00076911,1.6203e-34,-9,-1685,-9.61403e-41,-9,-96.8048,-1588.2,0.868
1.4778,1.47636,0.56373,0.177465,0,-4.15317e-07,0.000775921,1.0802e-34,-9,-1685,-4.2729e-41,-9,-96.8048,-1588.2,0.872
1.4778,1.47636,0.563733,0.177465,0,-2.76878e-07,0.000782759,7.20132e-35,-9,-1685,-1.89907e-41,-9,-96.8048,-1588.2,0.876
1.4778,1.47636,0.563736,0.177465,0,-1.84585e-07,0.000789625,4.80088e-35,-9,-1685,-8.4403e-42,-9,-96.8048,-1588.2,0.88
1.4778,1.47636,0.56374,0.177465,0,-1.23057e-07,0.000796518,3.20059e-35,-9,-1685,-3.75124e-42,-9,-96.8048,-1588.2,0.884
1.4778,1.47636,0.563743,0.177465,0,-8.20379e-08,0.000803438,2.13373e-35,-9,-1685,-1.66722e-42,-9,-96.8048,-1588.2,0.888
1.4778,1.47636,0.563746,0.177465,0,-5.46919e-08,0.000810385,1.42248e-35,-9,-1685,-7.40986e-43,-9,-96.8048,-1588.2,0.892
1.4778,1.47636,0.563749,0.177465,0,-3.64613e-08,0.00081736,9.48323e-36,-9,-1685,-3.29327e-43,-9,-96.8048,-1588.2,0.896
1.4778,1.47636,0.563753,0.177465,0,-2.43075e-08,0.000824361,6.32215e-36,-9,-1685,-1.46368e-43,-9,-96.8048,-1588.2,0.9
1.4778,1.47636,0.563756,0.177465,0,-1.6205e-08,0.00083139,4.21477e-36,-9,-1685,-6.50523e-44,-9,-96.8048,-1588.2,0.904
1.4778,1.47636,0.563759,0.177465,0,-1.08033e-08,0.000838446,2.80984e-36,-9,-1685,-2.89121e-44,-9,-96.8048,-1588.2,0.908
1.4778,1.47636,0.563763,0.177465,0,-7.20223e-09,0.000845528,1.87323e-36,-9,-1685,-1.28498e-44,-9,-96.8048,-1588.2,0.912
1.4778,1.47636,0.563766,0.177465,0,-4.80149e-09,0.000852638,1.24882e-36,-9,-1685,-5.71104e-45,-9,-96.8048,-1588.2,0.916
1.4778,1.47636,0.563769,0.177465,0,-3.20099e-09,0.000859775,8.32547e-37,-9,-1685,-2.53824e-45,-9,-96.8048,-1588.2,0.92
1.4778,1.47636,0.563773,0.177465,0,-2.13399e-09,0.000866938,5.55031e-37,-9,-1685,-1.12811e-45,-9,-96.8048,-1588.2,0.924
1.4778,1.47636,0.563776,0.177465,0,-1.42266e-09,0.000874128,3.70021e-37,-9,-1685,-5.01381e-46,-9,-96.8048,-1588.2,0.928
1.4778,1.47636,0.56378,0.177465,0,-9.48442e-10,0.000881345,2.4668e-37,-9,-1685,-2.22836e-46,-9,-96.8048,-1588.2,0.932
1.4778,1.47636,0.563783,0.177465,0,-6.32294e-10,0.000888589,1.64454e-37,-9,-1685,-9.90381e-47,-9,-96.8048,-1588.2,0.936
1.4778,1.47636,0.563787,0.177465,0,-4.2153e-10,0.00089586,1.09636e-37,-9,-1685,-4.4017e-47,-9,-96.8048,-1588.2,0.94
1.4778,1.47636,0.563791,0.177465,0,-5.75821e-05,0.000903157,7.30905e-38,-10,-1685,-4.00856e-42,-10,-96.8048,-1588.2,0.944
1.4778,1.47636,0.563794,0.177465,0,1.91938e-05,0.000910482,4.8727e-38,-9,-1685,8.90778e-43,-9,-96.8048,-1588.2,0.948
1.4778,1.47636,0.563798,0.177465,0,1.27958e-05,0.000917832,3.24847e-38,-9,-1685,3.95901e-43,-9,-96.8048,-1588.2,0.952
1.4778,1.47636,0.563802,0.177465,0,8.53056e-06,0.00092521,2.16564e-38,-9,-1685,1.75956e-43,-9,-96.8048,-1588.2,0.956
1.4778,1.47636,0.563805,0.177465,0,5.68704e-06,0.000932613,1.44376e-38,-9,-1685,7.82027e-44,-9,-96.8048,-1588.2,0.96
1.4778,1.47636,0.563809,0.177465,0,3.79136e-06,0.000940044,9.62509e-39,-9,-1685,3.47568e-44,-9,-96.8048,-1588.2,0.964
1.4778,1.47636,0.563813,0.177465,0,3.13185e-05,0.000947501,6.41673e-39,-9,-1685,1.91405e-43,-9,-96.8048,-1588.2,0.968
1.4778,1.47636,0.563817,0.177465,0,2.0879e-05,0.000954984,4.27782e-39,-9,-1685,8.5069e-44,-9,-96.8048,-1588.2,0.972
1.4778,1.47636,0.56382,0.177465,0,-1.48716e-05,0.000962494,2.85188e-39,-9,-1685,-4.0395e-44,-9,-96.8048,-1588.2,0.976
1.4778,1.47636,0.563824,0.177465,0,1.88765e-05,0.00097003,1.90125e-39,-9,-1685,3.41823e-44,-9,-96.8048,-1588.2,0.98
1.4778,1.47636,0.563828,0.177465,0,-1.62066e-05,0.000977593,1.2675e-39,-9,-1685,-1.9565e-44,-9,-96.8048,-1588.2,0.984
1.4778,1.47636,0.563832,0.177465,0,-1.08044e-05,0.000985182,8.45001e-40,-9,-1685,-8.69554e-45,-9,-96.8048,-1588.2,0.988
1.4778,1.47636,0.563836,0.177465,0,2.1588e-05,0.000992797,5.63334e-40,-9,-1685,1.15829e-44,-9,-96.8048,-1588.2,0.992
1.4778,1.47636,0.56384,0.177465,0,-1.43989e-05,0.00100044,3.75556e-40,-9,-1686,-5.15044e-45,-9,-96.8048,-1589.2,0.996
1.4778,1.47636,0.563844,0.177465,0,-6.71811e-05,0.00100811,2.50371e-40,-10,-1686,-1.60203e-44,-10,-96.8048,-1589.2,1
1.4778,1.47636,0.563848,0.177465,0,1.27944e-05,0.0010158,1.66914e-40,-9,-1686,2.03401e-45,-9,-96.8048,-1589.2,1.004
1.4778,1.47636,0.563852,0.177465,0,8.52962e-06,0.00102352,1.11276e-40,-9,-1686,9.04003e-46,-9,-96.8048,-1589.2,1.008
1.4778,1.47636,0.563856,0.177466,0,5.68641e-06,0.00103127,5.75818e-05,-9,-1686,3.11864e-10,-9,-96.8048,-1589.2,1.012
1.4778,1.47636,0.56386,0.177465,0,3.79094e-06,0.00103904,-1.91939e-05,-9,-1686,-6.93028e-11,-9,-96.8048,-1589.2,1.016
1.4778,1.47636,0.563865,0.177465,0,2.52729e-06,0.00104684,-1.2796e-05,-9,-1686,-3.08013e-11,-9,-96.8048,-1589.2,1.02
1.4778,1.47636,0.563869,0.177465,0,1.68486e-06,0.00105466,-8.53064e-06,-9,-1686,-1.36895e-11,-9,-96.8048,-1589.2,1.024
1.4778,1.47636,0.563873,0.177465,0,1.12324e-06,0.00106251,-5.6871e-06,-9,-1686,-6.0842e-12,-9,-96.8048,-1589.2,1.028
1.4778,1.47636,0.563877,0.177465,0,7.48828e-07,0.00107039,-3.7914e-06,-9,-1686,-2.70409e-12,-9,-96.8048,-1589.2,1.032
1.4778,1.47636,0.563882,0.177465,0,4.99219e-07,0.00107829,-2.5276e-06,-9,-1686,-1.20182e-12,-9,-96.8048,-1589.2,1.036
1.4778,1.47636,0.563886,0.177465,0,3.32812e-07,0.00108622,-1.68507e-06,-9,-1686,-5.34141e-13,-9,-96.8048,-1589.2,1.04
1.4778,1.47636,0.56389,0.177465,0,2.21875e-07,0.00109417,-1.12338e-06,-9,-1686,-2.37396e-13,-9,-96.8048,-1589.2,1.044
1.4778,1.47636,0.563895,0.177465,0,1.47917e-07,0.00110215,-7.48918e-07,-9,-1686,-1.05509e-13,-9,-96.8048,-1589.2,1.048
1.4778,1.47636,0.563899,0.177465,0,9.86111e-08,0.00111016,-4.99279e-07,-9,-1686,-4.6893e-14,-9,-96.8048,-1589.2,1.052
1.4778,1.47636,0.563904,0.177465,0,6.57407e-08,0.00111819,-3.32852e-07,-9,-1686,-2.08414e-14,-9,-96.8048,-1589.2,1.056
1.4778,1.47636,0.563908,0.177465,0,4.38272e-08,0.00112624,-2.21902e-07,-9,-1686,-9.26282e-15,-9,-96.8048,-1589.2,1.06
1.4778,1.47636,0.563913,0.177465,0,2.92181e-08,0.00113433,-1.47934e-07,-9,-1686,-4.11681e-15,-9,-96.8048,-1589.2,1.064
1.4778,1.47636,0.563917,0.177465,0,1.94787e-08,0.00114244,-9.86229e-08,-9,-1686,-1.82969e-15,-9,-96.8048,-1589.2,1.068
1.4778,1.47636,0.563922,0.177465,0,1.29858e-08,0.00115057,-6.57486e-08,-9,-1686,-8.13197e-16,-9,-96.8048,-1589.2,1.072
1.4778,1.47636,0.563926,0.177465,0,8.65722e-09,0.00115873,-4.38324e-08,-9,-1686,-3.61421e-16,-9,-96.8048,-1589.2,1.076
1.4778,1.47636,0.563931,0.177465,0,5.77148e-09,0.00116691,-2.92216e-08,-9,-1686,-1.60632e-16,-9,-96.8048,-1589.2,1.08
1.4778,1.47636,0.563936,0.177465,0,3.84765e-09,0.00117512,-1.94811e-08,-9,-1686,-7.13918e-17,-9,-96.8048,-1589.2,1.084
1.4778,1.47636,0.56394,0.177465,0,2.5651e-09,0.00118336,-1.29874e-08,-9,-1686,-3.17297e-17,-9,-96.8048,-1589.2,1.088
1.4778,1.47636,0.563945,0.177465,0,1.71007e-09,0.00119162,-8.65826e-09,-9,-1686,-1.41021e-17,-9,-96.8048,-1589.2,1.092
1.4778,1.47636,0.56395,0.177465,0,1.14004e-09,0.00119991,-5.77217e-09,-9,-1686,-6.26759e-18,-9,-96.8048,-1589.2,1.096
1.4778,1.47636,0.563955,0.177465,0,7.6003e-10,0.00120822,-3.84811e-09,-9,-1686,-2.7856e-18,-9,-96.8048,-1589.2,1.1
1.4778,1.47636,0.56396,0.177465,0,5.06687e-10,0.00121656,-2.56541e-09,-9,-1686,-1.23804e-18,-9,-96.8048,-1589.2,1.104
1.4778,1.47636,0.563965,0.177465,0,3.37791e-10,0.00122492,-1.71027e-09,-9,-1686,-5.50241e-19,-9,-96.8048,-1589.2,1.108
1.4778,1.47636,0.563969,0.177465,0,2.25194e-10,0.00123331,-1.14018e-09,-9,-1686,-2.44552e-19,-9,-96.8048,-1589.2,1.112
1.4778,1.47636,0.563974,0.177465,0,1.50129e-10,0.00124172,-7.60121e-10,-9,-1686,-1.0869e-19,-9,-96.8048,-1589.2,1.116
1.4778,1.47636,0.563979,0.177465,0,1.00086e-10,0.00125016,-5.06748e-10,-9,-1686,-4.83065e-20,-9,-96.8048,-1589.2,1.12
1.4778,1.47636,0.563984,0.177465,0,6.67242e-11,0.00125862,-3.37832e-10,-9,-1686,-2.14696e-20,-9,-96.8048,-1589.2,1.124
1.4778,1.47636,0.563989,0.177465,0,4.44828e-11,0.00126711,-2.25221e-10,-9,-1686,-9.54203e-21,-9,-96.8048,-1589.2,1.128
1.4778,1.47636,0.563995,0.177465,0,2.96552e-11,0.00127562,-1.50147e-10,-9,-1686,-4.2409e-21,-9,-96.8048,-1589.2,1.132
1.4778,1.47636,0.564,0.177465,0,1.97701e-11,0.00128416,-1.00098e-10,-9,-1686,-1.88484e-21,-9,-96.8048,-1589.2,1.136
1.4778,1.47636,0.564005,0.177465,0,1.31801e-11,0.00129272,-6.67322e-11,-9,-1686,-8.37709e-22,-9,-96.8048,-1589.2,1.14
1.4778,1.47636,0.56401,0.177465,0,8.78672e-12,0.00130131,-4.44881e-11,-9,-1686,-3.72315e-22,-9,-96.8048,-1589.2,1.144
1.4778,1.47636,0.564015,0.177465,0,5.85781e-12,0.00130993,-2.96587e-11,-9,-1686,-1.65473e-22,-9,-96.8048,-1589.2,1.148
1.4778,1.47636,0.56402,0.177465,0,3.90521e-12,0.00131856,-1.97725e-11,-9,-1687,-7.35437e-23,-9,-96.8048,-1590.2,1.152
1.4778,1.47636,0.564026,0.177465,0,2.60347e-12,0.00132723,-1.31817e-11,-9,-1687,-3.26861e-23,-9,-96.8048,-1590.2,1.156
1.4778,1.47636,0.564031,0.177465,0,1.73565e-12,0.00133592,-8.78778e-12,-9,-1687,-1.45271e-23,-9,-96.8048,-1590.2,1.16
1.4778,1.47636,0.564036,0.177465,0,1.1571e-12,0.00134463,-5.85852e-12,-9,-1687,-6.45651e-24,-9,-96.8048,-1590.2,1.164
1.4778,1.47636,0.564042,0.177465,0,7.71399e-13,0.00135337,-3.90568e-12,-9,-1687,-2.86956e-24,-9,-96.8048,-1590.2,1.168
1.4778,1.47636,0.564047,0.177465,0,5.14266e-13,0.00136213,-2.60379e-12,-9,-1687,-1.27536e-24,-9,-96.8048,-1590.2,1.172
1.4778,1.47636,0.564053,0.177465,0,3.42844e-13,0.00137092,-1.73586e-12,-9,-1687,-5.66827e-25,-9,-96.8048,-1590.2,1.176
1.4778,1.47636,0.564058,0.177465,0,2.28563e-13,0.00137973,-1.15724e-12,-9,-1687,-2.51923e-25,-9,-96.8048,-1590.2,1.18
1.4778,1.47636,0.564064,0.177465,0,1.52375e-13,0.00138856,-7.71492e-13,-9,-1687,-1.11966e-25,-9,-96.8048,-1590.2,1.184
1.4778,1.47636,0.564069,0.177465,0,1.01583e-13,0.00139742,-5.14328e-13,-9,-1687,-4.97626e-26,-9,-96.8048,-1590.2,1.188
1.4778,1.47636,0.564075,0.177465,0,6.77223e-14,0.00140631,-3.42885e-13,-9,-1687,-2.21167e-26,-9,-96.8048,-1590.2,1.192
1.4778,1.47636,0.564081,0.177465,0,4.51482e-14,0.00141522,-2.2859e-13,-9,-1687,-9.82964e-27,-9,-96.8048,-1590.2,1.196
1.4778,1.47636,0.564086,0.177465,0,3.00988e-14,0.00142415,-1.52393e-13,-9,-1687,-4.36873e-27,-9,-96.8048,-1590.2,1.2
1.4778,1.47636,0.564092,0.177465,0,2.00659e-14,0.00143311,-1.01596e-13,-9,-1687,-1.94166e-27,-9,-96.8048,-1590.2,1.204
1.4778,1.47636,0.564098,0.177465,0,1.33772e-14,0.0014421,-6.77304e-14,-9,-1687,-8.62959e-28,-9,-96.8048,-1590.2,1.208
1.4778,1.47636,0.564104,0.177465,0,8.91816e-15,0.0014511,-4.51536e-14,-9,-1687,-3.83537e-28,-9,-96.8048,-1590.2,1.212
1.4778,1.47636,0.564109,0.177465,0,5.94544e-15,0.00146014,-3.01024e-14,-9,-1687,-1.70461e-28,-9,-96.8048,-1590.2,1.216
1.4778,1.47636,0.564115,0.177465,0,3.96363e-15,0.00146919,-2.00683e-14,-9,-1687,-7.57605e-29,-9,-96.8048,-1590.2,1.22
1.4778,1.47636,0.564121,0.177465,0,2.64242e-15,0.00147827,-1.33789e-14,-9,-1687,-3.36713e-29,-9,-96.8048,-1590.2,1.224
1.4778,1.47636,0.564127,0.177465,0,1.76161e-15,0.00148738,-8.91924e-15,-9,-1687,-1.4965e-29,-9,-96.8048,-1590.2,1.228
1.4778,1.47636,0.564133,0.177465,0,1.17441e-15,0.00149651,-5.94616e-15,-9,-1687,-6.65112e-30,-9,-96.8048,-1590.2,1.232
1.4778,1.47636,0.564139,0.177465,0,7.82939e-16,0.00150566,-3.9641e-15,-9,-1687,-2.95606e-30,-9,-96.8048,-1590.2,1.236
1.4778,1.47636,0.564145,0.177465,0,5.21959e-16,0.00151484,-2.64274e-15,-9,-1687,-1.3138e-30,-9,-96.8048,-1590.2,1.24
1.4778,1.47636,0.564151,0.177465,0,3.47973e-16,0.00152404,-1.76182e-15,-9,-1687,-5.83912e-31,-9,-96.8048,-1590.2,1.244
1.4778,1.47636,0.564157,0.177465,0,2.31982e-16,0.00153326,-1.17455e-15,-9,-1687,-2.59517e-31,-9,-96.8048,-1590.2,1.248
1.4778,1.47636,0.564163,0.177465,0,1.54655e-16,0.00154251,-7.83033e-16,-9,-1687,-1.15341e-31,-9,-96.8048,-1590.2,1.252
1.4778,1.47636,0.56417,0.177465,0,1.03103e-16,0.00155179,-5.22022e-16,-9,-1687,-5.12625e-32,-9,-96.8048,-1590.2,1.256
1.4778,1.47636,0.564176,0.177465,0,6.87354e-17,0.00156108,-3.48015e-16,-9,-1687,-2.27833e-32,-9,-96.8048,-1590.2,1.26
1.4778,1.47636,0.564182,0.177465,0,4.58236e-17,0.00157041,-2.3201e-16,-9,-1687,-1.01259e-32,-9,-96.8048,-1590.2,1.264
1.4778,1.47636,0.564188,0.177465,0,3.05491e-17,0.00157975,-1.54673e-16,-9,-1687,-4.50041e-33,-9,-96.8048,-1590.2,1.268
1.4778,1.47636,0.564195,0.177465,0,2.0366e-17,0.00158912,-1.03115e-16,-9,-1687,-2.00018e-33,-9,-96.8048,-1590.2,1.272
1.4778,1.47636,0.564201,0.177465,0,1.35774e-17,0.00159851,-6.87436e-17,-9,-1687,-8.88971e-34,-9,-96.8048,-1590.2,1.276
1.4778,1.47636,0.564208,0.177465,0,9.05157e-18,0.00160793,-4.58291e-17,-9,-1688,-3.95098e-34,-9,-96.8048,-1591.2,1.28
1.4778,1.47636,0.564214,0.177465,0,6.03438e-18,0.00161737,-3.05527e-17,-9,-1688,-1.75599e-34,-9,-96.8048,-1591.2,1.284
1.4778,1.47636,0.56422,0.177465,0,4.02292e-18,0.00162684,-2.03685e-17,-9,-1688,-7.80441e-35,-9,-96.8048,-1591.2,1.288
1.4778,1.47636,0.564227,0.177465,0,2.68195e-18,0.00163632,-1.3579e-17,-9,-1688,-3.46862e-35,-9,-96.8048,-1591.2,1.292
1.4778,1.47636,0.564234,0.177465,0,1.78796e-18,0.00164583,-9.05266e-18,-9,-1688,-1.54161e-35,-9,-96.8048,-1591.2,1.296
1.4778,1.47636,0.56424,0.177465,0,1.19198e-18,0.00165537,-6.03511e-18,-9,-1688,-6.8516e-36,-9,-96.8048,-1591.2,1.3
1.4778,1.47636,0.564247,0.177465,0,7.94651e-19,0.00166493,-4.0234e-18,-9,-1688,-3.04516e-36,-9,-96.8048,-1591.2,1.304
1.4778,1.47636,0.564253,0.177465,0,5.29767e-19,0.00167451,-2.68227e-18,-9,-1688,-1.3534e-36,-9,-96.8048,-1591.2,1.308
1.4778,1.47636,0.56426,0.177465,0,3.53178e-19,0.00168412,-1.78818e-18,-9,-1688,-6.01513e-37,-9,-96.8048,-1591.2,1.312
1.4778,1.47636,0.564267,0.177465,0,2.35452e-19,0.00169375,-1.19212e-18,-9,-1688,-2.67339e-37,-9,-96.8048,-1591.2,1.316
1.4778,1.47636,0.564274,0.177465,0,1.56968e-19,0.0017034,-7.94747e-19,-9,-1688,-1.18817e-37,-9,-96.8048,-1591.2,1.32
1.4778,1.47636,0.564281,0.177465,0,1.04645e-19,0.00171308,-5.29831e-19,-9,-1688,-5.28077e-38,-9,-96.8048,-1591.2,1.324
1.4778,1.47636,0.564287,0.177465,0,6.97636e-20,0.00172278,-3.53221e-19,-9,-1688,-2.34701e-38,-9,-96.8048,-1591.2,1.328
1.4778,1.47636,0.564294,0.177465,0,4.65091e-20,0.0017325,-2.3548e-19,-9,-1688,-1.04311e-38,-9,-96.8048,-1591.2,1.332
1.4778,1.47636,0.564301,0.177465,0,3.1006e-20,0.00174225,-1.56987e-19,-9,-1688,-4.63607e-39,-9,-96.8048,-1591.2,1.336
1.4778,1.47636,0.564308,0.177465,0,2.06707e-20,0.00175202,-1.04658e-19,-9,-1688,-2.06047e-39,-9,-96.8048,-1591.2,1.34
1.4778,1.47636,0.564315,0.177465,0,1.37805e-20,0.00176181,-6.9772e-20,-9,-1688,-9.15766e-40,-9,-96.8048,-1591.2,1.344
1.4778,1.47636,0.564322,0.177465,0,9.18698e-21,0.00177162,-4.65147e-20,-9,-1688,-4.07007e-40,-9,-96.8048,-1591.2,1.348
1.4778,1.47636,0.564329,0.177465,0,6.12465e-21,0.00178146,-3.10098e-20,-9,-1688,-1.80892e-40,-9,-96.8048,-1591.2,1.352
1.4778,1.47636,0.564337,0.177465,0,4.0831e-21,0.00179133,-2.06732e-20,-9,-1688,-8.03965e-41,-9,-96.8048,-1591.2,1.356
1.4778,1.47636,0.564344,0.177465,0,2.72207e-21,0.00180121,-1.37821e-20,-9,-1688,-3.57318e-41,-9,-96.8048,-1591.2,1.36
1.4778,1.47636,0.564351,0.177465,0,1.81471e-21,0.00181112,-9.18808e-21,-9,-1688,-1.58808e-41,-9,-96.8048,-1591.2,1.364
1.4778,1.47636,0.564358,0.177465,0,1.20981e-21,0.00182105,-6.12539e-21,-9,-1688,-7.05813e-42,-9,-96.8048,-1591.2,1.368
1.4778,1.47636,0.564366,0.177465,0,8.06538e-22,0.00183101,-4.08359e-21,-9,-1688,-3.13695e-42,-9,-96.8048,-1591.2,1.372
1.4778,1.47636,0.564373,0.177465,0,5.37692e-22,0.00184099,-2.72239e-21,-9,-1688,-1.3942e-42,-9,-96.8048,-1591.2,1.376
1.4778,1.47636,0.56438,0.177465,0,3.58462e-22,0.00185099,-1.81493e-21,-9,-1688,-6.19644e-43,-9,-96.8048,-1591.2,1.38
1.4778,1.47636,0.564388,0.177465,0,2.38974e-22,0.00186101,-1.20995e-21,-9,-1688,-2.75397e-43,-9,-96.8048,-1591.2,1.384
1.4778,1.47636,0.564395,0.177465,0,1.59316e-22,0.00187106,-8.06635e-22,-9,-1689,-1.22399e-43,-9,-96.8048,-1592.2,1.388
1.4778,1.47636,0.564403,0.177465,0,1.06211e-22,0.00188113,-5.37757e-22,-9,-1689,-5.43994e-44,-9,-96.8048,-1592.2,1.392
1.4778,1.47636,0.56441,0.177465,0,7.08072e-23,0.00189122,-3.58505e-22,-9,-1689,-2.41775e-44,-9,-96.8048,-1592.2,1.396
1.4778,1.47636,0.564418,0.177465,0,4.72048e-23,0.00190133,-2.39003e-22,-9,-1689,-1.07456e-44,-9,-96.8048,-1592.2,1.4
1.4778,1.47636,0.564425,0.177465,0,3.14699e-23,0.00191147,-1.59335e-22,-9,-1689,-4.77581e-45,-9,-96.8048,-1592.2,1.404
1.4778,1.47636,0.564433,0.177465,0,2.09799e-23,0.00192163,-1.06224e-22,-9,-1689,-2.12258e-45,-9,-96.8048,-1592.2,1.408
1.4778,1.47636,0.564441,0.177465,0,1.39866e-23,0.00193181,-7.08157e-23,-9,-1689,-9.43369e-46,-9,-96.8048,-1592.2,1.412
1.4778,1.47636,0.564449,0.177465,0,9.32441e-24,0.00194202,-4.72105e-23,-9,-1689,-4.19275e-46,-9,-96.8048,-1592.2,1.416
1.4778,1.47636,0.564456,0.177465,0,6.21627e-24,0.00195225,-3.14737e-23,-9,-1689,-1.86345e-46,-9,-96.8048,-1592.2,1.42
1.4778,1.47636,0.564464,0.177465,0,4.14418e-24,0.0019625,-2.09824e-23,-9,-1689,-8.28198e-47,-9,-96.8048,-1592.2,1.424
1.4778,1.47636,0.564472,0.177465,0,2.76279e-24,0.00197277,-1.39883e-23,-9,-1689,-3.68088e-47,-9,-96.8048,-1592.2,1.428
1.4778,1.47636,0.56448,0.177465,0,1.84186e-24,0.00198307,-9.32553e-24,-9,-1689,-1.63595e-47,-9,-96.8048,-1592.2,1.432
1.4778,1.47636,0.564488,0.177465,0,1.22791e-24,0.00199339,-6.21702e-24,-9,-1689,-7.27087e-48,-9,-96.8048,-1592.2,1.436
1.4778,1.47636,0.564496,0.177465,0,8.18604e-25,0.00200373,-4.14468e-24,-9,-1689,-3.2315e-48,-9,-96.8048,-1592.2,1.44
1.4778,1.47636,0.564504,0.177465,0,5.45736e-25,0.00201409,-2.76312e-24,-9,-1689,-1.43622e-48,-9,-96.8048,-1592.2,1.444
1.4778,1.47636,0.564512,0.177465,0,3.63824e-25,0.00202448,-1.84208e-24,-9,-1689,-6.38321e-49,-9,-96.8048,-1592.2,1.448
1.4778,1.47636,0.56452,0.177465,0,2.42549e-25,0.00203489,-1.22805e-24,-9,-1689,-2.83698e-49,-9,-96.8048,-1592.2,1.452
1.4778,1.47636,0.564528,0.177465,0,1.61699e-25,0.00204532,-8.18702e-25,-9,-1689,-1.26088e-49,-9,-96.8048,-1592.2,1.456
1.4778,1.47636,0.564537,0.177465,0,1.078e-25,0.00205577,-5.45801e-25,-9,-1689,-5.60392e-50,-9,-96.8048,-1592.2,1.46
1.4778,1.47636,0.564545,0.177465,0,7.18664e-26,0.00206624,-3.63868e-25,-9,-1689,-2.49063e-50,-9,-96.8048,-1592.2,1.464
1.4778,1.47636,0.564553,0.177465,0,4.7911e-26,0.00207674,-2.42578e-25,-9,-1689,-1.10695e-50,-9,-96.8048,-1592.2,1.468
1.4778,1.47636,0.564561,0.177465,0,3.19406e-26,0.00208726,-1.61719e-25,-9,-1689,-4.91976e-51,-9,-96.8048,-1592.2,1.472
1.4778,1.47636,0.56457,0.177465,0,2.12938e-26,0.0020978,-1.07813e-25,-9,-1689,-2.18656e-51,-9,-96.8048,-1592.2,1.476
1.4778,1.47636,0.564578,0.177465,0,1.41958e-26,0.00210837,-7.18751e-26,-9,-1689,-9.71805e-52,-9,-96.8048,-1592.2,1.48
1.4778,1.47636,0.564587,0.177465,0,9.46389e-27,0.00211895,-4.79167e-26,-9,-1689,-4.31913e-52,-9,-96.8048,-1592.2,1.484
1.4778,1.47636,0.564595,0.177465,0,6.30926e-27,0.00212956,-3.19445e-26,-9,-1690,-1.91961e-52,-9,-96.8048,-1593.2,1.488
1.4778,1.47636,0.564604,0.177465,0,4.20617e-27,0.00214019,-2.12963e-26,-9,-1690,-8.53162e-53,-9,-96.8048,-1593.2,1.492
1.4778,1.47636,0.564612,0.177465,0,2.80412e-27,0.00215084,-1.41975e-26,-9,-1690,-3.79183e-53,-9,-96.8048,-1593.2,1.496
1.4778,1.47636,0.564621,0.177465,0,1.86941e-27,0.00216151,-9.46503e-27,-9,-1690,-1.68526e-53,-9,-96.8048,-1593.2,1.5
1.4778,1.47636,0.56463,0.177465,0,1.24627e-27,0.00217221,-6.31002e-27,-9,-1690,-7.49004e-54,-9,-96.8048,-1593.2,1.504
1.4778,1.47636,0.564638,0.177465,0,8.30849e-28,0.00218293,-4.20668e-27,-9,-1690,-3.3289e-54,-9,-96.8048,-1593.2,1.508
1.4778,1.47636,0.564647,0.177465,0,5.539e-28,0.00219367,-2.80445e-27,-9,-1690,-1.47951e-54,-9,-96.8048,-1593.2,1.512
1.4778,1.47636,0.564656,0.177465,0,3.69266e-28,0.00220443,-1.86964e-27,-9,-1690,-6.57561e-55,-9,-96.8048,-1593.2,1.516
1.4778,1.47636,0.564665,0.177465,0,2.46178e-28,0.00221521,-1.24642e-27,-9,-1690,-2.9225e-55,-9,-96.8048,-1593.2,1.52
1.4778,1.47636,0.564674,0.177465,0,1.64118e-28,0.00222601,-8.30949e-28,-9,-1690,-1.29889e-55,-9,-96.8048,-1593.2,1.524
1.4778,1.47636,0.564682,0.177465,0,1.09412e-28,0.00223684,-5.53966e-28,-9,-1690,-5.77283e-56,-9,-96.8048,-1593.2,1.528
1.4778,1.47636,0.564691,0.177465,0,7.29415e-29,0.00224769,-3.69311e-28,-9,-1690,-2.5657e-56,-9,-96.8048,-1593.2,1.532
1.4778,1.47636,0.5647,0.177465,0,4.86277e-29,0.00225856,-2.46207e-28,-9,-1690,-1.14031e-56,-9,-96.8048,-1593.2,1.536
1.4778,1.47636,0.564709,0.177465,0,3.24184e-29,0.00226945,-1.64138e-28,-9,-1690,-5.06805e-57,-9,-96.8048,-1593.2,1.54
1.4778,1.47636,0.564719,0.177465,0,2.16123e-29,0.00228036,-1.09425e-28,-9,-1690,-2.25247e-57,-9,-96.8048,-1593.2,1.544
1.4778,1.47636,0.564728,0.177465,0,1.44082e-29,0.0022913,-7.29503e-29,-9,-1690,-1.0011e-57,-9,-96.8048,-1593.2,1.548
1.4778,1.47636,0.564737,0.177465,0,9.60547e-30,0.00230225,-4.86335e-29,-9,-1690,-4.44932e-58,-9,-96.8048,-1593.2,1.552
1.4778,1.47636,0.564746,0.177465,0,6.40364e-30,0.00231323,-3.24223e-29,-9,-1690,-1.97748e-58,-9,-96.8048,-1593.2,1.556
1.4778,1.47636,0.564755,0.177465,0,4.2691e-30,0.00232423,-2.16149e-29,-9,-1690,-8.78878e-59,-9,-96.8048,-1593.2,1.56
1.4778,1.47636,0.564765,0.177465,0,2.84606e-30,0.00233525,-1.44099e-29,-9,-1690,-3.90612e-59,-9,-96.8048,-1593.2,1.564
1.4778,1.47636,0.564774,0.177465,0,1.89738e-30,0.00234629,-9.60662e-30,-9,-1690,-1.73606e-59,-9,-96.8048,-1593.2,1.568
1.4778,1.47636,0.564784,0.177465,0,1.26492e-30,0.00235735,-6.40441e-30,-9,-1691,-7.7158e-60,-9,-96.8048,-1594.2,1.572
1.4778,1.47636,0.564793,0.177465,0,8.43278e-31,0.00236844,-4.26961e-30,-9,-1691,-3.42925e-60,-9,-96.8048,-1594.2,1.576
1.4778,1.47636,0.564802,0.177465,0,5.62185e-31,0.00237954,-2.84641e-30,-9,-1691,-1.52411e-60,-9,-96.8048,-1594.2,1.58
1.4778,1.47636,0.564812,0.177465,0,3.7479e-31,0.00239067,-1.8976e-30,-9,-1691,-6.77382e-61,-9,-96.8048,-1594.2,1.584
1.4778,1.47636,0.564822,0.177465,0,2.4986e-31,0.00240182,-1.26507e-30,-9,-1691,-3.01059e-61,-9,-96.8048,-1594.2,1.588
1.4778,1.47636,0.564831,0.177465,0,1.66573e-31,0.00241299,-8.4338e-31,-9,-1691,-1.33804e-61,-9,-96.8048,-1594.2,1.592
1.4778,1.47636,0.564841,0.177465,0,-2.87909e-05,0.00242418,-5.62253e-31,-9,-1691,1.5418e-35,-9,-96.8048,-1594.2,1.596
1.4778,1.47636,0.564851,0.177465,0,9.59697e-06,0.00243539,-3.74835e-31,-9,-1691,-3.42621e-36,-9,-96.8048,-1594.2,1.6
1.4778,1.47636,0.56486,0.177465,0,6.39798e-06,0.00244662,-2.4989e-31,-9,-1691,-1.52276e-36,-9,-96.8048,-1594.2,1.604
1.4778,1.47636,0.56487,0.177465,0,4.26532e-06,0.00245787,-1.66593e-31,-9,-1691,-6.76783e-37,-9,-96.8048,-1594.2,1.608
1.4778,1.47636,0.56488,0.177465,0,2.84355e-06,0.00246915,-1.11062e-31,-9,-1691,-3.00792e-37,-9,-96.8048,-1594.2,1.612
1.4778,1.47636,0.56489,0.177465,0,1.8957e-06,0.00248044,-7.40415e-32,-9,-1691,-1.33686e-37,-9,-96.8048,-1594.2,1.616
1.4778,1.47636,0.5649,0.177465,0,1.2638e-06,0.00249176,-4.9361e-32,-9,-1691,-5.94158e-38,-9,-96.8048,-1594.2,1.62
1.4778,1.47636,0.56491,0.177465,0,8.42533e-07,0.0025031,-3.29074e-32,-9,-1691,-2.6407e-38,-9,-96.8048,-1594.2,1.624
1.4778,1.47636,0.56492,0.177465,0,5.61689e-07,0.00251446,-2.19382e-32,-9,-1691,-1.17365e-38,-9,-96.8048,-1594.2,1.628
1.4778,1.47636,0.56493,0.177465,0,3.74459e-07,0.00252583,-1.46255e-32,-9,-1691,-5.2162e-39,-9,-96.8048,-1594.2,1.632
1.4778,1.47636,0.56494,0.177465,0,2.49639e-07,0.00253723,-9.75033e-33,-9,-1691,-2.31831e-39,-9,-96.8048,-1594.2,1.636
1.4778,1.47636,0.56495,0.177465,0,1.66426e-07,0.00254865,-6.50022e-33,-9,-1691,-1.03036e-39,-9,-96.8048,-1594.2,1.64
1.4778,1.47636,0.56496,0.177465,0,1.10951e-07,0.0025601,-4.33348e-33,-9,-1691,-4.57938e-40,-9,-96.8048,-1594.2,1.644
1.4778,1.47636,0.564971,0.177465,0,7.39672e-08,0.00257156,-2.88899e-33,-9,-1691,-2.03528e-40,-9,-96.8048,-1594.2,1.648
1.4778,1.47636,0.564981,0.177465,0,4.93115e-08,0.00258304,-1.92599e-33,-9,-1692,-9.04569e-41,-9,-96.8048,-1595.2,1.652
1.4778,1.47636,0.564991,0.177465,0,3.28743e-08,0.00259454,-1.28399e-33,-9,-1692,-4.02031e-41,-9,-96.8048,-1595.2,1.656
1.4778,1.47636,0.565002,0.177465,0,2.19162e-08,0.00260607,-8.55996e-34,-9,-1692,-1.7868e-41,-9,-96.8048,-1595.2,1.66
1.4778,1.47636,0.565012,0.177465,0,1.46108e-08,0.00261761,-5.70664e-34,-9,-1692,-7.94135e-42,-9,-96.8048,-1595.2,1.664
1.4778,1.47636,0.565023,0.177465,0,9.74054e-09,0.00262918,-3.80443e-34,-9,-1692,-3.52949e-42,-9,-96.8048,-1595.2,1.668
1.4778,1.47636,0.565033,0.177465,0,6.49369e-09,0.00264076,-2.53628e-34,-9,-1692,-1.56866e-42,-9,-96.8048,-1595.2,1.672
1.4778,1.47636,0.565044,0.177465,0,4.32913e-09,0.00265237,-1.69086e-34,-9,-1692,-6.97183e-43,-9,-96.8048,-1595.2,1.676
1.4778,1.47636,0.565055,0.177465,0,2.88609e-09,0.002664,-1.12724e-34,-9,-1692,-3.09859e-43,-9,-96.8048,-1595.2,1.68
1.4778,1.47636,0.565065,0.177465,0,1.92406e-09,0.00267564,-7.51492e-35,-9,-1692,-1.37715e-43,-9,-96.8048,-1595.2,1.684
1.4778,1.47636,0.565076,0.177465,0,1.2827e-09,0.00268731,-5.00994e-35,-9,-1692,-6.12067e-44,-9,-96.8048,-1595.2,1.688
1.4778,1.47636,0.565087,0.177465,0,8.55136e-10,0.002699,-3.33996e-35,-9,-1692,-2.7203e-44,-9,-96.8048,-1595.2,1.692
1.4778,1.47636,0.565098,0.177465,0,5.70091e-10,0.00271071,-2.22664e-35,-9,-1692,-1.20902e-44,-9,-96.8048,-1595.2,1.696
1.4778,1.47636,0.565108,0.177465,0,3.80061e-10,0.00272244,-1.48443e-35,-9,-1692,-5.37343e-45,-9,-96.8048,-1595.2,1.7
1.4778,1.47636,0.565119,0.177465,0,2.53374e-10,0.00273418,-9.89618e-36,-9,-1692,-2.38819e-45,-9,-96.8048,-1595.2,1.704
1.4778,1.47636,0.56513,0.177465,0,1.68916e-10,0.00274595,-6.59746e-36,-9,-1692,-1.06142e-45,-9,-96.8048,-1595.2,1.708
1.4778,1.47636,0.565141,0.177465,0,1.12611e-10,0.00275774,-4.3983e-36,-9,-1692,-4.71741e-46,-9,-96.8048,-1595.2,1.712
1.4778,1.47636,0.565152,0.177465,0,7.50737e-11,0.00276955,-2.9322e-36,-9,-1692,-2.09663e-46,-9,-96.8048,-1595.2,1.716
1.4778,1.47636,0.565163,0.177465,0,5.00491e-11,0.00278138,-1.9548e-36,-9,-1692,-9.31835e-47,-9,-96.8048,-1595.2,1.72
1.4778,1.47636,0.565175,0.177465,0,3.33661e-11,0.00279323,-1.3032e-36,-9,-1692,-4.14149e-47,-9,-96.8048,-1595.2,1.724
1.4778,1.47636,0.565186,0.177465,0,2.22441e-11,0.0028051,-8.68801e-37,-9,-1693,-1.84066e-47,-9,-96.8048,-1596.2,1.728
1.4778,1.47636,0.565197,0.177465,0,1.48294e-11,0.00281699,-5.79201e-37,-9,-1693,-8.18072e-48,-9,-96.8048,-1596.2,1.732
1.4778,1.47636,0.565208,0.177465,0,9.88625e-12,0.0028289,-3.86134e-37,-9,-1693,-3.63587e-48,-9,-96.8048,-1596.2,1.736
1.4778,1.47636,0.56522,0.177465,0,6.59083e-12,0.00284083,-2.57422e-37,-9,-1693,-1.61594e-48,-9,-96.8048,-1596.2,1.74
1.4778,1.47636,0.565231,0.177465,0,4.39389e-12,0.00285278,-1.71615e-37,-9,-1693,-7.18197e-49,-9,-96.8048,-1596.2,1.744
1.4778,1.47636,0.565242,0.177465,0,2.92926e-12,0.00286475,-1.1441e-37,-9,-1693,-3.19199e-49,-9,-96.8048,-1596.2,1.748
1.4778,1.47636,0.565254,0.177465,0,1.95284e-12,0.00287674,-7.62733e-38,-9,-1693,-1.41866e-49,-9,-96.8048,-1596.2,1.752
1.4778,1.47636,0.565265,0.177465,0,1.30189e-12,0.00288875,-5.08489e-38,-9,-1693,-6.30516e-50,-9,-96.8048,-1596.2,1.756
1.4778,1.47636,0.565277,0.177465,0,8.67929e-13,0.00290078,-3.38993e-38,-9,-1693,-2.80229e-50,-9,-96.8048,-1596.2,1.76
1.4778,1.47636,0.565289,0.177465,0,5.78619e-13,0.00291282,-2.25995e-38,-9,-1693,-1.24546e-50,-9,-96.8048,-1596.2,1.764
1.4778,1.47636,0.5653,0.177465,0,3.85746e-13,0.00292489,-1.50663e-38,-9,-1693,-5.5354e-51,-9,-96.8048,-1596.2,1.768
1.4778,1.47636,0.565312,0.177465,0,2.57164e-13,0.00293698,-1.00442e-38,-9,-1693,-2.46018e-51,-9,-96.8048,-1596.2,1.772
1.4778,1.47636,0.565324,0.177465,0,1.71443e-13,0.00294909,-6.69615e-39,-9,-1693,-1.09341e-51,-9,-96.8048,-1596.2,1.776
1.4778,1.47636,0.565336,0.177465,0,1.14295e-13,0.00296122,-4.4641e-39,-9,-1693,-4.85961e-52,-9,-96.8048,-1596.2,1.78
1.4778,1.47636,0.565348,0.177465,0,7.61967e-14,0.00297336,-2.97607e-39,-9,-1693,-2.15983e-52,-9,-96.8048,-1596.2,1.784
1.4778,1.47636,0.565359,0.177465,0,5.07978e-14,0.00298553,-1.98404e-39,-9,-1693,-9.59922e-53,-9,-96.8048,-1596.2,1.788
1.4778,1.47636,0.565371,0.177465,0,3.38652e-14,0.00299772,-1.3227e-39,-9,-1693,-4.26632e-53,-9,-96.8048,-1596.2,1.792
1.4778,1.47636,0.565383,0.177465,0,2.25768e-14,0.00300992,-8.81797e-40,-9,-1694,-1.89614e-53,-9,-96.8048,-1597.2,1.796
1.4778,1.47636,0.565396,0.177465,0,1.50512e-14,0.00302215,-5.87865e-40,-9,-1694,-8.4273e-54,-9,-96.8048,-1597.2,1.8
1.4778,1.47636,0.565408,0.177465,0,1.00341e-14,0.00303439,-3.9191e-40,-9,-1694,-3.74547e-54,-9,-96.8048,-1597.2,1.804
1.4778,1.47636,0.56542,0.177465,0,6.68943e-15,0.00304665,-2.61273e-40,-9,-1694,-1.66465e-54,-9,-96.8048,-1597.2,1.808
1.4778,1.47636,0.565432,0.177465,0,4.45962e-15,0.00305894,-1.74182e-40,-9,-1694,-7.39845e-55,-9,-96.8048,-1597.2,1.812
1.4778,1.47636,0.565444,0.177465,0,2.97308e-15,0.00307124,-1.16121e-40,-9,-1694,-3.2882e-55,-9,-96.8048,-1597.2,1.816
1.4778,1.47636,0.565457,0.177465,0,1.98205e-15,0.00308356,-7.74143e-41,-9,-1694,-1.46142e-55,-9,-96.8048,-1597.2,1.82
1.4778,1.47636,0.565469,0.177465,0,1.32137e-15,0.0030959,-5.16095e-41,-9,-1694,-6.49521e-56,-9,-96.8048,-1597.2,1.824
1.4778,1.47636,0.565481,0.177465,0,8.80912e-16,0.00310826,-3.44064e-41,-9,-1694,-2.88676e-56,-9,-96.8048,-1597.2,1.828
1.4778,1.47636,0.565494,0.177465,0,5.87275e-16,0.00312064,-2.29376e-41,-9,-1694,-1.28301e-56,-9,-96.8048,-1597.2,1.832
1.4778,1.47636,0.565506,0.177465,0,3.91517e-16,0.00313304,-1.52917e-41,-9,-1694,-5.70225e-57,-9,-96.8048,-1597.2,1.836
1.4778,1.47636,0.565519,0.177465,0,2.61011e-16,0.00314546,-1.01945e-41,-9,-1694,-2.53433e-57,-9,-96.8048,-1597.2,1.84
1.4778,1.47636,0.565531,0.177465,0,1.74007e-16,0.0031579,-6.79632e-42,-9,-1694,-1.12637e-57,-9,-96.8048,-1597.2,1.844
1.4778,1.47636,0.565544,0.177465,0,1.16005e-16,0.00317036,-4.53088e-42,-9,-1694,-5.00609e-58,-9,-96.8048,-1597.2,1.848
1.4778,1.47636,0.565557,0.177465,0,7.73366e-17,0.00318283,-3.02059e-42,-9,-1694,-2.22493e-58,-9,-96.8048,-1597.2,1.852
1.4778,1.47636,0.56557,0.177465,0,5.15577e-17,0.00319533,-2.01372e-42,-9,-1694,-9.88857e-59,-9,-96.8048,-1597.2,1.856
1.4778,1.47636,0.565582,0.177465,0,3.43718e-17,0.00320784,-1.34248e-42,-9,-1694,-4.39492e-59,-9,-96.8048,-1597.2,1.86
1.4778,1.47636,0.565595,0.177465,0,2.29145e-17,0.00322037,-8.94988e-43,-9,-1695,-1.9533e-59,-9,-96.8048,-1598.2,1.864
1.4778,1.47636,0.565608,0.177465,0,1.52764e-17,0.00323292,-5.96659e-43,-9,-1695,-8.68132e-60,-9,-96.8048,-1598.2,1.868
1.4778,1.47636,0.565621,0.177465,0,1.01842e-17,0.00324549,-3.97773e-43,-9,-1695,-3.85836e-60,-9,-96.8048,-1598.2,1.872
1.4778,1.47636,0.565634,0.177465,0,6.7895e-18,0.00325808,-2.65182e-43,-9,-1695,-1.71483e-60,-9,-96.8048,-1598.2,1.876
1.4778,1.47636,0.565647,0.177465,0,4.52633e-18,0.00327069,-1.76788e-43,-9,-1695,-7.62146e-61,-9,-96.8048,-1598.2,1.88
1.4778,1.47636,0.56566,0.177465,0,3.01755e-18,0.00328332,-1.17859e-43,-9,-1695,-3.38732e-61,-9,-96.8048,-1598.2,1.884
1.4778,1.47636,0.565673,0.177465,0,2.0117e-18,0.00329596,-7.85724e-44,-9,-1695,-1.50547e-61,-9,-96.8048,-1598.2,1.888
1.4778,1.47636,0.565687,0.177465,0,1.34113e-18,0.00330863,-5.23816e-44,-9,-1695,-6.69099e-62,-9,-96.8048,-1598.2,1.892
1.4778,1.47636,0.5657,0.177465,0,8.9409e-19,0.00332131,-3.49211e-44,-9,-1695,-2.97378e-62,-9,-96.8048,-1598.2,1.896
1.4778,1.47636,0.565713,0.177465,0,5.9606e-19,0.00333401,-2.32807e-44,-9,-1695,-1.32168e-62,-9,-96.8048,-1598.2,1.9
1.4778,1.47636,0.565727,0.177465,0,3.97373e-19,0.00334673,-1.55205e-44,-9,-1695,-5.87412e-63,-9,-96.8048,-1598.2,1.904
1.4778,1.47636,0.56574,0.177465,0,2.64916e-19,0.00335947,-1.0347e-44,-9,-1695,-2.61072e-63,-9,-96.8048,-1598.2,1.908
1.4778,1.47636,0.565753,0.177465,0,1.7661e-19,0.00337223,-6.89799e-45,-9,-1695,-1.16032e-63,-9,-96.8048,-1598.2,1.912
1.4778,1.47636,0.565767,0.177465,0,1.1774e-19,0.003385,-4.59866e-45,-9,-1695,-5.15698e-64,-9,-96.8048,-1598.2,1.916
1.4778,1.47636,0.565781,0.177465,0,7.84935e-20,0.0033978,-3.06577e-45,-9,-1695,-2.29199e-64,-9,-96.8048,-1598.2,1.92
1.4778,1.47636,0.565794,0.177465,0,5.2329e-20,0.00341061,-2.04385e-45,-9,-1696,-1.01866e-64,-9,-96.8048,-1599.2,1.924
1.4778,1.47636,0.565808,0.177465,0,3.4886e-20,0.00342344,-1.36257e-45,-9,-1696,-4.52739e-65,-9,-96.8048,-1599.2,1.928
1.4778,1.47636,0.565822,0.177465,0,2.32573e-20,0.00343629,-9.08377e-46,-9,-1696,-2.01217e-65,-9,-96.8048,-1599.2,1.932
1.4778,1.47636,0.565835,0.177465,0,1.55049e-20,0.00344916,-6.05585e-46,-9,-1696,-8.94299e-66,-9,-96.8048,-1599.2,1.936
1.4778,1.47636,0.565849,0.177465,0,1.03366e-20,0.00346205,-4.03723e-46,-9,-1696,-3.97466e-66,-9,-96.8048,-1599.2,1.94
1.4778,1.47636,0.565863,0.177465,0,6.89106e-21,0.00347495,-2.69149e-46,-9,-1696,-1.76652e-66,-9,-96.8048,-1599.2,1.944
1.4778,1.47636,0.565877,0.177465,0,4.59404e-21,0.00348788,-1.79432e-46,-9,-1696,-7.85119e-67,-9,-96.8048,-1599.2,1.948
1.4778,1.47636,0.565891,0.177465,0,3.06269e-21,0.00350082,-1.19622e-46,-9,-1696,-3.48942e-67,-9,-96.8048,-1599.2,1.952
1.4778,1.47636,0.565905,0.177465,0,2.0418e-21,0.00351378,-7.97478e-47,-9,-1696,-1.55085e-67,-9,-96.8048,-1599.2,1.956
1.4778,1.47636,0.565919,0.177465,0,1.3612e-21,0.00352676,-5.31652e-47,-9,-1696,-6.89268e-68,-9,-96.8048,-1599.2,1.96
1.4778,1.47636,0.565933,0.177465,0,9.07465e-22,0.00353975,-3.54434e-47,-9,-1696,-3.06341e-68,-9,-96.8048,-1599.2,1.964
1.4778,1.47636,0.565947,0.177465,0,6.04977e-22,0.00355277,-2.3629e-47,-9,-1696,-1.36152e-68,-9,-96.8048,-1599.2,1.968
1.4778,1.47636,0.565962,0.177465,0,4.03318e-22,0.0035658,-1.57526e-47,-9,-1696,-6.05118e-69,-9,-96.8048,-1599.2,1.972
1.4778,1.47636,0.565976,0.177465,0,2.68878e-22,0.00357885,-1.05018e-47,-9,-1696,-2.68941e-69,-9,-96.8048,-1599.2,1.976
1.4778,1.47636,0.56599,0.177465,0,1.79252e-22,0.00359192,-7.00117e-48,-9,-1696,-1.1953e-69,-9,-96.8048,-1599.2,1.98
1.4778,1.47636,0.566005,0.177465,0,1.19502e-22,0.003605,-4.66745e-48,-9,-1697,-5.31242e-70,-9,-96.8048,-1600.2,1.984
1.4778,1.47636,0.566019,0.177465,0,7.96677e-23,0.00361811,-3.11163e-48,-9,-1697,-2.36108e-70,-9,-96.8048,-1600.2,1.988
1.4778,1.47636,0.566034,0.177465,0,5.31118e-23,0.00363123,-2.07442e-48,-9,-1697,-1.04937e-70,-9,-96.8048,-1600.2,1.992
1.4778,1.47636,0.566048,0.177465,0,3.54079e-23,0.00364437,-1.38295e-48,-9,-1697,-4.66386e-71,-9,-96.8048,-1600.2,1.996
1.4778,1.47636,0.566063,0.177465,0,2.36052e-23,0.00365753,-9.21965e-49,-9,-1697,-2.07283e-71,-9,-96.8048,-1600.2,2
1.4778,1.47636,0.566077,0.177465,0,1.57368e-23,0.0036707,-6.14644e-49,-9,-1697,-9.21256e-72,-9,-96.8048,-1600.2,2.004
1.4778,1.47636,0.566092,0.177465,0,1.04912e-23,0.0036839,-4.09762e-49,-9,-1697,-4.09447e-72,-9,-96.8048,-1600.2,2.008
1.4778,1.47636,0.566107,0.177465,0,6.99415e-24,0.00369711,-2.73175e-49,-9,-1697,-1.81976e-72,-9,-96.8048,-1600.2,2.012
1.4778,1.47636,0.566122,0.177465,0,4.66276e-24,0.00371034,-1.82117e-49,-9,-1697,-8.08784e-73,-9,-96.8048,-1600.2,2.016
1.4778,1.47636,0.566137,0.177465,0,3.10851e-24,0.00372359,-1.21411e-49,-9,-1697,-3.5946e-73,-9,-96.8048,-1600.2,2.02
1.4778,1.47636,0.566151,0.177465,0,2.07234e-24,0.00373685,-8.09407e-50,-9,-1697,-1.5976e-73,-9,-96.8048,-1600.2,2.024
1.4778,1.47636,0.566166,0.177465,0,1.38156e-24,0.00375013,-5.39605e-50,-9,-1697,-7.10044e-74,-9,-96.8048,-1600.2,2.028
1.4778,1.47636,0.566181,0.177465,0,-2.87909e-05,0.00376343,-3.59737e-50,-9,-1697,9.86461e-55,-9,-96.8048,-1600.2,2.032
1.4778,1.47636,0.566197,0.177465,0,9.59697e-06,0.00377675,-2.39824e-50,-9,-1697,-2.19213e-55,-9,-96.8048,-1600.2,2.036
1.4778,1.47636,0.566212,0.177465,0,6.39798e-06,0.00379009,-1.59883e-50,-9,-1698,-9.74282e-56,-9,-96.8048,-1601.2,2.04
1.4778,1.47636,0.566227,0.177465,0,-2.45256e-05,0.00380344,-1.06589e-50,-9,-1698,2.48983e-55,-9,-96.8048,-1601.2,2.044
1.4778,1.47636,0.566242,0.177465,0,1.24405e-05,0.00381681,-7.10591e-51,-9,-1698,-8.41972e-56,-9,-96.8048,-1601.2,2.048
1.4778,1.47636,0.566257,0.177465,0,8.29368e-06,0.0038302,-4.73727e-51,-9,-1698,-3.7421e-56,-9,-96.8048,-1601.2,2.052
1.4778,1.47636,0.566273,0.177465,0,5.52912e-06,0.0038436,-3.15818e-51,-9,-1698,-1.66315e-56,-9,-96.8048,-1601.2,2.056
1.4778,1.47636,0.566288,0.177465,0,3.68608e-06,0.00385703,-2.10545e-51,-9,-1698,-7.3918e-57,-9,-96.8048,-1601.2,2.06
1.4778,1.47636,0.566304,0.177465,0,2.45739e-06,0.00387047,-1.40364e-51,-9,-1698,-3.28524e-57,-9,-96.8048,-1601.2,2.064
1.4778,1.47636,0.566319,0.177465,0,1.63826e-06,0.00388392,-9.35757e-52,-9,-1698,-1.46011e-57,-9,-96.8048,-1601.2,2.068
1.4778,1.47636,0.566335,0.177465,0,1.09217e-06,0.0038974,-6.23838e-52,-9,-1698,-6.48937e-58,-9,-96.8048,-1601.2,2.072
1.4778,1.47636,0.56635,0.177465,0,7.28115e-07,0.00391089,-4.15892e-52,-9,-1698,-2.88417e-58,-9,-96.8048,-1601.2,2.076
1.4778,1.47636,0.566366,0.177465,0,4.8541e-07,0.0039244,-2.77261e-52,-9,-1698,-1.28185e-58,-9,-96.8048,-1601.2,2.08
1.4778,1.47636,0.566382,0.177465,0,3.23607e-07,0.00393792,-1.84841e-52,-9,-1698,-5.69712e-59,-9,-96.8048,-1601.2,2.084
1.4778,1.47636,0.566397,0.177465,0,2.15738e-07,0.00395147,-1.23227e-52,-9,-1698,-2.53205e-59,-9,-96.8048,-1601.2,2.088
1.4778,1.47636,0.566413,0.177465,0,1.43825e-07,0.00396503,-8.21515e-53,-9,-1699,-1.12536e-59,-9,-96.8048,-1602.2,2.092
1.4778,1.47636,0.566429,0.177465,0,9.58834e-08,0.00397861,-5.47677e-53,-9,-1699,-5.00158e-60,-9,-96.8048,-1602.2,2.096
1.4778,1.47636,0.566445,0.177465,0,6.39223e-08,0.0039922,-3.65118e-53,-9,-1699,-2.22293e-60,-9,-96.8048,-1602.2,2.1
1.4778,1.47636,0.566461,0.177465,0,4.26149e-08,0.00400581,-2.43412e-53,-9,-1699,-9.87967e-61,-9,-96.8048,-1602.2,2.104
1.4778,1.47636,0.566477,0.177465,0,2.84099e-08,0.00401944,-1.62275e-53,-9,-1699,-4.39096e-61,-9,-96.8048,-1602.2,2.108
1.4778,1.47636,0.566493,0.177465,0,1.89399e-08,0.00403309,-1.08183e-53,-9,-1699,-1.95154e-61,-9,-96.8048,-1602.2,2.112
1.4778,1.47636,0.566509,0.177465,0,1.26266e-08,0.00404675,-7.21221e-54,-9,-1699,-8.67351e-62,-9,-96.8048,-1602.2,2.116
1.4778,1.47636,0.566526,0.177465,0,8.41775e-09,0.00406043,-4.80814e-54,-9,-1699,-3.85489e-62,-9,-96.8048,-1602.2,2.12
1.4778,1.47636,0.566542,0.177465,0,2.87965e-05,0.00407413,-3.20542e-54,-9,-1699,-8.79155e-59,-9,-96.8048,-1602.2,2.124
1.4778,1.47636,0.566558,0.177465,0,-9.59323e-06,0.00408784,-2.13695e-54,-9,-1699,1.95254e-59,-9,-96.8048,-1602.2,2.128
1.4778,1.47636,0.566575,0.177465,0,-6.39549e-06,0.00410157,-1.42463e-54,-9,-1699,8.67794e-60,-9,-96.8048,-1602.2,2.132
1.4778,1.47636,0.566591,0.177465,0,-4.26366e-06,0.00411532,-9.49756e-55,-9,-1699,3.85686e-60,-9,-96.8048,-1602.2,2.136
1.4778,1.47636,0.566608,0.177465,0,-2.84244e-06,0.00412908,-6.3317e-55,-9,-1699,1.71416e-60,-9,-96.8048,-1602.2,2.14
1.4778,1.47636,0.566624,0.177465,0,2.6896e-05,0.00414287,-4.22114e-55,-9,-1700,-1.08132e-59,-9,-96.8048,-1603.2,2.144
1.4778,1.47636,0.566641,0.177465,0,-1.08603e-05,0.00415666,-2.81409e-55,-9,-1700,2.91084e-60,-9,-96.8048,-1603.2,2.148
1.4778,1.47636,0.566657,0.177465,0,-7.24019e-06,0.00417048,-1.87606e-55,-9,-1700,1.29371e-60,-9,-96.8048,-1603.2,2.152
1.4778,1.47636,0.566674,0.177465,0,-4.82679e-06,0.00418431,-1.25071e-55,-9,-1700,5.74981e-61,-9,-96.8048,-1603.2,2.156
1.4778,1.47636,0.566691,0.177465,0,-3.21786e-06,0.00419816,-8.33805e-56,-9,-1700,2.55547e-61,-9,-96.8048,-1603.2,2.16
1.4778,1.47636,0.566708,0.177465,0,-2.14524e-06,0.00421202,-5.5587e-56,-9,-1700,1.13577e-61,-9,-96.8048,-1603.2,2.164
1.4778,1.47636,0.566724,0.177465,0,-1.43016e-06,0.0042259,-3.7058e-56,-9,-1700,5.04785e-62,-9,-96.8048,-1603.2,2.168
1.4778,1.47636,0.566741,0.177465,0,-9.5344e-07,0.0042398,-2.47053e-56,-9,-1700,2.24349e-62,-9,-96.8048,-1603.2,2.172
1.4778,1.47636,0.566758,0.177465,0,-6.35627e-07,0.00425371,-1.64702e-56,-9,-1700,9.97105e-63,-9,-96.8048,-1603.2,2.176
1.4778,1.47636,0.566775,0.177465,0,-4.23751e-07,0.00426764,-1.09801e-56,-9,-1700,4.43158e-63,-9,-96.8048,-1603.2,2.18
1.4778,1.47636,0.566793,0.177465,0,-2.82501e-07,0.00428159,-7.32009e-57,-9,-1700,1.96959e-63,-9,-96.8048,-1603.2,2.184
1.4778,1.47636,0.56681,0.177465,0,-1.88334e-07,0.00429555,-4.88006e-57,-9,-1700,8.75374e-64,-9,-96.8048,-1603.2,2.188
1.4778,1.47636,0.566827,0.177465,0,-1.25556e-07,0.00430953,-3.25338e-57,-9,-1701,3.89055e-64,-9,-96.8048,-1604.2,2.192
1.4778,1.47636,0.566844,0.177465,0,-5.76656e-05,0.00432353,-2.16892e-57,-10,-1701,1.19124e-61,-10,-96.8048,-1604.2,2.196
1.4778,1.47636,0.566862,0.177465,0,1.91381e-05,0.00433754,-1.44594e-57,-9,-1701,-2.63567e-62,-9,-96.8048,-1604.2,2.2
1.4778,1.47636,0.566879,0.177465,0,1.27588e-05,0.00435157,-9.63963e-58,-9,-1701,-1.17141e-62,-9,-96.8048,-1604.2,2.204
1.4778,1.47636,0.566896,0.177465,0,8.50584e-06,0.00436561,-6.42642e-58,-9,-1701,-5.20626e-63,-9,-96.8048,-1604.2,2.208
1.4778,1.47636,0.566914,0.177465,0,5.67056e-06,0.00437967,-4.28428e-58,-9,-1701,-2.31389e-63,-9,-96.8048,-1604.2,2.212
1.4778,1.47636,0.566931,0.177465,0,3.78037e-06,0.00439375,-2.85619e-58,-9,-1701,-1.0284e-63,-9,-96.8048,-1604.2,2.216
1.4778,1.47636,0.566949,0.177465,0,2.52025e-06,0.00440784,-1.90412e-58,-9,-1701,-4.57066e-64,-9,-96.8048,-1604.2,2.22
1.4778,1.47636,0.566967,0.177465,0,1.68017e-06,0.00442195,-1.26942e-58,-9,-1701,-2.0314e-64,-9,-96.8048,-1604.2,2.224
1.4778,1.47636,0.566984,0.177465,0,1.12011e-06,0.00443608,-8.46278e-59,-9,-1701,-9.02846e-65,-9,-96.8048,-1604.2,2.228
1.4778,1.47636,0.567002,0.177465,0,7.46741e-07,0.00445022,-5.64185e-59,-9,-1701,-4.01265e-65,-9,-96.8048,-1604.2,2.232
1.4778,1.47636,0.56702,0.177465,0,4.97827e-07,0.00446438,-3.76123e-59,-9,-1701,-1.7834e-65,-9,-96.8048,-1604.2,2.236
1.4778,1.47636,0.567038,0.177465,0,3.31885e-07,0.00447855,-2.50749e-59,-9,-1702,-7.92622e-66,-9,-96.8048,-1605.2,2.24
1.4778,1.47636,0.567056,0.177465,0,2.21257e-07,0.00449274,-1.67166e-59,-9,-1702,-3.52276e-66,-9,-96.8048,-1605.2,2.244
1.4778,1.47636,0.567074,0.177465,0,1.47504e-07,0.00450695,-1.11444e-59,-9,-1702,-1.56567e-66,-9,-96.8048,-1605.2,2.248
1.4778,1.47636,0.567092,0.177465,0,9.83362e-08,0.00452117,-7.4296e-60,-9,-1702,-6.95854e-67,-9,-96.8048,-1605.2,2.252
1.4778,1.47636,0.56711,0.177465,0,6.55575e-08,0.00453541,-4.95307e-60,-9,-1702,-3.09269e-67,-9,-96.8048,-1605.2,2.256
1.4778,1.47636,0.567128,0.177465,0,4.3705e-08,0.00454966,-3.30204e-60,-9,-1702,-1.37453e-67,-9,-96.8048,-1605.2,2.26
1.4778,1.47636,0.567146,0.177465,0,2.91367e-08,0.00456393,-2.20136e-60,-9,-1702,-6.10901e-68,-9,-96.8048,-1605.2,2.264
1.4778,1.47636,0.567165,0.177465,0,2.88103e-05,0.00457821,-1.46757e-60,-9,-1702,-4.02706e-65,-9,-96.8048,-1605.2,2.268
1.4778,1.47636,0.567183,0.177465,0,-9.58403e-06,0.00459251,-9.78383e-61,-9,-1702,8.93093e-66,-9,-96.8048,-1605.2,2.272
1.4778,1.47636,0.567201,0.177465,0,-6.38935e-06,0.00460683,-6.52256e-61,-9,-1702,3.9693e-66,-9,-96.8048,-1605.2,2.276
1.4778,1.47636,0.56722,0.177465,0,-4.25957e-06,0.00462116,-4.34837e-61,-9,-1702,1.76413e-66,-9,-96.8048,-1605.2,2.28
1.4778,1.47636,0.567238,0.177465,0,-2.83971e-06,0.00463551,-2.89891e-61,-9,-1702,7.84059e-67,-9,-96.8048,-1605.2,2.284
1.4778,1.47636,0.567257,0.177465,0,-1.89314e-06,0.00464987,-1.93261e-61,-9,-1703,3.48471e-67,-9,-96.8048,-1606.2,2.288
1.4778,1.47636,0.567276,0.177465,0,-1.26209e-06,0.00466425,-1.28841e-61,-9,-1703,1.54876e-67,-9,-96.8048,-1606.2,2.292
1.4778,1.47636,0.567294,0.177465,0,-8.41396e-07,0.00467865,-8.58937e-62,-9,-1703,6.88338e-68,-9,-96.8048,-1606.2,2.296
1.4778,1.47636,0.567313,0.177465,0,-5.60931e-07,0.00469306,-5.72625e-62,-9,-1703,3.05928e-68,-9,-96.8048,-1606.2,2.3
1.4778,1.47636,0.567332,0.177465,0,-2.91649e-05,0.00470748,-3.8175e-62,-9,-1703,1.06042e-66,-9,-96.8048,-1606.2,2.304
1.4778,1.47636,0.567351,0.177465,0,9.34767e-06,0.00472192,-2.545e-62,-9,-1703,-2.26585e-67,-9,-96.8048,-1606.2,2.308
1.4778,1.47636,0.56737,0.177465,0,6.23178e-06,0.00473638,-1.69667e-62,-9,-1703,-1.00704e-67,-9,-96.8048,-1606.2,2.312
1.4778,1.47636,0.567389,0.177465,0,4.15452e-06,0.00475085,-1.13111e-62,-9,-1703,-4.47575e-68,-9,-96.8048,-1606.2,2.316
1.4778,1.47636,0.567408,0.177465,0,2.76968e-06,0.00476534,-7.54074e-63,-9,-1703,-1.98922e-68,-9,-96.8048,-1606.2,2.32
1.4778,1.47636,0.567427,0.177465,0,3.06374e-05,0.00477984,-5.02716e-63,-9,-1703,-1.46695e-67,-9,-96.8048,-1606.2,2.324
1.4778,1.47636,0.567446,0.177465,0,-8.36601e-06,0.00479436,-3.35144e-63,-9,-1703,2.67048e-68,-9,-96.8048,-1606.2,2.328
1.4778,1.47636,0.567465,0.177465,0,2.32136e-05,0.00480889,-2.23429e-63,-9,-1704,-4.93994e-68,-9,-96.8048,-1607.2,2.332
1.4778,1.47636,0.567484,0.177465,0,-1.33152e-05,0.00482344,-1.48953e-63,-9,-1704,1.88902e-68,-9,-96.8048,-1607.2,2.336
1.4778,1.47636,0.567504,0.177465,0,-8.8768e-06,0.00483801,-9.93019e-64,-9,-1704,8.39564e-69,-9,-96.8048,-1607.2,2.34
1.4778,1.47636,0.567523,0.177465,0,-5.91787e-06,0.00485259,-6.62013e-64,-9,-1704,3.73139e-69,-9,-96.8048,-1607.2,2.344
1.4778,1.47636,0.567542,0.177465,0,-6.15271e-05,0.00486718,-4.41342e-64,-10,-1704,2.58631e-68,-10,-96.8048,-1607.2,2.348
1.4778,1.47636,0.567562,0.177465,0,1.65638e-05,0.00488179,-2.94228e-64,-9,-1704,-4.64176e-69,-9,-96.8048,-1607.2,2.352
1.4778,1.47636,0.567581,0.177465,0,3.98334e-05,0.00489641,-1.96152e-64,-9,-1704,-7.44184e-69,-9,-96.8048,-1607.2,2.356
1.4778,1.47636,0.567601,0.177465,0,-2.23529e-06,0.00491105,-1.30768e-64,-9,-1704,2.78404e-70,-9,-96.8048,-1607.2,2.36
1.4778,1.47636,0.567621,0.177465,0,-1.49019e-06,0.00492571,-8.71786e-65,-9,-1704,1.23735e-70,-9,-96.8048,-1607.2,2.364
1.4778,1.47636,0.56764,0.177465,0,-9.93463e-07,0.00494038,-5.81191e-65,-9,-1704,5.49933e-71,-9,-96.8048,-1607.2,2.368
1.4778,1.47636,0.56766,0.177465,0,-6.62309e-07,0.00495506,-3.87461e-65,-9,-1704,2.44415e-71,-9,-96.8048,-1607.2,2.372
1.4778,1.47636,0.56768,0.177465,0,-4.41539e-07,0.00496976,-2.58307e-65,-9,-1705,1.08629e-71,-9,-96.8048,-1608.2,2.376
1.4778,1.47636,0.5677,0.177465,0,-2.94359e-07,0.00498448,-1.72205e-65,-9,-1705,4.82795e-72,-9,-96.8048,-1608.2,2.38
1.4778,1.47636,0.56772,0.177465,0,-1.9624e-07,0.00499921,-1.14803e-65,-9,-1705,2.14575e-72,-9,-96.8048,-1608.2,2.384
1.4778,1.47636,0.56774,0.177465,0,-1.30826e-07,0.00501395,-7.65354e-66,-9,-1705,9.53669e-73,-9,-96.8048,-1608.2,2.388
1.4778,1.47636,0.56776,0.177465,0,-8.72176e-08,0.00502871,-5.10236e-66,-9,-1705,4.23853e-73,-9,-96.8048,-1608.2,2.392
1.4778,1.47636,0.56778,0.177465,0,-5.81451e-08,0.00504349,-3.40157e-66,-9,-1705,1.88379e-73,-9,-96.8048,-1608.2,2.396
1.4778,1.47636,0.5678,0.177465,0,-3.87634e-08,0.00505827,-2.26772e-66,-9,-1705,8.3724e-74,-9,-96.8048,-1608.2,2.4
1.4778,1.47636,0.567821,0.177465,0,-2.58423e-08,0.00507308,-1.51181e-66,-9,-1705,3.72107e-74,-9,-96.8048,-1608.2,2.404
1.4778,1.47636,0.567841,0.177465,0,-1.72282e-08,0.0050879,-1.00787e-66,-9,-1705,1.65381e-74,-9,-96.8048,-1608.2,2.408
1.4778,1.47636,0.567861,0.177465,0,-1.14854e-08,0.00510273,-6.71916e-67,-9,-1705,7.35025e-75,-9,-96.8048,-1608.2,2.412
1.4778,1.47636,0.567882,0.177465,0,-5.75895e-05,0.00511758,-4.47944e-67,-10,-1706,2.45701e-71,-10,-96.8048,-1609.2,2.416
1.4778,1.47636,0.567902,0.177465,0,1.91888e-05,0.00513244,-2.98629e-67,-9,-1706,-5.45784e-72,-9,-96.8048,-1609.2,2.42
1.4778,1.47636,0.567923,0.177465,0,1.27926e-05,0.00514732,-1.99086e-67,-9,-1706,-2.42571e-72,-9,-96.8048,-1609.2,2.424
1.4778,1.47636,0.567944,0.177465,0,8.52838e-06,0.00516221,-1.32724e-67,-9,-1706,-1.07809e-72,-9,-96.8048,-1609.2,2.428
1.4778,1.47636,0.567964,0.177465,0,5.68558e-06,0.00517711,-8.84828e-68,-9,-1706,-4.79152e-73,-9,-96.8048,-1609.2,2.432
1.4778,1.47636,0.567985,0.177465,0,3.79039e-06,0.00519204,-5.89885e-68,-9,-1706,-2.12956e-73,-9,-96.8048,-1609.2,2.436
1.4778,1.47636,0.568006,0.177465,0,2.52693e-06,0.00520697,-3.93257e-68,-9,-1706,-9.46473e-74,-9,-96.8048,-1609.2,2.44
1.4778,1.47636,0.568027,0.177465,0,3.04755e-05,0.00522192,-2.62171e-68,-9,-1706,-7.60985e-73,-9,-96.8048,-1609.2,2.444
1.4778,1.47636,0.568048,0.177465,0,-8.4739e-06,0.00523688,-1.74781e-68,-9,-1706,1.41064e-73,-9,-96.8048,-1609.2,2.448
1.4778,1.47636,0.568068,0.177465,0,-6.32311e-05,0.00525186,-1.16521e-68,-10,-1706,7.01734e-73,-10,-96.8048,-1609.2,2.452
1.4778,1.47636,0.56809,0.177465,0,1.54278e-05,0.00526686,-7.76803e-69,-9,-1706,-1.14144e-73,-9,-96.8048,-1609.2,2.456
1.4778,1.47636,0.568111,0.177465,0,1.02852e-05,0.00528186,-5.17869e-69,-9,-1707,-5.07308e-74,-9,-96.8048,-1610.2,2.46
1.4778,1.47636,0.568132,0.177465,0,6.85679e-06,0.00529688,-3.45246e-69,-9,-1707,-2.2547e-74,-9,-96.8048,-1610.2,2.464
1.4778,1.47636,0.568153,0.177465,0,4.57119e-06,0.00531192,-2.30164e-69,-9,-1707,-1.00209e-74,-9,-96.8048,-1610.2,2.468
1.4778,1.47636,0.568174,0.177465,0,-5.45344e-05,0.00532697,-1.53443e-69,-10,-1707,7.96996e-74,-10,-96.8048,-1610.2,2.472
1.4778,1.47636,0.568196,0.177465,0,2.12256e-05,0.00534203,-1.02295e-69,-9,-1707,-2.06802e-74,-9,-96.8048,-1610.2,2.476
1.4778,1.47636,0.568217,0.177465,0,4.29413e-05,0.00535711,-6.81967e-70,-9,-1707,-2.78919e-74,-9,-96.8048,-1610.2,2.48
1.4778,1.47636,0.568238,0.177465,0,-1.63379e-07,0.0053722,-4.54645e-70,-9,-1707,7.0747e-77,-9,-96.8048,-1610.2,2.484
1.4778,1.47636,0.56826,0.177465,0,-1.08919e-07,0.00538731,-3.03097e-70,-9,-1707,3.14431e-77,-9,-96.8048,-1610.2,2.488
1.4778,1.47636,0.568282,0.177465,0,-7.26129e-08,0.00540243,-2.02064e-70,-9,-1707,1.39747e-77,-9,-96.8048,-1610.2,2.492
1.4778,1.47636,0.568303,0.177465,0,-4.84086e-08,0.00541757,-1.3471e-70,-9,-1707,6.21099e-78,-9,-96.8048,-1610.2,2.496
1.4778,1.47636,0.568325,0.177465,0,-5.76141e-05,0.00543272,-8.98064e-71,-10,-1708,4.92806e-75,-10,-96.8048,-1611.2,2.5
1.4778,1.47636,0.568347,0.177465,0,-3.84094e-05,0.00544788,-5.98709e-71,-10,-1708,2.19025e-75,-10,-96.8048,-1611.2,2.504
1.4778,1.47636,0.568368,0.177465,0,3.19756e-05,0.00546306,-3.9914e-71,-9,-1708,-1.21558e-75,-9,-96.8048,-1611.2,2.508
1.4778,1.47636,0.56839,0.177465,0,2.1317e-05,0.00547825,-2.66093e-71,-9,-1708,-5.40257e-76,-9,-96.8048,-1611.2,2.512
1.4778,1.47636,0.568412,0.177465,0,1.42114e-05,0.00549345,-1.77395e-71,-9,-1708,-2.40114e-76,-9,-96.8048,-1611.2,2.516
1.4778,1.47636,0.568434,0.177465,0,3.82652e-05,0.00550867,-1.18264e-71,-9,-1708,-4.31017e-76,-9,-96.8048,-1611.2,2.52
1.4778,1.47636,0.568456,0.177465,0,-3.28081e-06,0.0055239,-7.88424e-72,-9,-1708,2.46366e-77,-9,-96.8048,-1611.2,2.524
1.4778,1.47636,0.568479,0.177465,0,-2.18721e-06,0.00553915,-5.25616e-72,-9,-1708,1.09496e-77,-9,-96.8048,-1611.2,2.528
1.4778,1.47636,0.568501,0.177465,0,-5.904e-05,0.00555441,-3.50411e-72,-10,-1708,1.97044e-76,-10,-96.8048,-1611.2,2.532
1.4778,1.47636,0.568523,0.177465,0,1.82219e-05,0.00556968,-2.33607e-72,-9,-1709,-4.05432e-77,-9,-96.8048,-1612.2,2.536
1.4778,1.47636,0.568545,0.177465,0,1.21479e-05,0.00558497,-1.55738e-72,-9,-1709,-1.80192e-77,-9,-96.8048,-1612.2,2.54
1.4778,1.47636,0.568568,0.177465,0,8.0986e-06,0.00560027,-1.03825e-72,-9,-1709,-8.00854e-78,-9,-96.8048,-1612.2,2.544
1.4778,1.47636,0.56859,0.177465,0,3.419e-05,0.00561559,-6.92169e-73,-9,-1709,-2.25398e-77,-9,-96.8048,-1612.2,2.548
1.4778,1.47636,0.568613,0.177465,0,-5.9976e-06,0.00563091,-4.61446e-73,-9,-1709,2.63595e-78,-9,-96.8048,-1612.2,2.552
1.4778,1.47636,0.568635,0.177465,0,-3.9984e-06,0.00564626,-3.07631e-73,-9,-1709,1.17153e-78,-9,-96.8048,-1612.2,2.556
1.4778,1.47636,0.568658,0.177465,0,-2.6656e-06,0.00566161,-2.05087e-73,-9,-1709,5.20682e-79,-9,-96.8048,-1612.2,2.56
1.4778,1.47636,0.56868,0.177465,0,-1.77707e-06,0.00567698,-1.36725e-73,-9,-1709,2.31414e-79,-9,-96.8048,-1612.2,2.564
1.4778,1.47636,0.568703,0.177465,0,2.76062e-05,0.00569237,-9.11498e-74,-9,-1709,-2.39664e-78,-9,-96.8048,-1612.2,2.568
1.4778,1.47636,0.568726,0.177465,0,-1.03868e-05,0.00570776,-6.07666e-74,-9,-1709,6.01153e-79,-9,-96.8048,-1612.2,2.572
1.4778,1.47636,0.568749,0.177465,0,-6.92452e-06,0.00572317,-4.0511e-74,-9,-1710,2.67179e-79,-9,-96.8048,-1613.2,2.576
1.4778,1.47636,0.568772,0.177465,0,-4.61635e-06,0.0057386,-2.70074e-74,-9,-1710,1.18746e-79,-9,-96.8048,-1613.2,2.58
1.4778,1.47636,0.568795,0.177465,0,-3.07756e-06,0.00575403,-1.80049e-74,-9,-1710,5.27761e-80,-9,-96.8048,-1613.2,2.584
1.4778,1.47636,0.568818,0.177465,0,-2.05171e-06,0.00576948,-1.20033e-74,-9,-1710,2.34561e-80,-9,-96.8048,-1613.2,2.588
1.4778,1.47636,0.568841,0.177465,0,-1.36781e-06,0.00578495,-8.00218e-75,-9,-1710,1.04249e-80,-9,-96.8048,-1613.2,2.592
1.4778,1.47636,0.568864,0.177465,0,-9.11871e-07,0.00580042,-5.33479e-75,-9,-1710,4.6333e-81,-9,-96.8048,-1613.2,2.596
1.4778,1.47636,0.568887,0.177465,0,-6.07914e-07,0.00581591,-3.55652e-75,-9,-1710,2.05924e-81,-9,-96.8048,-1613.2,2.6
1.4778,1.47636,0.568911,0.177465,0,-4.05276e-07,0.00583142,-2.37102e-75,-9,-1710,9.15219e-82,-9,-96.8048,-1613.2,2.604
1.4778,1.47636,0.568934,0.177465,0,-2.70184e-07,0.00584693,-1.58068e-75,-9,-1710,4.06764e-82,-9,-96.8048,-1613.2,2.608
1.4778,1.47636,0.568957,0.177465,0,-1.80123e-07,0.00586246,-1.05378e-75,-9,-1711,1.80784e-82,-9,-96.8048,-1614.2,2.612
1.4778,1.47636,0.568981,0.177465,0,-1.20082e-07,0.00587801,-7.02523e-76,-9,-1711,8.03484e-83,-9,-96.8048,-1614.2,2.616
1.4778,1.47636,0.569004,0.177465,0,-8.00545e-08,0.00589356,-4.68349e-76,-9,-1711,3.57104e-83,-9,-96.8048,-1614.2,2.62
1.4778,1.47636,0.569028,0.177465,0,-5.33697e-08,0.00590913,-3.12233e-76,-9,-1711,1.58713e-83,-9,-96.8048,-1614.2,2.624
1.4778,1.47636,0.569052,0.177465,0,-3.55798e-08,0.00592471,-2.08155e-76,-9,-1711,7.05391e-84,-9,-96.8048,-1614.2,2.628
1.4778,1.47636,0.569075,0.177465,0,-2.37199e-08,0.00594031,-1.3877e-76,-9,-1711,3.13507e-84,-9,-96.8048,-1614.2,2.632
1.4778,1.47636,0.569099,0.177465,0,-1.58132e-08,0.00595592,-9.25134e-77,-9,-1711,1.39336e-84,-9,-96.8048,-1614.2,2.636
1.4778,1.47636,0.569123,0.177465,0,-1.05422e-08,0.00597154,-6.16756e-77,-9,-1711,6.19273e-85,-9,-96.8048,-1614.2,2.64
1.4778,1.47636,0.569147,0.177465,0,-7.02811e-09,0.00598717,-4.1117e-77,-9,-1711,2.75233e-85,-9,-96.8048,-1614.2,2.644
1.4778,1.47636,0.569171,0.177465,0,-4.6854e-09,0.00600282,-2.74114e-77,-9,-1712,1.22326e-85,-9,-96.8048,-1615.2,2.648
1.4778,1.47636,0.569195,0.177465,0,-3.1236e-09,0.00601848,-1.82742e-77,-9,-1712,5.43669e-86,-9,-96.8048,-1615.2,2.652
1.4778,1.47636,0.569219,0.177465,0,-2.0824e-09,0.00603415,-1.21828e-77,-9,-1712,2.41631e-86,-9,-96.8048,-1615.2,2.656
1.4778,1.47636,0.569243,0.177465,0,-1.38827e-09,0.00604984,-8.12189e-78,-9,-1712,1.07391e-86,-9,-96.8048,-1615.2,2.66
1.4778,1.47636,0.569267,0.177465,0,-9.25512e-10,0.00606554,-5.41459e-78,-9,-1712,4.77295e-87,-9,-96.8048,-1615.2,2.664
1.4778,1.47636,0.569292,0.177465,0,-6.17008e-10,0.00608125,-3.60973e-78,-9,-1712,2.12131e-87,-9,-96.8048,-1615.2,2.668
1.4778,1.47636,0.569316,0.177465,0,-4.11339e-10,0.00609698,-2.40648e-78,-9,-1712,9.42806e-88,-9,-96.8048,-1615.2,2.672
1.4778,1.47636,0.569341,0.177465,0,-2.74226e-10,0.00611271,-1.60432e-78,-9,-1712,4.19025e-88,-9,-96.8048,-1615.2,2.676
1.4778,1.47636,0.569365,0.177465,0,-1.82817e-10,0.00612846,-1.06955e-78,-9,-1712,1.86233e-88,-9,-96.8048,-1615.2,2.68
1.4778,1.47636,0.56939,0.177465,0,-1.21878e-10,0.00614423,-7.13033e-79,-9,-1713,8.27703e-89,-9,-96.8048,-1616.2,2.684
1.4778,1.47636,0.569414,0.177465,0,-8.12521e-11,0.00616,-4.75355e-79,-9,-1713,3.67868e-89,-9,-96.8048,-1616.2,2.688
1.4778,1.47636,0.569439,0.177465,0,-5.41681e-11,0.00617579,-3.16903e-79,-9,-1713,1.63497e-89,-9,-96.8048,-1616.2,2.692
1.4778,1.47636,0.569464,0.177465,0,-3.6112e-11,0.00619159,-2.11269e-79,-9,-1713,7.26653e-90,-9,-96.8048,-1616.2,2.696
1.4778,1.47636,0.569488,0.177465,0,-2.40747e-11,0.0062074,-1.40846e-79,-9,-1713,3.22957e-90,-9,-96.8048,-1616.2,2.7
1.4778,1.47636,0.569513,0.177465,0,-1.60498e-11,0.00622323,-9.38973e-80,-9,-1713,1.43536e-90,-9,-96.8048,-1616.2,2.704
1.4778,1.47636,0.569538,0.177465,0,-1.06999e-11,0.00623907,-6.25982e-80,-9,-1713,6.3794e-91,-9,-96.8048,-1616.2,2.708
1.4778,1.47636,0.569563,0.177465,0,-7.13324e-12,0.00625492,-4.17321e-80,-9,-1713,2.83529e-91,-9,-96.8048,-1616.2,2.712
1.4778,1.47636,0.569588,0.177465,0,-4.75549e-12,0.00627078,-2.78214e-80,-9,-1713,1.26013e-91,-9,-96.8048,-1616.2,2.716
1.4778,1.47636,0.569613,0.177465,0,-3.17033e-12,0.00628665,-1.85476e-80,-9,-1714,5.60057e-92,-9,-96.8048,-1617.2,2.72
1.4778,1.47636,0.569638,0.177465,0,-2.11355e-12,0.00630254,-1.23651e-80,-9,-1714,2.48914e-92,-9,-96.8048,-1617.2,2.724
1.4778,1.47636,0.569664,0.177465,0,-1.40904e-12,0.00631844,-8.24338e-81,-9,-1714,1.10628e-92,-9,-96.8048,-1617.2,2.728
1.4778,1.47636,0.569689,0.177465,0,-9.39357e-13,0.00633436,-5.49559e-81,-9,-1714,4.91682e-93,-9,-96.8048,-1617.2,2.732
1.4778,1.47636,0.569714,0.177465,0,-6.26238e-13,0.00635028,-3.66373e-81,-9,-1714,2.18525e-93,-9,-96.8048,-1617.2,2.736
1.4778,1.47636,0.56974,0.177465,0,-4.17492e-13,0.00636622,-2.44248e-81,-9,-1714,9.71224e-94,-9,-96.8048,-1617.2,2.74
1.4778,1.47636,0.569765,0.177465,0,-2.78328e-13,0.00638217,-1.62832e-81,-9,-1714,4.31655e-94,-9,-96.8048,-1617.2,2.744
1.4778,1.47636,0.569791,0.177465,0,-1.85552e-13,0.00639813,-1.08555e-81,-9,-1714,1.91847e-94,-9,-96.8048,-1617.2,2.748
1.4778,1.47636,0.569817,0.177465,0,-1.23701e-13,0.0064141,-7.23699e-82,-9,-1715,8.52652e-95,-9,-96.8048,-1618.2,2.752
1.4778,1.47636,0.569842,0.177465,0,-8.24675e-14,0.00643009,-4.82466e-82,-9,-1715,3.78956e-95,-9,-96.8048,-1618.2,2.756
1.4778,1.47636,0.569868,0.177465,0,-5.49784e-14,0.00644609,-3.21644e-82,-9,-1715,1.68425e-95,-9,-96.8048,-1618.2,2.76
1.4778,1.47636,0.569894,0.177465,0,-3.66522e-14,0.0064621,-2.14429e-82,-9,-1715,7.48556e-96,-9,-96.8048,-1618.2,2.764
1.4778,1.47636,0.56992,0.177465,0,-2.44348e-14,0.00647812,-1.42953e-82,-9,-1715,3.32692e-96,-9,-96.8048,-1618.2,2.768
1.4778,1.47636,0.569946,0.177465,0,-1.62899e-14,0.00649415,-9.53019e-83,-9,-1715,1.47863e-96,-9,-96.8048,-1618.2,2.772
1.4778,1.47636,0.569972,0.177465,0,-1.08599e-14,0.0065102,-6.35346e-83,-9,-1715,6.57169e-97,-9,-96.8048,-1618.2,2.776
1.4778,1.47636,0.569998,0.177465,0,-7.23995e-15,0.00652626,-4.23564e-83,-9,-1715,2.92075e-97,-9,-96.8048,-1618.2,2.78
1.4778,1.47636,0.570024,0.177465,0,-4.82663e-15,0.00654233,-2.82376e-83,-9,-1715,1.29811e-97,-9,-96.8048,-1618.2,2.784
1.4778,1.47636,0.57005,0.177465,0,-3.21776e-15,0.00655841,-1.88251e-83,-9,-1716,5.76938e-98,-9,-96.8048,-1619.2,2.788
1.4778,1.47636,0.570076,0.177465,0,-2.14517e-15,0.0065745,-1.255e-83,-9,-1716,2.56417e-98,-9,-96.8048,-1619.2,2.792
1.4778,1.47636,0.570103,0.177465,0,-1.43011e-15,0.00659061,-8.3667e-84,-9,-1716,1.13963e-98,-9,-96.8048,-1619.2,2.796
1.4778,1.47636,0.570129,0.177465,0,-9.53409e-16,0.00660673,-5.5778e-84,-9,-1716,5.06503e-99,-9,-96.8048,-1619.2,2.8
1.4778,1.47636,0.570155,0.177465,0,-6.35606e-16,0.00662285,-3.71853e-84,-9,-1716,2.25112e-99,-9,-96.8048,-1619.2,2.804
1.4778,1.47636,0.570182,0.177465,0,-4.23737e-16,0.006639,-2.47902e-84,-9,-1716,1.0005e-99,-9,-96.8048,-1619.2,2.808
1.4778,1.47636,0.570209,0.177465,0,-2.82492e-16,0.00665515,-1.65268e-84,-9,-1716,4.44666e-100,-9,-96.8048,-1619.2,2.812
1.4778,1.47636,0.570235,0.177465,0,-1.88328e-16,0.00667131,-1.10179e-84,-9,-1716,1.97629e-100,-9,-96.8048,-1619.2,2.816
1.4778,1.47636,0.570262,0.177465,0,-2.87909e-05,0.00668749,-7.34525e-85,-9,-1717,2.0142e-89,-9,-96.8048,-1620.2,2.82
1.4778,1.47636,0.570289,0.177465,0,9.59697e-06,0.00670368,-4.89683e-85,-9,-1717,-4.47599e-90,-9,-96.8048,-1620.2,2.824
1.4778,1.47636,0.570316,0.177465,0,6.39798e-06,0.00671988,-3.26456e-85,-9,-1717,-1.98933e-90,-9,-96.8048,-1620.2,2.828
1.4778,1.47636,0.570342,0.177465,0,4.26532e-06,0.00673609,-2.17637e-85,-9,-1717,-8.84146e-91,-9,-96.8048,-1620.2,2.832
1.4778,1.47636,0.570369,0.177465,0,2.84355e-06,0.00675231,-1.45091e-85,-9,-1717,-3.92954e-91,-9,-96.8048,-1620.2,2.836
1.4778,1.47636,0.570397,0.177465,0,1.8957e-06,0.00676855,-9.67276e-86,-9,-1717,-1.74646e-91,-9,-96.8048,-1620.2,2.84
1.4778,1.47636,0.570424,0.177465,0,1.2638e-06,0.00678479,-6.4485e-86,-9,-1717,-7.76205e-92,-9,-96.8048,-1620.2,2.844
1.4778,1.47636,0.570451,0.177465,0,8.42533e-07,0.00680105,-4.299e-86,-9,-1717,-3.4498e-92,-9,-96.8048,-1620.2,2.848
1.4778,1.47636,0.570478,0.177465,0,5.61689e-07,0.00681732,-2.866e-86,-9,-1718,-1.53325e-92,-9,-96.8048,-1621.2,2.852
1.4778,1.47636,0.570505,0.177465,0,3.74459e-07,0.0068336,-1.91067e-86,-9,-1718,-6.81442e-93,-9,-96.8048,-1621.2,2.856
1.4778,1.47636,0.570533,0.177465,0,2.49639e-07,0.00684989,-1.27378e-86,-9,-1718,-3.02863e-93,-9,-96.8048,-1621.2,2.86
1.4778,1.47636,0.57056,0.177465,0,1.66426e-07,0.00686619,-8.49186e-87,-9,-1718,-1.34606e-93,-9,-96.8048,-1621.2,2.864
1.4778,1.47636,0.570588,0.177465,0,1.10951e-07,0.00688251,-5.66124e-87,-9,-1718,-5.98248e-94,-9,-96.8048,-1621.2,2.868
1.4778,1.47636,0.570615,0.177465,0,7.39672e-08,0.00689883,-3.77416e-87,-9,-1718,-2.65888e-94,-9,-96.8048,-1621.2,2.872
1.4778,1.47636,0.570643,0.177465,0,4.93115e-08,0.00691517,-2.51611e-87,-9,-1718,-1.18173e-94,-9,-96.8048,-1621.2,2.876
1.4778,1.47636,0.570671,0.177465,0,3.28743e-08,0.00693152,-1.6774e-87,-9,-1718,-5.25211e-95,-9,-96.8048,-1621.2,2.88
1.4778,1.47636,0.570698,0.177465,0,2.19162e-08,0.00694788,-1.11827e-87,-9,-1719,-2.33427e-95,-9,-96.8048,-1622.2,2.884
1.4778,1.47636,0.570726,0.177465,0,1.46108e-08,0.00696425,-7.45513e-88,-9,-1719,-1.03745e-95,-9,-96.8048,-1622.2,2.888
1.4778,1.47636,0.570754,0.177465,0,9.74054e-09,0.00698063,-4.97009e-88,-9,-1719,-4.61091e-96,-9,-96.8048,-1622.2,2.892
1.4778,1.47636,0.570782,0.177465,0,6.49369e-09,0.00699703,-3.31339e-88,-9,-1719,-2.04929e-96,-9,-96.8048,-1622.2,2.896
1.4778,1.47636,0.57081,0.177465,0,4.32913e-09,0.00701343,-2.20893e-88,-9,-1719,-9.10797e-97,-9,-96.8048,-1622.2,2.9
1.4778,1.47636,0.570838,0.177465,0,2.88609e-09,0.00702985,-1.47262e-88,-9,-1719,-4.04798e-97,-9,-96.8048,-1622.2,2.904
1.4778,1.47636,0.570866,0.177465,0,1.92406e-09,0.00704627,-9.81745e-89,-9,-1719,-1.7991e-97,-9,-96.8048,-1622.2,2.908
1.4778,1.47636,0.570894,0.177465,0,1.2827e-09,0.00706271,-6.54497e-89,-9,-1719,-7.99602e-98,-9,-96.8048,-1622.2,2.912
1.4778,1.47636,0.570923,0.177465,0,8.55136e-10,0.00707916,-4.36331e-89,-9,-1720,-3.55379e-98,-9,-96.8048,-1623.2,2.916
1.4778,1.47636,0.570951,0.177465,0,5.70091e-10,0.00709562,-2.90887e-89,-9,-1720,-1.57946e-98,-9,-96.8048,-1623.2,2.92
1.4778,1.47636,0.570979,0.177465,0,3.80061e-10,0.00711209,-1.93925e-89,-9,-1720,-7.01982e-99,-9,-96.8048,-1623.2,2.924
1.4778,1.47636,0.571008,0.177465,0,2.53374e-10,0.00712857,-1.29283e-89,-9,-1720,-3.11992e-99,-9,-96.8048,-1623.2,2.928
1.4778,1.47636,0.571036,0.177465,0,1.68916e-10,0.00714506,-8.61889e-90,-9,-1720,-1.38663e-99,-9,-96.8048,-1623.2,2.932
1.4778,1.47636,0.571065,0.177465,0,-2.87908e-05,0.00716156,-5.74593e-90,-9,-1720,1.57563e-94,-9,-96.8048,-1623.2,2.936
1.4778,1.47636,0.571094,0.177465,0,9.59705e-06,0.00717808,-3.83062e-90,-9,-1720,-3.50144e-95,-9,-96.8048,-1623.2,2.94
1.4778,1.47636,0.571123,0.177465,0,6.39803e-06,0.0071946,-2.55374e-90,-9,-1721,-1.55619e-95,-9,-96.8048,-1624.2,2.944
1.4778,1.47636,0.571151,0.177465,0,4.26536e-06,0.00721114,-1.7025e-90,-9,-1721,-6.91642e-96,-9,-96.8048,-1624.2,2.948
1.4778,1.47636,0.57118,0.177465,0,2.84357e-06,0.00722768,-1.135e-90,-9,-1721,-3.07396e-96,-9,-96.8048,-1624.2,2.952
1.4778,1.47636,0.571209,0.177465,0,1.89571e-06,0.00724424,-7.56665e-91,-9,-1721,-1.36621e-96,-9,-96.8048,-1624.2,2.956
1.4778,1.47636,0.571238,0.177465,0,1.26381e-06,0.00726081,-5.04443e-91,-9,-1721,-6.07202e-97,-9,-96.8048,-1624.2,2.96
1.4778,1.47636,0.571267,0.177465,0,8.42539e-07,0.00727739,-3.36296e-91,-9,-1721,-2.69868e-97,-9,-96.8048,-1624.2,2.964
1.4778,1.47636,0.571296,0.177465,0,5.61693e-07,0.00729398,-2.24197e-91,-9,-1721,-1.19941e-97,-9,-96.8048,-1624.2,2.968
1.4778,1.47636,0.571326,0.177465,0,3.74462e-07,0.00731058,-1.49465e-91,-9,-1721,-5.33072e-98,-9,-96.8048,-1624.2,2.972
1.4778,1.47636,0.571355,0.177465,0,2.49641e-07,0.00732719,-9.96431e-92,-9,-1722,-2.36921e-98,-9,-96.8048,-1625.2,2.976
1.4778,1.47636,0.571384,0.177465,0,1.66428e-07,0.00734381,-6.64288e-92,-9,-1722,-1.05298e-98,-9,-96.8048,-1625.2,2.98
1.4778,1.47636,0.571414,0.177465,0,1.10952e-07,0.00736044,-4.42858e-92,-9,-1722,-4.67992e-99,-9,-96.8048,-1625.2,2.984
1.4778,1.47636,0.571443,0.177465,0,7.39678e-08,0.00737708,-2.95239e-92,-9,-1722,-2.07996e-99,-9,-96.8048,-1625.2,2.988
1.4778,1.47636,0.571473,0.177465,0,4.93119e-08,0.00739373,-1.96826e-92,-9,-1722,-9.24429e-100,-9,-96.8048,-1625.2,2.992
1.4778,1.47636,0.571502,0.177465,0,3.28746e-08,0.0074104,-1.31217e-92,-9,-1722,-4.10857e-100,-9,-96.8048,-1625.2,2.996
1.4778,1.47636,0.571532,0.177465,0,2.19164e-08,0.00742707,-8.74782e-93,-9,-1722,-1.82603e-100,-9,-96.8048,-1625.2,3
1.4778,1.47636,0.571562,0.177465,0,1.46109e-08,0.00744375,-5.83188e-93,-9,-1723,-8.1157e-101,-9,-96.8048,-1626.2,3.004
1.4778,1.47636,0.571591,0.177465,0,9.74061e-09,0.00746045,-3.88792e-93,-9,-1723,-3.60698e-101,-9,-96.8048,-1626.2,3.008
1.4778,1.47636,0.571621,0.177465,0,6.49374e-09,0.00747715,-2.59195e-93,-9,-1723,-1.6031e-101,-9,-96.8048,-1626.2,3.012
1.4778,1.47636,0.571651,0.177465,0,4.32916e-09,0.00749386,-1.72796e-93,-9,-1723,-7.12489e-102,-9,-96.8048,-1626.2,3.016
1.4778,1.47636,0.571681,0.177465,0,2.88611e-09,0.00751059,-1.15198e-93,-9,-1723,-3.16662e-102,-9,-96.8048,-1626.2,3.02
1.4778,1.47636,0.571711,0.177465,0,1.92407e-09,0.00752732,-7.67984e-94,-9,-1723,-1.40739e-102,-9,-96.8048,-1626.2,3.024
1.4778,1.47636,0.571742,0.177465,0,1.28271e-09,0.00754407,-5.11989e-94,-9,-1723,-6.25505e-103,-9,-96.8048,-1626.2,3.028
1.4778,1.47636,0.571772,0.177465,0,8.55143e-10,0.00756083,-3.41326e-94,-9,-1724,-2.78002e-103,-9,-96.8048,-1627.2,3.032
1.4778,1.47636,0.571802,0.177465,0,5.70095e-10,0.00757759,-2.27551e-94,-9,-1724,-1.23557e-103,-9,-96.8048,-1627.2,3.036
1.4778,1.47636,0.571832,0.177465,0,3.80064e-10,0.00759437,-1.51701e-94,-9,-1724,-5.4914e-104,-9,-96.8048,-1627.2,3.04
1.4778,1.47636,0.571863,0.177465,0,2.53376e-10,0.00761115,-1.01134e-94,-9,-1724,-2.44062e-104,-9,-96.8048,-1627.2,3.044
1.4778,1.47636,0.571893,0.177465,0,1.68917e-10,0.00762795,-6.74225e-95,-9,-1724,-1.08472e-104,-9,-96.8048,-1627.2,3.048
1.4778,1.47636,0.571924,0.177465,0,1.12611e-10,0.00764475,-4.49483e-95,-9,-1724,-4.82098e-105,-9,-96.8048,-1627.2,3.052
1.4778,1.47636,0.571954,0.177465,0,7.50743e-11,0.00766157,-2.99655e-95,-9,-1724,-2.14266e-105,-9,-96.8048,-1627.2,3.056
1.4778,1.47636,0.571985,0.177465,0,5.00495e-11,0.0076784,-1.9977e-95,-9,-1724,-9.52293e-106,-9,-96.8048,-1627.2,3.06
1.4778,1.47636,0.572016,0.177465,0,3.33664e-11,0.00769523,-1.3318e-95,-9,-1725,-4.23241e-106,-9,-96.8048,-1628.2,3.064
1.4778,1.47636,0.572047,0.177465,0,2.22442e-11,0.00771208,-8.87868e-96,-9,-1725,-1.88107e-106,-9,-96.8048,-1628.2,3.068
1.4778,1.47636,0.572078,0.177465,0,1.48295e-11,0.00772893,-5.91912e-96,-9,-1725,-8.36032e-107,-9,-96.8048,-1628.2,3.072
1.4778,1.47636,0.572108,0.177465,0,9.88633e-12,0.0077458,-3.94608e-96,-9,-1725,-3.7157e-107,-9,-96.8048,-1628.2,3.076
1.4778,1.47636,0.572139,0.177465,0,6.59088e-12,0.00776268,-2.63072e-96,-9,-1725,-1.65142e-107,-9,-96.8048,-1628.2,3.08
1.4778,1.47636,0.572171,0.177465,0,4.39392e-12,0.00777956,-1.75381e-96,-9,-1725,-7.33965e-108,-9,-96.8048,-1628.2,3.084
1.4778,1.47636,0.572202,0.177465,0,2.92928e-12,0.00779646,-1.16921e-96,-9,-1725,-3.26207e-108,-9,-96.8048,-1628.2,3.088
1.4778,1.47636,0.572233,0.177465,0,1.95285e-12,0.00781336,-7.79473e-97,-9,-1726,-1.44981e-108,-9,-96.8048,-1629.2,3.092
1.4778,1.47636,0.572264,0.177465,0,1.3019e-12,0.00783028,-5.19648e-97,-9,-1726,-6.44359e-109,-9,-96.8048,-1629.2,3.096
1.4778,1.47636,0.572296,0.177465,0,8.67935e-13,0.0078472,-3.46432e-97,-9,-1726,-2.86382e-109,-9,-96.8048,-1629.2,3.1
1.4778,1.47636,0.572327,0.177465,0,5.78624e-13,0.00786413,-2.30955e-97,-9,-1726,-1.27281e-109,-9,-96.8048,-1629.2,3.104
1.4778,1.47636,0.572359,0.177465,0,3.85749e-13,0.00788108,-1.5397e-97,-9,-1726,-5.65692e-110,-9,-96.8048,-1629.2,3.108
1.4778,1.47636,0.57239,0.177465,0,2.57166e-13,0.00789803,-1.02647e-97,-9,-1726,-2.51419e-110,-9,-96.8048,-1629.2,3.112
1.4778,1.47636,0.572422,0.177465,0,1.71444e-13,0.00791499,-6.84311e-98,-9,-1726,-1.11742e-110,-9,-96.8048,-1629.2,3.116
1.4778,1.47636,0.572453,0.177465,0,1.14296e-13,0.00793197,-4.56207e-98,-9,-1727,-4.9663e-111,-9,-96.8048,-1630.2,3.12
1.4778,1.47636,0.572485,0.177465,0,7.61973e-14,0.00794895,-3.04138e-98,-9,-1727,-2.20724e-111,-9,-96.8048,-1630.2,3.124
1.4778,1.47636,0.572517,0.177465,0,5.07982e-14,0.00796594,-2.02759e-98,-9,-1727,-9.80997e-112,-9,-96.8048,-1630.2,3.128
1.4778,1.47636,0.572549,0.177465,0,3.38655e-14,0.00798294,-1.35172e-98,-9,-1727,-4.35999e-112,-9,-96.8048,-1630.2,3.132
1.4778,1.47636,0.572581,0.177465,0,2.2577e-14,0.00799995,-9.0115e-99,-9,-1727,-1.93777e-112,-9,-96.8048,-1630.2,3.136
1.4778,1.47636,0.572613,0.177465,0,1.50513e-14,0.00801697,-6.00767e-99,-9,-1727,-8.61232e-113,-9,-96.8048,-1630.2,3.14
1.4778,1.47636,0.572645,0.177465,0,1.00342e-14,0.008034,-4.00511e-99,-9,-1727,-3.8277e-113,-9,-96.8048,-1630.2,3.144
1.4778,1.47636,0.572677,0.177465,0,6.68948e-15,0.00805104,-2.67007e-99,-9,-1728,-1.7012e-113,-9,-96.8048,-1631.2,3.148
1.4778,1.47636,0.572709,0.177465,0,4.45965e-15,0.00806809,-1.78005e-99,-9,-1728,-7.56088e-114,-9,-96.8048,-1631.2,3.152
1.4778,1.47636,0.572742,0.177465,0,2.9731e-15,0.00808515,-1.1867e-99,-9,-1728,-3.36039e-114,-9,-96.8048,-1631.2,3.156
1.4778,1.47636,0.572774,0.177465,0,1.98207e-15,0.00810221,-7.91133e-100,-9,-1728,-1.49351e-114,-9,-96.8048,-1631.2,3.16
1.4778,1.47636,0.572807,0.177465,0,1.32138e-15,0.00811929,-5.27422e-100,-9,-1728,-6.63781e-115,-9,-96.8048,-1631.2,3.164
1.4778,1.47636,0.572839,0.177465,0,8.80919e-16,0.00813638,-3.51615e-100,-9,-1728,-2.95014e-115,-9,-96.8048,-1631.2,3.168
1.4778,1.47636,0.572872,0.177465,0,5.87279e-16,0.00815347,-2.3441e-100,-9,-1729,-1.31117e-115,-9,-96.8048,-1632.2,3.172
1.4778,1.47636,0.572904,0.177465,0,3.9152e-16,0.00817057,-1.56273e-100,-9,-1729,-5.82744e-116,-9,-96.8048,-1632.2,3.176
1.4778,1.47636,0.572937,0.177465,0,2.61013e-16,0.00818769,-1.04182e-100,-9,-1729,-2.58997e-116,-9,-96.8048,-1632.2,3.18
1.4778,1.47636,0.57297,0.177465,0,1.74009e-16,0.00820481,-6.94547e-101,-9,-1729,-1.1511e-116,-9,-96.8048,-1632.2,3.184
1.4778,1.47636,0.573003,0.177465,0,1.16006e-16,0.00822194,-4.63032e-101,-9,-1729,-5.11599e-117,-9,-96.8048,-1632.2,3.188
1.4778,1.47636,0.573036,0.177465,0,7.73372e-17,0.00823908,-3.08688e-101,-9,-1729,-2.27377e-117,-9,-96.8048,-1632.2,3.192
1.4778,1.47636,0.573069,0.177465,0,5.15581e-17,0.00825623,-2.05792e-101,-9,-1729,-1.01057e-117,-9,-96.8048,-1632.2,3.196
1.4778,1.47636,0.573102,0.177465,0,3.43721e-17,0.00827339,-1.37195e-101,-9,-1730,-4.49141e-118,-9,-96.8048,-1633.2,3.2
1.4778,1.47636,0.573135,0.177465,0,2.29147e-17,0.00829056,-9.1463e-102,-9,-1730,-1.99618e-118,-9,-96.8048,-1633.2,3.204
1.4778,1.47636,0.573168,0.177465,0,1.52765e-17,0.00830773,-6.09754e-102,-9,-1730,-8.87192e-119,-9,-96.8048,-1633.2,3.208
1.4778,1.47636,0.573201,0.177465,0,1.01843e-17,0.00832492,-4.06502e-102,-9,-1730,-3.94307e-119,-9,-96.8048,-1633.2,3.212
1.4778,1.47636,0.573234,0.177465,0,6.78955e-18,0.00834211,-2.71002e-102,-9,-1730,-1.75248e-119,-9,-96.8048,-1633.2,3.216
1.4778,1.47636,0.573268,0.177465,0,4.52637e-18,0.00835931,-1.80668e-102,-9,-1730,-7.78879e-120,-9,-96.8048,-1633.2,3.22
1.4778,1.47636,0.573301,0.177465,0,3.01758e-18,0.00837653,-1.20445e-102,-9,-1730,-3.46168e-120,-9,-96.8048,-1633.2,3.224
1.4778,1.47636,0.573335,0.177465,0,2.01172e-18,0.00839375,-8.02968e-103,-9,-1731,-1.53853e-120,-9,-96.8048,-1634.2,3.228
1.4778,1.47636,0.573369,0.177465,0,1.34115e-18,0.00841098,-5.35312e-103,-9,-1731,-6.83789e-121,-9,-96.8048,-1634.2,3.232
1.4778,1.47636,0.573402,0.177465,0,8.94097e-19,0.00842822,-3.56875e-103,-9,-1731,-3.03906e-121,-9,-96.8048,-1634.2,3.236
1.4778,1.47636,0.573436,0.177465,0,5.96065e-19,0.00844546,-2.37916e-103,-9,-1731,-1.35069e-121,-9,-96.8048,-1634.2,3.24
1.4778,1.47636,0.57347,0.177465,0,3.97376e-19,0.00846272,-1.58611e-103,-9,-1731,-6.00309e-122,-9,-96.8048,-1634.2,3.244
1.4778,1.47636,0.573504,0.177465,0,2.64918e-19,0.00847998,-1.05741e-103,-9,-1731,-2.66804e-122,-9,-96.8048,-1634.2,3.248
1.4778,1.47636,0.573538,0.177465,0,1.76612e-19,0.00849726,-7.04937e-104,-9,-1732,-1.1858e-122,-9,-96.8048,-1635.2,3.252
1.4778,1.47636,0.573572,0.177465,0,1.17741e-19,0.00851454,-4.69958e-104,-9,-1732,-5.2702e-123,-9,-96.8048,-1635.2,3.256
1.4778,1.47636,0.573606,0.177465,0,7.84941e-20,0.00853183,-3.13306e-104,-9,-1732,-2.34231e-123,-9,-96.8048,-1635.2,3.26
1.4778,1.47636,0.57364,0.177465,0,5.23294e-20,0.00854913,-2.0887e-104,-9,-1732,-1.04103e-123,-9,-96.8048,-1635.2,3.264
1.4778,1.47636,0.573674,0.177465,0,3.48863e-20,0.00856644,-1.39247e-104,-9,-1732,-4.62679e-124,-9,-96.8048,-1635.2,3.268
1.4778,1.47636,0.573708,0.177465,0,2.32575e-20,0.00858375,-9.28313e-105,-9,-1732,-2.05635e-124,-9,-96.8048,-1635.2,3.272
1.4778,1.47636,0.573743,0.177465,0,1.5505e-20,0.00860108,-6.18875e-105,-9,-1732,-9.13933e-125,-9,-96.8048,-1635.2,3.276
1.4778,1.47636,0.573777,0.177465,0,1.03367e-20,0.00861841,-4.12583e-105,-9,-1733,-4.06193e-125,-9,-96.8048,-1636.2,3.28
1.4778,1.47636,0.573812,0.177465,0,6.89111e-21,0.00863575,-2.75056e-105,-9,-1733,-1.8053e-125,-9,-96.8048,-1636.2,3.284
1.4778,1.47636,0.573846,0.177465,0,4.59408e-21,0.0086531,-1.8337e-105,-9,-1733,-8.02356e-126,-9,-96.8048,-1636.2,3.288
1.4778,1.47636,0.573881,0.177465,0,3.06272e-21,0.00867046,-1.22247e-105,-9,-1733,-3.56603e-126,-9,-96.8048,-1636.2,3.292
1.4778,1.47636,0.573916,0.177465,0,2.04181e-21,0.00868783,-8.1498e-106,-9,-1733,-1.5849e-126,-9,-96.8048,-1636.2,3.296
1.4778,1.47636,0.57395,0.177465,0,1.36121e-21,0.0087052,-5.4332e-106,-9,-1733,-7.044e-127,-9,-96.8048,-1636.2,3.3
1.4778,1.47636,0.573985,0.177465,0,9.07472e-22,0.00872259,-3.62213e-106,-9,-1734,-3.13067e-127,-9,-96.8048,-1637.2,3.304
1.4778,1.47636,0.57402,0.177465,0,-2.87909e-05,0.00873998,-2.41475e-106,-9,-1734,6.62168e-111,-9,-96.8048,-1637.2,3.308
1.4778,1.47636,0.574055,0.177465,0,9.59697e-06,0.00875738,-1.60984e-106,-9,-1734,-1.47148e-111,-9,-96.8048,-1637.2,3.312
1.4778,1.47636,0.57409,0.177465,0,6.39798e-06,0.00877479,-1.07322e-106,-9,-1734,-6.53993e-112,-9,-96.8048,-1637.2,3.316
1.4778,1.47636,0.574125,0.177465,0,4.26532e-06,0.0087922,-7.15483e-107,-9,-1734,-2.90664e-112,-9,-96.8048,-1637.2,3.32
1.4778,1.47636,0.574161,0.177465,0,2.84355e-06,0.00880963,-4.76988e-107,-9,-1734,-1.29184e-112,-9,-96.8048,-1637.2,3.324
1.4778,1.47636,0.574196,0.177465,0,1.8957e-06,0.00882706,-3.17992e-107,-9,-1735,-5.7415e-113,-9,-96.8048,-1638.2,3.328
1.4778,1.47636,0.574231,0.177465,0,1.2638e-06,0.0088445,-2.11995e-107,-9,-1735,-2.55178e-113,-9,-96.8048,-1638.2,3.332
1.4778,1.47636,0.574267,0.177465,0,8.42533e-07,0.00886195,-1.4133e-107,-9,-1735,-1.13412e-113,-9,-96.8048,-1638.2,3.336
1.4778,1.47636,0.574302,0.177465,0,5.61689e-07,0.00887941,-9.42199e-108,-9,-1735,-5.04055e-114,-9,-96.8048,-1638.2,3.34
1.4778,1.47636,0.574338,0.177465,0,3.74459e-07,0.00889687,-6.28133e-108,-9,-1735,-2.24024e-114,-9,-96.8048,-1638.2,3.344
1.4778,1.47636,0.574373,0.177465,0,2.49639e-07,0.00891435,-4.18755e-108,-9,-1735,-9.95664e-115,-9,-96.8048,-1638.2,3.348
1.4778,1.47636,0.574409,0.177465,0,1.66426e-07,0.00893183,-2.7917e-108,-9,-1735,-4.42517e-115,-9,-96.8048,-1638.2,3.352
1.4778,1.47636,0.574445,0.177465,0,1.10951e-07,0.00894932,-1.86113e-108,-9,-1736,-1.96674e-115,-9,-96.8048,-1639.2,3.356
1.4778,1.47636,0.574481,0.177465,0,7.39672e-08,0.00896681,-1.24076e-108,-9,-1736,-8.74109e-116,-9,-96.8048,-1639.2,3.36
1.4778,1.47636,0.574517,0.177465,0,4.93115e-08,0.00898432,-8.27171e-109,-9,-1736,-3.88493e-116,-9,-96.8048,-1639.2,3.364
1.4778,1.47636,0.574552,0.177465,0,3.28743e-08,0.00900183,-5.51447e-109,-9,-1736,-1.72663e-116,-9,-96.8048,-1639.2,3.368
1.4778,1.47636,0.574589,0.177465,0,2.19162e-08,0.00901935,-3.67632e-109,-9,-1736,-7.67393e-117,-9,-96.8048,-1639.2,3.372
