peachynonah/Fire_monitor_/csv_datas/trial11/cdsl_data_t11_11.csv
joint1_pos_desired, joint1_pos, joint2_pos_desired, joint2_pos, joint1_vel_desired, joint1_vel_filtered, joint2_vel_desired, joint2_vel_filtered, target_torque_joint1, target_torque_joint2, nonlinear_term_torque_joint1, PD_term_torque_joint1, nonlinear_term_torque_joint2, PD_term_torque_joint2, current_time
1.4778,1.47636,0.435153,0.042256,0,0,0.0999999,0,-9,-2872,0,-9,-98.2616,-2773.74,0.004
1.4778,1.47636,0.435553,0.042256,0,0,0.0999996,0,-9,-2875,0,-9,-98.2616,-2776.74,0.008
1.4778,1.47636,0.435953,0.0422712,0,0,0.0999991,0.0012668,-9,-2876,0,-9,-98.2616,-2777.74,0.012
1.4778,1.47636,0.436353,0.0424636,0,0,0.0999984,0.0168811,-9,-2865,0,-9,-98.2608,-2766.74,0.016
1.4778,1.47636,0.436753,0.0428378,0,2.87909e-05,0.0999975,0.0424346,-9,-2844,2.8652e-07,-9,-98.2592,-2745.74,0.02
1.4778,1.47636,0.437153,0.0433533,0,7.67758e-05,0.0999964,0.0712458,-9,-2820,1.29821e-06,-9,-98.257,-2721.74,0.024
1.4778,1.47636,0.437553,0.0439675,0,5.11839e-05,0.0999951,0.0986875,-9,-2796,1.21577e-06,-9,-98.2544,-2697.75,0.028
1.4778,1.47636,0.437953,0.0446506,0,9.17044e-05,0.0999937,0.122711,-9,-2774,2.75048e-06,-9,-98.2514,-2675.75,0.032
1.4778,1.47636,0.438353,0.045372,0,3.55444e-06,0.099992,0.141923,-9,-2756,1.25285e-07,-9,-98.2482,-2657.75,0.036
1.4778,1.47636,0.438753,0.0461041,0,2.36962e-06,0.0999901,0.155623,-9,-2742,9.30595e-08,-9,-98.2449,-2643.76,0.04
1.4778,1.47636,0.439153,0.0468344,0,1.57975e-06,0.099988,0.164613,-9,-2733,6.666e-08,-9,-98.2416,-2634.76,0.044
1.4778,1.47636,0.439553,0.0475171,0,1.05317e-06,0.0999858,0.166633,-9,-2729,4.56391e-08,-9,-98.2384,-2630.76,0.048
1.4778,1.47636,0.439953,0.0481794,0,7.02111e-07,0.0999833,0.166281,-9,-2728,3.07836e-08,-9,-98.2353,-2629.76,0.052
1.4778,1.47636,0.440353,0.0488134,0,4.68074e-07,0.0999806,0.163685,-9,-2728,2.04671e-08,-9,-98.2323,-2629.77,0.056
1.4778,1.47636,0.440753,0.049437,0,3.12049e-07,0.0999778,0.161091,-9,-2729,1.35995e-08,-9,-98.2293,-2630.77,0.06
1.4778,1.47636,0.441152,0.0500599,0,2.08033e-07,0.0999747,0.159304,-9,-2729,9.07834e-09,-9,-98.2262,-2630.77,0.064
1.4778,1.47636,0.441552,0.0506728,0,1.38689e-07,0.0999715,0.157278,-9,-2729,6.04815e-09,-9,-98.2232,-2630.78,0.068
1.4778,1.47636,0.441952,0.051302,0,9.2459e-08,0.0999681,0.15728,-9,-2727,4.08205e-09,-9,-98.22,-2628.78,0.072
1.4778,1.47636,0.442352,0.0519359,0,6.16393e-08,0.0999644,0.157685,-9,-2725,2.76196e-09,-9,-98.2168,-2626.78,0.076
1.4778,1.47636,0.442752,0.0525737,0,4.10929e-08,0.0999606,0.158271,-9,-2723,1.87077e-09,-9,-98.2135,-2624.79,0.08
1.4778,1.47636,0.443152,0.0532177,0,2.73953e-08,0.0999566,0.15918,-9,-2721,1.26965e-09,-9,-98.2102,-2622.79,0.084
1.4778,1.47636,0.443552,0.0538507,0,1.82635e-08,0.0999524,0.158865,-9,-2719,8.54766e-10,-9,-98.2069,-2620.79,0.088
1.4778,1.47636,0.443951,0.054485,0,1.21757e-08,0.099948,0.15877,-9,-2718,5.76186e-10,-9,-98.2035,-2619.8,0.092
1.4778,1.47636,0.444351,0.0551069,0,8.11712e-09,0.0999434,0.157671,-9,-2717,3.85799e-10,-9,-98.2001,-2618.8,0.096
1.4778,1.47636,0.444751,0.0557218,0,5.41141e-09,0.0999387,0.156362,-9,-2717,2.57899e-10,-9,-98.1968,-2618.8,0.1
1.4778,1.47636,0.445151,0.0563323,0,3.60761e-09,0.0999337,0.155115,-9,-2716,1.72422e-10,-9,-98.1934,-2617.81,0.104
1.4778,1.47636,0.44555,0.0569286,0,2.40507e-09,0.0999285,0.153103,-9,-2717,1.14653e-10,-9,-98.1901,-2618.81,0.108
1.4778,1.47636,0.44595,0.0575205,0,1.60338e-09,0.0999232,0.151387,-9,-2717,7.63614e-11,-9,-98.1868,-2618.81,0.112
1.4778,1.47636,0.44635,0.0581033,0,5.75829e-05,0.0999176,0.149495,-9,-2717,2.73544e-06,-9,-98.1835,-2618.82,0.116
1.4778,1.47636,0.446749,0.0586934,0,-1.91932e-05,0.0999119,0.148838,-10,-2716,-9.16934e-07,-10,-98.1801,-2617.82,0.12
1.4778,1.47636,0.447149,0.0592904,0,-1.27955e-05,0.099906,0.148976,-10,-2715,-6.1805e-07,-10,-98.1766,-2616.82,0.124
1.4778,1.47636,0.447549,0.0598947,0,4.90515e-05,0.0998999,0.149673,-9,-2713,2.40452e-06,-9,-98.1731,-2614.83,0.128
1.4778,1.47636,0.447948,0.0605072,0,-2.48808e-05,0.0998936,0.150828,-10,-2710,-1.24159e-06,-10,-98.1695,-2611.83,0.132
1.4778,1.47636,0.448348,0.061127,0,-1.65872e-05,0.0998871,0.152203,-10,-2708,-8.43784e-07,-10,-98.1657,-2609.83,0.136
1.4778,1.47636,0.448747,0.0617555,0,-1.10581e-05,0.0998804,0.153839,-10,-2705,-5.74386e-07,-10,-98.162,-2606.84,0.14
1.4778,1.47636,0.449147,0.0623839,0,-3.6163e-05,0.0998735,0.15493,-10,-2702,-1.91086e-06,-10,-98.1581,-2603.84,0.144
1.4778,1.47636,0.449546,0.0630131,0,4.68224e-06,0.0998665,0.155715,-9,-2700,2.51159e-07,-9,-98.1542,-2601.85,0.148
1.4778,1.47636,0.449946,0.0636374,0,3.12149e-06,0.0998593,0.155835,-9,-2698,1.6922e-07,-9,-98.1504,-2599.85,0.152
1.4778,1.47636,0.450345,0.0642662,0,2.081e-06,0.0998518,0.15629,-9,-2697,1.14254e-07,-9,-98.1464,-2598.85,0.156
1.4778,1.47636,0.450745,0.0648957,0,5.89692e-05,0.0998442,0.15665,-9,-2695,3.27669e-06,-9,-98.1424,-2596.86,0.16
1.4778,1.47636,0.451144,0.0655279,0,-4.706e-05,0.0998364,0.157121,-10,-2693,-2.6482e-06,-10,-98.1384,-2594.86,0.164
1.4778,1.47636,0.451543,0.0661643,0,-2.5824e-06,0.0998284,0.15778,-9,-2690,-1.47338e-07,-9,-98.1342,-2591.87,0.168
1.4778,1.47636,0.451943,0.0667976,0,5.58602e-05,0.0998203,0.157961,-9,-2689,3.22109e-06,-9,-98.1301,-2590.87,0.172
1.4778,1.47636,0.452342,0.0674437,0,3.72402e-05,0.0998119,0.159146,-9,-2686,2.18431e-06,-9,-98.1258,-2587.87,0.176
1.4778,1.47636,0.452741,0.0680928,0,-3.27551e-05,0.0998034,0.160196,-10,-2683,-1.95241e-06,-10,-98.1215,-2584.88,0.18
1.4778,1.47636,0.45314,0.068741,0,-2.18367e-05,0.0997947,0.160809,-10,-2681,-1.31895e-06,-10,-98.1172,-2582.88,0.184
1.4778,1.47636,0.453539,0.0693912,0,4.3024e-05,0.0997858,0.16139,-9,-2679,2.63258e-06,-9,-98.1127,-2580.89,0.188
1.4778,1.47636,0.453939,0.0700421,0,-1.08232e-07,0.0997767,0.161836,-9,-2677,-6.70269e-09,-9,-98.1083,-2578.89,0.192
1.4778,1.47636,0.454338,0.0706909,0,-2.88631e-05,0.0997674,0.16196,-10,-2675,-1.8053e-06,-10,-98.1038,-2576.9,0.196
1.4778,1.47636,0.454737,0.0713387,0,-1.92421e-05,0.0997579,0.161956,-10,-2673,-1.21446e-06,-10,-98.0993,-2574.9,0.2
1.4778,1.47636,0.455136,0.0719786,0,-1.2828e-05,0.0997483,0.161292,-10,-2672,-8.13499e-07,-10,-98.0948,-2573.91,0.204
1.4778,1.47636,0.455535,0.0726208,0,-8.55202e-06,0.0997385,0.16105,-9,-2671,-5.46319e-07,-9,-98.0902,-2572.91,0.208
1.4778,1.47636,0.455934,0.0732659,0,-5.70135e-06,0.0997285,0.161119,-9,-2669,-3.67583e-07,-9,-98.0856,-2570.91,0.212
1.4778,1.47636,0.456333,0.0739126,0,-3.8009e-06,0.0997183,0.16131,-9,-2667,-2.47494e-07,-9,-98.0809,-2568.92,0.216
1.4778,1.47636,0.456731,0.0745673,0,5.50479e-05,0.0997079,0.162098,-9,-2665,3.63363e-06,-9,-98.0761,-2566.92,0.22
1.4778,1.47636,0.45713,0.075229,0,-2.08832e-05,0.0996974,0.1632,-10,-2662,-1.40006e-06,-10,-98.0713,-2563.93,0.224
1.4778,1.47636,0.457529,0.075894,0,-4.27131e-05,0.0996866,0.164223,-10,-2659,-2.90681e-06,-10,-98.0663,-2560.93,0.228
1.4778,1.47636,0.457928,0.076565,0,3.15536e-07,0.0996757,0.165394,-9,-2656,2.18164e-08,-9,-98.0613,-2557.94,0.232
1.4778,1.47636,0.458326,0.0772318,0,2.10357e-07,0.0996646,0.165829,-9,-2654,1.47085e-08,-9,-98.0563,-2555.94,0.236
1.4778,1.47636,0.458725,0.0779038,0,2.89312e-05,0.0996533,0.166551,-9,-2652,2.04926e-06,-9,-98.0511,-2553.95,0.24
1.4778,1.47636,0.459124,0.0785781,0,-3.82944e-05,0.0996419,0.167234,-10,-2649,-2.74698e-06,-10,-98.046,-2550.95,0.244
1.4778,1.47636,0.459522,0.0792546,0,3.26132e-06,0.0996303,0.167862,-9,-2647,2.36828e-07,-9,-98.0407,-2548.96,0.248
1.4778,1.47636,0.459921,0.0799252,0,2.17421e-06,0.0996184,0.167791,-9,-2645,1.59143e-07,-9,-98.0355,-2546.96,0.252
1.4778,1.47636,0.460319,0.0805996,0,1.44948e-06,0.0996064,0.168061,-9,-2643,1.07155e-07,-9,-98.0302,-2544.97,0.256
1.4778,1.47636,0.460718,0.081274,0,2.97572e-05,0.0995943,0.16824,-9,-2641,2.22046e-06,-9,-98.0248,-2542.98,0.26
1.4778,1.47636,0.461116,0.0819453,0,-8.95276e-06,0.0995819,0.168101,-9,-2639,-6.72959e-07,-9,-98.0194,-2540.98,0.264
1.4778,1.47636,0.461514,0.0826114,0,2.28224e-05,0.0995694,0.167576,-9,-2638,1.72393e-06,-9,-98.014,-2539.99,0.268
1.4778,1.47636,0.461912,0.0832744,0,-1.3576e-05,0.0995567,0.166967,-9,-2636,-1.02988e-06,-9,-98.0086,-2537.99,0.272
1.4778,1.47636,0.462311,0.0839388,0,-9.05065e-06,0.0995438,0.166676,-9,-2635,-6.90809e-07,-9,-98.0032,-2537,0.276
1.4778,1.47636,0.462709,0.0845997,0,-6.03377e-06,0.0995308,0.166195,-9,-2633,-4.6279e-07,-9,-97.9977,-2535,0.28
1.4778,1.47636,0.463107,0.0852548,0,2.47684e-05,0.0995175,0.165384,-9,-2632,1.90497e-06,-9,-97.9922,-2534.01,0.284
1.4778,1.47636,0.463505,0.0859105,0,1.65123e-05,0.0995041,0.164901,-9,-2631,1.27591e-06,-9,-97.9867,-2533.01,0.288
1.4778,1.47636,0.463903,0.0865635,0,1.10082e-05,0.0994905,0.164349,-9,-2630,8.5414e-07,-9,-97.9812,-2532.02,0.292
1.4778,1.47636,0.464301,0.0872244,0,-2.14521e-05,0.0994768,0.164643,-10,-2627,-1.68008e-06,-10,-97.9755,-2529.02,0.296
1.4778,1.47636,0.464699,0.0878691,0,-1.43014e-05,0.0994628,0.163486,-9,-2627,-1.12032e-06,-9,-97.97,-2529.03,0.3
1.4778,1.47636,0.465097,0.0885245,0,1.92566e-05,0.0994487,0.163607,-9,-2625,1.52075e-06,-9,-97.9643,-2527.04,0.304
1.4778,1.47636,0.465494,0.0891723,0,1.28378e-05,0.0994344,0.163054,-9,-2624,1.01772e-06,-9,-97.9587,-2526.04,0.308
1.4778,1.47636,0.465892,0.0898253,0,8.55851e-06,0.0994199,0.163118,-9,-2622,6.83663e-07,-9,-97.9529,-2524.05,0.312
1.4778,1.47636,0.46629,0.0904748,0,5.70567e-06,0.0994053,0.162872,-9,-2620,4.58344e-07,-9,-97.9472,-2522.05,0.316
1.4778,1.47636,0.466687,0.091126,0,3.80378e-06,0.0993905,0.162852,-9,-2618,3.077e-07,-9,-97.9414,-2520.06,0.32
1.4778,1.47636,0.467085,0.0917776,0,2.53585e-06,0.0993755,0.162868,-9,-2617,2.06604e-07,-9,-97.9355,-2519.06,0.324
1.4778,1.47636,0.467482,0.092431,0,1.69057e-06,0.0993603,0.163022,-9,-2615,1.38837e-07,-9,-97.9296,-2517.07,0.328
1.4778,1.47636,0.46788,0.0930798,0,1.12705e-06,0.099345,0.162751,-9,-2613,9.30448e-08,-9,-97.9237,-2515.08,0.332
1.4778,1.47636,0.468277,0.0937228,0,7.51364e-07,0.0993295,0.16208,-9,-2612,6.21961e-08,-9,-97.9178,-2514.08,0.336
1.4778,1.47636,0.468674,0.0943709,0,-2.829e-05,0.0993138,0.162065,-10,-2610,-2.35756e-06,-10,-97.9118,-2512.09,0.34
1.4778,1.47636,0.469072,0.0950177,0,9.93091e-06,0.099298,0.16194,-9,-2609,8.32558e-07,-9,-97.9058,-2511.09,0.344
1.4778,1.47636,0.469469,0.0956654,0,6.62061e-06,0.0992819,0.161943,-9,-2607,5.58786e-07,-9,-97.8997,-2509.1,0.348
1.4778,1.47636,0.469866,0.0963098,0,-2.43772e-05,0.0992657,0.161657,-10,-2606,-2.06749e-06,-10,-97.8937,-2508.11,0.352
1.4778,1.47636,0.470263,0.0969538,0,1.25395e-05,0.0992494,0.161438,-9,-2604,1.06907e-06,-9,-97.8875,-2506.11,0.356
1.4778,1.47636,0.47066,0.0976068,0,-2.04313e-05,0.0992328,0.16204,-10,-2602,-1.76003e-06,-10,-97.8813,-2504.12,0.36
1.4778,1.47636,0.471057,0.098259,0,-1.36209e-05,0.0992161,0.162384,-9,-2600,-1.1836e-06,-9,-97.875,-2502.12,0.364
1.4778,1.47636,0.471454,0.0989127,0,-9.08057e-06,0.0991993,0.162728,-9,-2598,-7.95931e-07,-9,-97.8687,-2500.13,0.368
1.4778,1.47636,0.47185,0.099573,0,2.27372e-05,0.0991822,0.163505,-9,-2595,2.01567e-06,-9,-97.8623,-2497.14,0.372
1.4778,1.47636,0.472247,0.100232,0,-1.36328e-05,0.099165,0.163936,-9,-2593,-1.21966e-06,-9,-97.8558,-2495.14,0.376
1.4778,1.47636,0.472644,0.100897,0,1.97024e-05,0.0991476,0.164685,-9,-2591,1.7823e-06,-9,-97.8492,-2493.15,0.38
1.4778,1.47636,0.47304,0.101563,0,1.31349e-05,0.09913,0.16527,-9,-2588,1.20019e-06,-9,-97.8426,-2490.16,0.384
1.4778,1.47636,0.473437,0.102225,0,8.75662e-06,0.0991123,0.165343,-9,-2586,8.05624e-07,-9,-97.836,-2488.16,0.388
1.4778,1.47636,0.473833,0.102891,0,5.83775e-06,0.0990944,0.165795,-9,-2584,5.42014e-07,-9,-97.8293,-2486.17,0.392
1.4778,1.47636,0.474229,0.103555,0,3.89183e-06,0.0990764,0.165838,-9,-2582,3.63733e-07,-9,-97.8226,-2484.18,0.396
1.4778,1.47636,0.474626,0.104217,0,-2.61964e-05,0.0990581,0.165751,-10,-2580,-2.46247e-06,-10,-97.8158,-2482.18,0.4
1.4778,1.47636,0.475022,0.10488,0,1.13267e-05,0.0990397,0.16575,-9,-2579,1.07138e-06,-9,-97.809,-2481.19,0.404
1.4778,1.47636,0.475418,0.105544,0,7.55112e-06,0.0990212,0.165836,-9,-2577,7.19083e-07,-9,-97.8022,-2479.2,0.408
1.4778,1.47636,0.475814,0.106211,0,5.03408e-06,0.0990024,0.166095,-9,-2574,4.83124e-07,-9,-97.7952,-2476.2,0.412
1.4778,1.47636,0.47621,0.106877,0,3.35605e-06,0.0989835,0.166268,-9,-2572,3.24409e-07,-9,-97.7883,-2474.21,0.416
1.4778,1.47636,0.476606,0.10754,0,2.23737e-06,0.0989645,0.166095,-9,-2571,2.17368e-07,-9,-97.7813,-2473.22,0.42
1.4778,1.47636,0.477002,0.108205,0,1.49158e-06,0.0989452,0.166153,-9,-2569,1.45845e-07,-9,-97.7742,-2471.23,0.424
1.4778,1.47636,0.477397,0.108876,0,-2.77965e-05,0.0989259,0.166623,-10,-2567,-2.74221e-06,-10,-97.7671,-2469.23,0.428
1.4778,1.47636,0.477793,0.109548,0,1.02599e-05,0.0989063,0.167109,-9,-2564,1.02129e-06,-9,-97.7599,-2466.24,0.432
1.4778,1.47636,0.478189,0.110216,0,6.83993e-06,0.0988866,0.167116,-9,-2562,6.8498e-07,-9,-97.7527,-2464.25,0.436
1.4778,1.47636,0.478584,0.110896,0,4.55996e-06,0.0988667,0.168014,-9,-2560,4.61889e-07,-9,-97.7453,-2462.25,0.44
1.4778,1.47636,0.47898,0.111579,0,3.03997e-06,0.0988466,0.168958,-9,-2557,3.11532e-07,-9,-97.7378,-2459.26,0.444
1.4778,1.47636,0.479375,0.112266,0,2.02665e-06,0.0988264,0.169875,-9,-2554,2.10079e-07,-9,-97.7303,-2456.27,0.448
1.4778,1.47636,0.47977,0.112948,0,1.3511e-06,0.098806,0.170054,-9,-2552,1.41038e-07,-9,-97.7228,-2454.28,0.452
1.4778,1.47636,0.480165,0.113628,0,9.00732e-07,0.0987855,0.17003,-9,-2550,9.45678e-08,-9,-97.7152,-2452.28,0.456
1.4778,1.47636,0.480561,0.114307,0,-2.81904e-05,0.0987647,0.169956,-10,-2548,-2.97581e-06,-10,-97.7076,-2450.29,0.46
1.4778,1.47636,0.480956,0.114981,0,9.9973e-06,0.0987439,0.169475,-9,-2547,1.05843e-06,-9,-97.7,-2449.3,0.464
1.4778,1.47636,0.48135,0.115652,0,-2.21261e-05,0.0987228,0.168924,-10,-2545,-2.3483e-06,-10,-97.6924,-2447.31,0.468
1.4778,1.47636,0.481745,0.116323,0,1.40402e-05,0.0987016,0.168499,-9,-2544,1.49484e-06,-9,-97.6848,-2446.32,0.472
1.4778,1.47636,0.48214,0.116994,0,9.36015e-06,0.0986803,0.168302,-9,-2542,1.00104e-06,-9,-97.6771,-2444.32,0.476
1.4778,1.47636,0.482535,0.117668,0,6.2401e-06,0.0986587,0.168373,-9,-2540,6.71413e-07,-9,-97.6694,-2442.33,0.48
1.4778,1.47636,0.482929,0.118348,0,4.16007e-06,0.0986371,0.16888,-9,-2537,4.51503e-07,-9,-97.6615,-2439.34,0.484
1.4778,1.47636,0.483324,0.119023,0,2.77338e-06,0.0986152,0.168844,-9,-2535,3.02622e-07,-9,-97.6536,-2437.35,0.488
1.4778,1.47636,0.483718,0.119704,0,1.84892e-06,0.0985932,0.16931,-9,-2533,2.03439e-07,-9,-97.6456,-2435.35,0.492
1.4778,1.47636,0.484113,0.120382,0,1.23261e-06,0.098571,0.169361,-9,-2531,1.36421e-07,-9,-97.6377,-2433.36,0.496
1.4778,1.47636,0.484507,0.121057,0,8.21741e-07,0.0985487,0.169194,-9,-2529,9.1357e-08,-9,-97.6297,-2431.37,0.5
1.4778,1.47636,0.484901,0.121732,0,5.47827e-07,0.0985262,0.169024,-9,-2527,6.11762e-08,-9,-97.6216,-2429.38,0.504
1.4778,1.47636,0.485295,0.122408,0,-2.84257e-05,0.0985036,0.169027,-10,-2525,-3.19164e-06,-10,-97.6135,-2427.39,0.508
1.4778,1.47636,0.485689,0.123082,0,9.84045e-06,0.0984808,0.168798,-9,-2524,1.10934e-06,-9,-97.6054,-2426.39,0.512
1.4778,1.47636,0.486083,0.123751,0,6.5603e-06,0.0984578,0.168358,-9,-2522,7.41561e-07,-9,-97.5973,-2424.4,0.516
1.4778,1.47636,0.486477,0.124424,0,4.37354e-06,0.0984347,0.168323,-9,-2520,4.96905e-07,-9,-97.5891,-2422.41,0.52
1.4778,1.47636,0.48687,0.125099,0,-2.58752e-05,0.0984114,0.168415,-10,-2518,-2.95707e-06,-10,-97.5809,-2420.42,0.524
1.4778,1.47636,0.487264,0.125774,0,1.15408e-05,0.0983879,0.168534,-9,-2516,1.32681e-06,-9,-97.5726,-2418.43,0.528
1.4778,1.47636,0.487657,0.126446,0,-2.10971e-05,0.0983643,0.168383,-9,-2514,-2.43597e-06,-9,-97.5642,-2416.44,0.532
1.4778,1.47636,0.488051,0.12712,0,1.47262e-05,0.0983406,0.168427,-9,-2512,1.70967e-06,-9,-97.5559,-2414.44,0.536
1.4778,1.47636,0.488444,0.127795,0,9.81747e-06,0.0983167,0.168513,-9,-2510,1.14628e-06,-9,-97.5474,-2412.45,0.54
1.4778,1.47636,0.488837,0.12847,0,6.54498e-06,0.0982926,0.168571,-9,-2508,7.68397e-07,-9,-97.5389,-2410.46,0.544
1.4778,1.47636,0.489231,0.129144,0,4.36332e-06,0.0982684,0.168523,-9,-2506,5.14745e-07,-9,-97.5304,-2408.47,0.548
1.4778,1.47636,0.489624,0.129814,0,2.90888e-06,0.098244,0.168203,-9,-2505,3.44249e-07,-9,-97.5219,-2407.48,0.552
1.4778,1.47636,0.490017,0.130487,0,-2.68517e-05,0.0982194,0.168278,-10,-2503,-3.19528e-06,-10,-97.5133,-2405.49,0.556
1.4778,1.47636,0.490409,0.131167,0,1.08898e-05,0.0981947,0.168788,-9,-2500,1.3064e-06,-9,-97.5046,-2402.5,0.56
1.4778,1.47636,0.490802,0.131848,0,7.25987e-06,0.0981699,0.169301,-9,-2498,8.78012e-07,-9,-97.4958,-2400.5,0.564
1.4778,1.47636,0.491195,0.132531,0,4.83992e-06,0.0981449,0.169787,-9,-2495,5.89992e-07,-9,-97.487,-2397.51,0.568
1.4778,1.47636,0.491587,0.133218,0,3.22661e-06,0.0981197,0.170456,-9,-2493,3.96878e-07,-9,-97.478,-2395.52,0.572
1.4778,1.47636,0.49198,0.133905,0,2.15107e-06,0.0980944,0.170903,-9,-2490,2.66613e-07,-9,-97.469,-2392.53,0.576
1.4778,1.47636,0.492372,0.134592,0,1.43405e-06,0.0980689,0.171143,-9,-2488,1.78882e-07,-9,-97.46,-2390.54,0.58
1.4778,1.47636,0.492764,0.135275,0,9.56033e-07,0.0980433,0.171044,-9,-2486,1.19776e-07,-9,-97.4509,-2388.55,0.584
1.4778,1.47636,0.493156,0.135957,0,6.37355e-07,0.0980175,0.170862,-9,-2484,8.01583e-08,-9,-97.4419,-2386.56,0.588
1.4778,1.47636,0.493548,0.136636,0,4.24903e-07,0.0979916,0.170482,-9,-2483,5.35797e-08,-9,-97.4328,-2385.57,0.592
1.4778,1.47636,0.49394,0.137313,0,2.83269e-07,0.0979655,0.170056,-9,-2481,3.58025e-08,-9,-97.4237,-2383.58,0.596
1.4778,1.47636,0.494332,0.137991,0,1.88846e-07,0.0979392,0.16983,-9,-2479,2.39512e-08,-9,-97.4146,-2381.59,0.6
1.4778,1.47636,0.494724,0.13867,0,-2.8665e-05,0.0979128,0.169823,-10,-2477,-3.65285e-06,-10,-97.4054,-2379.59,0.604
1.4778,1.47636,0.495115,0.139345,0,9.68091e-06,0.0978863,0.169502,-9,-2476,1.23717e-06,-9,-97.3961,-2378.6,0.608
1.4778,1.47636,0.495507,0.140021,0,6.45394e-06,0.0978596,0.169316,-9,-2474,8.27766e-07,-9,-97.3869,-2376.61,0.612
1.4778,1.47636,0.495898,0.140697,0,4.30263e-06,0.0978328,0.169192,-9,-2472,5.54032e-07,-9,-97.3776,-2374.62,0.616
1.4778,1.47636,0.49629,0.141371,0,2.86842e-06,0.0978058,0.168966,-9,-2470,3.70581e-07,-9,-97.3683,-2372.63,0.62
1.4778,1.47636,0.496681,0.142041,0,1.91228e-06,0.0977786,0.16847,-9,-2469,2.47464e-07,-9,-97.359,-2371.64,0.624
1.4778,1.47636,0.497072,0.142702,0,1.27485e-06,0.0977513,0.167419,-9,-2468,1.64689e-07,-9,-97.3497,-2370.65,0.628
1.4778,1.47636,0.497463,0.143364,0,8.49901e-07,0.0977238,0.166805,-9,-2466,1.09884e-07,-9,-97.3405,-2368.66,0.632
1.4778,1.47636,0.497854,0.144021,0,5.66601e-07,0.0976962,0.165935,-9,-2465,7.31984e-08,-9,-97.3312,-2367.67,0.636
1.4778,1.47636,0.498244,0.144682,0,3.77734e-07,0.0976685,0.1657,-9,-2463,4.89473e-08,-9,-97.3219,-2365.68,0.64
1.4778,1.47636,0.498635,0.145346,0,2.51823e-07,0.0976406,0.165832,-9,-2461,3.28032e-08,-9,-97.3124,-2363.69,0.644
1.4778,1.47636,0.499025,0.146011,0,1.67882e-07,0.0976125,0.165919,-9,-2459,2.19775e-08,-9,-97.3029,-2361.7,0.648
1.4778,1.47636,0.499416,0.146674,0,1.11921e-07,0.0975843,0.16592,-9,-2457,1.47164e-08,-9,-97.2934,-2359.71,0.652
1.4778,1.47636,0.499806,0.147338,0,7.46141e-08,0.097556,0.16595,-9,-2456,9.85583e-09,-9,-97.2838,-2358.72,0.656
1.4778,1.47636,0.500196,0.147998,0,4.97427e-08,0.0975275,0.165595,-9,-2454,6.585e-09,-9,-97.2743,-2356.73,0.66
1.4778,1.47636,0.500586,0.14866,0,3.31618e-08,0.0974988,0.165531,-9,-2452,4.40735e-09,-9,-97.2647,-2354.74,0.664
1.4778,1.47636,0.500976,0.14932,0,2.21079e-08,0.09747,0.165374,-9,-2450,2.94808e-09,-9,-97.255,-2352.74,0.668
1.4778,1.47636,0.501366,0.149983,0,1.47386e-08,0.0974411,0.16547,-9,-2448,1.975e-09,-9,-97.2453,-2350.75,0.672
1.4778,1.47636,0.501756,0.150645,0,9.82573e-09,0.097412,0.165534,-9,-2446,1.32282e-09,-9,-97.2356,-2348.76,0.676
1.4778,1.47636,0.502145,0.151313,0,6.55048e-09,0.0973828,0.16598,-9,-2444,8.88053e-10,-9,-97.2257,-2346.77,0.68
1.4778,1.47636,0.502535,0.151992,0,4.36699e-09,0.0973534,0.167228,-9,-2441,5.99078e-10,-9,-97.2156,-2343.78,0.684
1.4778,1.47636,0.502924,0.152668,0,2.91133e-09,0.0973238,0.167829,-9,-2439,4.02549e-10,-9,-97.2055,-2341.79,0.688
1.4778,1.47636,0.503313,0.153349,0,1.94088e-09,0.0972942,0.168633,-9,-2436,2.70816e-10,-9,-97.1953,-2338.8,0.692
1.4778,1.47636,0.503703,0.154023,0,1.29392e-09,0.0972643,0.168593,-9,-2434,1.8127e-10,-9,-97.1852,-2336.81,0.696
1.4778,1.47636,0.504092,0.154693,0,8.62615e-10,0.0972344,0.16825,-9,-2432,1.21108e-10,-9,-97.175,-2334.82,0.7
1.4778,1.47636,0.50448,0.155362,0,5.75077e-10,0.0972043,0.167935,-9,-2431,8.09251e-11,-9,-97.1649,-2333.84,0.704
1.4778,1.47636,0.504869,0.156027,0,3.83384e-10,0.097174,0.167321,-9,-2429,5.39754e-11,-9,-97.1547,-2331.85,0.708
1.4778,1.47636,0.505258,0.156693,0,2.5559e-10,0.0971436,0.167056,-9,-2427,3.6075e-11,-9,-97.1445,-2329.86,0.712
1.4778,1.47636,0.505646,0.157365,0,1.70393e-10,0.097113,0.167369,-9,-2425,2.41949e-11,-9,-97.1342,-2327.87,0.716
1.4778,1.47636,0.506035,0.158033,0,1.13595e-10,0.0970824,0.16729,-9,-2423,1.61885e-11,-9,-97.1239,-2325.88,0.72
1.4778,1.47636,0.506423,0.158703,0,7.57303e-11,0.0970515,0.167323,-9,-2421,1.08387e-11,-9,-97.1135,-2323.89,0.724
1.4778,1.47636,0.506811,0.159373,0,5.04868e-11,0.0970205,0.167403,-9,-2419,7.25874e-12,-9,-97.103,-2321.9,0.728
1.4778,1.47636,0.507199,0.160045,0,3.36579e-11,0.0969894,0.167601,-9,-2417,4.86459e-12,-9,-97.0925,-2319.91,0.732
1.4778,1.47636,0.507587,0.160717,0,2.24386e-11,0.0969581,0.167703,-9,-2415,3.25819e-12,-9,-97.082,-2317.92,0.736
1.4778,1.47636,0.507975,0.161393,0,1.49591e-11,0.0969267,0.168175,-9,-2413,2.18708e-12,-9,-97.0713,-2315.93,0.74
1.4778,1.47636,0.508362,0.162069,0,9.97271e-12,0.0968952,0.168432,-9,-2410,1.46618e-12,-9,-97.0606,-2312.94,0.744
1.4778,1.47636,0.50875,0.162752,0,6.64847e-12,0.0968635,0.169236,-9,-2408,9.86118e-13,-9,-97.0498,-2310.95,0.748
1.4778,1.47636,0.509137,0.163437,0,4.43232e-12,0.0968317,0.169859,-9,-2405,6.62507e-13,-9,-97.0388,-2307.96,0.752
1.4778,1.47636,0.509525,0.164125,0,2.95488e-12,0.0967997,0.170591,-9,-2402,4.45374e-13,-9,-97.0278,-2304.97,0.756
1.4778,1.47636,0.509912,0.16481,0,1.96992e-12,0.0967676,0.170848,-9,-2400,2.98561e-13,-9,-97.0167,-2302.98,0.76
1.4778,1.47636,0.510299,0.1655,0,1.31328e-12,0.0967353,0.171366,-9,-2398,2.00448e-13,-9,-97.0056,-2300.99,0.764
1.4778,1.47636,0.510686,0.166191,0,8.75519e-13,0.0967029,0.171797,-9,-2395,1.34507e-13,-9,-96.9944,-2298.01,0.768
1.4778,1.47636,0.511072,0.166877,0,5.83679e-13,0.0966704,0.171739,-9,-2393,8.99973e-14,-9,-96.9832,-2296.02,0.772
1.4778,1.47636,0.511459,0.167561,0,3.8912e-13,0.0966377,0.171527,-9,-2391,6.01609e-14,-9,-96.972,-2294.03,0.776
1.4778,1.47636,0.511845,0.168244,0,2.59413e-13,0.0966049,0.171242,-9,-2389,4.01976e-14,-9,-96.9608,-2292.04,0.78
1.4778,1.47636,0.512232,0.168921,0,1.72942e-13,0.0965719,0.170563,-9,-2388,2.67953e-14,-9,-96.9496,-2291.05,0.784
1.4778,1.47636,0.512618,0.169595,0,1.15295e-13,0.0965388,0.169851,-9,-2386,1.78572e-14,-9,-96.9384,-2289.06,0.788
1.4778,1.47636,0.513004,0.17027,0,7.68631e-14,0.0965056,0.169491,-9,-2385,1.1925e-14,-9,-96.9272,-2288.07,0.792
1.4778,1.47636,0.51339,0.17094,0,5.12421e-14,0.0964722,0.168877,-9,-2383,7.95121e-15,-9,-96.916,-2286.08,0.796
1.4778,1.47636,0.513776,0.171605,0,-2.87909e-05,0.0964387,0.16795,-9,-2382,-4.45952e-06,-9,-96.9049,-2285.1,0.8
1.4778,1.47636,0.514162,0.17227,0,9.59697e-06,0.096405,0.167418,-9,-2380,1.48731e-06,-9,-96.8937,-2283.11,0.804
1.4778,1.47636,0.514547,0.172937,0,6.39798e-06,0.0963712,0.167207,-9,-2379,9.93977e-07,-9,-96.8824,-2282.12,0.808
1.4778,1.47636,0.514933,0.17361,0,4.26532e-06,0.0963373,0.167556,-9,-2376,6.66514e-07,-9,-96.871,-2279.13,0.812
1.4778,1.47636,0.515318,0.174286,0,2.84355e-06,0.0963032,0.168048,-9,-2374,4.47312e-07,-9,-96.8595,-2277.14,0.816
1.4778,1.47636,0.515703,0.174965,0,1.8957e-06,0.096269,0.168577,-9,-2371,3.00264e-07,-9,-96.8479,-2274.15,0.82
1.4778,1.47636,0.516088,0.175642,0,1.2638e-06,0.0962347,0.168786,-9,-2369,2.01167e-07,-9,-96.8363,-2272.16,0.824
1.4778,1.47636,0.516473,0.176319,0,8.42533e-07,0.0962002,0.168926,-9,-2367,1.34718e-07,-9,-96.8246,-2270.18,0.828
1.4778,1.47636,0.516858,0.176998,0,5.61689e-07,0.0961656,0.169249,-9,-2365,9.0316e-08,-9,-96.8129,-2268.19,0.832
1.4778,1.47636,0.517242,0.177676,0,3.74459e-07,0.0961308,0.169349,-9,-2363,6.04674e-08,-9,-96.8011,-2266.2,0.836
1.4778,1.47636,0.517627,0.17835,0,2.49639e-07,0.096096,0.169071,-9,-2361,4.03914e-08,-9,-96.7894,-2264.21,0.84
1.4778,1.47636,0.518011,0.179019,0,1.66426e-07,0.0960609,0.168453,-9,-2359,2.69255e-08,-9,-96.7777,-2262.22,0.844
1.4778,1.47636,0.518395,0.179694,0,1.10951e-07,0.0960258,0.168531,-9,-2357,1.80234e-08,-9,-96.7658,-2260.23,0.848
1.4778,1.47636,0.518779,0.180362,0,7.39672e-08,0.0959905,0.167978,-9,-2356,1.20187e-08,-9,-96.7541,-2259.25,0.852
1.4778,1.47636,0.519163,0.181031,0,4.93115e-08,0.0959551,0.167782,-9,-2354,8.03155e-09,-9,-96.7423,-2257.26,0.856
1.4778,1.47636,0.519547,0.1817,0,3.28743e-08,0.0959195,0.167565,-9,-2352,5.36632e-09,-9,-96.7304,-2255.27,0.86
1.4778,1.47636,0.51993,0.182367,0,2.19162e-08,0.0958838,0.167363,-9,-2350,3.58578e-09,-9,-96.7185,-2253.28,0.864
1.4778,1.47636,0.520314,0.183038,0,1.46108e-08,0.095848,0.167487,-9,-2348,2.4007e-09,-9,-96.7065,-2251.29,0.868
1.4778,1.47636,0.520697,0.183708,0,9.74054e-09,0.095812,0.167455,-9,-2346,1.60575e-09,-9,-96.6945,-2249.31,0.872
1.4778,1.47636,0.52108,0.184383,0,6.49369e-09,0.0957759,0.167894,-9,-2344,1.07707e-09,-9,-96.6824,-2247.32,0.876
1.4778,1.47636,0.521463,0.185067,0,4.32913e-09,0.0957397,0.168935,-9,-2341,7.25056e-10,-9,-96.67,-2244.33,0.88
1.4778,1.47636,0.521846,0.185741,0,2.88609e-09,0.0957034,0.168766,-9,-2339,4.84562e-10,-9,-96.6578,-2242.34,0.884
1.4778,1.47636,0.522229,0.18642,0,1.92406e-09,0.0956669,0.169114,-9,-2337,3.24835e-10,-9,-96.6454,-2240.35,0.888
1.4778,1.47636,0.522612,0.187096,0,1.2827e-09,0.0956302,0.169086,-9,-2335,2.1727e-10,-9,-96.6331,-2238.37,0.892
1.4778,1.47636,0.522994,0.187772,0,8.55136e-10,0.0955935,0.16901,-9,-2333,1.4528e-10,-9,-96.6207,-2236.38,0.896
1.4778,1.47636,0.523376,0.188444,0,5.70091e-10,0.0955566,0.16873,-9,-2331,9.70221e-11,-9,-96.6083,-2234.39,0.9
1.4778,1.47636,0.523759,0.189115,0,3.80061e-10,0.0955196,0.16837,-9,-2329,6.47621e-11,-9,-96.596,-2232.4,0.904
1.4778,1.47636,0.524141,0.189783,0,2.53374e-10,0.0954824,0.167899,-9,-2327,4.31988e-11,-9,-96.5836,-2230.42,0.908
1.4778,1.47636,0.524522,0.190449,0,1.68916e-10,0.0954452,0.167442,-9,-2326,2.88166e-11,-9,-96.5712,-2229.43,0.912
1.4778,1.47636,0.524904,0.191118,0,1.12611e-10,0.0954078,0.167425,-9,-2324,1.92733e-11,-9,-96.5587,-2227.44,0.916
1.4778,1.47636,0.525286,0.191787,0,7.50737e-11,0.0953702,0.167327,-9,-2322,1.28841e-11,-9,-96.5462,-2225.45,0.92
1.4778,1.47636,0.525667,0.192456,0,5.00491e-11,0.0953325,0.167319,-9,-2320,8.61748e-12,-9,-96.5336,-2223.47,0.924
1.4778,1.47636,0.526048,0.193122,0,3.33661e-11,0.0952948,0.167055,-9,-2318,5.75477e-12,-9,-96.5211,-2221.48,0.928
1.4778,1.47636,0.526429,0.193792,0,2.22441e-11,0.0952568,0.167196,-9,-2316,3.85239e-12,-9,-96.5084,-2219.49,0.932
1.4778,1.47636,0.52681,0.194458,0,1.48294e-11,0.0952188,0.166944,-9,-2314,2.57275e-12,-9,-96.4958,-2217.5,0.936
1.4778,1.47636,0.527191,0.195121,0,9.88625e-12,0.0951806,0.166517,-9,-2313,1.71631e-12,-9,-96.4832,-2216.52,0.94
1.4778,1.47636,0.527572,0.195788,0,6.59083e-12,0.0951423,0.166607,-9,-2310,1.14854e-12,-9,-96.4704,-2213.53,0.944
1.4778,1.47636,0.527952,0.196456,0,4.39389e-12,0.0951038,0.166781,-9,-2308,7.68977e-13,-9,-96.4576,-2211.54,0.948
1.4778,1.47636,0.528333,0.197125,0,2.92926e-12,0.0950653,0.166956,-9,-2306,5.14844e-13,-9,-96.4448,-2209.56,0.952
1.4778,1.47636,0.528713,0.197795,0,1.95284e-12,0.0950266,0.167101,-9,-2304,3.44632e-13,-9,-96.4318,-2207.57,0.956
1.4778,1.47636,0.529093,0.198465,0,1.30189e-12,0.0949877,0.167255,-9,-2302,2.30705e-13,-9,-96.4189,-2205.58,0.96
1.4778,1.47636,0.529473,0.199136,0,8.67929e-13,0.0949488,0.167415,-9,-2300,1.54443e-13,-9,-96.4058,-2203.59,0.964
1.4778,1.47636,0.529852,0.199808,0,5.78619e-13,0.0949097,0.16758,-9,-2297,1.03392e-13,-9,-96.3927,-2200.61,0.968
1.4778,1.47636,0.530232,0.200479,0,3.85746e-13,0.0948705,0.167632,-9,-2295,6.91687e-14,-9,-96.3796,-2198.62,0.972
1.4778,1.47636,0.530611,0.201154,0,2.57164e-13,0.0948312,0.168012,-9,-2293,4.63642e-14,-9,-96.3664,-2196.63,0.976
1.4778,1.47636,0.530991,0.201829,0,1.71443e-13,0.0947917,0.168237,-9,-2291,3.10489e-14,-9,-96.3531,-2194.65,0.98
1.4778,1.47636,0.53137,0.202508,0,1.14295e-13,0.0947522,0.16879,-9,-2288,2.08334e-14,-9,-96.3397,-2191.66,0.984
1.4778,1.47636,0.531749,0.203177,0,7.61967e-14,0.0947125,0.168237,-9,-2287,1.38866e-14,-9,-96.3264,-2190.67,0.988
1.4778,1.47636,0.532127,0.203848,0,5.07978e-14,0.0946726,0.168099,-9,-2285,9.27899e-15,-9,-96.3131,-2188.69,0.992
1.4778,1.47636,0.532506,0.204519,0,3.38652e-14,0.0946327,0.168007,-9,-2283,6.20182e-15,-9,-96.2997,-2186.7,0.996
1.4778,1.47636,0.532885,0.205193,0,2.25768e-14,0.0945926,0.168147,-9,-2280,4.15085e-15,-9,-96.2862,-2183.71,1
1.4778,1.47636,0.533263,0.20587,0,1.50512e-14,0.0945524,0.168499,-9,-2278,2.78166e-15,-9,-96.2726,-2181.73,1.004
1.4778,1.47636,0.533641,0.206548,0,1.00341e-14,0.0945121,0.168821,-9,-2276,1.86374e-15,-9,-96.259,-2179.74,1.008
1.4778,1.47636,0.534019,0.207235,0,6.68943e-15,0.0944716,0.169812,-9,-2273,1.25371e-15,-9,-96.2451,-2176.75,1.012
1.4778,1.47636,0.534397,0.207925,0,4.45962e-15,0.094431,0.170704,-9,-2270,8.4283e-16,-9,-96.2311,-2173.77,1.016
1.4778,1.47636,0.534774,0.208616,0,2.97308e-15,0.0943903,0.171413,-9,-2267,5.65988e-16,-9,-96.2171,-2170.78,1.02
1.4778,1.47636,0.535152,0.20931,0,1.98205e-15,0.0943495,0.172116,-9,-2264,3.80059e-16,-9,-96.2029,-2167.8,1.024
1.4778,1.47636,0.535529,0.210007,0,1.32137e-15,0.0943086,0.172816,-9,-2261,2.55199e-16,-9,-96.1886,-2164.81,1.028
1.4778,1.47636,0.535906,0.210703,0,8.80912e-16,0.0942675,0.173224,-9,-2259,1.71066e-16,-9,-96.1743,-2162.83,1.032
1.4778,1.47636,0.536283,0.211395,0,5.87275e-16,0.0942263,0.173122,-9,-2257,1.14329e-16,-9,-96.1601,-2160.84,1.036
1.4778,1.47636,0.53666,0.21208,0,3.91517e-16,0.094185,0.172507,-9,-2255,7.61796e-17,-9,-96.1459,-2158.85,1.04
1.4778,1.47636,0.537037,0.212761,0,2.61011e-16,0.0941436,0.171752,-9,-2254,5.07164e-17,-9,-96.1318,-2157.87,1.044
1.4778,1.47636,0.537413,0.213436,0,1.74007e-16,0.094102,0.17073,-9,-2252,3.37098e-17,-9,-96.1178,-2155.88,1.048
1.4778,1.47636,0.53779,0.214109,0,1.16005e-16,0.0940604,0.169933,-9,-2251,2.24346e-17,-9,-96.1037,-2154.9,1.052
1.4778,1.47636,0.538166,0.214776,0,2.87909e-05,0.0940186,0.168884,-9,-2250,5.54977e-06,-9.00001,-96.0898,-2153.91,1.056
1.4778,1.47636,0.538542,0.215448,0,1.91939e-05,0.0939766,0.168559,-9,-2248,3.70355e-06,-9,-96.0757,-2151.92,1.06
1.4778,1.47636,0.538918,0.216131,0,4.15869e-05,0.0939346,0.169321,-9,-2245,8.0846e-06,-9.00001,-96.0613,-2148.94,1.064
1.4778,1.47636,0.539293,0.216812,0,-2.98573e-05,0.0938925,0.16957,-9,-2243,-5.83e-06,-8.99999,-96.0469,-2146.95,1.068
1.4778,1.47636,0.539669,0.2175,0,8.88609e-06,0.0938502,0.170427,-9,-2240,1.74907e-06,-9,-96.0323,-2143.97,1.072
1.4778,1.47636,0.540044,0.218195,0,-2.28669e-05,0.0938078,0.171517,-9,-2237,-4.54326e-06,-9,-96.0175,-2140.98,1.076
1.4778,1.47636,0.540419,0.218896,0,-1.52446e-05,0.0937653,0.17279,-9,-2233,-3.0605e-06,-9,-96.0026,-2137,1.08
1.4778,1.47636,0.540794,0.219598,0,-1.01631e-05,0.0937227,0.173639,-9,-2230,-2.0565e-06,-9,-95.9876,-2134.01,1.084
1.4778,1.47636,0.541169,0.220302,0,-6.77537e-06,0.0936799,0.174464,-9,-2227,-1.38165e-06,-9,-95.9725,-2131.03,1.088
1.4778,1.47636,0.541544,0.221005,0,2.4274e-05,0.093637,0.17487,-9,-2225,4.97631e-06,-9,-95.9573,-2129.04,1.092
1.4778,1.47636,0.541918,0.221708,0,-1.26082e-05,0.0935941,0.17517,-9,-2222,-2.59688e-06,-9,-95.9422,-2126.06,1.096
1.4778,1.47636,0.542292,0.222405,0,-8.4055e-06,0.093551,0.17488,-9,-2220,-1.73346e-06,-9,-95.9271,-2124.07,1.1
1.4778,1.47636,0.542666,0.223105,0,-5.60367e-06,0.0935077,0.174946,-9,-2218,-1.15947e-06,-9,-95.9118,-2122.09,1.104
1.4778,1.47636,0.54304,0.223806,0,-3.73578e-06,0.0934644,0.17499,-9,-2216,-7.75439e-07,-9,-95.8966,-2120.1,1.108
1.4778,1.47636,0.543414,0.224503,0,5.50913e-05,0.0934209,0.17476,-8,-2214,1.14535e-05,-8.00001,-95.8813,-2118.12,1.112
1.4778,1.47636,0.543788,0.2252,0,-2.08543e-05,0.0933774,0.174578,-9,-2211,-4.34362e-06,-9,-95.8661,-2115.13,1.116
1.4778,1.47636,0.544161,0.225891,0,-1.39029e-05,0.0933337,0.173996,-9,-2210,-2.89434e-06,-9,-95.8509,-2114.15,1.12
1.4778,1.47636,0.544534,0.226585,0,1.95223e-05,0.0932899,0.173867,-9,-2208,4.07283e-06,-9,-95.8355,-2112.16,1.124
1.4778,1.47636,0.544907,0.227256,0,4.18058e-05,0.093246,0.171823,-9,-2207,8.64293e-06,-9.00001,-95.8207,-2111.18,1.128
1.4778,1.47636,0.54528,0.227916,0,-2.97113e-05,0.0932019,0.16954,-9,-2207,-6.07723e-06,-8.99999,-95.806,-2111.19,1.132
1.4778,1.47636,0.545653,0.228578,0,-4.85985e-05,0.0931578,0.168161,-9,-2206,-9.88624e-06,-8.99999,-95.7913,-2110.21,1.136
1.4778,1.47636,0.546026,0.229244,0,-3.60805e-06,0.0931135,0.167616,-9,-2204,-7.33577e-07,-9,-95.7765,-2108.22,1.14
1.4778,1.47636,0.546398,0.229911,0,-2.40536e-06,0.0930691,0.167339,-9,-2203,-4.89563e-07,-9,-95.7615,-2107.24,1.144
1.4778,1.47636,0.54677,0.230581,0,-1.60358e-06,0.0930246,0.167385,-9,-2200,-3.27348e-07,-9,-95.7465,-2104.25,1.148
1.4778,1.47636,0.547142,0.231257,0,-1.06905e-06,0.09298,0.167905,-9,-2198,-2.19505e-07,-9,-95.7313,-2102.27,1.152
1.4778,1.47636,0.547514,0.231934,0,2.80782e-05,0.0929353,0.168338,-9,-2195,5.79577e-06,-9.00001,-95.716,-2099.28,1.156
1.4778,1.47636,0.547886,0.232616,0,1.87188e-05,0.0928905,0.169116,-9,-2193,3.8923e-06,-9,-95.7005,-2097.3,1.16
1.4778,1.47636,0.548257,0.233302,0,-1.63117e-05,0.0928455,0.169837,-9,-2190,-3.41552e-06,-9,-95.685,-2094.32,1.164
1.4778,1.47636,0.548628,0.233989,0,-1.08745e-05,0.0928005,0.170547,-9,-2187,-2.29278e-06,-9,-95.6693,-2091.33,1.168
1.4778,1.47636,0.549,0.234678,0,-7.24965e-06,0.0927553,0.171078,-9,-2184,-1.53746e-06,-9,-95.6536,-2088.35,1.172
1.4778,1.47636,0.54937,0.235365,0,-4.8331e-06,0.09271,0.171289,-9,-2182,-1.02901e-06,-9,-95.6379,-2086.36,1.176
1.4778,1.47636,0.549741,0.236045,0,-3.22207e-06,0.0926646,0.170911,-9,-2180,-6.86323e-07,-9,-95.6222,-2084.38,1.18
1.4778,1.47636,0.550112,0.236726,0,-3.0939e-05,0.0926191,0.17063,-9,-2178,-6.59692e-06,-8.99999,-95.6066,-2082.39,1.184
1.4778,1.47636,0.550482,0.237398,0,8.16495e-06,0.0925735,0.169751,-9,-2177,1.73654e-06,-9,-95.5911,-2081.41,1.188
1.4778,1.47636,0.550852,0.238067,0,6.30251e-05,0.0925277,0.168907,-8,-2175,1.33723e-05,-8.00001,-95.5756,-2079.42,1.192
1.4778,1.47636,0.551222,0.238734,0,4.20168e-05,0.0924819,0.1682,-8,-2174,8.90054e-06,-8.00001,-95.5601,-2078.44,1.196
1.4778,1.47636,0.551592,0.239399,0,-5.83616e-05,0.0924359,0.167613,-9,-2172,-1.23515e-05,-8.99999,-95.5446,-2076.46,1.2
1.4778,1.47636,0.551962,0.240068,0,4.7465e-05,0.0923899,0.167424,-8,-2170,1.00599e-05,-8.00001,-95.529,-2074.47,1.204
1.4778,1.47636,0.552331,0.240732,0,-2.59385e-05,0.0923437,0.166952,-9,-2169,-5.49595e-06,-8.99999,-95.5134,-2073.49,1.208
1.4778,1.47636,0.552701,0.24139,0,-1.72923e-05,0.0922974,0.166148,-9,-2167,-3.6555e-06,-9,-95.498,-2071.5,1.212
1.4778,1.47636,0.55307,0.242041,0,-1.15282e-05,0.092251,0.165036,-9,-2166,-2.42671e-06,-9,-95.4826,-2070.52,1.216
1.4778,1.47636,0.553439,0.242688,0,-7.68548e-06,0.0922045,0.163921,-9,-2165,-1.61082e-06,-9,-95.4674,-2069.53,1.22
1.4778,1.47636,0.553807,0.243336,0,-5.12365e-06,0.0921579,0.163264,-9,-2164,-1.0722e-06,-9,-95.452,-2068.55,1.224
1.4778,1.47636,0.554176,0.243985,0,-3.41577e-06,0.0921112,0.16294,-9,-2162,-7.15137e-07,-9,-95.4366,-2066.56,1.228
1.4778,1.47636,0.554544,0.244637,0,-2.27718e-06,0.0920643,0.163013,-9,-2160,-4.78143e-07,-9,-95.4211,-2064.58,1.232
1.4778,1.47636,0.554912,0.245293,0,-1.51812e-06,0.0920174,0.163292,-9,-2158,-3.20093e-07,-9,-95.4055,-2062.59,1.236
1.4778,1.47636,0.55528,0.245949,0,-1.01208e-06,0.0919703,0.163564,-9,-2155,-2.14276e-07,-9,-95.3898,-2059.61,1.24
1.4778,1.47636,0.555648,0.246605,0,-2.94656e-05,0.0919232,0.163717,-9,-2153,-6.25953e-06,-8.99999,-95.374,-2057.63,1.244
1.4778,1.47636,0.556016,0.247263,0,-1.96438e-05,0.0918759,0.163991,-9,-2151,-4.19025e-06,-9,-95.3582,-2055.64,1.248
1.4778,1.47636,0.556383,0.24792,0,1.56951e-05,0.0918285,0.16403,-9,-2149,3.3569e-06,-9,-95.3424,-2053.66,1.252
1.4778,1.47636,0.55675,0.248584,0,1.04634e-05,0.0917811,0.164661,-9,-2146,2.25205e-06,-9,-95.3264,-2050.67,1.256
1.4778,1.47636,0.557117,0.249428,0,6.97559e-06,0.0917335,0.180168,-9,-2130,1.64787e-06,-9,-95.3059,-2034.69,1.26
1.4778,1.47636,0.557484,0.249913,0,4.65039e-06,0.0916858,0.160534,-9,-2146,9.80605e-07,-9,-95.2941,-2050.71,1.264
1.4778,1.47636,0.557851,0.250571,0,3.10026e-06,0.091638,0.161812,-9,-2142,6.60526e-07,-9,-95.2781,-2046.72,1.268
1.4778,1.47636,0.558217,0.251221,0,2.06684e-06,0.0915901,0.162059,-9,-2140,4.4207e-07,-9,-95.2622,-2044.74,1.272
1.4778,1.47636,0.558584,0.251878,0,1.37789e-06,0.091542,0.162771,-9,-2138,2.96715e-07,-9,-95.2461,-2042.75,1.276
1.4778,1.47636,0.55895,0.252522,0,5.85004e-05,0.0914939,0.16218,-8,-2136,1.25811e-05,-8.00001,-95.2303,-2040.77,1.28
1.4778,1.47636,0.559316,0.253176,0,-4.73725e-05,0.0914457,0.162593,-9,-2134,-1.02379e-05,-8.99999,-95.2142,-2038.79,1.284
1.4778,1.47636,0.559681,0.253835,0,-3.15817e-05,0.0913974,0.163328,-9,-2131,-6.87246e-06,-8.99999,-95.198,-2035.8,1.288
1.4778,1.47636,0.560047,0.254498,0,-2.10544e-05,0.0913489,0.164135,-9,-2128,-4.61525e-06,-9,-95.1816,-2032.82,1.292
1.4778,1.47636,0.560412,0.255161,0,4.35456e-05,0.0913004,0.164702,-8,-2126,9.60116e-06,-8.00001,-95.1651,-2030.83,1.296
1.4778,1.47636,0.560777,0.255825,0,2.39449e-07,0.0912517,0.165166,-9,-2123,5.30694e-08,-9,-95.1486,-2027.85,1.3
1.4778,1.47636,0.561142,0.256492,0,1.59632e-07,0.091203,0.165649,-9,-2121,3.55671e-08,-9,-95.132,-2025.87,1.304
1.4778,1.47636,0.561507,0.257161,0,1.06422e-07,0.0911541,0.166229,-9,-2118,2.3851e-08,-9,-95.1153,-2022.88,1.308
1.4778,1.47636,0.561871,0.257829,0,7.09477e-08,0.0911052,0.166444,-9,-2116,1.59588e-08,-9,-95.0986,-2020.9,1.312
1.4778,1.47636,0.562236,0.258501,0,4.72985e-08,0.0910561,0.166932,-9,-2113,1.06957e-08,-9,-95.0817,-2017.92,1.316
1.4778,1.47636,0.5626,0.259172,0,3.15323e-08,0.091007,0.1672,-9,-2111,7.15876e-09,-9,-95.0648,-2015.94,1.32
1.4778,1.47636,0.562964,0.259846,0,2.10216e-08,0.0909577,0.167695,-9,-2108,4.79797e-09,-9,-95.0478,-2012.95,1.324
1.4778,1.47636,0.563327,0.260521,0,-2.87769e-05,0.0909083,0.168026,-9,-2106,-6.5965e-06,-8.99999,-95.0307,-2010.97,1.328
1.4778,1.47636,0.563691,0.261199,0,-1.91846e-05,0.0908589,0.168505,-9,-2103,-4.42063e-06,-9,-95.0135,-2007.99,1.332
1.4778,1.47636,0.564054,0.261881,0,1.60012e-05,0.0908093,0.169199,-9,-2100,3.71104e-06,-9,-94.9962,-2005,1.336
1.4778,1.47636,0.564417,0.262561,0,1.06675e-05,0.0907596,0.169488,-9,-2098,2.4841e-06,-9,-94.9788,-2003.02,1.34
1.4778,1.47636,0.56478,0.263254,0,7.11164e-06,0.0907098,0.170689,-9,-2095,1.67178e-06,-9,-94.9611,-2000.04,1.344
1.4778,1.47636,0.565143,0.263926,0,4.74109e-06,0.09066,0.16982,-9,-2093,1.11141e-06,-9,-94.9439,-1998.06,1.348
1.4778,1.47636,0.565506,0.264612,0,3.16073e-06,0.09061,0.170363,-9,-2090,7.45059e-07,-9,-94.9263,-1995.07,1.352
1.4778,1.47636,0.565868,0.265285,0,2.10715e-06,0.0905599,0.169689,-9,-2089,4.95879e-07,-9,-94.9089,-1994.09,1.356
1.4778,1.47636,0.56623,0.26597,0,-2.73862e-05,0.0905097,0.17019,-9,-2086,-6.47891e-06,-8.99999,-94.8913,-1991.11,1.36
1.4778,1.47636,0.566592,0.266654,0,1.05335e-05,0.0904594,0.170437,-9,-2084,2.50139e-06,-9,-94.8736,-1989.13,1.364
1.4778,1.47636,0.566954,0.267343,0,6.46042e-05,0.0904091,0.171063,-8,-2081,1.54338e-05,-8.00002,-94.8557,-1986.14,1.368
1.4778,1.47636,0.567315,0.268032,0,4.30694e-05,0.0903586,0.171451,-8,-2078,1.03365e-05,-8.00001,-94.8378,-1983.16,1.372
1.4778,1.47636,0.567677,0.268718,0,-2.88689e-05,0.090308,0.171479,-9,-2076,-6.9456e-06,-8.99999,-94.8199,-1981.18,1.376
1.4778,1.47636,0.568038,0.269405,0,-1.92459e-05,0.0902573,0.171556,-9,-2074,-4.64314e-06,-9,-94.8019,-1979.2,1.38
1.4778,1.47636,0.568399,0.270089,0,-1.28306e-05,0.0902065,0.171377,-9,-2071,-3.09927e-06,-9,-94.784,-1976.22,1.384
1.4778,1.47636,0.568759,0.270773,0,-8.55374e-06,0.0901557,0.171257,-9,-2069,-2.06945e-06,-9,-94.766,-1974.23,1.388
1.4778,1.47636,0.56912,0.271452,0,-5.7025e-06,0.0901047,0.170717,-9,-2067,-1.37838e-06,-9,-94.7481,-1972.25,1.392
1.4778,1.47636,0.56948,0.27213,0,-3.80166e-06,0.0900536,0.170357,-9,-2066,-9.19043e-07,-9,-94.7302,-1971.27,1.396
1.4778,1.47636,0.56984,0.272811,0,-2.53444e-06,0.0900024,0.170289,-9,-2063,-6.1383e-07,-9,-94.7122,-1968.29,1.4
1.4778,1.47636,0.5702,0.27349,0,-1.68963e-06,0.0899512,0.170129,-9,-2061,-4.09749e-07,-9,-94.6942,-1966.31,1.404
1.4778,1.47636,0.57056,0.27417,0,-1.12642e-06,0.0898998,0.170109,-9,-2059,-2.73744e-07,-9,-94.6761,-1964.32,1.408
1.4778,1.47636,0.57092,0.27485,0,-7.50946e-07,0.0898483,0.170038,-9,-2057,-1.82825e-07,-9,-94.658,-1962.34,1.412
1.4778,1.47636,0.571279,0.275532,0,-5.00631e-07,0.0897968,0.170192,-9,-2054,-1.22265e-07,-9,-94.6398,-1959.36,1.416
1.4778,1.47636,0.571638,0.27621,0,-3.33754e-07,0.0897451,0.169978,-9,-2052,-8.15874e-08,-9,-94.6216,-1957.38,1.42
1.4778,1.47636,0.571997,0.276886,0,-2.22502e-07,0.0896934,0.169662,-9,-2050,-5.44097e-08,-9,-94.6034,-1955.4,1.424
1.4778,1.47636,0.572355,0.27756,0,-1.48335e-07,0.0896415,0.169279,-9,-2048,-3.62701e-08,-9,-94.5853,-1953.41,1.428
1.4778,1.47636,0.572714,0.278231,0,-9.889e-08,0.0895896,0.168765,-9,-2047,-2.41587e-08,-9,-94.5672,-1952.43,1.432
1.4778,1.47636,0.573072,0.2789,0,-6.59267e-08,0.0895375,0.168249,-9,-2045,-1.60911e-08,-9,-94.5491,-1950.45,1.436
1.4778,1.47636,0.57343,0.279567,0,-4.39511e-08,0.0894854,0.167704,-9,-2043,-1.07155e-08,-9,-94.531,-1948.47,1.44
1.4778,1.47636,0.573788,0.280228,0,-2.93007e-08,0.0894332,0.166937,-9,-2042,-7.12603e-09,-9,-94.5131,-1947.49,1.444
1.4778,1.47636,0.574146,0.280891,0,-1.95338e-08,0.0893808,0.166512,-9,-2040,-4.7486e-09,-9,-94.495,-1945.5,1.448
1.4778,1.47636,0.574503,0.281555,0,-1.30226e-08,0.0893284,0.166344,-9,-2038,-3.16921e-09,-9,-94.4769,-1943.52,1.452
1.4778,1.47636,0.57486,0.282218,0,-8.6817e-09,0.0892759,0.166175,-9,-2036,-2.11509e-09,-9,-94.4587,-1941.54,1.456
1.4778,1.47636,0.575217,0.282882,0,-2.87967e-05,0.0892233,0.166119,-9,-2034,-7.02799e-06,-8.99999,-94.4405,-1939.56,1.46
1.4778,1.47636,0.575574,0.283552,0,9.59312e-06,0.0891706,0.166543,-9,-2031,2.35217e-06,-9,-94.4221,-1936.58,1.464
1.4778,1.47636,0.575931,0.284217,0,6.39541e-06,0.0891178,0.166422,-9,-2029,1.57025e-06,-9,-94.4038,-1934.6,1.468
1.4778,1.47636,0.576287,0.284885,0,4.26361e-06,0.0890649,0.166688,-9,-2027,1.05069e-06,-9,-94.3853,-1932.61,1.472
1.4778,1.47636,0.576643,0.285556,0,2.8424e-06,0.0890119,0.167008,-9,-2024,7.03278e-07,-9,-94.3668,-1929.63,1.476
1.4778,1.47636,0.576999,0.286228,0,1.89494e-06,0.0889588,0.167366,-9,-2022,4.70839e-07,-9,-94.3481,-1927.65,1.48
1.4778,1.47636,0.577355,0.286908,0,1.26329e-06,0.0889057,0.16818,-9,-2019,3.16085e-07,-9,-94.3293,-1924.67,1.484
1.4778,1.47636,0.57771,0.287587,0,8.42194e-07,0.0888524,0.168752,-9,-2016,2.11884e-07,-9,-94.3103,-1921.69,1.488
1.4778,1.47636,0.578066,0.288272,0,5.61463e-07,0.0887991,0.169594,-9,-2013,1.4226e-07,-9,-94.2912,-1918.71,1.492
1.4778,1.47636,0.578421,0.28896,0,3.74308e-07,0.0887456,0.170356,-9,-2010,9.54682e-08,-9,-94.2719,-1915.73,1.496
1.4778,1.47636,0.578776,0.28965,0,2.49539e-07,0.0886921,0.171066,-9,-2007,6.40459e-08,-9,-94.2526,-1912.75,1.5
1.4778,1.47636,0.57913,0.290338,0,1.66359e-07,0.0886384,0.171396,-9,-2004,4.28694e-08,-9,-94.2332,-1909.77,1.504
1.4778,1.47636,0.579485,0.291023,0,1.10906e-07,0.0885847,0.171385,-9,-2002,2.86375e-08,-9,-94.2139,-1907.79,1.508
1.4778,1.47636,0.579839,0.291709,0,7.39375e-08,0.0885309,0.171378,-9,-2000,1.91306e-08,-9,-94.1945,-1905.81,1.512
1.4778,1.47636,0.580193,0.292392,0,4.92916e-08,0.088477,0.171143,-9,-1998,1.27626e-08,-9,-94.1752,-1903.82,1.516
1.4778,1.47636,0.580547,0.293072,0,3.28611e-08,0.088423,0.170785,-9,-1996,8.50802e-09,-9,-94.1559,-1901.84,1.52
1.4778,1.47636,0.5809,0.293749,0,2.19074e-08,0.0883689,0.170315,-9,-1994,5.66797e-09,-9,-94.1366,-1899.86,1.524
1.4778,1.47636,0.581254,0.29443,0,1.46049e-08,0.0883148,0.170233,-9,-1991,3.78453e-09,-9,-94.1172,-1896.88,1.528
1.4778,1.47636,0.581607,0.295111,0,9.73662e-09,0.0882605,0.170293,-9,-1989,2.52906e-09,-9,-94.0978,-1894.9,1.532
1.4778,1.47636,0.58196,0.295792,0,6.49108e-09,0.0882061,0.170276,-9,-1987,1.68929e-09,-9,-94.0783,-1892.92,1.536
1.4778,1.47636,0.582313,0.296473,0,4.32739e-09,0.0881517,0.170235,-9,-1984,1.12821e-09,-9,-94.0587,-1889.94,1.54
1.4778,1.47636,0.582665,0.297158,0,2.88493e-09,0.0880972,0.170554,-9,-1982,7.55078e-10,-9,-94.039,-1887.96,1.544
1.4778,1.47636,0.583017,0.297838,0,1.92328e-09,0.0880426,0.170392,-9,-1980,5.03919e-10,-9,-94.0194,-1885.98,1.548
1.4778,1.47636,0.583369,0.298515,0,1.28219e-09,0.0879878,0.169996,-9,-1978,3.35835e-10,-9,-93.9999,-1884,1.552
1.4778,1.47636,0.583721,0.299195,0,8.54793e-10,0.0879331,0.17002,-9,-1975,2.24369e-10,-9,-93.9802,-1881.02,1.556
1.4778,1.47636,0.584073,0.29986,0,5.69862e-10,0.0878782,0.16874,-9,-1974,1.48743e-10,-9,-93.9609,-1880.04,1.56
1.4778,1.47636,0.584424,0.300533,0,3.79908e-10,0.0878232,0.168578,-9,-1972,9.92618e-11,-9,-93.9413,-1878.06,1.564
1.4778,1.47636,0.584775,0.3012,0,2.53272e-10,0.0877681,0.167981,-9,-1970,6.60682e-11,-9,-93.9219,-1876.08,1.568
1.4778,1.47636,0.585126,0.301872,0,1.68848e-10,0.087713,0.168014,-9,-1968,4.41404e-11,-9,-93.9022,-1874.1,1.572
1.4778,1.47636,0.585477,0.302543,0,1.12565e-10,0.0876578,0.167893,-9,-1966,2.94628e-11,-9,-93.8826,-1872.12,1.576
1.4778,1.47636,0.585828,0.303213,0,7.50435e-11,0.0876024,0.167754,-9,-1964,1.96636e-11,-9,-93.8629,-1870.14,1.58
1.4778,1.47636,0.586178,0.303885,0,5.0029e-11,0.087547,0.167892,-9,-1961,1.31453e-11,-9,-93.8432,-1867.16,1.584
1.4778,1.47636,0.586528,0.304552,0,3.33527e-11,0.0874915,0.167466,-9,-1960,8.75803e-12,-9,-93.8235,-1866.18,1.588
1.4778,1.47636,0.586878,0.30522,0,-2.87909e-05,0.087436,0.167354,-9,-1957,-7.5696e-06,-8.99999,-93.8038,-1863.2,1.592
1.4778,1.47636,0.587228,0.305894,0,9.59699e-06,0.0873803,0.167712,-8,-1955,2.53346e-06,-8,-93.7839,-1861.22,1.596
1.4778,1.47636,0.587577,0.306567,0,6.39799e-06,0.0873246,0.167921,-8,-1952,1.69433e-06,-8,-93.7639,-1858.24,1.6
1.4778,1.47636,0.587926,0.307239,0,4.26533e-06,0.0872687,0.167946,-8,-1950,1.13188e-06,-8,-93.7439,-1856.26,1.604
1.4778,1.47636,0.588275,0.30791,0,-2.59474e-05,0.0872128,0.167847,-9,-1948,-6.89459e-06,-8.99999,-93.724,-1854.28,1.608
1.4778,1.47636,0.588624,0.308585,0,1.14927e-05,0.0871568,0.168127,-8,-1945,3.06469e-06,-8,-93.7038,-1851.3,1.612
1.4778,1.47636,0.588972,0.309259,0,7.66178e-06,0.0871007,0.168313,-8,-1943,2.04928e-06,-8,-93.6837,-1849.32,1.616
1.4778,1.47636,0.589321,0.309933,0,5.10786e-06,0.0870445,0.168351,-8,-1941,1.36908e-06,-8,-93.6635,-1847.34,1.62
1.4778,1.47636,0.589669,0.310603,0,3.40524e-06,0.0869883,0.168088,-8,-1938,9.13007e-07,-8,-93.6433,-1844.36,1.624
1.4778,1.47636,0.590017,0.311273,0,5.9852e-05,0.0869319,0.167885,-8,-1936,1.6058e-05,-8.00002,-93.6232,-1842.38,1.628
1.4778,1.47636,0.590364,0.31194,0,-4.64714e-05,0.0868755,0.167518,-9,-1934,-1.24639e-05,-8.99999,-93.6031,-1840.4,1.632
1.4778,1.47636,0.590712,0.312605,0,-2.19003e-06,0.086819,0.167044,-9,-1933,-5.86798e-07,-9,-93.583,-1839.42,1.636
1.4778,1.47636,0.591059,0.313274,0,-1.46002e-06,0.0867624,0.167159,-9,-1930,-3.92195e-07,-9,-93.5627,-1836.44,1.64
1.4778,1.47636,0.591406,0.313943,0,-9.73348e-07,0.0867057,0.167121,-9,-1928,-2.61886e-07,-9,-93.5425,-1834.46,1.644
1.4778,1.47636,0.591752,0.314614,0,-6.48898e-07,0.086649,0.167384,-8,-1925,-1.75188e-07,-8,-93.522,-1831.48,1.648
1.4778,1.47636,0.592099,0.315282,0,-4.32599e-07,0.0865922,0.167242,-8,-1923,-1.16907e-07,-8,-93.5017,-1829.5,1.652
1.4778,1.47636,0.592445,0.315954,0,-2.88399e-07,0.0865352,0.167464,-8,-1921,-7.81853e-08,-8,-93.4812,-1827.52,1.656
1.4778,1.47636,0.592791,0.316627,0,-1.92266e-07,0.0864782,0.167785,-8,-1918,-5.23195e-08,-8,-93.4606,-1824.54,1.66
1.4778,1.47636,0.593137,0.317306,0,-1.28177e-07,0.0864211,0.168431,-8,-1915,-3.50787e-08,-8,-93.4398,-1821.56,1.664
1.4778,1.47636,0.593482,0.317988,0,-8.54517e-08,0.086364,0.169092,-8,-1912,-2.3521e-08,-8,-93.4188,-1818.58,1.668
1.4778,1.47636,0.593828,0.318669,0,-5.69678e-08,0.0863067,0.169504,-8,-1910,-1.57478e-08,-8,-93.3979,-1816.6,1.672
1.4778,1.47636,0.594173,0.319351,0,-3.79785e-08,0.0862494,0.169807,-8,-1907,-1.05367e-08,-8,-93.3768,-1813.62,1.676
1.4778,1.47636,0.594518,0.32004,0,-2.5319e-08,0.086192,0.170671,-8,-1904,-7.07333e-09,-8,-93.3555,-1810.64,1.68
1.4778,1.47636,0.594862,0.320721,0,-1.68793e-08,0.0861345,0.17047,-8,-1902,-4.7186e-09,-8,-93.3344,-1808.67,1.684
1.4778,1.47636,0.595207,0.321401,0,-2.88022e-05,0.086077,0.170336,-9,-1900,-8.05993e-06,-8.99999,-93.3133,-1806.69,1.688
1.4778,1.47636,0.595551,0.322083,0,9.58947e-06,0.0860193,0.170362,-8,-1897,2.68878e-06,-8,-93.2921,-1803.71,1.692
1.4778,1.47636,0.595895,0.322765,0,6.39298e-06,0.0859616,0.170465,-8,-1895,1.79687e-06,-8,-93.2709,-1801.73,1.696
1.4778,1.47636,0.596239,0.323446,0,-2.45289e-05,0.0859038,0.170362,-9,-1892,-6.90259e-06,-8.99999,-93.2496,-1798.75,1.7
1.4778,1.47636,0.596582,0.324121,0,1.24383e-05,0.0858459,0.169861,-8,-1890,3.49616e-06,-8,-93.2285,-1796.77,1.704
1.4778,1.47636,0.596926,0.324795,0,8.2922e-06,0.0857879,0.169412,-8,-1888,2.32874e-06,-8,-93.2073,-1794.79,1.708
1.4778,1.47636,0.597269,0.32547,0,6.311e-05,0.0857299,0.169141,-8,-1886,1.77266e-05,-8.00002,-93.1861,-1792.81,1.712
1.4778,1.47636,0.597611,0.326144,0,-1.55085e-05,0.0856718,0.168932,-9,-1884,-4.35841e-06,-9,-93.1649,-1790.84,1.716
1.4778,1.47636,0.597954,0.326817,0,-1.0339e-05,0.0856136,0.168735,-9,-1882,-2.90733e-06,-9,-93.1437,-1788.86,1.72
1.4778,1.47636,0.598296,0.327489,0,-6.89268e-06,0.0855553,0.168431,-8,-1880,-1.93812e-06,-8,-93.1225,-1786.88,1.724
1.4778,1.47636,0.598638,0.328157,0,-4.59512e-06,0.0854969,0.167997,-8,-1878,-1.291e-06,-8,-93.1013,-1784.9,1.728
1.4778,1.47636,0.59898,0.328826,0,-3.06341e-06,0.0854385,0.167709,-8,-1876,-8.60677e-07,-8,-93.0801,-1782.92,1.732
1.4778,1.47636,0.599322,0.329492,0,-2.04228e-06,0.08538,0.167315,-8,-1874,-5.73423e-07,-8,-93.0589,-1780.94,1.736
1.4778,1.47636,0.599663,0.33016,0,-1.36152e-06,0.0853214,0.167254,-8,-1872,-3.82802e-07,-8,-93.0376,-1778.96,1.74
1.4778,1.47636,0.600004,0.330832,0,-9.07678e-07,0.0852627,0.167501,-8,-1869,-2.56021e-07,-8,-93.0162,-1775.98,1.744
1.4778,1.47636,0.600345,0.331507,0,-6.05119e-07,0.085204,0.167925,-8,-1866,-1.71409e-07,-8,-92.9946,-1773.01,1.748
1.4778,1.47636,0.600686,0.332181,0,-4.03412e-07,0.0851452,0.168121,-8,-1864,-1.14603e-07,-8,-92.973,-1771.03,1.752
1.4778,1.47636,0.601027,0.332856,0,-2.68942e-07,0.0850863,0.168309,-8,-1861,-7.66196e-08,-8,-92.9513,-1768.05,1.756
1.4778,1.47636,0.601367,0.333534,0,-1.79294e-07,0.0850273,0.168723,-8,-1859,-5.12936e-08,-8,-92.9295,-1766.07,1.76
1.4778,1.47636,0.601707,0.334212,0,-1.1953e-07,0.0849683,0.16897,-8,-1856,-3.43047e-08,-8,-92.9077,-1763.09,1.764
1.4778,1.47636,0.602047,0.334886,0,-7.96864e-08,0.0849091,0.168789,-8,-1854,-2.28843e-08,-8,-92.8859,-1761.11,1.768
1.4778,1.47636,0.602386,0.335557,0,-5.31243e-08,0.08485,0.168467,-8,-1852,-1.52529e-08,-8,-92.8642,-1759.14,1.772
1.4778,1.47636,0.602725,0.336228,0,-3.54162e-08,0.0847907,0.168194,-8,-1850,-1.01693e-08,-8,-92.8424,-1757.16,1.776
1.4778,1.47636,0.603064,0.336896,0,-2.36108e-08,0.0847313,0.16784,-8,-1848,-6.7766e-09,-8,-92.8207,-1755.18,1.78
1.4778,1.47636,0.603403,0.337561,0,-1.57405e-08,0.0846719,0.167316,-8,-1846,-4.51112e-09,-8,-92.7991,-1753.2,1.784
1.4778,1.47636,0.603742,0.33823,0,-1.04937e-08,0.0846124,0.167226,-8,-1844,-3.01081e-09,-8,-92.7773,-1751.22,1.788
1.4778,1.47636,0.60408,0.338897,0,-6.99579e-09,0.0845529,0.167137,-8,-1841,-2.00947e-09,-8,-92.7555,-1748.24,1.792
1.4778,1.47636,0.604418,0.339569,0,-4.66386e-09,0.0844932,0.167423,-8,-1839,-1.34418e-09,-8,-92.7335,-1746.27,1.796
1.4778,1.47636,0.604756,0.340246,0,-3.10924e-09,0.0844335,0.168017,-8,-1836,-9.00806e-10,-8,-92.7113,-1743.29,1.8
1.4778,1.47636,0.605094,0.340926,0,-2.07283e-09,0.0843737,0.168643,-8,-1833,-6.03787e-10,-8,-92.689,-1740.31,1.804
1.4778,1.47636,0.605431,0.341608,0,-1.38188e-09,0.0843139,0.169291,-8,-1830,-4.0475e-10,-8,-92.6665,-1737.33,1.808
1.4778,1.47636,0.605768,0.342287,0,-9.21256e-10,0.0842539,0.169463,-8,-1827,-2.70559e-10,-8,-92.6441,-1734.36,1.812
1.4778,1.47636,0.606105,0.342965,0,-6.14171e-10,0.0841939,0.169435,-8,-1825,-1.80641e-10,-8,-92.6217,-1732.38,1.816
1.4778,1.47636,0.606442,0.343636,0,-4.09447e-10,0.0841338,0.168897,-8,-1823,-1.20242e-10,-8,-92.5995,-1730.4,1.82
1.4778,1.47636,0.606778,0.344301,0,-2.72965e-10,0.0840737,0.168021,-8,-1821,-7.98748e-11,-8,-92.5775,-1728.42,1.824
1.4778,1.47636,0.607114,0.344965,0,-1.81977e-10,0.0840135,0.167321,-8,-1820,-5.31136e-11,-8,-92.5554,-1727.44,1.828
1.4778,1.47636,0.60745,0.345625,0,-1.21318e-10,0.0839532,0.166567,-8,-1818,-3.53059e-11,-8,-92.5334,-1725.47,1.832
1.4778,1.47636,0.607786,0.346284,0,-8.08784e-11,0.0838928,0.16592,-8,-1816,-2.34831e-11,-8,-92.5115,-1723.49,1.836
1.4778,1.47636,0.608121,0.346943,0,-5.3919e-11,0.0838324,0.165518,-8,-1814,-1.56422e-11,-8,-92.4895,-1721.51,1.84
1.4778,1.47636,0.608457,0.347605,0,-3.5946e-11,0.0837719,0.165537,-8,-1812,-1.0446e-11,-8,-92.4673,-1719.53,1.844
1.4778,1.47636,0.608792,0.348268,0,-2.3964e-11,0.0837113,0.165608,-8,-1810,-6.97804e-12,-8,-92.445,-1717.55,1.848
1.4778,1.47636,0.609126,0.348928,0,-1.5976e-11,0.0836506,0.165396,-8,-1807,-4.6534e-12,-8,-92.4229,-1714.58,1.852
1.4778,1.47636,0.609461,0.349595,0,-1.06507e-11,0.0835899,0.165888,-8,-1805,-3.11645e-12,-8,-92.4004,-1712.6,1.856
1.4778,1.47636,0.609795,0.350263,0,-7.10044e-12,0.0835291,0.166274,-8,-1802,-2.08577e-12,-8,-92.3779,-1709.62,1.86
1.4778,1.47636,0.610129,0.350933,0,-4.73363e-12,0.0834683,0.166617,-8,-1799,-1.39559e-12,-8,-92.3553,-1706.64,1.864
1.4778,1.47636,0.610463,0.351601,0,-3.15575e-12,0.0834074,0.16676,-8,-1797,-9.32664e-13,-8,-92.3327,-1704.67,1.868
1.4778,1.47636,0.610796,0.352273,0,-2.10383e-12,0.0833464,0.1672,-8,-1794,-6.24407e-13,-8,-92.3099,-1701.69,1.872
1.4778,1.47636,0.61113,0.352948,0,-1.40256e-12,0.0832853,0.167696,-8,-1791,-4.18167e-13,-8,-92.287,-1698.71,1.876
1.4778,1.47636,0.611463,0.353619,0,-9.35037e-13,0.0832242,0.167767,-8,-1789,-2.79335e-13,-8,-92.2641,-1696.74,1.88
1.4778,1.47636,0.611795,0.354294,0,-6.23358e-13,0.083163,0.168073,-8,-1786,-1.86858e-13,-8,-92.2411,-1693.76,1.884
1.4778,1.47636,0.612128,0.354965,0,-4.15572e-13,0.0831017,0.167961,-8,-1784,-1.24683e-13,-8,-92.2182,-1691.78,1.888
1.4778,1.47636,0.61246,0.355637,0,-2.77048e-13,0.0830403,0.167943,-8,-1782,-8.32436e-14,-8,-92.1952,-1689.8,1.892
1.4778,1.47636,0.612792,0.35631,0,-1.84699e-13,0.0829789,0.168105,-8,-1779,-5.56358e-14,-8,-92.1721,-1686.83,1.896
1.4778,1.47636,0.613124,0.356982,0,-1.23132e-13,0.0829175,0.168039,-8,-1777,-3.71337e-14,-8,-92.1491,-1684.85,1.9
1.4778,1.47636,0.613456,0.35766,0,-8.20883e-14,0.0828559,0.168514,-8,-1774,-2.48646e-14,-8,-92.1257,-1681.87,1.904
1.4778,1.47636,0.613787,0.358336,0,-5.47255e-14,0.0827943,0.168715,-8,-1771,-1.6622e-14,-8,-92.1024,-1678.9,1.908
1.4778,1.47636,0.614118,0.359014,0,-3.64837e-14,0.0827326,0.168965,-8,-1769,-1.1115e-14,-8,-92.079,-1676.92,1.912
1.4778,1.47636,0.614449,0.359688,0,-2.43225e-14,0.0826709,0.168814,-8,-1766,-7.41481e-15,-8,-92.0557,-1673.94,1.916
1.4778,1.47636,0.614779,0.360349,0,-1.6215e-14,0.0826091,0.167562,-8,-1765,-4.91394e-15,-8,-92.0328,-1672.97,1.92
1.4778,1.47636,0.61511,0.361014,0,-1.081e-14,0.0825472,0.167188,-8,-1763,-3.2736e-15,-8,-92.0097,-1670.99,1.924
1.4778,1.47636,0.61544,0.361682,0,2.87909e-05,0.0824853,0.167054,-8,-1761,8.72498e-06,-8.00001,-91.9865,-1669.01,1.928
1.4778,1.47636,0.615769,0.362351,0,-9.59697e-06,0.0824233,0.167137,-8,-1758,-2.91418e-06,-8,-91.9632,-1666.04,1.932
1.4778,1.47636,0.616099,0.363025,0,-6.39798e-06,0.0823612,0.167625,-8,-1755,-1.95142e-06,-8,-91.9397,-1663.06,1.936
1.4778,1.47636,0.616428,0.36371,0,-4.26532e-06,0.0822991,0.168814,-8,-1752,-1.31219e-06,-8,-91.9158,-1660.08,1.94
1.4778,1.47636,0.616757,0.364397,0,-2.84355e-06,0.0822368,0.169779,-8,-1748,-8.81154e-07,-8,-91.8917,-1656.11,1.944
1.4778,1.47636,0.617086,0.365089,0,-1.8957e-06,0.0821746,0.170854,-8,-1745,-5.92072e-07,-8,-91.8674,-1653.13,1.948
1.4778,1.47636,0.617415,0.365784,0,2.75271e-05,0.0821122,0.171859,-8,-1742,8.66137e-06,-8.00001,-91.843,-1650.16,1.952
1.4778,1.47636,0.617743,0.366481,0,-1.04395e-05,0.0820498,0.172644,-8,-1738,-3.3049e-06,-8,-91.8184,-1646.18,1.956
1.4778,1.47636,0.618071,0.367173,0,-6.95967e-06,0.0819874,0.172764,-8,-1736,-2.20819e-06,-8,-91.794,-1644.21,1.96
1.4778,1.47636,0.618399,0.367862,0,-4.63978e-06,0.0819249,0.172614,-8,-1733,-1.47309e-06,-8,-91.7697,-1641.23,1.964
1.4778,1.47636,0.618727,0.368544,0,-3.09319e-06,0.0818623,0.171852,-8,-1731,-9.79195e-07,-8,-91.7456,-1639.25,1.968
1.4778,1.47636,0.619054,0.369218,0,-2.06212e-06,0.0817996,0.170768,-8,-1730,-6.49642e-07,-8,-91.7216,-1638.28,1.972
1.4778,1.47636,0.619381,0.369889,0,-1.37475e-06,0.0817369,0.169786,-8,-1728,-4.3124e-07,-8,-91.6978,-1636.3,1.976
1.4778,1.47636,0.619708,0.370555,0,-9.165e-07,0.0816741,0.168699,-8,-1727,-2.8607e-07,-8,-91.6741,-1635.33,1.98
1.4778,1.47636,0.620034,0.371223,0,-6.11e-07,0.0816113,0.16809,-8,-1725,-1.90302e-07,-8,-91.6503,-1633.35,1.984
1.4778,1.47636,0.620361,0.371894,0,-4.07333e-07,0.0815484,0.167943,-8,-1722,-1.26942e-07,-8,-91.6264,-1630.37,1.988
1.4778,1.47636,0.620687,0.372573,0,-2.71556e-07,0.0814854,0.168594,-8,-1719,-8.50814e-08,-8,-91.602,-1627.4,1.992
1.4778,1.47636,0.621013,0.373258,0,-1.81037e-07,0.0814224,0.169488,-8,-1716,-5.71065e-08,-8,-91.5775,-1624.42,1.996
1.4778,1.47636,0.621338,0.373946,0,-1.20691e-07,0.0813593,0.170344,-8,-1713,-3.832e-08,-8,-91.5528,-1621.45,2
1.4778,1.47636,0.621663,0.374644,0,-8.04609e-08,0.0812961,0.17172,-8,-1709,-2.57918e-08,-8,-91.5277,-1617.47,2.004
1.4778,1.47636,0.621988,0.375346,0,-5.36406e-08,0.0812329,0.172955,-8,-1705,-1.73442e-08,-8,-91.5024,-1613.5,2.008
1.4778,1.47636,0.622313,0.376049,0,2.87552e-05,0.0811696,0.173893,-8,-1702,9.36225e-06,-8.00001,-91.4771,-1610.52,2.012
1.4778,1.47636,0.622638,0.37675,0,-9.62082e-06,0.0811063,0.174374,-8,-1699,-3.14577e-06,-8,-91.4517,-1607.55,2.016
1.4778,1.47636,0.622962,0.377454,0,-6.41388e-06,0.0810429,0.174896,-8,-1696,-2.10662e-06,-8,-91.4262,-1604.57,2.02
1.4778,1.47636,0.623286,0.378152,0,-4.27592e-06,0.0809795,0.174726,-8,-1693,-1.40513e-06,-8,-91.4009,-1601.6,2.024
1.4778,1.47636,0.62361,0.378845,0,-2.85061e-06,0.0809159,0.174268,-8,-1691,-9.35664e-07,-8,-91.3757,-1599.62,2.028
1.4778,1.47636,0.623934,0.37954,0,-1.90041e-06,0.0808524,0.174048,-8,-1689,-6.23905e-07,-8,-91.3504,-1597.65,2.032
1.4778,1.47636,0.624257,0.380234,0,-1.26694e-06,0.0807887,0.173931,-8,-1686,-4.16264e-07,-8,-91.3251,-1594.67,2.036
1.4778,1.47636,0.62458,0.380928,0,2.79463e-05,0.080725,0.173737,-8,-1684,9.18515e-06,-8.00001,-91.2998,-1592.7,2.04
1.4778,1.47636,0.624903,0.38162,0,-1.01601e-05,0.0806613,0.173522,-8,-1681,-3.34002e-06,-8,-91.2744,-1589.73,2.044
1.4778,1.47636,0.625225,0.382309,0,-6.77337e-06,0.0805974,0.173062,-8,-1679,-2.22397e-06,-8,-91.2492,-1587.75,2.048
1.4778,1.47636,0.625547,0.382992,0,-4.51558e-06,0.0805336,0.172323,-8,-1677,-1.47842e-06,-8,-91.2241,-1585.78,2.052
1.4778,1.47636,0.625869,0.38366,0,2.57805e-05,0.0804696,0.170564,-8,-1676,8.36607e-06,-8.00001,-91.1995,-1584.8,2.056
1.4778,1.47636,0.626191,0.384327,0,1.7187e-05,0.0804056,0.169304,-8,-1675,5.54386e-06,-8.00001,-91.1749,-1583.83,2.06
1.4778,1.47636,0.626513,0.384985,0,-1.73329e-05,0.0803416,0.16763,-8,-1674,-5.54314e-06,-7.99999,-91.1507,-1582.85,2.064
1.4778,1.47636,0.626834,0.385649,0,-1.15553e-05,0.0802775,0.167089,-8,-1672,-3.68855e-06,-8,-91.1261,-1580.87,2.068
1.4778,1.47636,0.627155,0.386318,0,-7.70351e-06,0.0802133,0.167219,-8,-1669,-2.46433e-06,-8,-91.1013,-1577.9,2.072
1.4778,1.47636,0.627476,0.386991,0,-5.13568e-06,0.0801491,0.167535,-8,-1666,-1.64826e-06,-8,-91.0764,-1574.92,2.076
1.4778,1.47636,0.627796,0.387669,0,-3.42378e-06,0.0800848,0.168149,-8,-1663,-1.1044e-06,-8,-91.0512,-1571.95,2.08
1.4778,1.47636,0.628116,0.388355,0,2.65084e-05,0.0800205,0.169336,-8,-1660,8.62312e-06,-8.00001,-91.0256,-1568.97,2.084
1.4778,1.47636,0.628436,0.389045,0,-1.11187e-05,0.0799561,0.170386,-8,-1656,-3.64441e-06,-8,-90.9999,-1565,2.088
1.4778,1.47636,0.628756,0.389741,0,-7.41244e-06,0.0798916,0.171547,-8,-1653,-2.44961e-06,-8,-90.974,-1562.03,2.092
1.4778,1.47636,0.629075,0.390437,0,-4.94163e-06,0.0798271,0.172407,-8,-1649,-1.64357e-06,-8,-90.9479,-1558.05,2.096
1.4778,1.47636,0.629395,0.391135,0,-3.29442e-06,0.0797625,0.173038,-8,-1646,-1.10127e-06,-8,-90.9218,-1555.08,2.1
1.4778,1.47636,0.629713,0.391829,0,-2.19628e-06,0.0796979,0.173228,-8,-1643,-7.36017e-07,-8,-90.8957,-1552.1,2.104
1.4778,1.47636,0.630032,0.392521,0,-1.46419e-06,0.0796332,0.173125,-8,-1641,-4.91065e-07,-8,-90.8697,-1550.13,2.108
1.4778,1.47636,0.630351,0.393208,0,-9.76124e-07,0.0795685,0.172653,-8,-1639,-3.26933e-07,-8,-90.8439,-1548.16,2.112
1.4778,1.47636,0.630669,0.393893,0,-6.50749e-07,0.0795037,0.172194,-8,-1636,-2.17673e-07,-8,-90.818,-1545.18,2.116
1.4778,1.47636,0.630987,0.394573,0,-4.33833e-07,0.0794389,0.171486,-8,-1634,-1.44714e-07,-8,-90.7923,-1543.21,2.12
1.4778,1.47636,0.631304,0.395249,0,-2.89222e-07,0.079374,0.170668,-8,-1633,-9.61444e-08,-8,-90.7668,-1542.23,2.124
1.4778,1.47636,0.631622,0.395923,0,-1.92815e-07,0.079309,0.169949,-8,-1631,-6.39117e-08,-8,-90.7412,-1540.26,2.128
1.4778,1.47636,0.631939,0.396596,0,2.86624e-05,0.079244,0.169384,-8,-1629,9.48162e-06,-8.00001,-90.7157,-1538.28,2.132
1.4778,1.47636,0.632255,0.397268,0,1.91083e-05,0.0791789,0.168892,-8,-1626,6.31105e-06,-8.00001,-90.6901,-1535.31,2.136
1.4778,1.47636,0.632572,0.397932,0,-1.60521e-05,0.0791138,0.167989,-8,-1625,-5.28017e-06,-7.99999,-90.6648,-1534.34,2.14
1.4778,1.47636,0.632888,0.398594,0,-1.07014e-05,0.0790486,0.167156,-8,-1623,-3.5072e-06,-8,-90.6396,-1532.36,2.144
1.4778,1.47636,0.633204,0.399253,0,2.16567e-05,0.0789834,0.166342,-8,-1621,7.07212e-06,-8.00001,-90.6144,-1530.39,2.148
1.4778,1.47636,0.63352,0.399915,0,-1.43531e-05,0.0789181,0.166029,-8,-1619,-4.68433e-06,-8,-90.5891,-1528.41,2.152
1.4778,1.47636,0.633836,0.400562,0,-9.56877e-06,0.0788528,0.16464,-8,-1618,-3.10066e-06,-8,-90.5643,-1527.44,2.156
1.4778,1.47636,0.634151,0.401219,0,2.24117e-05,0.0787874,0.164463,-8,-1616,7.26369e-06,-8.00001,-90.5391,-1525.46,2.16
1.4778,1.47636,0.634466,0.401877,0,-1.38498e-05,0.078722,0.164517,-8,-1613,-4.49593e-06,-8,-90.5138,-1522.49,2.164
1.4778,1.47636,0.634781,0.402535,0,-9.23317e-06,0.0786565,0.164467,-8,-1611,-3.00017e-06,-8,-90.4885,-1520.51,2.168
1.4778,1.47636,0.635095,0.403191,0,2.26355e-05,0.0785909,0.164319,-8,-1608,7.35766e-06,-8.00001,-90.4632,-1517.54,2.172
1.4778,1.47636,0.63541,0.403848,0,1.50903e-05,0.0785253,0.164306,-8,-1606,4.91091e-06,-8,-90.4378,-1515.56,2.176
1.4778,1.47636,0.635724,0.404507,0,1.00602e-05,0.0784597,0.164413,-8,-1603,3.28019e-06,-8,-90.4123,-1512.59,2.18
1.4778,1.47636,0.636037,0.405163,0,-2.20841e-05,0.078394,0.16434,-8,-1601,-7.20647e-06,-7.99999,-90.3869,-1510.61,2.184
1.4778,1.47636,0.636351,0.40582,0,1.40682e-05,0.0783282,0.164263,-8,-1599,4.59429e-06,-8,-90.3614,-1508.64,2.188
1.4778,1.47636,0.636664,0.406473,0,-1.94121e-05,0.0782624,0.163923,-8,-1597,-6.33421e-06,-7.99999,-90.336,-1506.66,2.192
1.4778,1.47636,0.636977,0.407126,0,-1.29414e-05,0.0781966,0.163755,-8,-1594,-4.22368e-06,-8,-90.3106,-1503.69,2.196
1.4778,1.47636,0.637289,0.407779,0,2.01633e-05,0.0781307,0.163585,-8,-1592,6.58194e-06,-8.00001,-90.2851,-1501.71,2.2
1.4778,1.47636,0.637602,0.408432,0,-1.53487e-05,0.0780647,0.163414,-8,-1590,-5.01121e-06,-7.99999,-90.2597,-1499.74,2.204
1.4778,1.47636,0.637914,0.409088,0,-1.02325e-05,0.0779987,0.163645,-8,-1587,-3.34966e-06,-8,-90.234,-1496.77,2.208
1.4778,1.47636,0.638226,0.409747,0,-6.82165e-06,0.0779327,0.163972,-8,-1584,-2.24033e-06,-8,-90.2082,-1493.79,2.212
1.4778,1.47636,0.638537,0.41041,0,-4.54777e-06,0.0778665,0.164593,-8,-1581,-1.50107e-06,-8,-90.1822,-1490.82,2.216
1.4778,1.47636,0.638849,0.411072,0,-3.03185e-06,0.0778004,0.164892,-8,-1579,-1.00376e-06,-8,-90.1562,-1488.84,2.22
1.4778,1.47636,0.63916,0.411731,0,-2.02123e-06,0.0777342,0.164861,-8,-1576,-6.69869e-07,-8,-90.1303,-1485.87,2.224
1.4778,1.47636,0.639471,0.412391,0,2.74434e-05,0.0776679,0.164927,-8,-1574,9.10996e-06,-8.00001,-90.1043,-1483.9,2.228
1.4778,1.47636,0.639781,0.413054,0,-1.04953e-05,0.0776016,0.165144,-8,-1571,-3.4928e-06,-8,-90.0782,-1480.92,2.232
1.4778,1.47636,0.640091,0.413718,0,-6.99687e-06,0.0775353,0.165489,-8,-1568,-2.33627e-06,-8,-90.0519,-1477.95,2.236
1.4778,1.47636,0.640401,0.414384,0,2.41263e-05,0.0774689,0.165806,-8,-1565,8.08113e-06,-8.00001,-90.0256,-1474.97,2.24
1.4778,1.47636,0.640711,0.415052,0,-1.27067e-05,0.0774024,0.166162,-8,-1563,-4.27045e-06,-8,-89.9991,-1473,2.244
1.4778,1.47636,0.641021,0.415725,0,-8.47113e-06,0.0773359,0.166917,-8,-1559,-2.86342e-06,-8,-89.9724,-1469.03,2.248
1.4778,1.47636,0.64133,0.416395,0,-5.64742e-06,0.0772694,0.167103,-8,-1557,-1.91342e-06,-8,-89.9458,-1467.05,2.252
1.4778,1.47636,0.641639,0.417067,0,-3.76495e-06,0.0772028,0.167401,-8,-1554,-1.27944e-06,-8,-89.919,-1464.08,2.256
1.4778,1.47636,0.641948,0.417741,0,2.6281e-05,0.0771361,0.167772,-8,-1551,8.96178e-06,-8.00001,-89.8921,-1461.11,2.26
1.4778,1.47636,0.642256,0.418417,0,-1.12703e-05,0.0770694,0.168192,-8,-1548,-3.85748e-06,-8,-89.8651,-1458.13,2.264
1.4778,1.47636,0.642564,0.419096,0,-7.51352e-06,0.0770027,0.168702,-8,-1545,-2.58262e-06,-8,-89.838,-1455.16,2.268
1.4778,1.47636,0.642872,0.419764,0,2.37819e-05,0.0769359,0.16815,-8,-1543,8.15756e-06,-8.00001,-89.8112,-1453.19,2.272
1.4778,1.47636,0.64318,0.42044,0,1.58546e-05,0.0768691,0.168357,-8,-1540,5.45168e-06,-8.00001,-89.7841,-1450.22,2.276
1.4778,1.47636,0.643487,0.421116,0,-1.82212e-05,0.0768022,0.168611,-8,-1537,-6.28247e-06,-7.99999,-89.757,-1447.24,2.28
1.4778,1.47636,0.643794,0.421796,0,-1.21475e-05,0.0767353,0.169096,-8,-1534,-4.20547e-06,-8,-89.7296,-1444.27,2.284
1.4778,1.47636,0.644101,0.422479,0,2.06926e-05,0.0766683,0.169622,-8,-1531,7.19481e-06,-8.00001,-89.7021,-1441.3,2.288
1.4778,1.47636,0.644407,0.423164,0,-1.49958e-05,0.0766013,0.170202,-8,-1528,-5.23825e-06,-7.99999,-89.6744,-1438.33,2.292
1.4778,1.47636,0.644714,0.423856,0,-9.99723e-06,0.0765342,0.171137,-8,-1525,-3.51563e-06,-8,-89.6465,-1435.35,2.296
1.4778,1.47636,0.64502,0.424551,0,2.21261e-05,0.0764671,0.17199,-8,-1521,7.82924e-06,-8.00001,-89.6183,-1431.38,2.3
1.4778,1.47636,0.645325,0.425242,0,-1.40402e-05,0.0764,0.172242,-8,-1518,-4.98139e-06,-8,-89.5903,-1428.41,2.304
1.4778,1.47636,0.645631,0.425931,0,-9.36013e-06,0.0763328,0.172237,-8,-1515,-3.32485e-06,-8,-89.5623,-1425.44,2.308
1.4778,1.47636,0.645936,0.426618,0,-6.24008e-06,0.0762655,0.172032,-8,-1513,-2.21659e-06,-8,-89.5344,-1423.47,2.312
1.4778,1.47636,0.646241,0.427298,0,2.46309e-05,0.0761982,0.171377,-8,-1511,8.72637e-06,-8.00001,-89.5067,-1421.49,2.316
1.4778,1.47636,0.646546,0.427973,0,1.64206e-05,0.0761309,0.170538,-8,-1509,5.79588e-06,-8.00001,-89.4792,-1419.52,2.32
1.4778,1.47636,0.64685,0.428646,0,-1.78439e-05,0.0760635,0.169777,-8,-1507,-6.27746e-06,-7.99999,-89.4517,-1417.55,2.324
1.4778,1.47636,0.647154,0.42932,0,-1.18959e-05,0.0759961,0.169298,-8,-1505,-4.17804e-06,-8,-89.4241,-1415.58,2.328
1.4778,1.47636,0.647458,0.429994,0,-7.93061e-06,0.0759286,0.169065,-8,-1502,-2.78476e-06,-8,-89.3965,-1412.6,2.332
1.4778,1.47636,0.647762,0.43067,0,-5.28707e-06,0.0758611,0.169025,-8,-1500,-1.85823e-06,-8,-89.3688,-1410.63,2.336
1.4778,1.47636,0.648065,0.431345,0,-3.52472e-06,0.0757936,0.168912,-8,-1497,-1.23942e-06,-8,-89.3411,-1407.66,2.34
1.4778,1.47636,0.648368,0.432026,0,-2.34981e-06,0.075726,0.169355,-8,-1494,-8.29414e-07,-8,-89.313,-1404.69,2.344
1.4778,1.47636,0.648671,0.432712,0,-1.56654e-06,0.0756583,0.170082,-8,-1491,-5.55967e-07,-8,-89.2848,-1401.72,2.348
1.4778,1.47636,0.648973,0.433397,0,2.77466e-05,0.0755906,0.17048,-7,-1488,9.88186e-06,-7.00001,-89.2565,-1398.74,2.352
1.4778,1.47636,0.649275,0.434083,0,-1.02932e-05,0.0755229,0.170861,-8,-1485,-3.67837e-06,-8,-89.2281,-1395.77,2.356
1.4778,1.47636,0.649577,0.434769,0,2.19288e-05,0.0754551,0.171086,-8,-1482,7.85587e-06,-8.00001,-89.1997,-1392.8,2.36
1.4778,1.47636,0.649879,0.435459,0,1.46192e-05,0.0753873,0.171553,-8,-1479,5.25765e-06,-8.00001,-89.1711,-1389.83,2.364
1.4778,1.47636,0.65018,0.436137,0,9.74613e-06,0.0753195,0.170856,-8,-1477,3.49485e-06,-8,-89.143,-1387.86,2.368
1.4778,1.47636,0.650482,0.436817,0,6.49742e-06,0.0752516,0.170565,-8,-1474,2.32858e-06,-8,-89.1147,-1384.89,2.372
1.4778,1.47636,0.650782,0.437493,0,-2.44593e-05,0.0751837,0.170025,-8,-1472,-8.74798e-06,-7.99999,-89.0866,-1382.91,2.376
1.4778,1.47636,0.651083,0.438166,0,1.24847e-05,0.0751157,0.169435,-8,-1470,4.45471e-06,-8,-89.0585,-1380.94,2.38
1.4778,1.47636,0.651383,0.438836,0,8.32314e-06,0.0750477,0.168782,-8,-1468,2.96167e-06,-8,-89.0305,-1378.97,2.384
1.4778,1.47636,0.651683,0.439505,0,5.54876e-06,0.0749796,0.168289,-8,-1466,1.97087e-06,-8,-89.0025,-1377,2.388
1.4778,1.47636,0.651983,0.440177,0,3.69918e-06,0.0749115,0.168162,-8,-1463,1.31438e-06,-8,-88.9744,-1374.03,2.392
1.4778,1.47636,0.652283,0.440845,0,2.46612e-06,0.0748434,0.167819,-8,-1461,8.75428e-07,-8,-88.9464,-1372.05,2.396
1.4778,1.47636,0.652582,0.441516,0,-2.71468e-05,0.0747752,0.167762,-8,-1458,-9.64405e-06,-7.99999,-88.9182,-1369.08,2.4
1.4778,1.47636,0.652881,0.442186,0,1.0693e-05,0.074707,0.167725,-8,-1455,3.80208e-06,-8,-88.89,-1366.11,2.404
1.4778,1.47636,0.65318,0.442861,0,7.12868e-06,0.0746387,0.168016,-8,-1453,2.54193e-06,-8,-88.8616,-1364.14,2.408
1.4778,1.47636,0.653478,0.443538,0,-2.40385e-05,0.0745704,0.168441,-8,-1450,-8.60276e-06,-7.99999,-88.833,-1361.17,2.412
1.4778,1.47636,0.653776,0.444219,0,1.27653e-05,0.074502,0.169041,-8,-1446,4.58972e-06,-8,-88.8043,-1357.2,2.416
1.4778,1.47636,0.654074,0.444902,0,8.51019e-06,0.0744337,0.169642,-8,-1443,3.07411e-06,-8,-88.7754,-1354.22,2.42
1.4778,1.47636,0.654372,0.445588,0,5.67346e-06,0.0743652,0.170245,-8,-1440,2.05897e-06,-8,-88.7463,-1351.25,2.424
1.4778,1.47636,0.654669,0.446278,0,3.7823e-06,0.0742968,0.170963,-8,-1437,1.37997e-06,-8,-88.7171,-1348.28,2.428
1.4778,1.47636,0.654966,0.446965,0,2.52154e-06,0.0742283,0.171269,-8,-1433,9.22649e-07,-8,-88.6879,-1344.31,2.432
1.4778,1.47636,0.655263,0.447647,0,1.68102e-06,0.0741598,0.170955,-8,-1431,6.14643e-07,-8,-88.6589,-1342.34,2.436
1.4778,1.47636,0.655559,0.448327,0,-2.76702e-05,0.0740912,0.17066,-8,-1429,-1.01107e-05,-7.99999,-88.6299,-1340.37,2.44
1.4778,1.47636,0.655856,0.449006,0,1.03441e-05,0.0740226,0.170376,-7,-1426,3.77755e-06,-7,-88.6009,-1337.4,2.444
1.4778,1.47636,0.656151,0.449682,0,-2.18949e-05,0.0739539,0.169928,-8,-1424,-7.98332e-06,-7.99999,-88.572,-1335.43,2.448
1.4778,1.47636,0.656447,0.450356,0,-1.45966e-05,0.0738852,0.169428,-8,-1422,-5.31222e-06,-7.99999,-88.5432,-1333.46,2.452
1.4778,1.47636,0.656743,0.451033,0,1.90599e-05,0.0738165,0.169353,-7,-1419,6.94096e-06,-7.00001,-88.5142,-1330.49,2.456
1.4778,1.47636,0.657038,0.451707,0,-1.60843e-05,0.0737477,0.169131,-8,-1416,-5.85592e-06,-7.99999,-88.4853,-1327.51,2.46
1.4778,1.47636,0.657333,0.452382,0,-1.07229e-05,0.0736789,0.168983,-8,-1414,-3.90467e-06,-8,-88.4563,-1325.54,2.464
1.4778,1.47636,0.657627,0.45305,0,2.16423e-05,0.0736101,0.168279,-7,-1412,7.85632e-06,-7.00001,-88.4276,-1323.57,2.468
1.4778,1.47636,0.657921,0.453722,0,1.44282e-05,0.0735412,0.168213,-7,-1409,5.24101e-06,-7.00001,-88.3986,-1320.6,2.472
1.4778,1.47636,0.658215,0.45439,0,-1.91721e-05,0.0734723,0.167766,-8,-1407,-6.95295e-06,-7.99999,-88.3698,-1318.63,2.476
1.4778,1.47636,0.658509,0.455051,0,1.60095e-05,0.0734034,0.16695,-7,-1405,5.78371e-06,-7.00001,-88.3413,-1316.66,2.48
1.4778,1.47636,0.658803,0.455708,0,-1.81179e-05,0.0733344,0.16606,-8,-1403,-6.51716e-06,-7.99999,-88.3128,-1314.69,2.484
1.4778,1.47636,0.659096,0.456357,0,1.67123e-05,0.0732654,0.164805,-7,-1402,5.97212e-06,-7.00001,-88.2847,-1313.72,2.488
1.4778,1.47636,0.659389,0.457005,0,1.11415e-05,0.0731963,0.163824,-7,-1400,3.96167e-06,-7,-88.2566,-1311.74,2.492
1.4778,1.47636,0.659681,0.457654,0,-2.13632e-05,0.0731272,0.163314,-8,-1398,-7.5802e-06,-7.99999,-88.2285,-1309.77,2.496
1.4778,1.47636,0.659974,0.458299,0,1.45488e-05,0.0730581,0.162658,-7,-1396,5.1466e-06,-7.00001,-88.2004,-1307.8,2.5
1.4778,1.47636,0.660266,0.458937,0,9.69918e-06,0.0729889,0.161586,-7,-1394,3.41181e-06,-7,-88.1726,-1305.83,2.504
1.4778,1.47636,0.660558,0.459576,0,-2.23248e-05,0.0729198,0.160988,-8,-1392,-7.83156e-06,-7.99999,-88.1448,-1303.86,2.508
1.4778,1.47636,0.660849,0.460213,0,1.39077e-05,0.0728505,0.160444,-7,-1390,4.8671e-06,-7,-88.1169,-1301.88,2.512
1.4778,1.47636,0.661141,0.46085,0,9.27181e-06,0.0727813,0.160025,-7,-1388,3.23938e-06,-7,-88.0891,-1299.91,2.516
1.4778,1.47636,0.661432,0.461484,0,-2.26097e-05,0.072712,0.159457,-8,-1386,-7.87889e-06,-7.99999,-88.0614,-1297.94,2.52
1.4778,1.47636,0.661722,0.462112,0,1.37178e-05,0.0726426,0.158675,-7,-1384,4.76138e-06,-7,-88.0338,-1295.97,2.524
1.4778,1.47636,0.662013,0.462742,0,9.14519e-06,0.0725733,0.158269,-7,-1382,3.16914e-06,-7,-88.0062,-1293.99,2.528
1.4778,1.47636,0.662303,0.463369,0,6.09679e-06,0.0725039,0.157768,-7,-1380,2.10806e-06,-7,-87.9787,-1292.02,2.532
1.4778,1.47636,0.662593,0.463991,0,4.06453e-06,0.0724344,0.157031,-7,-1379,1.40011e-06,-7,-87.9513,-1291.05,2.536
1.4778,1.47636,0.662882,0.464613,0,2.70969e-06,0.072365,0.156482,-7,-1377,9.31012e-07,-7,-87.9239,-1289.08,2.54
1.4778,1.47636,0.663172,0.465233,0,1.80646e-06,0.0722955,0.156001,-7,-1375,6.19339e-07,-7,-87.8966,-1287.1,2.544
1.4778,1.47636,0.663461,0.465854,0,1.2043e-06,0.0722259,0.155767,-7,-1373,4.12654e-07,-7,-87.8691,-1285.13,2.548
1.4778,1.47636,0.663749,0.466466,0,-2.79881e-05,0.0721564,0.154862,-8,-1371,-9.54304e-06,-7.99999,-87.8421,-1283.16,2.552
1.4778,1.47636,0.664038,0.467075,0,1.01322e-05,0.0720868,0.153942,-7,-1369,3.43734e-06,-7,-87.8152,-1281.18,2.556
1.4778,1.47636,0.664326,0.467675,0,6.75481e-06,0.0720171,0.152638,-7,-1368,2.27416e-06,-7,-87.7886,-1280.21,2.56
1.4778,1.47636,0.664614,0.468274,0,4.50321e-06,0.0719475,0.151682,-7,-1367,1.50794e-06,-7,-87.762,-1279.24,2.564
1.4778,1.47636,0.664902,0.468871,0,3.00214e-06,0.0718778,0.150901,-7,-1365,1.001e-06,-7,-87.7355,-1277.26,2.568
1.4778,1.47636,0.665189,0.46946,0,-2.67895e-05,0.071808,0.14966,-8,-1364,-8.86656e-06,-7.99999,-87.7093,-1276.29,2.572
1.4778,1.47636,0.665476,0.470044,0,1.09313e-05,0.0717383,0.148488,-7,-1363,3.59266e-06,-7,-87.6833,-1275.32,2.576
1.4778,1.47636,0.665763,0.470626,0,7.28751e-06,0.0716685,0.147418,-7,-1362,2.37987e-06,-7,-87.6574,-1274.34,2.58
1.4778,1.47636,0.666049,0.471201,0,-2.39326e-05,0.0715987,0.146273,-8,-1361,-7.76143e-06,-7.99999,-87.6317,-1273.37,2.584
1.4778,1.47636,0.666336,0.471777,0,1.28359e-05,0.0715288,0.145481,-7,-1359,4.14364e-06,-7,-87.6059,-1271.39,2.588
1.4778,1.47636,0.666622,0.472345,0,8.55724e-06,0.0714589,0.144349,-7,-1358,2.74318e-06,-7,-87.5805,-1270.42,2.592
1.4778,1.47636,0.666907,0.472906,0,5.70483e-06,0.071389,0.142931,-7,-1357,1.81229e-06,-7,-87.5554,-1269.44,2.596
1.4778,1.47636,0.667193,0.473467,0,3.80322e-06,0.0713191,0.142015,-7,-1356,1.20142e-06,-7,-87.5303,-1268.47,2.6
1.4778,1.47636,0.667478,0.47402,0,-2.62554e-05,0.0712491,0.1408,-8,-1355,-8.22957e-06,-7.99999,-87.5055,-1267.49,2.604
1.4778,1.47636,0.667763,0.474569,0,-1.75036e-05,0.0711791,0.139644,-8,-1354,-5.44564e-06,-7.99999,-87.4808,-1266.52,2.608
1.4778,1.47636,0.668047,0.475111,0,1.71218e-05,0.0711091,0.138269,-7,-1354,5.2785e-06,-7.00001,-87.4564,-1266.54,2.612
1.4778,1.47636,0.668332,0.475654,0,-1.73764e-05,0.071039,0.137381,-7,-1352,-5.32669e-06,-6.99999,-87.432,-1264.57,2.616
1.4778,1.47636,0.668616,0.476192,0,-1.15842e-05,0.0709689,0.136415,-7,-1351,-3.52885e-06,-7,-87.4078,-1263.59,2.62
1.4778,1.47636,0.668899,0.476731,0,2.10681e-05,0.0708988,0.135857,-7,-1350,6.39653e-06,-7.00001,-87.3835,-1262.62,2.624
1.4778,1.47636,0.669183,0.477264,0,-1.47455e-05,0.0708286,0.134996,-7,-1349,-4.4519e-06,-7,-87.3594,-1261.64,2.628
1.4778,1.47636,0.669466,0.477798,0,1.89606e-05,0.0707585,0.134479,-7,-1348,5.70689e-06,-7.00001,-87.3353,-1260.66,2.632
1.4778,1.47636,0.669749,0.47833,0,1.26404e-05,0.0706883,0.133991,-7,-1346,3.79363e-06,-7,-87.3112,-1258.69,2.636
1.4778,1.47636,0.670032,0.478861,0,8.42692e-06,0.070618,0.133579,-7,-1345,2.52319e-06,-7,-87.2871,-1257.71,2.64
1.4778,1.47636,0.670314,0.479388,0,5.61795e-06,0.0705478,0.132988,-7,-1344,1.67592e-06,-7,-87.2632,-1256.74,2.644
1.4778,1.47636,0.670596,0.479912,0,3.7453e-06,0.0704775,0.132363,-7,-1342,1.11285e-06,-7,-87.2394,-1254.76,2.648
1.4778,1.47636,0.670878,0.48043,0,2.49687e-06,0.0704071,0.131342,-7,-1341,7.36713e-07,-7,-87.2159,-1253.78,2.652
1.4778,1.47636,0.671159,0.480946,0,1.66458e-06,0.0703368,0.130633,-7,-1340,4.88842e-07,-7,-87.1924,-1252.81,2.656
1.4778,1.47636,0.67144,0.481458,0,-2.76812e-05,0.0702664,0.129699,-8,-1339,-8.07688e-06,-7.99999,-87.1691,-1251.83,2.66
1.4778,1.47636,0.671721,0.481967,0,-1.84541e-05,0.070196,0.128933,-7,-1338,-5.35657e-06,-6.99999,-87.1459,-1250.85,2.664
1.4778,1.47636,0.672002,0.482472,0,-1.23028e-05,0.0701256,0.12799,-7,-1338,-3.54741e-06,-7,-87.1229,-1250.88,2.668
1.4778,1.47636,0.672282,0.482974,0,-8.20184e-06,0.0700551,0.127189,-7,-1337,-2.35177e-06,-7,-87.1,-1249.9,2.672
1.4778,1.47636,0.672562,0.483473,0,2.3323e-05,0.0699846,0.126366,-7,-1336,6.64893e-06,-7.00001,-87.0772,-1248.92,2.676
1.4778,1.47636,0.672842,0.483967,0,-1.32422e-05,0.0699141,0.125387,-7,-1335,-3.74837e-06,-7,-87.0546,-1247.95,2.68
1.4778,1.47636,0.673122,0.484459,0,1.99628e-05,0.0698436,0.124589,-7,-1334,5.61857e-06,-7.00001,-87.0321,-1246.97,2.684
1.4778,1.47636,0.673401,0.484948,0,1.33085e-05,0.069773,0.123799,-7,-1333,3.72444e-06,-7,-87.0097,-1245.99,2.688
1.4778,1.47636,0.67368,0.485433,0,8.87234e-06,0.0697024,0.122955,-7,-1332,2.46768e-06,-7,-86.9874,-1245.01,2.692
1.4778,1.47636,0.673959,0.485914,0,5.91489e-06,0.0696318,0.122047,-7,-1332,1.63404e-06,-7,-86.9654,-1245.03,2.696
1.4778,1.47636,0.674237,0.486393,0,3.27342e-05,0.0695612,0.121326,-7,-1331,8.99561e-06,-7.00001,-86.9433,-1244.06,2.7
1.4778,1.47636,0.674515,0.486874,0,-6.96813e-06,0.0694905,0.12099,-7,-1330,-1.91084e-06,-7,-86.9212,-1243.08,2.704
1.4778,1.47636,0.674793,0.487355,0,-3.34363e-05,0.0694198,0.120708,-8,-1328,-9.15371e-06,-7.99999,-86.8991,-1241.1,2.708
1.4778,1.47636,0.67507,0.487838,0,-5.10818e-05,0.0693491,0.120722,-8,-1327,-1.39952e-05,-7.99999,-86.8768,-1240.12,2.712
1.4778,1.47636,0.675348,0.48832,0,2.35273e-05,0.0692784,0.120673,-7,-1325,6.44752e-06,-7.00001,-86.8546,-1238.15,2.716
1.4778,1.47636,0.675625,0.488799,0,1.56849e-05,0.0692076,0.120353,-7,-1324,4.28971e-06,-7,-86.8325,-1237.17,2.72
1.4778,1.47636,0.675901,0.489279,0,3.92475e-05,0.0691368,0.120226,-7,-1323,1.07295e-05,-7.00001,-86.8103,-1236.19,2.724
1.4778,1.47636,0.676178,0.48976,0,-6.02078e-05,0.069066,0.120228,-8,-1321,-1.64706e-05,-7.99998,-86.788,-1234.21,2.728
1.4778,1.47636,0.676454,0.490239,0,-1.13476e-05,0.0689952,0.120056,-7,-1320,-3.10183e-06,-7,-86.7659,-1233.23,2.732
1.4778,1.47636,0.67673,0.490714,0,-3.6356e-05,0.0689243,0.119682,-8,-1319,-9.91319e-06,-7.99999,-86.7438,-1232.26,2.736
1.4778,1.47636,0.677005,0.491187,0,3.33445e-05,0.0688534,0.119174,-7,-1318,9.05917e-06,-7.00001,-86.7219,-1231.28,2.74
1.4778,1.47636,0.677281,0.491658,0,-6.56124e-06,0.0687825,0.118692,-7,-1317,-1.77648e-06,-7,-86.7001,-1230.3,2.744
1.4778,1.47636,0.677556,0.492129,0,-4.37416e-06,0.0687116,0.118399,-7,-1316,-1.18214e-06,-7,-86.6782,-1229.32,2.748
1.4778,1.47636,0.67783,0.492599,0,2.58748e-05,0.0686406,0.118059,-7,-1315,6.97709e-06,-7.00001,-86.6564,-1228.34,2.752
1.4778,1.47636,0.678105,0.493062,0,-4.0332e-05,0.0685697,0.117315,-8,-1314,-1.08135e-05,-7.99999,-86.6348,-1227.37,2.756
1.4778,1.47636,0.678379,0.493525,0,-2.6888e-05,0.0684987,0.11679,-7,-1313,-7.18112e-06,-6.99999,-86.6132,-1226.39,2.76
1.4778,1.47636,0.678653,0.493988,0,3.96565e-05,0.0684276,0.116411,-7,-1312,1.05634e-05,-7.00001,-86.5917,-1225.41,2.764
1.4778,1.47636,0.678926,0.494446,0,5.52286e-05,0.0683566,0.115842,-7,-1311,1.46482e-05,-7.00001,-86.5703,-1224.43,2.768
1.4778,1.47636,0.6792,0.494908,0,-4.95537e-05,0.0682855,0.115664,-8,-1310,-1.31309e-05,-7.99999,-86.5487,-1223.45,2.772
1.4778,1.47636,0.679473,0.495366,0,-3.30358e-05,0.0682144,0.115315,-7,-1309,-8.73274e-06,-6.99999,-86.5273,-1222.47,2.776
1.4778,1.47636,0.679745,0.495825,0,6.76706e-06,0.0681433,0.115111,-7,-1307,1.78673e-06,-7,-86.5059,-1220.49,2.78
1.4778,1.47636,0.680018,0.496283,0,-2.42796e-05,0.0680722,0.114888,-7,-1306,-6.40205e-06,-6.99999,-86.4844,-1219.52,2.784
1.4778,1.47636,0.68029,0.496741,0,-1.61864e-05,0.068001,0.114798,-7,-1305,-4.26722e-06,-7,-86.4629,-1218.54,2.788
1.4778,1.47636,0.680562,0.497201,0,1.8e-05,0.0679299,0.114853,-7,-1304,4.75046e-06,-7,-86.4414,-1217.56,2.792
1.4778,1.47636,0.680833,0.497658,0,6.95819e-05,0.0678587,0.114659,-7,-1302,1.83435e-05,-7.00002,-86.4199,-1215.58,2.796
1.4778,1.47636,0.681105,0.498113,0,4.63879e-05,0.0677874,0.114357,-7,-1301,1.2204e-05,-7.00001,-86.3986,-1214.6,2.8
1.4778,1.47636,0.681376,0.498566,0,-2.66566e-05,0.0677162,0.114012,-7,-1300,-6.9959e-06,-6.99999,-86.3773,-1213.62,2.804
1.4778,1.47636,0.681646,0.499015,0,-1.77711e-05,0.067645,0.113378,-7,-1300,-4.64072e-06,-7,-86.3562,-1213.64,2.808
1.4778,1.47636,0.681917,0.499457,0,4.57345e-05,0.0675737,0.112409,-7,-1299,1.18477e-05,-7.00001,-86.3353,-1212.66,2.812
1.4778,1.47636,0.682187,0.499892,0,-5.58831e-05,0.0675024,0.111245,-8,-1299,-1.43348e-05,-7.99999,-86.3148,-1212.69,2.816
1.4778,1.47636,0.682457,0.500325,0,-8.46449e-06,0.0674311,0.110181,-7,-1298,-2.15169e-06,-7,-86.2944,-1211.71,2.82
1.4778,1.47636,0.682726,0.500752,0,2.31479e-05,0.0673597,0.109039,-7,-1298,5.82648e-06,-7.00001,-86.2743,-1211.73,2.824
1.4778,1.47636,0.682996,0.501176,0,-1.3359e-05,0.0672884,0.108019,-7,-1298,-3.33289e-06,-7,-86.2543,-1211.75,2.828
1.4778,1.47636,0.683265,0.501595,0,-3.76969e-05,0.067217,0.106936,-7,-1298,-9.31557e-06,-6.99999,-86.2344,-1211.77,2.832
1.4778,1.47636,0.683533,0.502008,0,3.65965e-06,0.0671456,0.105696,-7,-1298,8.94346e-07,-7,-86.2149,-1211.79,2.836
1.4778,1.47636,0.683802,0.502414,0,-2.63512e-05,0.0670742,0.104322,-7,-1298,-6.35927e-06,-6.99999,-86.1957,-1211.8,2.84
1.4778,1.47636,0.68407,0.502813,0,6.88053e-05,0.0670027,0.102802,-7,-1298,1.63709e-05,-7.00002,-86.1768,-1211.82,2.844
1.4778,1.47636,0.684338,0.50321,0,-1.17116e-05,0.0669313,0.101615,-7,-1298,-2.75579e-06,-7,-86.158,-1211.84,2.848
1.4778,1.47636,0.684605,0.503606,0,-7.80775e-06,0.0668598,0.100767,-7,-1298,-1.82276e-06,-7,-86.1392,-1211.86,2.852
1.4778,1.47636,0.684873,0.504002,0,2.35858e-05,0.0667883,0.100201,-7,-1297,5.47806e-06,-7.00001,-86.1203,-1210.88,2.856
1.4778,1.47636,0.68514,0.504395,0,1.57238e-05,0.0667168,0.0995071,-7,-1297,3.62855e-06,-7,-86.1017,-1210.9,2.86
1.4778,1.47636,0.685406,0.504786,0,3.92735e-05,0.0666453,0.0989582,-7,-1297,9.01748e-06,-7.00001,-86.0831,-1210.92,2.864
1.4778,1.47636,0.685673,0.505169,0,-3.13995e-05,0.0665738,0.0979013,-7,-1296,-7.13599e-06,-6.99999,-86.0648,-1209.94,2.868
1.4778,1.47636,0.685939,0.505553,0,-4.97239e-05,0.0665022,0.0972254,-7,-1296,-1.12279e-05,-6.99999,-86.0466,-1209.95,2.872
1.4778,1.47636,0.686205,0.505935,0,-4.35837e-06,0.0664306,0.0966597,-7,-1296,-9.78879e-07,-7,-86.0284,-1209.97,2.876
1.4778,1.47636,0.68647,0.506313,0,5.46763e-05,0.066359,0.0959659,-7,-1295,1.21978e-05,-7.00001,-86.0103,-1208.99,2.88
1.4778,1.47636,0.686736,0.506684,0,7.65992e-06,0.0662874,0.0948987,-7,-1296,1.69064e-06,-7,-85.9926,-1210.01,2.884
1.4778,1.47636,0.687001,0.50705,0,3.38975e-05,0.0662158,0.0936978,-7,-1296,7.39028e-06,-7.00001,-85.9752,-1210.02,2.888
1.4778,1.47636,0.687265,0.507405,0,-6.19257e-06,0.0661441,0.0920911,-7,-1296,-1.32753e-06,-7,-85.9582,-1210.04,2.892
1.4778,1.47636,0.68753,0.507755,0,2.46625e-05,0.0660725,0.090588,-7,-1297,5.20299e-06,-7.00001,-85.9415,-1211.06,2.896
1.4778,1.47636,0.687794,0.508103,0,-1.23492e-05,0.0660008,0.0893269,-7,-1297,-2.57012e-06,-7,-85.9249,-1211.08,2.9
1.4778,1.47636,0.688058,0.50845,0,-8.23282e-06,0.0659291,0.0884574,-7,-1297,-1.69746e-06,-7,-85.9083,-1211.09,2.904
1.4778,1.47636,0.688321,0.508794,0,-5.48854e-06,0.0658574,0.0877049,-7,-1297,-1.12249e-06,-7,-85.8917,-1211.11,2.908
1.4778,1.47636,0.688585,0.509137,0,2.51319e-05,0.0657857,0.0870018,-7,-1297,5.10082e-06,-7.00001,-85.8753,-1211.12,2.912
1.4778,1.47636,0.688848,0.509474,0,-6.96182e-05,0.0657139,0.0860723,-8,-1298,-1.39847e-05,-7.99999,-85.8592,-1212.14,2.916
1.4778,1.47636,0.68911,0.509806,0,3.99607e-05,0.0656422,0.0850784,-7,-1298,7.93773e-06,-7.00001,-85.8432,-1212.16,2.92
1.4778,1.47636,0.689373,0.510134,0,-5.97323e-05,0.0655704,0.0840415,-8,-1298,-1.17253e-05,-7.99999,-85.8275,-1212.17,2.924
1.4778,1.47636,0.689635,0.51046,0,-3.98216e-05,0.0654986,0.0832063,-7,-1298,-7.74226e-06,-6.99999,-85.8118,-1212.19,2.928
1.4778,1.47636,0.689897,0.510783,0,-2.65477e-05,0.0654268,0.0824192,-7,-1298,-5.1147e-06,-6.99999,-85.7963,-1212.2,2.932
1.4778,1.47636,0.690158,0.511107,0,1.10925e-05,0.065355,0.0818944,-7,-1298,2.12431e-06,-7,-85.7807,-1212.22,2.936
1.4778,1.47636,0.69042,0.511427,0,3.61859e-05,0.0652832,0.0812567,-7,-1298,6.87868e-06,-7.00001,-85.7653,-1212.23,2.94
1.4778,1.47636,0.690681,0.511745,0,5.29149e-05,0.0652113,0.0807164,-7,-1298,9.99573e-06,-7.00001,-85.75,-1212.25,2.944
1.4778,1.47636,0.690941,0.512059,0,-2.23053e-05,0.0651395,0.0799819,-7,-1299,-4.17677e-06,-7,-85.7349,-1213.27,2.948
1.4778,1.47636,0.691202,0.512374,0,-1.48702e-05,0.0650676,0.0795786,-7,-1298,-2.77153e-06,-7,-85.7197,-1212.28,2.952
1.4778,1.47636,0.691462,0.512689,0,-9.91346e-06,0.0649957,0.0793097,-7,-1298,-1.84215e-06,-7,-85.7045,-1212.3,2.956
1.4778,1.47636,0.691722,0.513003,0,-3.53999e-05,0.0649238,0.0790441,-7,-1298,-6.55859e-06,-6.99999,-85.6893,-1212.31,2.96
1.4778,1.47636,0.691981,0.513317,0,-2.35999e-05,0.0648519,0.0788382,-7,-1298,-4.36267e-06,-7,-85.6742,-1212.33,2.964
1.4778,1.47636,0.692241,0.513629,0,1.30576e-05,0.06478,0.078557,-7,-1298,2.40612e-06,-7,-85.6591,-1212.34,2.968
1.4778,1.47636,0.6925,0.513943,0,8.70509e-06,0.064708,0.0785135,-7,-1297,1.6038e-06,-7,-85.644,-1211.36,2.972
1.4778,1.47636,0.692758,0.514256,0,5.80339e-06,0.0646361,0.0784269,-7,-1297,1.06842e-06,-7,-85.6288,-1211.37,2.976
1.4778,1.47636,0.693017,0.51457,0,3.86893e-06,0.0645641,0.0784843,-7,-1296,7.13075e-07,-7,-85.6136,-1210.39,2.98
1.4778,1.47636,0.693275,0.514882,0,2.57929e-06,0.0644921,0.0782923,-7,-1296,4.74398e-07,-7,-85.5985,-1210.4,2.984
1.4778,1.47636,0.693533,0.515192,0,1.71952e-06,0.0644201,0.0780203,-7,-1296,3.15284e-07,-7,-85.5835,-1210.42,2.988
1.4778,1.47636,0.69379,0.515497,0,1.14635e-06,0.0643481,0.0774072,-7,-1296,2.08613e-07,-7,-85.5687,-1210.43,2.992
1.4778,1.47636,0.694047,0.515799,0,5.83461e-05,0.0642761,0.076768,-7,-1296,1.0534e-05,-7.00001,-85.5541,-1210.45,2.996
1.4778,1.47636,0.694304,0.516099,0,-1.86845e-05,0.0642041,0.0762268,-7,-1296,-3.35078e-06,-7,-85.5395,-1210.46,3
1.4778,1.47636,0.694561,0.516397,0,-4.12472e-05,0.0641321,0.0756356,-7,-1296,-7.34232e-06,-6.99999,-85.525,-1210.47,3.004
1.4778,1.47636,0.694817,0.516695,0,1.29277e-06,0.06406,0.0752703,-7,-1296,2.29093e-07,-7,-85.5106,-1210.49,3.008
1.4778,1.47636,0.695074,0.516993,0,-2.79291e-05,0.0639879,0.0749692,-7,-1296,-4.93128e-06,-7,-85.4961,-1210.5,3.012
1.4778,1.47636,0.695329,0.517291,0,-1.86194e-05,0.0639159,0.0748836,-7,-1296,-3.28493e-06,-7,-85.4816,-1210.52,3.016
1.4778,1.47636,0.695585,0.517594,0,1.6378e-05,0.0638438,0.0751145,-7,-1295,2.89945e-06,-7,-85.4669,-1209.53,3.02
1.4778,1.47636,0.69584,0.517897,0,1.09187e-05,0.0637717,0.075326,-7,-1295,1.9391e-06,-7,-85.4521,-1209.55,3.024
1.4778,1.47636,0.696095,0.518201,0,-2.15118e-05,0.0636996,0.0756109,-7,-1294,-3.83623e-06,-7,-85.4373,-1208.56,3.028
1.4778,1.47636,0.69635,0.518505,0,4.32406e-05,0.0636275,0.0756857,-7,-1293,7.72156e-06,-7.00001,-85.4225,-1207.58,3.032
1.4778,1.47636,0.696604,0.518807,0,3.61691e-08,0.0635554,0.0756492,-7,-1293,6.45797e-09,-7,-85.4078,-1207.59,3.036
1.4778,1.47636,0.696858,0.519111,0,2.41127e-08,0.0634832,0.0757688,-7,-1293,4.31367e-09,-7,-85.3929,-1207.61,3.04
1.4778,1.47636,0.697112,0.519419,0,1.60751e-08,0.0634111,0.076194,-7,-1292,2.89297e-09,-7,-85.3779,-1206.62,3.044
1.4778,1.47636,0.697365,0.519737,0,1.07168e-08,0.0633389,0.0772837,-7,-1290,1.95696e-09,-7,-85.3624,-1204.64,3.048
1.4778,1.47636,0.697619,0.520059,0,7.14451e-09,0.0632668,0.0783844,-7,-1289,1.32372e-09,-7,-85.3466,-1203.65,3.052
1.4778,1.47636,0.697872,0.520389,0,4.76301e-09,0.0631946,0.0797228,-7,-1287,8.97896e-10,-7,-85.3305,-1201.67,3.056
1.4778,1.47636,0.698124,0.520719,0,-2.87877e-05,0.0631224,0.0806727,-7,-1286,-5.49369e-06,-6.99999,-85.3143,-1200.69,3.06
1.4778,1.47636,0.698377,0.521051,0,9.59909e-06,0.0630502,0.0814211,-7,-1285,1.84955e-06,-7,-85.2981,-1199.7,3.064
1.4778,1.47636,0.698629,0.521382,0,6.39939e-06,0.062978,0.0818624,-7,-1284,1.24019e-06,-7,-85.2819,-1198.72,3.068
1.4778,1.47636,0.69888,0.521717,0,4.26626e-06,0.0629058,0.0824733,-7,-1282,8.33292e-07,-7,-85.2655,-1196.73,3.072
1.4778,1.47636,0.699132,0.522053,0,6.0426e-05,0.0628336,0.0830246,-7,-1281,1.1886e-05,-7.00001,-85.249,-1195.75,3.076
1.4778,1.47636,0.699383,0.522397,0,-1.72978e-05,0.0627614,0.0840255,-7,-1280,-3.44495e-06,-7,-85.2321,-1194.77,3.08
1.4778,1.47636,0.699634,0.522744,0,4.605e-05,0.0626891,0.0848943,-7,-1278,9.26962e-06,-7.00001,-85.2151,-1192.78,3.084
1.4778,1.47636,0.699885,0.523097,0,-2.68819e-05,0.0626169,0.0859917,-7,-1277,-5.48338e-06,-6.99999,-85.1978,-1191.8,3.088
1.4778,1.47636,0.700135,0.523449,0,-1.79213e-05,0.0625446,0.0866658,-7,-1275,-3.68574e-06,-7,-85.1805,-1189.82,3.092
1.4778,1.47636,0.700385,0.523803,0,4.56343e-05,0.0624724,0.0872879,-7,-1274,9.45653e-06,-7.00001,-85.1631,-1188.84,3.096
1.4778,1.47636,0.700635,0.524155,0,-2.71589e-05,0.0624001,0.0875299,-7,-1273,-5.64588e-06,-6.99999,-85.1457,-1187.85,3.1
1.4778,1.47636,0.700884,0.524505,0,-1.8106e-05,0.0623278,0.0875472,-7,-1272,-3.76618e-06,-7,-85.1285,-1186.87,3.104
1.4778,1.47636,0.701133,0.524853,0,1.67203e-05,0.0622556,0.0873861,-7,-1272,3.47294e-06,-7,-85.1113,-1186.89,3.108
1.4778,1.47636,0.701382,0.525201,0,3.99378e-05,0.0621833,0.0872498,-7,-1271,8.28577e-06,-7.00001,-85.0942,-1185.91,3.112
1.4778,1.47636,0.701631,0.525548,0,-3.09567e-05,0.062111,0.0870439,-7,-1270,-6.40987e-06,-6.99999,-85.0771,-1184.92,3.116
1.4778,1.47636,0.701879,0.525893,0,-2.06378e-05,0.0620387,0.0868202,-7,-1270,-4.26395e-06,-7,-85.06,-1184.94,3.12
1.4778,1.47636,0.702127,0.526239,0,1.50324e-05,0.0619664,0.0866422,-7,-1269,3.10069e-06,-7,-85.043,-1183.96,3.124
1.4778,1.47636,0.702375,0.526584,0,-1.87693e-05,0.0618941,0.0865524,-7,-1269,-3.869e-06,-7,-85.0259,-1183.97,3.128
1.4778,1.47636,0.702622,0.526926,0,-1.25129e-05,0.0618218,0.0862334,-7,-1268,-2.57083e-06,-7,-85.009,-1182.99,3.132
1.4778,1.47636,0.702869,0.527269,0,-8.34192e-06,0.0617494,0.0860208,-7,-1268,-1.71032e-06,-7,-84.9921,-1183.01,3.136
1.4778,1.47636,0.703116,0.527613,0,-5.56128e-06,0.0616771,0.0860229,-7,-1267,-1.14069e-06,-7,-84.975,-1182.02,3.14
1.4778,1.47636,0.703363,0.527959,0,-3.24984e-05,0.0616048,0.0861971,-7,-1266,-6.68196e-06,-6.99999,-84.9579,-1181.04,3.144
1.4778,1.47636,0.703609,0.528309,0,7.12529e-06,0.0615324,0.0866012,-7,-1265,1.47247e-06,-7,-84.9406,-1180.06,3.148
1.4778,1.47636,0.703855,0.52866,0,4.7502e-06,0.0614601,0.0870433,-7,-1264,9.8705e-07,-7,-84.9231,-1179.08,3.152
1.4778,1.47636,0.704101,0.529014,0,3.1668e-06,0.0613877,0.0875108,-7,-1263,6.61832e-07,-7,-84.9056,-1178.09,3.156
1.4778,1.47636,0.704346,0.529368,0,2.1112e-06,0.0613154,0.0878512,-7,-1261,4.43114e-07,-7,-84.888,-1176.11,3.16
1.4778,1.47636,0.704591,0.529724,0,1.40747e-06,0.061243,0.0881645,-7,-1260,2.96581e-07,-7,-84.8703,-1175.13,3.164
1.4778,1.47636,0.704836,0.530083,0,5.85202e-05,0.0611706,0.0887477,-6,-1259,1.24179e-05,-6.00001,-84.8524,-1174.15,3.168
1.4778,1.47636,0.705081,0.530448,0,-1.85684e-05,0.0610983,0.0895971,-7,-1257,-3.97955e-06,-7,-84.8343,-1172.17,3.172
1.4778,1.47636,0.705325,0.53082,0,-4.11699e-05,0.0610259,0.0907393,-7,-1255,-8.93964e-06,-6.99999,-84.8158,-1170.18,3.176
1.4778,1.47636,0.705569,0.531197,0,1.34435e-06,0.0609535,0.0918462,-7,-1254,2.95597e-07,-7,-84.797,-1169.2,3.18
1.4778,1.47636,0.705812,0.531577,0,8.96232e-07,0.0608811,0.0929584,-7,-1252,1.99536e-07,-7,-84.7781,-1167.22,3.184
1.4778,1.47636,0.706056,0.53196,0,5.97488e-07,0.0608088,0.093815,-7,-1250,1.34307e-07,-7,-84.759,-1165.24,3.188
1.4778,1.47636,0.706299,0.532347,0,2.91893e-05,0.0607364,0.0947892,-7,-1248,6.6323e-06,-7.00001,-84.7397,-1163.26,3.192
1.4778,1.47636,0.706542,0.532737,0,-9.33142e-06,0.060664,0.0957265,-7,-1246,-2.14215e-06,-7,-84.7202,-1161.28,3.196
1.4778,1.47636,0.706784,0.533132,0,5.13609e-05,0.0605916,0.0967257,-7,-1244,1.19189e-05,-7.00001,-84.7005,-1159.3,3.2
1.4778,1.47636,0.707026,0.533528,0,-2.33412e-05,0.0605192,0.0974782,-7,-1242,-5.46111e-06,-6.99999,-84.6807,-1157.32,3.204
1.4778,1.47636,0.707268,0.53393,0,-1.55608e-05,0.0604468,0.0984693,-7,-1241,-3.67939e-06,-7,-84.6606,-1156.34,3.208
1.4778,1.47636,0.70751,0.534332,0,4.7208e-05,0.0603744,0.0991876,-7,-1239,1.12488e-05,-7.00001,-84.6404,-1154.36,3.212
1.4778,1.47636,0.707751,0.534736,0,-2.61099e-05,0.060302,0.0997817,-7,-1237,-6.26155e-06,-6.99999,-84.6202,-1152.38,3.216
1.4778,1.47636,0.707992,0.535143,0,4.01753e-05,0.0602296,0.100437,-7,-1235,9.70223e-06,-7.00001,-84.5998,-1150.4,3.22
1.4778,1.47636,0.708233,0.535553,0,-5.95893e-05,0.0601571,0.101162,-7,-1233,-1.4501e-05,-6.99999,-84.5792,-1148.42,3.224
1.4778,1.47636,0.708474,0.535969,0,-1.09353e-05,0.0600847,0.102076,-7,-1231,-2.68637e-06,-7,-84.5583,-1146.44,3.228
1.4778,1.47636,0.708714,0.536387,0,-7.29017e-06,0.0600123,0.102888,-7,-1229,-1.80597e-06,-7,-84.5373,-1144.46,3.232
1.4778,1.47636,0.708954,0.53681,0,-3.3651e-05,0.0599399,0.103832,-7,-1227,-8.41664e-06,-6.99999,-84.516,-1142.48,3.236
1.4778,1.47636,0.709193,0.537235,0,6.3569e-06,0.0598675,0.104634,-7,-1225,1.60298e-06,-7,-84.4947,-1140.51,3.24
1.4778,1.47636,0.709433,0.537659,0,4.23793e-06,0.0597951,0.105083,-7,-1224,1.07373e-06,-7,-84.4733,-1139.53,3.244
1.4778,1.47636,0.709672,0.538082,0,2.82529e-06,0.0597226,0.105324,-7,-1222,7.17789e-07,-7,-84.452,-1137.55,3.248
1.4778,1.47636,0.709911,0.538502,0,1.88353e-06,0.0596502,0.105226,-7,-1221,4.78296e-07,-7,-84.4308,-1136.57,3.252
1.4778,1.47636,0.710149,0.538915,0,1.25568e-06,0.0595778,0.104584,-7,-1220,3.17062e-07,-7,-84.41,-1135.59,3.256
1.4778,1.47636,0.710387,0.53932,0,-2.79538e-05,0.0595054,0.103408,-7,-1220,-6.98202e-06,-6.99999,-84.3895,-1135.61,3.26
1.4778,1.47636,0.710625,0.539717,0,-1.86359e-05,0.0594329,0.102077,-7,-1220,-4.59672e-06,-7,-84.3695,-1135.63,3.264
1.4778,1.47636,0.710863,0.540106,0,1.6367e-05,0.0593605,0.10047,-7,-1220,3.97518e-06,-7,-84.3498,-1135.65,3.268
1.4778,1.47636,0.7111,0.540486,0,1.09113e-05,0.0592881,0.0986501,-7,-1220,2.60317e-06,-7,-84.3306,-1135.67,3.272
1.4778,1.47636,0.711337,0.540859,0,-2.15167e-05,0.0592157,0.0968609,-7,-1221,-5.04224e-06,-6.99999,-84.3117,-1136.69,3.276
1.4778,1.47636,0.711574,0.541224,0,1.44465e-05,0.0591432,0.0949772,-7,-1221,3.32084e-06,-7,-84.2932,-1136.71,3.28
1.4778,1.47636,0.71181,0.541588,0,9.63097e-06,0.0590708,0.0936637,-7,-1222,2.18412e-06,-7,-84.2747,-1137.73,3.284
1.4778,1.47636,0.712046,0.54195,0,-2.23703e-05,0.0589984,0.0925866,-7,-1222,-5.01674e-06,-6.99999,-84.2564,-1137.74,3.288
1.4778,1.47636,0.712282,0.542314,0,7.14593e-05,0.058926,0.0920412,-6,-1221,1.59371e-05,-6.00002,-84.2379,-1136.76,3.292
1.4778,1.47636,0.712518,0.542677,0,-9.94234e-06,0.0588535,0.0916201,-7,-1220,-2.20808e-06,-7,-84.2195,-1135.78,3.296
1.4778,1.47636,0.712753,0.543038,0,-3.54192e-05,0.0587811,0.0911666,-7,-1220,-7.83023e-06,-6.99999,-84.2012,-1135.8,3.3
1.4778,1.47636,0.712988,0.543394,0,6.276e-05,0.0587087,0.0904036,-6,-1220,1.37636e-05,-6.00001,-84.1831,-1135.82,3.304
1.4778,1.47636,0.713223,0.54375,0,-1.57418e-05,0.0586363,0.0900101,-7,-1219,-3.43853e-06,-7,-84.1649,-1134.84,3.308
1.4778,1.47636,0.713457,0.544109,0,-1.04946e-05,0.0585639,0.0899205,-7,-1218,-2.29094e-06,-7,-84.1467,-1133.85,3.312
1.4778,1.47636,0.713691,0.544475,0,5.05855e-05,0.0584914,0.0904366,-6,-1217,1.11103e-05,-6.00001,-84.128,-1132.87,3.316
1.4778,1.47636,0.713925,0.544843,0,-2.38582e-05,0.058419,0.0909246,-7,-1215,-5.27038e-06,-6.99999,-84.1093,-1130.89,3.32
1.4778,1.47636,0.714158,0.545215,0,-1.59055e-05,0.0583466,0.091653,-7,-1214,-3.54311e-06,-7,-84.0903,-1129.91,3.324
1.4778,1.47636,0.714392,0.545589,0,4.69782e-05,0.0582742,0.092225,-6,-1212,1.05343e-05,-6.00001,-84.0712,-1127.93,3.328
1.4778,1.47636,0.714625,0.545965,0,-2.6263e-05,0.0582018,0.0928367,-7,-1211,-5.93055e-06,-6.99999,-84.052,-1126.95,3.332
1.4778,1.47636,0.714857,0.546343,0,-1.75087e-05,0.0581294,0.0933596,-7,-1209,-3.97753e-06,-7,-84.0327,-1124.97,3.336
1.4778,1.47636,0.71509,0.546726,0,-1.16725e-05,0.058057,0.0941689,-7,-1207,-2.67573e-06,-7,-84.0132,-1122.99,3.34
1.4778,1.47636,0.715322,0.547112,0,-7.78164e-06,0.0579846,0.0949675,-7,-1206,-1.79967e-06,-7,-83.9934,-1122.01,3.344
1.4778,1.47636,0.715554,0.547501,0,-5.18776e-06,0.0579122,0.0957015,-7,-1204,-1.20954e-06,-7,-83.9735,-1120.03,3.348
1.4778,1.47636,0.715785,0.547896,0,-3.45851e-06,0.0578398,0.0967378,-7,-1202,-8.15421e-07,-7,-83.9533,-1118.05,3.352
1.4778,1.47636,0.716016,0.548293,0,-2.30567e-06,0.0577674,0.0975726,-7,-1200,-5.48529e-07,-7,-83.9329,-1116.07,3.356
1.4778,1.47636,0.716247,0.548694,0,2.72538e-05,0.057695,0.0984747,-7,-1198,6.54643e-06,-7.00001,-83.9124,-1114.09,3.36
1.4778,1.47636,0.716478,0.549097,0,1.81692e-05,0.0576226,0.09922,-7,-1196,4.39913e-06,-7,-83.8917,-1112.11,3.364
1.4778,1.47636,0.716708,0.549502,0,-1.66781e-05,0.0575502,0.0999184,-7,-1194,-4.06822e-06,-7,-83.8709,-1110.13,3.368
1.4778,1.47636,0.716938,0.54991,0,1.76722e-05,0.0574778,0.100614,-7,-1192,4.34252e-06,-7,-83.8499,-1108.15,3.372
1.4778,1.47636,0.717168,0.550316,0,-1.70095e-05,0.0574054,0.100906,-7,-1191,-4.19351e-06,-7,-83.829,-1107.17,3.376
1.4778,1.47636,0.717397,0.550723,0,-1.13396e-05,0.0573331,0.101157,-7,-1189,-2.8038e-06,-7,-83.8081,-1105.19,3.38
1.4778,1.47636,0.717627,0.551129,0,-7.55977e-06,0.0572607,0.101268,-7,-1188,-1.87201e-06,-7,-83.7872,-1104.21,3.384
1.4778,1.47636,0.717856,0.551534,0,-5.03984e-06,0.0571883,0.101283,-7,-1187,-1.24871e-06,-7,-83.7663,-1103.23,3.388
1.4778,1.47636,0.718084,0.551939,0,-3.3599e-06,0.057116,0.101265,-7,-1185,-8.32667e-07,-7,-83.7455,-1101.25,3.392
1.4778,1.47636,0.718312,0.552347,0,-2.23993e-06,0.0570436,0.101483,-7,-1184,-5.56536e-07,-7,-83.7244,-1100.28,3.396
1.4778,1.47636,0.71854,0.552754,0,2.72976e-05,0.0569713,0.101629,-7,-1182,6.79491e-06,-7.00001,-83.7034,-1098.3,3.4
1.4778,1.47636,0.718768,0.553161,0,1.81984e-05,0.0568989,0.101668,-7,-1181,4.53355e-06,-7,-83.6824,-1097.32,3.404
1.4778,1.47636,0.718996,0.553568,0,-1.66586e-05,0.0568266,0.101637,-7,-1180,-4.15037e-06,-7,-83.6614,-1096.34,3.408
1.4778,1.47636,0.719223,0.553969,0,-1.11058e-05,0.0567542,0.101213,-7,-1179,-2.75648e-06,-7,-83.6406,-1095.36,3.412
1.4778,1.47636,0.71945,0.55437,0,-7.40384e-06,0.0566819,0.100902,-7,-1178,-1.83273e-06,-7,-83.6198,-1094.38,3.416
1.4778,1.47636,0.719676,0.554762,0,-4.93589e-06,0.0566096,0.0999167,-7,-1177,-1.21036e-06,-7,-83.5996,-1093.4,3.42
1.4778,1.47636,0.719903,0.555154,0,-3.2906e-06,0.0565373,0.09926,-7,-1177,-8.01919e-07,-7,-83.5793,-1093.42,3.424
1.4778,1.47636,0.720129,0.555542,0,-2.19373e-06,0.056465,0.0985343,-7,-1176,-5.30908e-07,-7,-83.5591,-1092.44,3.428
1.4778,1.47636,0.720354,0.555927,0,-1.46249e-06,0.0563927,0.0977339,-7,-1176,-3.51197e-07,-7,-83.5392,-1092.46,3.432
1.4778,1.47636,0.72058,0.55631,0,-9.74991e-07,0.0563204,0.097085,-7,-1175,-2.32665e-07,-7,-83.5193,-1091.48,3.436
1.4778,1.47636,0.720805,0.556688,0,-6.49994e-07,0.0562481,0.0962206,-7,-1175,-1.53786e-07,-7,-83.4996,-1091.5,3.44
1.4778,1.47636,0.72103,0.557062,0,-4.33329e-07,0.0561758,0.0953565,-7,-1174,-1.01641e-07,-7,-83.4802,-1090.52,3.444
1.4778,1.47636,0.721254,0.55743,0,-2.88886e-07,0.0561035,0.0942333,-7,-1174,-6.69866e-08,-7,-83.461,-1090.54,3.448
1.4778,1.47636,0.721479,0.557794,0,-1.92591e-07,0.0560312,0.0931678,-7,-1174,-4.41686e-08,-7,-83.4421,-1090.56,3.452
1.4778,1.47636,0.721703,0.558155,0,-1.28394e-07,0.055959,0.0921696,-7,-1174,-2.91405e-08,-7,-83.4233,-1090.58,3.456
1.4778,1.47636,0.721926,0.558513,0,-8.55959e-08,0.0558867,0.0912738,-7,-1173,-1.92449e-08,-7,-83.4047,-1089.6,3.46
