peachynonah/Fire_monitor_/csv_datas/trial11/cdsl_data_t11_1.csv
joint1_pos_desired, joint1_pos, joint2_pos_desired, joint2_pos, joint1_vel_desired, joint1_vel_filtered, joint2_vel_desired, joint2_vel_filtered, target_torque_joint1, target_torque_joint2, nonlinear_term_torque_joint1, PD_term_torque_joint1, nonlinear_term_torque_joint2, PD_term_torque_joint2, current_time
1.4778,1.47636,0.3925,0.00129836,0,0,1.7696e-08,0,-9,-1170,0,-9,-98.3493,-1071.65,0.004
1.4778,1.47636,0.3925,0.00122857,0,0,7.07583e-08,-0.00581577,-9,-1175,-0,-9,-98.3494,-1076.65,0.008
1.4778,1.47636,0.3925,0.00118503,0,0,1.59148e-07,-0.00750483,-9,-1176,-0,-9,-98.3494,-1077.65,0.012
1.4778,1.47636,0.3925,0.00122269,0,0,2.82827e-07,-0.00186501,-9,-1172,-0,-9,-98.3494,-1073.65,0.016
1.4778,1.47636,0.3925,0.00136158,0,0,4.41757e-07,0.0103306,-9,-1161,0,-9,-98.3493,-1062.65,0.02
1.4778,1.47636,0.3925,0.00160135,0,0,6.35898e-07,0.026868,-9,-1147,0,-9,-98.3493,-1048.65,0.024
1.4778,1.47636,0.3925,0.00192991,0,2.87909e-05,8.65213e-07,0.0452922,-9,-1131,1.37943e-08,-9,-98.3492,-1032.65,0.028
1.4778,1.47636,0.3925,0.00232757,0,1.91939e-05,1.12966e-06,0.0633331,-9,-1115,1.55089e-08,-9,-98.3492,-1016.65,0.032
1.4778,1.47636,0.3925,0.00275978,0,1.2796e-05,1.42921e-06,0.0782395,-9,-1102,1.51445e-08,-9,-98.3491,-1003.65,0.036
1.4778,1.47636,0.3925,0.00319545,0,8.53064e-06,1.76381e-06,0.088465,-9,-1092,1.3218e-08,-9,-98.3489,-993.651,0.04
1.4778,1.47636,0.3925,0.00361764,0,5.6871e-06,2.13344e-06,0.0941592,-9,-1086,1.06184e-08,-9,-98.3488,-987.651,0.044
1.4778,1.47636,0.3925,0.00402152,0,3.7914e-06,2.53804e-06,0.0964294,-9,-1083,8.05892e-09,-9,-98.3486,-984.651,0.048
1.4778,1.47636,0.3925,0.00441158,0,2.5276e-06,2.97759e-06,0.0967912,-9,-1082,5.91582e-09,-9,-98.3485,-983.652,0.052
1.4778,1.47636,0.3925,0.00479058,0,1.68507e-06,3.45204e-06,0.0961111,-9,-1081,4.2526e-09,-9,-98.3483,-982.652,0.056
1.4778,1.47636,0.3925,0.00516302,0,1.12338e-06,3.96135e-06,0.0951107,-9,-1081,3.02367e-09,-9,-98.3481,-982.652,0.06
1.4778,1.47636,0.3925,0.00552751,0,7.48918e-07,4.5055e-06,0.0937816,-9,-1081,2.12792e-09,-9,-98.3479,-982.652,0.064
1.4778,1.47636,0.3925,0.00589028,0,4.99279e-07,5.08443e-06,0.0927515,-9,-1081,1.49511e-09,-9,-98.3477,-982.652,0.068
1.4778,1.47636,0.3925,0.00624821,0,3.32852e-07,5.69811e-06,0.0916617,-9,-1081,1.04488e-09,-9,-98.3475,-982.652,0.072
1.4778,1.47636,0.3925,0.00660475,0,2.21902e-07,6.3465e-06,0.0908201,-9,-1081,7.29574e-10,-9,-98.3473,-982.653,0.076
1.4778,1.47636,0.3925,0.00695474,0,1.47934e-07,7.02957e-06,0.0897119,-9,-1081,5.05905e-10,-9,-98.3471,-982.653,0.08
1.4778,1.47636,0.3925,0.0073023,0,9.86229e-08,7.74727e-06,0.0887716,-9,-1081,3.50412e-10,-9,-98.3468,-982.653,0.084
1.4778,1.47636,0.3925,0.00763674,0,6.57486e-08,8.49957e-06,0.0870507,-9,-1081,2.3957e-10,-9,-98.3466,-982.653,0.088
1.4778,1.47636,0.3925,0.00795493,0,4.38324e-08,9.28643e-06,0.0845502,-9,-1082,1.61589e-10,-9,-98.3463,-983.654,0.092
1.4778,1.47636,0.3925,0.00824722,0,2.92216e-08,1.01078e-05,0.0807239,-9,-1085,1.0663e-10,-9,-98.3461,-986.654,0.096
1.4778,1.47636,0.3925,0.00851325,0,1.94811e-08,1.09637e-05,0.075985,-9,-1088,6.90714e-11,-9,-98.3459,-989.654,0.1
1.4778,1.47636,0.3925,0.00875544,0,1.29874e-08,1.1854e-05,0.0708391,-9,-1091,4.41503e-11,-9,-98.3457,-992.654,0.104
1.4778,1.47636,0.3925,0.00897966,0,8.65826e-09,1.27787e-05,0.0659114,-9,-1095,2.80873e-11,-9,-98.3455,-996.655,0.108
1.4778,1.47636,0.392501,0.00918764,0,5.77217e-09,1.37378e-05,0.061273,-9,-1098,1.78103e-11,-9,-98.3453,-999.655,0.112
1.4778,1.47636,0.392501,0.00939148,0,3.84811e-09,1.47312e-05,0.0578353,-9,-1100,1.1456e-11,-9,-98.3451,-1001.65,0.116
1.4778,1.47636,0.392501,0.00958392,0,2.56541e-09,1.57589e-05,0.0545934,-9,-1102,7.35694e-12,-9,-98.3449,-1003.66,0.12
1.4778,1.47636,0.392501,0.00976703,0,1.71027e-09,1.68208e-05,0.0516548,-9,-1104,4.72927e-12,-9,-98.3447,-1005.66,0.124
1.4778,1.47636,0.392501,0.00994185,0,1.14018e-09,1.7917e-05,0.0490048,-9,-1106,3.04463e-12,-9,-98.3446,-1007.66,0.128
1.4778,1.47636,0.392501,0.0101063,0,7.60121e-10,1.90473e-05,0.0463743,-9,-1108,1.95257e-12,-9,-98.3444,-1009.66,0.132
1.4778,1.47636,0.392501,0.0102528,0,5.06748e-10,2.02118e-05,0.0431236,-9,-1110,1.22801e-12,-9,-98.3443,-1011.66,0.136
1.4778,1.47636,0.392501,0.0103806,0,3.37832e-10,2.14104e-05,0.0394017,-9,-1113,7.5734e-13,-9,-98.3441,-1014.66,0.14
1.4778,1.47636,0.392501,0.0104822,0,2.25221e-10,2.2643e-05,0.0347323,-9,-1116,4.49414e-13,-9,-98.344,-1017.66,0.144
1.4778,1.47636,0.392501,0.0105534,0,1.50147e-10,2.39097e-05,0.0290858,-9,-1121,2.52605e-13,-9,-98.344,-1022.66,0.148
1.4778,1.47636,0.392501,0.0105997,0,1.00098e-10,2.52103e-05,0.0232485,-9,-1125,1.35196e-13,-9,-98.3439,-1026.66,0.152
1.4778,1.47636,0.392501,0.0106235,0,6.67322e-11,2.65449e-05,0.0174856,-9,-1130,6.79413e-14,-9,-98.3439,-1031.66,0.156
1.4778,1.47636,0.392501,0.0106315,0,4.44881e-11,2.79134e-05,0.0123193,-9,-1134,3.19353e-14,-9,-98.3439,-1035.66,0.16
1.4778,1.47636,0.392502,0.0106315,0,2.96587e-11,2.93158e-05,0.00821283,-9,-1138,1.41935e-14,-9,-98.3439,-1039.66,0.164
1.4778,1.47636,0.392502,0.0106315,0,1.97725e-11,3.0752e-05,0.00547522,-9,-1140,6.30821e-15,-9,-98.3439,-1041.66,0.168
1.4778,1.47636,0.392502,0.0106315,0,1.31817e-11,3.2222e-05,0.00365015,-9,-1141,2.80365e-15,-9,-98.3439,-1042.66,0.172
1.4778,1.47636,0.392502,0.0106315,0,8.78778e-12,3.37258e-05,0.00243343,-9,-1142,1.24607e-15,-9,-98.3439,-1043.66,0.176
1.4778,1.47636,0.392502,0.0106315,0,5.85852e-12,3.52632e-05,0.00162229,-9,-1143,5.53807e-16,-9,-98.3439,-1044.66,0.18
1.4778,1.47636,0.392502,0.0106315,0,3.90568e-12,3.68344e-05,0.00108153,-9,-1144,2.46137e-16,-9,-98.3439,-1045.66,0.184
1.4778,1.47636,0.392502,0.0106318,0,2.60379e-12,3.84392e-05,0.000749808,-9,-1144,1.13766e-16,-9,-98.3439,-1045.66,0.188
1.4778,1.47636,0.392503,0.0106318,0,1.73586e-12,4.00776e-05,0.000499872,-9,-1144,5.05627e-17,-9,-98.3439,-1045.66,0.192
1.4778,1.47636,0.392503,0.0106318,0,1.15724e-12,4.17496e-05,0.000333248,-9,-1144,2.24723e-17,-9,-98.3439,-1045.66,0.196
1.4778,1.47636,0.392503,0.0106318,0,7.71492e-13,4.34551e-05,0.000222165,-9,-1144,9.98769e-18,-9,-98.3439,-1045.66,0.2
1.4778,1.47636,0.392503,0.0106318,0,5.14328e-13,4.51941e-05,0.00014811,-9,-1144,4.43897e-18,-9,-98.3439,-1045.66,0.204
1.4778,1.47636,0.392503,0.0106321,0,3.42885e-13,4.69665e-05,0.000127531,-9,-1144,2.54822e-18,-9,-98.3439,-1045.66,0.208
1.4778,1.47636,0.392503,0.0106321,0,2.2859e-13,4.87724e-05,8.50207e-05,-9,-1144,1.13254e-18,-9,-98.3439,-1045.66,0.212
1.4778,1.47636,0.392504,0.0106321,0,1.52393e-13,5.06116e-05,5.66805e-05,-9,-1144,5.03351e-19,-9,-98.3439,-1045.66,0.216
1.4778,1.47636,0.392504,0.0106321,0,1.01596e-13,5.24842e-05,3.7787e-05,-9,-1144,2.23712e-19,-9,-98.3439,-1045.66,0.22
1.4778,1.47636,0.392504,0.0106321,0,6.77304e-14,5.43901e-05,2.51913e-05,-9,-1144,9.94274e-20,-9,-98.3439,-1045.66,0.224
1.4778,1.47636,0.392504,0.0106321,0,4.51536e-14,5.63293e-05,1.67942e-05,-9,-1144,4.419e-20,-9,-98.3439,-1045.66,0.228
1.4778,1.47636,0.392505,0.0106321,0,3.01024e-14,5.83016e-05,1.11961e-05,-9,-1144,1.964e-20,-9,-98.3439,-1045.66,0.232
1.4778,1.47636,0.392505,0.0106321,0,2.00683e-14,6.03072e-05,7.4641e-06,-9,-1144,8.72888e-21,-9,-98.3439,-1045.66,0.236
1.4778,1.47636,0.392505,0.0106321,0,1.33789e-14,6.23459e-05,4.97606e-06,-9,-1144,3.8795e-21,-9,-98.3439,-1045.66,0.24
1.4778,1.47636,0.392505,0.0106321,0,8.91924e-15,6.44177e-05,3.31738e-06,-9,-1144,1.72422e-21,-9,-98.3439,-1045.66,0.244
1.4778,1.47636,0.392506,0.0106321,0,5.94616e-15,6.65226e-05,2.21158e-06,-9,-1144,7.66321e-22,-9,-98.3439,-1045.66,0.248
1.4778,1.47636,0.392506,0.0106321,0,3.9641e-15,6.86606e-05,1.47439e-06,-9,-1144,3.40587e-22,-9,-98.3439,-1045.66,0.252
1.4778,1.47636,0.392506,0.0106321,0,2.64274e-15,7.08315e-05,9.82926e-07,-9,-1144,1.51372e-22,-9,-98.3439,-1045.66,0.256
1.4778,1.47636,0.392506,0.0106321,0,1.76182e-15,7.30354e-05,6.55284e-07,-9,-1144,6.72765e-23,-9,-98.3439,-1045.66,0.26
1.4778,1.47636,0.392507,0.0106325,0,1.17455e-15,7.52722e-05,2.92278e-05,-9,-1144,2.00056e-21,-9,-98.3439,-1045.66,0.264
1.4778,1.47636,0.392507,0.0106325,0,7.83033e-16,7.75419e-05,1.94852e-05,-9,-1144,8.8914e-22,-9,-98.3439,-1045.66,0.268
1.4778,1.47636,0.392507,0.0106325,0,5.22022e-16,7.98445e-05,1.29901e-05,-9,-1144,3.95173e-22,-9,-98.3439,-1045.66,0.272
1.4778,1.47636,0.392508,0.0106325,0,3.48015e-16,8.21799e-05,8.66008e-06,-9,-1144,1.75633e-22,-9,-98.3439,-1045.66,0.276
1.4778,1.47636,0.392508,0.0106325,0,2.3201e-16,8.4548e-05,5.77339e-06,-9,-1144,7.80589e-23,-9,-98.3439,-1045.66,0.28
1.4778,1.47636,0.392508,0.0106325,0,1.54673e-16,8.69489e-05,3.84893e-06,-9,-1145,3.46928e-23,-9,-98.3439,-1046.66,0.284
1.4778,1.47636,0.392509,0.0106325,0,1.03115e-16,8.93825e-05,2.56595e-06,-9,-1145,1.5419e-23,-9,-98.3439,-1046.66,0.288
1.4778,1.47636,0.392509,0.0106325,0,6.87436e-17,9.18487e-05,1.71063e-06,-9,-1145,6.85291e-24,-9,-98.3439,-1046.66,0.292
1.4778,1.47636,0.392509,0.0106325,0,4.58291e-17,9.43476e-05,1.14042e-06,-9,-1145,3.04574e-24,-9,-98.3439,-1046.66,0.296
1.4778,1.47636,0.39251,0.0106325,0,3.05527e-17,9.6879e-05,7.60282e-07,-9,-1145,1.35366e-24,-9,-98.3439,-1046.66,0.3
1.4778,1.47636,0.39251,0.0106325,0,2.03685e-17,9.9443e-05,5.06854e-07,-9,-1145,6.01627e-25,-9,-98.3439,-1046.66,0.304
1.4778,1.47636,0.392511,0.0106325,0,1.3579e-17,0.00010204,3.37903e-07,-9,-1145,2.6739e-25,-9,-98.3439,-1046.66,0.308
1.4778,1.47636,0.392511,0.0106325,0,9.05266e-18,0.000104668,2.25269e-07,-9,-1145,1.1884e-25,-9,-98.3439,-1046.66,0.312
1.4778,1.47636,0.392511,0.0106325,0,6.03511e-18,0.00010733,1.50179e-07,-9,-1145,5.28177e-26,-9,-98.3439,-1046.66,0.316
1.4778,1.47636,0.392512,0.0106325,0,4.0234e-18,0.000110024,1.00119e-07,-9,-1145,2.34745e-26,-9,-98.3439,-1046.66,0.32
1.4778,1.47636,0.392512,0.0106325,0,2.68227e-18,0.00011275,6.67463e-08,-9,-1145,1.04331e-26,-9,-98.3439,-1046.66,0.324
1.4778,1.47636,0.392513,0.0106328,0,1.78818e-18,0.000115508,2.88354e-05,-9,-1145,3.00495e-24,-9,-98.3439,-1046.66,0.328
1.4778,1.47636,0.392513,0.0106325,0,1.19212e-18,0.000118299,-9.56731e-06,-9,-1145,-6.64653e-25,-9,-98.3439,-1046.66,0.332
1.4778,1.47636,0.392514,0.0106328,0,7.94747e-19,0.000121122,2.24127e-05,-9,-1145,1.03806e-24,-9,-98.3439,-1046.66,0.336
1.4778,1.47636,0.392514,0.0106328,0,5.29831e-19,0.000123977,1.49418e-05,-9,-1145,4.6136e-25,-9,-98.3439,-1046.66,0.34
1.4778,1.47636,0.392515,0.0106328,0,3.53221e-19,0.000126865,9.96121e-06,-9,-1145,2.05049e-25,-9,-98.3439,-1046.66,0.344
1.4778,1.47636,0.392515,0.0106328,0,2.3548e-19,0.000129784,6.64081e-06,-9,-1145,9.11329e-26,-9,-98.3439,-1046.66,0.348
1.4778,1.47636,0.392516,0.0106328,0,1.56987e-19,0.000132736,4.4272e-06,-9,-1145,4.05035e-26,-9,-98.3439,-1046.66,0.352
1.4778,1.47636,0.392516,0.0106328,0,1.04658e-19,0.00013572,2.95147e-06,-9,-1145,1.80016e-26,-9,-98.3439,-1046.66,0.356
1.4778,1.47636,0.392517,0.0106328,0,6.9772e-20,0.000138735,1.96765e-06,-9,-1145,8.00069e-27,-9,-98.3439,-1046.66,0.36
1.4778,1.47636,0.392517,0.0106328,0,4.65147e-20,0.000141783,1.31176e-06,-9,-1145,3.55586e-27,-9,-98.3439,-1046.66,0.364
1.4778,1.47636,0.392518,0.0106328,0,3.10098e-20,0.000144863,8.74509e-07,-9,-1145,1.58038e-27,-9,-98.3439,-1046.66,0.368
1.4778,1.47636,0.392519,0.0106328,0,2.06732e-20,0.000147974,5.83006e-07,-9,-1145,7.02393e-28,-9,-98.3439,-1046.66,0.372
1.4778,1.47636,0.392519,0.0106328,0,1.37821e-20,0.000151118,3.88671e-07,-9,-1145,3.12175e-28,-9,-98.3439,-1046.66,0.376
1.4778,1.47636,0.39252,0.0106328,0,9.18808e-21,0.000154293,2.59114e-07,-9,-1145,1.38744e-28,-9,-98.3439,-1046.66,0.38
1.4778,1.47636,0.39252,0.0106328,0,6.12539e-21,0.0001575,1.72743e-07,-9,-1145,6.16641e-29,-9,-98.3439,-1046.66,0.384
1.4778,1.47636,0.392521,0.0106328,0,4.08359e-21,0.000160739,1.15162e-07,-9,-1145,2.74063e-29,-9,-98.3439,-1046.66,0.388
1.4778,1.47636,0.392522,0.0106328,0,2.72239e-21,0.00016401,7.67745e-08,-9,-1145,1.21806e-29,-9,-98.3439,-1046.66,0.392
1.4778,1.47636,0.392522,0.0106328,0,1.81493e-21,0.000167312,5.1183e-08,-9,-1145,5.41358e-30,-9,-98.3439,-1046.66,0.396
1.4778,1.47636,0.392523,0.0106328,0,1.20995e-21,0.000170646,3.4122e-08,-9,-1145,2.40604e-30,-9,-98.3439,-1046.66,0.4
1.4778,1.47636,0.392524,0.0106328,0,8.06635e-22,0.000174011,2.2748e-08,-9,-1145,1.06935e-30,-9,-98.3439,-1046.66,0.404
1.4778,1.47636,0.392524,0.0106328,0,5.37757e-22,0.000177408,1.51653e-08,-9,-1145,4.75267e-31,-9,-98.3439,-1046.66,0.408
1.4778,1.47636,0.392525,0.0106328,0,3.58505e-22,0.000180837,1.01102e-08,-9,-1145,2.1123e-31,-9,-98.3439,-1046.66,0.412
1.4778,1.47636,0.392526,0.0106328,0,2.39003e-22,0.000184297,6.74015e-09,-9,-1145,9.38798e-32,-9,-98.3439,-1046.66,0.416
1.4778,1.47636,0.392527,0.0106328,0,1.59335e-22,0.000187789,4.49343e-09,-9,-1145,4.17244e-32,-9,-98.3439,-1046.66,0.42
1.4778,1.47636,0.392527,0.0106328,0,1.06224e-22,0.000191312,2.99562e-09,-9,-1145,1.85442e-32,-9,-98.3439,-1046.66,0.424
1.4778,1.47636,0.392528,0.0106328,0,7.08157e-23,0.000194866,1.99708e-09,-9,-1145,8.24185e-33,-9,-98.3439,-1046.66,0.428
1.4778,1.47636,0.392529,0.0106328,0,4.72105e-23,0.000198452,1.33139e-09,-9,-1145,3.66304e-33,-9,-98.3439,-1046.66,0.432
1.4778,1.47636,0.39253,0.0106328,0,3.14737e-23,0.000202069,8.87591e-10,-9,-1145,1.62802e-33,-9,-98.3439,-1046.66,0.436
1.4778,1.47636,0.39253,0.0106328,0,2.09824e-23,0.000205717,5.91728e-10,-9,-1145,7.23564e-34,-9,-98.3439,-1046.66,0.44
1.4778,1.47636,0.392531,0.0106332,0,1.39883e-23,0.000209397,2.87913e-05,-9,-1145,2.34714e-29,-9,-98.3439,-1046.66,0.444
1.4778,1.47636,0.392532,0.0106332,0,9.32553e-24,0.000213108,1.91942e-05,-9,-1145,1.04318e-29,-9,-98.3439,-1046.66,0.448
1.4778,1.47636,0.392533,0.0106332,0,6.21702e-24,0.00021685,1.27961e-05,-9,-1145,4.63633e-30,-9,-98.3439,-1046.66,0.452
1.4778,1.47636,0.392534,0.0106332,0,4.14468e-24,0.000220623,8.53076e-06,-9,-1145,2.06059e-30,-9,-98.3439,-1046.66,0.456
1.4778,1.47636,0.392535,0.0106328,0,2.76312e-24,0.000224427,-2.31038e-05,-9,-1145,-3.72033e-30,-9,-98.3439,-1046.66,0.46
1.4778,1.47636,0.392536,0.0106332,0,1.84208e-24,0.000228262,1.33884e-05,-9,-1145,1.43731e-30,-9,-98.3439,-1046.66,0.464
1.4778,1.47636,0.392537,0.0106332,0,1.22805e-24,0.000232128,8.92562e-06,-9,-1145,6.38806e-31,-9,-98.3439,-1046.66,0.468
1.4778,1.47636,0.392538,0.0106332,0,8.18702e-25,0.000236026,5.95041e-06,-9,-1145,2.83914e-31,-9,-98.3439,-1046.66,0.472
1.4778,1.47636,0.392538,0.0106328,0,5.45801e-25,0.000239954,-2.4824e-05,-9,-1145,-7.89597e-31,-9,-98.3439,-1046.66,0.476
1.4778,1.47636,0.392539,0.0106328,0,3.63868e-25,0.000243913,-1.65493e-05,-9,-1145,-3.50932e-31,-9,-98.3439,-1046.66,0.48
1.4778,1.47636,0.39254,0.0106332,0,2.42578e-25,0.000247903,1.7758e-05,-9,-1145,2.5105e-31,-9,-98.3439,-1046.66,0.484
1.4778,1.47636,0.392541,0.0106332,0,1.61719e-25,0.000251924,1.18387e-05,-9,-1145,1.11578e-31,-9,-98.3439,-1046.66,0.488
1.4778,1.47636,0.392542,0.0106332,0,1.07813e-25,0.000255975,7.89246e-06,-9,-1145,4.95902e-32,-9,-98.3439,-1046.66,0.492
1.4778,1.47636,0.392543,0.0106332,0,7.18751e-26,0.000260058,5.26164e-06,-9,-1145,2.20401e-32,-9,-98.3439,-1046.66,0.496
1.4778,1.47636,0.392545,0.0106332,0,4.79167e-26,0.000264171,3.50776e-06,-9,-1145,9.79559e-33,-9,-98.3439,-1046.66,0.5
1.4778,1.47636,0.392546,0.0106332,0,3.19445e-26,0.000268314,2.33851e-06,-9,-1145,4.3536e-33,-9,-98.3439,-1046.66,0.504
1.4778,1.47636,0.392547,0.0106332,0,2.12963e-26,0.000272489,1.55901e-06,-9,-1145,1.93493e-33,-9,-98.3439,-1046.66,0.508
1.4778,1.47636,0.392548,0.0106332,0,1.41975e-26,0.000276694,1.03934e-06,-9,-1145,8.5997e-34,-9,-98.3439,-1046.66,0.512
1.4778,1.47636,0.392549,0.0106332,0,9.46503e-27,0.00028093,6.92891e-07,-9,-1145,3.82209e-34,-9,-98.3439,-1046.66,0.516
1.4778,1.47636,0.39255,0.0106332,0,6.31002e-27,0.000285196,4.61927e-07,-9,-1145,1.69871e-34,-9,-98.3439,-1046.66,0.52
1.4778,1.47636,0.392551,0.0106332,0,4.20668e-27,0.000289492,3.07952e-07,-9,-1145,7.5498e-35,-9,-98.3439,-1046.66,0.524
1.4778,1.47636,0.392552,0.0106332,0,2.80445e-27,0.000293819,2.05301e-07,-9,-1145,3.35547e-35,-9,-98.3439,-1046.66,0.528
1.4778,1.47636,0.392554,0.0106332,0,1.86964e-27,0.000298177,1.36867e-07,-9,-1145,1.49132e-35,-9,-98.3439,-1046.66,0.532
1.4778,1.47636,0.392555,0.0106332,0,1.24642e-27,0.000302565,9.12449e-08,-9,-1145,6.62808e-36,-9,-98.3439,-1046.66,0.536
1.4778,1.47636,0.392556,0.0106332,0,8.30949e-28,0.000306983,6.083e-08,-9,-1145,2.94582e-36,-9,-98.3439,-1046.66,0.54
1.4778,1.47636,0.392557,0.0106332,0,5.53966e-28,0.000311432,4.05533e-08,-9,-1145,1.30925e-36,-9,-98.3439,-1046.66,0.544
1.4778,1.47636,0.392558,0.0106332,0,3.69311e-28,0.000315911,2.70355e-08,-9,-1145,5.81889e-37,-9,-98.3439,-1046.66,0.548
1.4778,1.47636,0.39256,0.0106332,0,2.46207e-28,0.00032042,1.80237e-08,-9,-1145,2.58618e-37,-9,-98.3439,-1046.66,0.552
1.4778,1.47636,0.392561,0.0106332,0,1.64138e-28,0.000324959,1.20158e-08,-9,-1145,1.14941e-37,-9,-98.3439,-1046.66,0.556
1.4778,1.47636,0.392562,0.0106332,0,1.09425e-28,0.000329529,8.01053e-09,-9,-1145,5.10849e-38,-9,-98.3439,-1046.66,0.56
1.4778,1.47636,0.392564,0.0106332,0,7.29503e-29,0.000334128,5.34035e-09,-9,-1145,2.27044e-38,-9,-98.3439,-1046.66,0.564
1.4778,1.47636,0.392565,0.0106332,0,4.86335e-29,0.000338758,3.56023e-09,-9,-1145,1.00909e-38,-9,-98.3439,-1046.66,0.568
1.4778,1.47636,0.392566,0.0106332,0,3.24223e-29,0.000343418,2.37349e-09,-9,-1145,4.48482e-39,-9,-98.3439,-1046.66,0.572
1.4778,1.47636,0.392568,0.0106332,0,2.16149e-29,0.000348108,1.58233e-09,-9,-1145,1.99325e-39,-9,-98.3439,-1046.66,0.576
1.4778,1.47636,0.392569,0.0106332,0,1.44099e-29,0.000352828,1.05488e-09,-9,-1145,8.85891e-40,-9,-98.3439,-1046.66,0.58
1.4778,1.47636,0.392571,0.0106328,0,9.60662e-30,0.000357577,-2.87902e-05,-9,-1145,-1.61181e-35,-9,-98.3439,-1046.66,0.584
1.4778,1.47636,0.392572,0.0106332,0,6.40441e-30,0.000362357,9.59744e-06,-9,-1145,3.58219e-36,-9,-98.3439,-1046.66,0.588
1.4778,1.47636,0.392573,0.0106332,0,4.26961e-30,0.000367167,6.3983e-06,-9,-1145,1.59208e-36,-9,-98.3439,-1046.66,0.592
1.4778,1.47636,0.392575,0.0106339,0,2.84641e-30,0.000372006,6.18474e-05,-9,-1145,1.02603e-35,-9,-98.3439,-1046.66,0.596
1.4778,1.47636,0.392576,0.0106332,0,1.8976e-30,0.000376875,-1.63503e-05,-9,-1145,-1.80819e-36,-9,-98.3439,-1046.66,0.6
1.4778,1.47636,0.392578,0.0106339,0,1.26507e-30,0.000381774,4.66817e-05,-9,-1145,3.44193e-36,-9,-98.3439,-1046.66,0.604
1.4778,1.47636,0.392579,0.0106339,0,8.4338e-31,0.000386703,3.11211e-05,-9,-1145,1.52975e-36,-9,-98.3439,-1046.66,0.608
1.4778,1.47636,0.392581,0.0106332,0,5.62253e-31,0.000391662,-3.68344e-05,-9,-1145,-1.20698e-36,-9,-98.3439,-1046.66,0.612
1.4778,1.47636,0.392583,0.0106332,0,3.74835e-31,0.00039665,-2.45563e-05,-9,-1145,-5.36435e-37,-9,-98.3439,-1046.66,0.616
1.4778,1.47636,0.392584,0.0106332,0,2.4989e-31,0.000401667,-1.63709e-05,-9,-1145,-2.38415e-37,-9,-98.3439,-1046.66,0.62
1.4778,1.47636,0.392586,0.0106328,0,1.66593e-31,0.000406715,-3.97048e-05,-9,-1145,-3.85479e-37,-9,-98.3439,-1046.66,0.624
1.4778,1.47636,0.392587,0.0106335,0,1.11062e-31,0.000411791,3.1112e-05,-9,-1145,2.01383e-37,-9,-98.3439,-1046.66,0.628
1.4778,1.47636,0.392589,0.0106328,0,7.40415e-32,0.000416898,-3.68405e-05,-9,-1145,-1.58965e-37,-9,-98.3439,-1046.66,0.632
1.4778,1.47636,0.392591,0.0106332,0,4.9361e-32,0.000422034,4.23056e-06,-9,-1145,1.21702e-38,-9,-98.3439,-1046.66,0.636
1.4778,1.47636,0.392593,0.0106328,0,3.29074e-32,0.000427199,-2.59705e-05,-9,-1145,-4.98051e-38,-9,-98.3439,-1046.66,0.64
1.4778,1.47636,0.392594,0.0106335,0,2.19382e-32,0.000432394,4.02682e-05,-9,-1145,5.14862e-38,-9,-98.3439,-1046.66,0.644
1.4778,1.47636,0.392596,0.0106339,0,1.46255e-32,0.000437618,5.56364e-05,-9,-1145,4.74254e-38,-9,-98.3439,-1046.66,0.648
1.4778,1.47636,0.392598,0.0106332,0,9.75033e-33,0.000442871,-2.04909e-05,-9,-1145,-1.16438e-38,-9,-98.3439,-1046.66,0.652
1.4778,1.47636,0.3926,0.0106335,0,6.50022e-33,0.000448154,1.51303e-05,-9,-1145,5.73196e-39,-9,-98.3439,-1046.66,0.656
1.4778,1.47636,0.392601,0.0106339,0,4.33348e-33,0.000453466,3.88778e-05,-9,-1145,9.81929e-39,-9,-98.3439,-1046.66,0.66
1.4778,1.47636,0.392603,0.0106339,0,2.88899e-33,0.000458807,2.59185e-05,-9,-1145,4.36413e-39,-9,-98.3439,-1046.66,0.664
1.4778,1.47636,0.392605,0.0106339,0,1.92599e-33,0.000464177,1.7279e-05,-9,-1145,1.93961e-39,-9,-98.3439,-1046.66,0.668
1.4778,1.47636,0.392607,0.0106335,0,1.28399e-33,0.000469577,-1.72716e-05,-9,-1145,-1.29248e-39,-9,-98.3439,-1046.66,0.672
1.4778,1.47636,0.392609,0.0106335,0,8.55996e-34,0.000475005,-1.15144e-05,-9,-1145,-5.74434e-40,-9,-98.3439,-1046.66,0.676
1.4778,1.47636,0.392611,0.0106335,0,5.70664e-34,0.000480463,-7.67626e-06,-9,-1145,-2.55304e-40,-9,-98.3439,-1046.66,0.68
1.4778,1.47636,0.392613,0.0106335,0,3.80443e-34,0.00048595,-5.11751e-06,-9,-1145,-1.13468e-40,-9,-98.3439,-1046.66,0.684
1.4778,1.47636,0.392615,0.0106335,0,2.53628e-34,0.000491465,-3.41167e-06,-9,-1145,-5.04304e-41,-9,-98.3439,-1046.66,0.688
1.4778,1.47636,0.392617,0.0106335,0,1.69086e-34,0.00049701,-2.27445e-06,-9,-1145,-2.24135e-41,-9,-98.3439,-1046.66,0.692
1.4778,1.47636,0.392619,0.0106335,0,1.12724e-34,0.000502584,-1.5163e-06,-9,-1145,-9.96156e-42,-9,-98.3439,-1046.66,0.696
1.4778,1.47636,0.392621,0.0106335,0,7.51492e-35,0.000508186,-1.01087e-06,-9,-1145,-4.42736e-42,-9,-98.3439,-1046.66,0.7
1.4778,1.47636,0.392623,0.0106335,0,5.00994e-35,0.000513818,-6.7391e-07,-9,-1145,-1.96772e-42,-9,-98.3439,-1046.66,0.704
1.4778,1.47636,0.392625,0.0106335,0,3.33996e-35,0.000519478,-4.49273e-07,-9,-1145,-8.74541e-43,-9,-98.3439,-1046.66,0.708
1.4778,1.47636,0.392627,0.0106335,0,2.22664e-35,0.000525167,-2.99516e-07,-9,-1145,-3.88685e-43,-9,-98.3439,-1046.66,0.712
1.4778,1.47636,0.392629,0.0106335,0,1.48443e-35,0.000530885,-1.99677e-07,-9,-1145,-1.72749e-43,-9,-98.3439,-1046.66,0.716
1.4778,1.47636,0.392631,0.0106335,0,9.89618e-36,0.000536631,-1.33118e-07,-9,-1145,-7.67772e-44,-9,-98.3439,-1046.66,0.72
1.4778,1.47636,0.392633,0.0106335,0,6.59746e-36,0.000542406,-8.87454e-08,-9,-1145,-3.41232e-44,-9,-98.3439,-1046.66,0.724
1.4778,1.47636,0.392635,0.0106335,0,4.3983e-36,0.00054821,-5.91636e-08,-9,-1145,-1.51659e-44,-9,-98.3439,-1046.66,0.728
1.4778,1.47636,0.392638,0.0106335,0,2.9322e-36,0.000554043,-3.94424e-08,-9,-1145,-6.74039e-45,-9,-98.3439,-1046.66,0.732
1.4778,1.47636,0.39264,0.0106335,0,1.9548e-36,0.000559904,-2.62949e-08,-9,-1145,-2.99573e-45,-9,-98.3439,-1046.66,0.736
1.4778,1.47636,0.392642,0.0106335,0,1.3032e-36,0.000565793,-1.75299e-08,-9,-1145,-1.33143e-45,-9,-98.3439,-1046.66,0.74
1.4778,1.47636,0.392644,0.0106335,0,8.68801e-37,0.000571711,-1.16866e-08,-9,-1145,-5.91749e-46,-9,-98.3439,-1046.66,0.744
1.4778,1.47636,0.392647,0.0106335,0,5.79201e-37,0.000577658,-7.79109e-09,-9,-1145,-2.62999e-46,-9,-98.3439,-1046.66,0.748
1.4778,1.47636,0.392649,0.0106335,0,3.86134e-37,0.000583633,-5.19406e-09,-9,-1145,-1.16889e-46,-9,-98.3439,-1046.66,0.752
1.4778,1.47636,0.392651,0.0106335,0,2.57422e-37,0.000589636,-3.46271e-09,-9,-1145,-5.19505e-47,-9,-98.3439,-1046.66,0.756
1.4778,1.47636,0.392654,0.0106335,0,1.71615e-37,0.000595668,-2.30847e-09,-9,-1145,-2.30891e-47,-9,-98.3439,-1046.66,0.76
1.4778,1.47636,0.392656,0.0106335,0,1.1441e-37,0.000601728,-1.53898e-09,-9,-1145,-1.02618e-47,-9,-98.3439,-1046.66,0.764
1.4778,1.47636,0.392658,0.0106335,0,7.62733e-38,0.000607816,-1.02599e-09,-9,-1145,-4.56081e-48,-9,-98.3439,-1046.66,0.768
1.4778,1.47636,0.392661,0.0106335,0,5.08489e-38,0.000613932,-6.83991e-10,-9,-1145,-2.02703e-48,-9,-98.3439,-1046.66,0.772
1.4778,1.47636,0.392663,0.0106335,0,3.38993e-38,0.000620077,-4.55994e-10,-9,-1145,-9.00901e-49,-9,-98.3439,-1046.66,0.776
1.4778,1.47636,0.392666,0.0106335,0,2.25995e-38,0.00062625,-3.03996e-10,-9,-1145,-4.00401e-49,-9,-98.3439,-1046.66,0.78
1.4778,1.47636,0.392668,0.0106335,0,1.50663e-38,0.000632451,-2.02664e-10,-9,-1145,-1.77956e-49,-9,-98.3439,-1046.66,0.784
1.4778,1.47636,0.392671,0.0106335,0,1.00442e-38,0.00063868,-1.35109e-10,-9,-1145,-7.90915e-50,-9,-98.3439,-1046.66,0.788
1.4778,1.47636,0.392673,0.0106335,0,6.69615e-39,0.000644937,-9.00729e-11,-9,-1145,-3.51518e-50,-9,-98.3439,-1046.66,0.792
1.4778,1.47636,0.392676,0.0106335,0,4.4641e-39,0.000651223,-6.00486e-11,-9,-1145,-1.5623e-50,-9,-98.3439,-1046.66,0.796
1.4778,1.47636,0.392679,0.0106335,0,2.97607e-39,0.000657536,-4.00324e-11,-9,-1145,-6.94356e-51,-9,-98.3439,-1046.66,0.8
1.4778,1.47636,0.392681,0.0106335,0,1.98404e-39,0.000663877,-2.66883e-11,-9,-1145,-3.08603e-51,-9,-98.3439,-1046.66,0.804
1.4778,1.47636,0.392684,0.0106335,0,1.3227e-39,0.000670246,-1.77922e-11,-9,-1145,-1.37157e-51,-9,-98.3439,-1046.66,0.808
1.4778,1.47636,0.392687,0.0106335,0,8.81797e-40,0.000676643,-1.18615e-11,-9,-1145,-6.09585e-52,-9,-98.3439,-1046.66,0.812
1.4778,1.47636,0.392689,0.0106335,0,5.87865e-40,0.000683068,-7.90764e-12,-9,-1145,-2.70927e-52,-9,-98.3439,-1046.66,0.816
1.4778,1.47636,0.392692,0.0106335,0,3.9191e-40,0.000689521,-5.27176e-12,-9,-1146,-1.20412e-52,-9,-98.3439,-1047.66,0.82
1.4778,1.47636,0.392695,0.0106335,0,2.61273e-40,0.000696001,-3.51451e-12,-9,-1146,-5.35164e-53,-9,-98.3439,-1047.66,0.824
1.4778,1.47636,0.392698,0.0106335,0,1.74182e-40,0.000702509,-2.343e-12,-9,-1146,-2.37851e-53,-9,-98.3439,-1047.66,0.828
1.4778,1.47636,0.392701,0.0106335,0,1.16121e-40,0.000709045,-1.562e-12,-9,-1146,-1.05711e-53,-9,-98.3439,-1047.66,0.832
1.4778,1.47636,0.392703,0.0106335,0,7.74143e-41,0.000715609,-1.04133e-12,-9,-1146,-4.69829e-54,-9,-98.3439,-1047.66,0.836
1.4778,1.47636,0.392706,0.0106335,0,5.16095e-41,0.0007222,-6.94223e-13,-9,-1146,-2.08813e-54,-9,-98.3439,-1047.66,0.84
1.4778,1.47636,0.392709,0.0106335,0,3.44064e-41,0.000728819,-4.62816e-13,-9,-1146,-9.28056e-55,-9,-98.3439,-1047.66,0.844
1.4778,1.47636,0.392712,0.0106335,0,2.29376e-41,0.000735466,-3.08544e-13,-9,-1146,-4.1247e-55,-9,-98.3439,-1047.66,0.848
1.4778,1.47636,0.392715,0.0106335,0,1.52917e-41,0.000742139,-2.05696e-13,-9,-1146,-1.8332e-55,-9,-98.3439,-1047.66,0.852
1.4778,1.47636,0.392718,0.0106335,0,1.01945e-41,0.000748841,-1.37131e-13,-9,-1146,-8.14755e-56,-9,-98.3439,-1047.66,0.856
1.4778,1.47636,0.392721,0.0106335,0,6.79632e-42,0.00075557,-9.14204e-14,-9,-1146,-3.62113e-56,-9,-98.3439,-1047.66,0.86
1.4778,1.47636,0.392724,0.0106335,0,4.53088e-42,0.000762326,-6.09469e-14,-9,-1146,-1.60939e-56,-9,-98.3439,-1047.66,0.864
1.4778,1.47636,0.392727,0.0106335,0,3.02059e-42,0.00076911,-4.06313e-14,-9,-1146,-7.15285e-57,-9,-98.3439,-1047.66,0.868
1.4778,1.47636,0.39273,0.0106335,0,2.01372e-42,0.000775921,-2.70875e-14,-9,-1146,-3.17905e-57,-9,-98.3439,-1047.66,0.872
1.4778,1.47636,0.392733,0.0106335,0,1.34248e-42,0.000782759,-1.80583e-14,-9,-1146,-1.41291e-57,-9,-98.3439,-1047.66,0.876
1.4778,1.47636,0.392736,0.0106335,0,8.94988e-43,0.000789625,-1.20389e-14,-9,-1146,-6.2796e-58,-9,-98.3439,-1047.66,0.88
1.4778,1.47636,0.39274,0.0106335,0,5.96659e-43,0.000796518,-8.02593e-15,-9,-1146,-2.79093e-58,-9,-98.3439,-1047.66,0.884
1.4778,1.47636,0.392743,0.0106335,0,3.97773e-43,0.000803438,-5.35062e-15,-9,-1146,-1.24041e-58,-9,-98.3439,-1047.66,0.888
1.4778,1.47636,0.392746,0.0106335,0,2.65182e-43,0.000810385,-3.56708e-15,-9,-1146,-5.51295e-59,-9,-98.3439,-1047.66,0.892
1.4778,1.47636,0.392749,0.0106335,0,1.76788e-43,0.00081736,-2.37805e-15,-9,-1146,-2.4502e-59,-9,-98.3439,-1047.66,0.896
1.4778,1.47636,0.392753,0.0106335,0,1.17859e-43,0.000824361,-1.58537e-15,-9,-1146,-1.08898e-59,-9,-98.3439,-1047.66,0.9
1.4778,1.47636,0.392756,0.0106335,0,7.85724e-44,0.00083139,-1.05691e-15,-9,-1146,-4.8399e-60,-9,-98.3439,-1047.66,0.904
1.4778,1.47636,0.392759,0.0106335,0,5.23816e-44,0.000838446,-7.04608e-16,-9,-1146,-2.15107e-60,-9,-98.3439,-1047.66,0.908
1.4778,1.47636,0.392763,0.0106335,0,3.49211e-44,0.000845528,-4.69739e-16,-9,-1146,-9.5603e-61,-9,-98.3439,-1047.66,0.912
1.4778,1.47636,0.392766,0.0106335,0,2.32807e-44,0.000852638,-3.13159e-16,-9,-1146,-4.24902e-61,-9,-98.3439,-1047.66,0.916
1.4778,1.47636,0.392769,0.0106335,0,1.55205e-44,0.000859775,-2.08773e-16,-9,-1146,-1.88845e-61,-9,-98.3439,-1047.66,0.92
1.4778,1.47636,0.392773,0.0106335,0,1.0347e-44,0.000866938,-1.39182e-16,-9,-1146,-8.39313e-62,-9,-98.3439,-1047.66,0.924
1.4778,1.47636,0.392776,0.0106342,0,6.89799e-45,0.000874128,5.75818e-05,-9,-1146,2.31507e-50,-9,-98.3439,-1047.66,0.928
1.4778,1.47636,0.39278,0.0106342,0,4.59866e-45,0.000881345,3.83879e-05,-9,-1146,1.02892e-50,-9,-98.3439,-1047.66,0.932
1.4778,1.47636,0.392783,0.0106332,0,3.06577e-45,0.000888589,-6.07808e-05,-9,-1146,-1.08598e-50,-9,-98.3439,-1047.66,0.936
1.4778,1.47636,0.392787,0.0106332,0,2.04385e-45,0.00089586,-4.05206e-05,-9,-1146,-4.82656e-51,-9,-98.3439,-1047.66,0.94
1.4778,1.47636,0.392791,0.0106342,0,1.36257e-45,0.000903157,5.93591e-05,-9,-1146,4.71412e-51,-9,-98.3439,-1047.66,0.944
1.4778,1.47636,0.392794,0.0106339,0,9.08377e-46,0.000910482,1.07818e-05,-9,-1146,5.70819e-52,-9,-98.3439,-1047.66,0.948
1.4778,1.47636,0.392798,0.0106335,0,6.05585e-46,0.000917832,-2.16031e-05,-9,-1146,-7.62461e-52,-9,-98.3439,-1047.66,0.952
1.4778,1.47636,0.392802,0.0106335,0,4.03723e-46,0.00092521,-1.4402e-05,-9,-1146,-3.38872e-52,-9,-98.3439,-1047.66,0.956
1.4778,1.47636,0.392805,0.0106339,0,2.69149e-46,0.000932613,1.91896e-05,-9,-1146,3.01023e-52,-9,-98.3439,-1047.66,0.96
1.4778,1.47636,0.392809,0.0106335,0,1.79432e-46,0.000940044,-1.59979e-05,-9,-1146,-1.67298e-52,-9,-98.3439,-1047.66,0.964
1.4778,1.47636,0.392813,0.0106335,0,1.19622e-46,0.000947501,-1.06653e-05,-9,-1146,-7.43547e-53,-9,-98.3439,-1047.66,0.968
1.4778,1.47636,0.392817,0.0106335,0,7.97478e-47,0.000954984,-7.11017e-06,-9,-1146,-3.30466e-53,-9,-98.3439,-1047.66,0.972
1.4778,1.47636,0.39282,0.0106339,0,5.31652e-47,0.000962494,2.40508e-05,-9,-1146,7.45244e-53,-9,-98.3439,-1047.66,0.976
1.4778,1.47636,0.392824,0.0106342,0,-2.87909e-05,0.00097003,4.48248e-05,-10,-1146,-7.52194e-11,-10,-98.3439,-1047.66,0.98
1.4778,1.47636,0.392828,0.0106335,0,9.59697e-06,0.000977593,-2.76987e-05,-9,-1146,-1.54925e-11,-9,-98.3439,-1047.66,0.984
1.4778,1.47636,0.392832,0.0106342,0,6.39798e-06,0.000985182,3.91161e-05,-9,-1146,1.45866e-11,-9,-98.3439,-1047.66,0.988
1.4778,1.47636,0.392836,0.0106339,0,-2.45256e-05,0.000992797,-2.71354e-06,-10,-1146,3.8788e-12,-10,-98.3439,-1047.66,0.992
1.4778,1.47636,0.39284,0.0106332,0,1.24405e-05,0.00100044,-5.93909e-05,-9,-1146,-4.30598e-11,-9,-98.3439,-1047.66,0.996
1.4778,1.47636,0.392844,0.0106339,0,8.29368e-06,0.00100811,1.79879e-05,-9,-1146,8.69502e-12,-9,-98.3439,-1047.66,1
1.4778,1.47636,0.392848,0.0106339,0,5.52912e-06,0.0010158,1.1992e-05,-9,-1146,3.86445e-12,-9,-98.3439,-1047.66,1.004
1.4778,1.47636,0.392852,0.0106339,0,3.68608e-06,0.00102352,7.99464e-06,-9,-1146,1.71753e-12,-9,-98.3439,-1047.66,1.008
1.4778,1.47636,0.392856,0.0106339,0,2.45739e-06,0.00103127,5.32976e-06,-9,-1146,7.63349e-13,-9,-98.3439,-1047.66,1.012
1.4778,1.47636,0.39286,0.0106339,0,1.63826e-06,0.00103904,3.55317e-06,-9,-1146,3.39266e-13,-9,-98.3439,-1047.66,1.016
1.4778,1.47636,0.392865,0.0106339,0,1.09217e-06,0.00104684,2.36878e-06,-9,-1146,1.50785e-13,-9,-98.3439,-1047.66,1.02
1.4778,1.47636,0.392869,0.0106342,0,7.28115e-07,0.00105466,3.03701e-05,-9,-1146,1.28885e-12,-9,-98.3439,-1047.66,1.024
1.4778,1.47636,0.392873,0.0106339,0,4.8541e-07,0.00106251,-8.54418e-06,-9,-1146,-2.41725e-13,-9,-98.3439,-1047.66,1.028
1.4778,1.47636,0.392877,0.0106339,0,3.23607e-07,0.00107039,-5.69612e-06,-9,-1146,-1.07433e-13,-9,-98.3439,-1047.66,1.032
1.4778,1.47636,0.392882,0.0106339,0,2.15738e-07,0.00107829,-3.79741e-06,-9,-1146,-4.77481e-14,-9,-98.3439,-1047.66,1.036
1.4778,1.47636,0.392886,0.0106339,0,1.43825e-07,0.00108622,-2.53161e-06,-9,-1146,-2.12214e-14,-9,-98.3439,-1047.66,1.04
1.4778,1.47636,0.39289,0.0106339,0,9.58834e-08,0.00109417,-1.68774e-06,-9,-1146,-9.43172e-15,-9,-98.3439,-1047.66,1.044
1.4778,1.47636,0.392895,0.0106339,0,6.39223e-08,0.00110215,-1.12516e-06,-9,-1146,-4.19187e-15,-9,-98.3439,-1047.66,1.048
1.4778,1.47636,0.392899,0.0106339,0,4.26149e-08,0.00111016,-7.50107e-07,-9,-1146,-1.86306e-15,-9,-98.3439,-1047.66,1.052
1.4778,1.47636,0.392904,0.0106339,0,2.84099e-08,0.00111819,-5.00071e-07,-9,-1146,-8.28025e-16,-9,-98.3439,-1047.66,1.056
1.4778,1.47636,0.392908,0.0106339,0,1.89399e-08,0.00112624,-3.33381e-07,-9,-1146,-3.68011e-16,-9,-98.3439,-1047.66,1.06
1.4778,1.47636,0.392913,0.0106332,0,1.26266e-08,0.00113433,-5.78041e-05,-9,-1147,-4.25363e-14,-9,-98.3439,-1048.66,1.064
1.4778,1.47636,0.392917,0.0106339,0,8.41775e-09,0.00114244,1.90458e-05,-9,-1146,9.34408e-15,-9,-98.3439,-1047.66,1.068
1.4778,1.47636,0.392922,0.0106339,0,5.61183e-09,0.00115057,1.26972e-05,-9,-1147,4.15292e-15,-9,-98.3439,-1048.66,1.072
1.4778,1.47636,0.392926,0.0106339,0,3.74122e-09,0.00115873,8.46479e-06,-9,-1147,1.84574e-15,-9,-98.3439,-1048.66,1.076
1.4778,1.47636,0.392931,0.0106339,0,2.49415e-09,0.00116691,5.64319e-06,-9,-1147,8.20331e-16,-9,-98.3439,-1048.66,1.08
1.4778,1.47636,0.392936,0.0106339,0,1.66277e-09,0.00117512,3.76213e-06,-9,-1147,3.64591e-16,-9,-98.3439,-1048.66,1.084
1.4778,1.47636,0.39294,0.0106339,0,1.10851e-09,0.00118336,2.50809e-06,-9,-1147,1.62041e-16,-9,-98.3439,-1048.66,1.088
1.4778,1.47636,0.392945,0.0106339,0,7.39007e-10,0.00119162,1.67206e-06,-9,-1147,7.20181e-17,-9,-98.3439,-1048.66,1.092
1.4778,1.47636,0.39295,0.0106339,0,4.92671e-10,0.00119991,1.11471e-06,-9,-1147,3.2008e-17,-9,-98.3439,-1048.66,1.096
1.4778,1.47636,0.392955,0.0106339,0,3.28447e-10,0.00120822,7.43137e-07,-9,-1147,1.42258e-17,-9,-98.3439,-1048.66,1.1
1.4778,1.47636,0.39296,0.0106339,0,2.18965e-10,0.00121656,4.95424e-07,-9,-1147,6.32257e-18,-9,-98.3439,-1048.66,1.104
1.4778,1.47636,0.392965,0.0106339,0,1.45977e-10,0.00122492,3.30283e-07,-9,-1147,2.81003e-18,-9,-98.3439,-1048.66,1.108
1.4778,1.47636,0.392969,0.0106339,0,9.73178e-11,0.00123331,2.20189e-07,-9,-1147,1.2489e-18,-9,-98.3439,-1048.66,1.112
1.4778,1.47636,0.392974,0.0106339,0,6.48785e-11,0.00124172,1.46792e-07,-9,-1147,5.55068e-19,-9,-98.3439,-1048.66,1.116
1.4778,1.47636,0.392979,0.0106339,0,4.32523e-11,0.00125016,9.78616e-08,-9,-1147,2.46697e-19,-9,-98.3439,-1048.66,1.12
1.4778,1.47636,0.392984,0.0106339,0,2.88349e-11,0.00125862,6.52411e-08,-9,-1147,1.09643e-19,-9,-98.3439,-1048.66,1.124
1.4778,1.47636,0.392989,0.0106339,0,1.92233e-11,0.00126711,4.34941e-08,-9,-1147,4.87303e-20,-9,-98.3439,-1048.66,1.128
1.4778,1.47636,0.392995,0.0106339,0,1.28155e-11,0.00127562,2.8996e-08,-9,-1147,2.16579e-20,-9,-98.3439,-1048.66,1.132
1.4778,1.47636,0.393,0.0106339,0,8.54367e-12,0.00128416,1.93307e-08,-9,-1147,9.62573e-21,-9,-98.3439,-1048.66,1.136
1.4778,1.47636,0.393005,0.0106339,0,5.69578e-12,0.00129272,1.28871e-08,-9,-1147,4.2781e-21,-9,-98.3439,-1048.66,1.14
1.4778,1.47636,0.39301,0.0106339,0,3.79719e-12,0.00130131,8.59142e-09,-9,-1147,1.90138e-21,-9,-98.3439,-1048.66,1.144
1.4778,1.47636,0.393015,0.0106339,0,2.53146e-12,0.00130993,5.72761e-09,-9,-1147,8.45057e-22,-9,-98.3439,-1048.66,1.148
1.4778,1.47636,0.39302,0.0106339,0,1.68764e-12,0.00131856,3.81841e-09,-9,-1147,3.75581e-22,-9,-98.3439,-1048.66,1.152
1.4778,1.47636,0.393026,0.0106339,0,1.12509e-12,0.00132723,2.54561e-09,-9,-1147,1.66925e-22,-9,-98.3439,-1048.66,1.156
1.4778,1.47636,0.393031,0.0106339,0,7.50062e-13,0.00133592,1.69707e-09,-9,-1147,7.41888e-23,-9,-98.3439,-1048.66,1.16
1.4778,1.47636,0.393036,0.0106339,0,5.00041e-13,0.00134463,1.13138e-09,-9,-1147,3.29728e-23,-9,-98.3439,-1048.66,1.164
1.4778,1.47636,0.393042,0.0106339,0,3.33361e-13,0.00135337,7.54253e-10,-9,-1147,1.46546e-23,-9,-98.3439,-1048.66,1.168
1.4778,1.47636,0.393047,0.0106339,0,2.22241e-13,0.00136213,5.02836e-10,-9,-1147,6.51315e-24,-9,-98.3439,-1048.66,1.172
1.4778,1.47636,0.393053,0.0106339,0,1.4816e-13,0.00137092,3.35224e-10,-9,-1147,2.89473e-24,-9,-98.3439,-1048.66,1.176
1.4778,1.47636,0.393058,0.0106339,0,9.87736e-14,0.00137973,2.23483e-10,-9,-1147,1.28655e-24,-9,-98.3439,-1048.66,1.18
1.4778,1.47636,0.393064,0.0106339,0,6.5849e-14,0.00138856,1.48988e-10,-9,-1147,5.71799e-25,-9,-98.3439,-1048.66,1.184
1.4778,1.47636,0.393069,0.0106339,0,-2.87909e-05,0.00139742,9.93256e-11,-10,-1147,-1.6667e-16,-10,-98.3439,-1048.66,1.188
1.4778,1.47636,0.393075,0.0106339,0,9.59697e-06,0.00140631,6.6217e-11,-9,-1147,3.70379e-17,-9,-98.3439,-1048.66,1.192
1.4778,1.47636,0.393081,0.0106339,0,6.39798e-06,0.00141522,4.41447e-11,-9,-1147,1.64613e-17,-9,-98.3439,-1048.66,1.196
1.4778,1.47636,0.393086,0.0106339,0,4.26532e-06,0.00142415,2.94298e-11,-9,-1147,7.31612e-18,-9,-98.3439,-1048.66,1.2
1.4778,1.47636,0.393092,0.0106339,0,2.84355e-06,0.00143311,1.96199e-11,-9,-1147,3.25161e-18,-9,-98.3439,-1048.66,1.204
1.4778,1.47636,0.393098,0.0106339,0,1.8957e-06,0.0014421,1.30799e-11,-9,-1147,1.44516e-18,-9,-98.3439,-1048.66,1.208
1.4778,1.47636,0.393104,0.0106339,0,1.2638e-06,0.0014511,8.71994e-12,-9,-1147,6.42293e-19,-9,-98.3439,-1048.66,1.212
1.4778,1.47636,0.393109,0.0106339,0,8.42533e-07,0.00146014,5.81329e-12,-9,-1147,2.85464e-19,-9,-98.3439,-1048.66,1.216
1.4778,1.47636,0.393115,0.0106339,0,5.61689e-07,0.00146919,3.87553e-12,-9,-1147,1.26873e-19,-9,-98.3439,-1048.66,1.22
1.4778,1.47636,0.393121,0.0106339,0,3.74459e-07,0.00147827,2.58369e-12,-9,-1147,5.63879e-20,-9,-98.3439,-1048.66,1.224
1.4778,1.47636,0.393127,0.0106339,0,2.49639e-07,0.00148738,1.72246e-12,-9,-1147,2.50613e-20,-9,-98.3439,-1048.66,1.228
1.4778,1.47636,0.393133,0.0106339,0,1.66426e-07,0.00149651,1.1483e-12,-9,-1147,1.11383e-20,-9,-98.3439,-1048.66,1.232
1.4778,1.47636,0.393139,0.0106339,0,1.10951e-07,0.00150566,7.65536e-13,-9,-1147,4.95038e-21,-9,-98.3439,-1048.66,1.236
1.4778,1.47636,0.393145,0.0106339,0,7.39672e-08,0.00151484,5.10358e-13,-9,-1147,2.20017e-21,-9,-98.3439,-1048.66,1.24
1.4778,1.47636,0.393151,0.0106339,0,4.93115e-08,0.00152404,3.40238e-13,-9,-1147,9.77852e-22,-9,-98.3439,-1048.66,1.244
1.4778,1.47636,0.393157,0.0106339,0,3.28743e-08,0.00153326,2.26826e-13,-9,-1147,4.34601e-22,-9,-98.3439,-1048.66,1.248
1.4778,1.47636,0.393163,0.0106339,0,2.19162e-08,0.00154251,1.51217e-13,-9,-1147,1.93156e-22,-9,-98.3439,-1048.66,1.252
1.4778,1.47636,0.39317,0.0106339,0,1.46108e-08,0.00155179,1.00811e-13,-9,-1148,8.58471e-23,-9,-98.3439,-1049.66,1.256
1.4778,1.47636,0.393176,0.0106339,0,9.74054e-09,0.00156108,6.72076e-14,-9,-1148,3.81543e-23,-9,-98.3439,-1049.66,1.26
1.4778,1.47636,0.393182,0.0106339,0,-2.87844e-05,0.00157041,4.48051e-14,-10,-1148,-7.51669e-20,-10,-98.3439,-1049.66,1.264
1.4778,1.47636,0.393188,0.0106339,0,9.6013e-06,0.00157975,2.987e-14,-9,-1148,1.67151e-20,-9,-98.3439,-1049.66,1.268
1.4778,1.47636,0.393195,0.0106339,0,6.40087e-06,0.00158912,1.99134e-14,-9,-1148,7.42891e-21,-9,-98.3439,-1049.66,1.272
1.4778,1.47636,0.393201,0.0106339,0,4.26725e-06,0.00159851,1.32756e-14,-9,-1148,3.30174e-21,-9,-98.3439,-1049.66,1.276
1.4778,1.47636,0.393208,0.0106339,0,2.84483e-06,0.00160793,8.85038e-15,-9,-1148,1.46744e-21,-9,-98.3439,-1049.66,1.28
1.4778,1.47636,0.393214,0.0106339,0,1.89655e-06,0.00161737,5.90026e-15,-9,-1148,6.52195e-22,-9,-98.3439,-1049.66,1.284
1.4778,1.47636,0.39322,0.0106339,0,1.26437e-06,0.00162684,3.9335e-15,-9,-1148,2.89865e-22,-9,-98.3439,-1049.66,1.288
1.4778,1.47636,0.393227,0.0106339,0,8.42913e-07,0.00163632,2.62234e-15,-9,-1148,1.28829e-22,-9,-98.3439,-1049.66,1.292
1.4778,1.47636,0.393234,0.0106339,0,5.61942e-07,0.00164583,1.74822e-15,-9,-1148,5.72572e-23,-9,-98.3439,-1049.66,1.296
1.4778,1.47636,0.39324,0.0106339,0,3.74628e-07,0.00165537,1.16548e-15,-9,-1148,2.54477e-23,-9,-98.3439,-1049.66,1.3
1.4778,1.47636,0.393247,0.0106339,0,2.49752e-07,0.00166493,7.76988e-16,-9,-1148,1.13101e-23,-9,-98.3439,-1049.66,1.304
1.4778,1.47636,0.393253,0.0106339,0,1.66501e-07,0.00167451,5.17992e-16,-9,-1148,5.0267e-24,-9,-98.3439,-1049.66,1.308
1.4778,1.47636,0.39326,0.0106339,0,1.11001e-07,0.00168412,3.45328e-16,-9,-1148,2.23409e-24,-9,-98.3439,-1049.66,1.312
1.4778,1.47636,0.393267,0.0106339,0,7.40006e-08,0.00169375,2.30219e-16,-9,-1148,9.92928e-25,-9,-98.3439,-1049.66,1.316
1.4778,1.47636,0.393274,0.0106339,0,4.93337e-08,0.0017034,1.53479e-16,-9,-1148,4.41301e-25,-9,-98.3439,-1049.66,1.32
1.4778,1.47636,0.393281,0.0106339,0,3.28891e-08,0.00171308,1.02319e-16,-9,-1148,1.96134e-25,-9,-98.3439,-1049.66,1.324
1.4778,1.47636,0.393287,0.0106339,0,2.19261e-08,0.00172278,6.8213e-17,-9,-1148,8.71706e-26,-9,-98.3439,-1049.66,1.328
1.4778,1.47636,0.393294,0.0106339,0,1.46174e-08,0.0017325,4.54753e-17,-9,-1148,3.87425e-26,-9,-98.3439,-1049.66,1.332
1.4778,1.47636,0.393301,0.0106339,0,9.74493e-09,0.00174225,3.03169e-17,-9,-1148,1.72189e-26,-9,-98.3439,-1049.66,1.336
1.4778,1.47636,0.393308,0.0106339,0,6.49662e-09,0.00175202,2.02112e-17,-9,-1148,7.65284e-27,-9,-98.3439,-1049.66,1.34
1.4778,1.47636,0.393315,0.0106339,0,4.33108e-09,0.00176181,1.34742e-17,-9,-1148,3.40126e-27,-9,-98.3439,-1049.66,1.344
1.4778,1.47636,0.393322,0.0106339,0,2.88739e-09,0.00177162,8.98278e-18,-9,-1148,1.51167e-27,-9,-98.3439,-1049.66,1.348
1.4778,1.47636,0.393329,0.0106339,0,1.92492e-09,0.00178146,5.98852e-18,-9,-1148,6.71854e-28,-9,-98.3439,-1049.66,1.352
1.4778,1.47636,0.393337,0.0106339,0,1.28328e-09,0.00179133,3.99235e-18,-9,-1148,2.98602e-28,-9,-98.3439,-1049.66,1.356
1.4778,1.47636,0.393344,0.0106339,0,8.55522e-10,0.00180121,2.66156e-18,-9,-1148,1.32712e-28,-9,-98.3439,-1049.66,1.36
1.4778,1.47636,0.393351,0.0106339,0,5.70348e-10,0.00181112,1.77438e-18,-9,-1148,5.89831e-29,-9,-98.3439,-1049.66,1.364
1.4778,1.47636,0.393358,0.0106339,0,3.80232e-10,0.00182105,1.18292e-18,-9,-1148,2.62147e-29,-9,-98.3439,-1049.66,1.368
1.4778,1.47636,0.393366,0.0106339,0,2.53488e-10,0.00183101,7.88611e-19,-9,-1148,1.1651e-29,-9,-98.3439,-1049.66,1.372
1.4778,1.47636,0.393373,0.0106339,0,1.68992e-10,0.00184099,5.25741e-19,-9,-1148,5.17821e-30,-9,-98.3439,-1049.66,1.376
1.4778,1.47636,0.39338,0.0106339,0,1.12661e-10,0.00185099,3.50494e-19,-9,-1148,2.30143e-30,-9,-98.3439,-1049.66,1.38
1.4778,1.47636,0.393388,0.0106339,0,7.51076e-11,0.00186101,2.33663e-19,-9,-1148,1.02286e-30,-9,-98.3439,-1049.66,1.384
1.4778,1.47636,0.393395,0.0106339,0,5.00717e-11,0.00187106,1.55775e-19,-9,-1148,4.54603e-31,-9,-98.3439,-1049.66,1.388
1.4778,1.47636,0.393403,0.0106339,0,3.33811e-11,0.00188113,1.0385e-19,-9,-1148,2.02046e-31,-9,-98.3439,-1049.66,1.392
1.4778,1.47636,0.39341,0.0106339,0,2.22541e-11,0.00189122,6.92334e-20,-9,-1148,8.97981e-32,-9,-98.3439,-1049.66,1.396
1.4778,1.47636,0.393418,0.0106339,0,1.48361e-11,0.00190133,4.61556e-20,-9,-1148,3.99103e-32,-9,-98.3439,-1049.66,1.4
1.4778,1.47636,0.393425,0.0106339,0,9.89071e-12,0.00191147,3.07704e-20,-9,-1149,1.77379e-32,-9,-98.3439,-1050.66,1.404
1.4778,1.47636,0.393433,0.0106342,0,6.59381e-12,0.00192163,2.87909e-05,-9,-1149,1.10649e-17,-9,-98.3439,-1050.66,1.408
1.4778,1.47636,0.393441,0.0106339,0,4.39587e-12,0.00193181,-9.59697e-06,-9,-1149,-2.45879e-18,-9,-98.3439,-1050.66,1.412
1.4778,1.47636,0.393449,0.0106339,0,2.93058e-12,0.00194202,-6.39798e-06,-9,-1149,-1.09279e-18,-9,-98.3439,-1050.66,1.416
1.4778,1.47636,0.393456,0.0106339,0,1.95372e-12,0.00195225,-4.26532e-06,-9,-1149,-4.85686e-19,-9,-98.3439,-1050.66,1.42
1.4778,1.47636,0.393464,0.0106339,0,1.30248e-12,0.0019625,-2.84355e-06,-9,-1149,-2.15861e-19,-9,-98.3439,-1050.66,1.424
1.4778,1.47636,0.393472,0.0106339,0,8.6832e-13,0.00197277,-1.8957e-06,-9,-1149,-9.59381e-20,-9,-98.3439,-1050.66,1.428
1.4778,1.47636,0.39348,0.0106342,0,5.7888e-13,0.00198307,2.75271e-05,-9,-1149,9.28764e-19,-9,-98.3439,-1050.66,1.432
1.4778,1.47636,0.393488,0.0106339,0,3.8592e-13,0.00199339,-1.04395e-05,-9,-1149,-2.34811e-19,-9,-98.3439,-1050.66,1.436
1.4778,1.47636,0.393496,0.0106339,0,2.5728e-13,0.00200373,-6.95967e-06,-9,-1149,-1.04361e-19,-9,-98.3439,-1050.66,1.44
1.4778,1.47636,0.393504,0.0106339,0,1.7152e-13,0.00201409,-4.63978e-06,-9,-1149,-4.63825e-20,-9,-98.3439,-1050.66,1.444
1.4778,1.47636,0.393512,0.0106342,0,1.14347e-13,0.00202448,2.56977e-05,-9,-1149,1.71267e-19,-9,-98.3439,-1050.66,1.448
1.4778,1.47636,0.39352,0.0106339,0,7.62311e-14,0.00203489,-1.16591e-05,-9,-1149,-5.18011e-20,-9,-98.3439,-1050.66,1.452
1.4778,1.47636,0.393528,0.0106339,0,5.08207e-14,0.00204532,-7.77273e-06,-9,-1149,-2.30227e-20,-9,-98.3439,-1050.66,1.456
1.4778,1.47636,0.393537,0.0106342,0,3.38805e-14,0.00205577,2.36091e-05,-9,-1149,4.66214e-20,-9,-98.3439,-1050.66,1.46
1.4778,1.47636,0.393545,0.0106339,0,2.2587e-14,0.00206624,-1.30515e-05,-9,-1149,-1.71815e-20,-9,-98.3439,-1050.66,1.464
1.4778,1.47636,0.393553,0.0106339,0,1.5058e-14,0.00207674,-8.70102e-06,-9,-1149,-7.63623e-21,-9,-98.3439,-1050.66,1.468
1.4778,1.47636,0.393561,0.0106339,0,1.00387e-14,0.00208726,-5.80068e-06,-9,-1149,-3.39388e-21,-9,-98.3439,-1050.66,1.472
1.4778,1.47636,0.39357,0.0106342,0,6.69244e-15,0.0020978,2.49238e-05,-9,-1149,9.72199e-21,-9,-98.3439,-1050.66,1.476
1.4778,1.47636,0.393578,0.0106339,0,4.46163e-15,0.00210837,-1.21751e-05,-9,-1149,-3.16597e-21,-9,-98.3439,-1050.66,1.48
1.4778,1.47636,0.393587,0.0106339,0,2.97442e-15,0.00211895,-8.1167e-06,-9,-1149,-1.4071e-21,-9,-98.3439,-1050.66,1.484
1.4778,1.47636,0.393595,0.0106342,0,1.98295e-15,0.00212956,2.33798e-05,-9,-1149,2.70214e-21,-9,-98.3439,-1050.66,1.488
1.4778,1.47636,0.393604,0.0106339,0,1.32196e-15,0.00214019,-1.32044e-05,-9,-1149,-1.01737e-21,-9,-98.3439,-1050.66,1.492
1.4778,1.47636,0.393612,0.0106342,0,8.8131e-16,0.00215084,1.9988e-05,-9,-1149,1.02672e-21,-9,-98.3439,-1050.66,1.496
1.4778,1.47636,0.393621,0.0106342,0,5.8754e-16,0.00216151,1.33253e-05,-9,-1149,4.56322e-22,-9,-98.3439,-1050.66,1.5
1.4778,1.47636,0.39363,0.0106342,0,3.91693e-16,0.00217221,8.88355e-06,-9,-1149,2.0281e-22,-9,-98.3439,-1050.66,1.504
1.4778,1.47636,0.393638,0.0106339,0,2.61129e-16,0.00218293,-2.28686e-05,-9,-1149,-3.48045e-22,-9,-98.3439,-1050.66,1.508
1.4778,1.47636,0.393647,0.0106339,0,1.74086e-16,0.00219367,-1.52457e-05,-9,-1149,-1.54687e-22,-9,-98.3439,-1050.66,1.512
1.4778,1.47636,0.393656,0.0106342,0,1.16057e-16,0.00220443,1.86271e-05,-9,-1149,1.26001e-22,-9,-98.3439,-1050.66,1.516
1.4778,1.47636,0.393665,0.0106342,0,7.73715e-17,0.00221521,1.24181e-05,-9,-1149,5.60004e-23,-9,-98.3439,-1050.66,1.52
1.4778,1.47636,0.393674,0.0106342,0,5.1581e-17,0.00222601,8.27872e-06,-9,-1149,2.48891e-23,-9,-98.3439,-1050.66,1.524
1.4778,1.47636,0.393682,0.0106339,0,3.43873e-17,0.00223684,-2.32718e-05,-9,-1150,-4.66412e-23,-9,-98.3439,-1051.66,1.528
1.4778,1.47636,0.393691,0.0106342,0,2.29249e-17,0.00224769,1.32764e-05,-9,-1150,1.77396e-23,-9,-98.3439,-1051.66,1.532
1.4778,1.47636,0.3937,0.0106342,0,1.52833e-17,0.00225856,8.85094e-06,-9,-1150,7.88426e-24,-9,-98.3439,-1051.66,1.536
1.4778,1.47636,0.393709,0.0106339,0,1.01888e-17,0.00226945,-2.28903e-05,-9,-1150,-1.35931e-23,-9,-98.3439,-1051.66,1.54
1.4778,1.47636,0.393719,0.0106342,0,6.79256e-18,0.00228036,1.35307e-05,-9,-1150,5.35686e-24,-9,-98.3439,-1051.66,1.544
1.4778,1.47636,0.393728,0.0106342,0,4.52837e-18,0.0022913,9.02048e-06,-9,-1150,2.38083e-24,-9,-98.3439,-1051.66,1.548
1.4778,1.47636,0.393737,0.0106342,0,3.01891e-18,0.00230225,6.01366e-06,-9,-1150,1.05815e-24,-9,-98.3439,-1051.66,1.552
1.4778,1.47636,0.393746,0.0106342,0,2.01261e-18,0.00231323,4.0091e-06,-9,-1150,4.70287e-25,-9,-98.3439,-1051.66,1.556
1.4778,1.47636,0.393755,0.0106342,0,1.34174e-18,0.00232423,2.67274e-06,-9,-1150,2.09016e-25,-9,-98.3439,-1051.66,1.56
1.4778,1.47636,0.393765,0.0106342,0,8.94493e-19,0.00233525,1.78182e-06,-9,-1150,9.28962e-26,-9,-98.3439,-1051.66,1.564
1.4778,1.47636,0.393774,0.0106342,0,5.96329e-19,0.00234629,1.18788e-06,-9,-1150,4.12872e-26,-9,-98.3439,-1051.66,1.568
1.4778,1.47636,0.393784,0.0106342,0,3.97553e-19,0.00235735,7.91922e-07,-9,-1150,1.83499e-26,-9,-98.3439,-1051.66,1.572
1.4778,1.47636,0.393793,0.0106342,0,2.65035e-19,0.00236844,5.27948e-07,-9,-1150,8.15549e-27,-9,-98.3439,-1051.66,1.576
1.4778,1.47636,0.393802,0.0106339,0,1.7669e-19,0.00237954,-2.8439e-05,-9,-1150,-2.92865e-25,-9,-98.3439,-1051.66,1.58
1.4778,1.47636,0.393812,0.0106339,0,1.17793e-19,0.00239067,-1.89593e-05,-9,-1150,-1.30162e-25,-9,-98.3439,-1051.66,1.584
1.4778,1.47636,0.393822,0.0106339,0,7.85289e-20,0.00240182,-1.26395e-05,-9,-1150,-5.78499e-26,-9,-98.3439,-1051.66,1.588
1.4778,1.47636,0.393831,0.0106342,0,5.23526e-20,0.00241299,2.03646e-05,-9,-1150,6.21397e-26,-9,-98.3439,-1051.66,1.592
1.4778,1.47636,0.393841,0.0106342,0,3.49017e-20,0.00242418,1.35764e-05,-9,-1150,2.76177e-26,-9,-98.3439,-1051.66,1.596
1.4778,1.47636,0.393851,0.0106342,0,2.32678e-20,0.00243539,9.05092e-06,-9,-1150,1.22745e-26,-9,-98.3439,-1051.66,1.6
1.4778,1.47636,0.39386,0.0106339,0,1.55119e-20,0.00244662,-2.2757e-05,-9,-1150,-2.05741e-26,-9,-98.3439,-1051.66,1.604
1.4778,1.47636,0.39387,0.0106342,0,1.03413e-20,0.00245787,1.36196e-05,-9,-1150,8.20906e-27,-9,-98.3439,-1051.66,1.608
1.4778,1.47636,0.39388,0.0106342,0,6.89417e-21,0.00246915,9.07974e-06,-9,-1150,3.64847e-27,-9,-98.3439,-1051.66,1.612
1.4778,1.47636,0.39389,0.0106342,0,4.59611e-21,0.00248044,6.05316e-06,-9,-1150,1.62154e-27,-9,-98.3439,-1051.66,1.616
1.4778,1.47636,0.3939,0.0106342,0,3.06408e-21,0.00249176,4.03544e-06,-9,-1150,7.20686e-28,-9,-98.3439,-1051.66,1.62
1.4778,1.47636,0.39391,0.0106342,0,2.04272e-21,0.0025031,2.69029e-06,-9,-1150,3.20305e-28,-9,-98.3439,-1051.66,1.624
1.4778,1.47636,0.39392,0.0106342,0,1.36181e-21,0.00251446,1.79353e-06,-9,-1150,1.42358e-28,-9,-98.3439,-1051.66,1.628
1.4778,1.47636,0.39393,0.0106342,0,9.07874e-22,0.00252583,1.19569e-06,-9,-1150,6.32701e-29,-9,-98.3439,-1051.66,1.632
1.4778,1.47636,0.39394,0.0106342,0,6.05249e-22,0.00253723,7.97124e-07,-9,-1150,2.812e-29,-9,-98.3439,-1051.66,1.636
1.4778,1.47636,0.39395,0.0106342,0,4.035e-22,0.00254865,5.31416e-07,-9,-1150,1.24978e-29,-9,-98.3439,-1051.66,1.64
1.4778,1.47636,0.39396,0.0106342,0,2.69e-22,0.0025601,3.54277e-07,-9,-1151,5.55458e-30,-9,-98.3439,-1052.66,1.644
1.4778,1.47636,0.393971,0.0106342,0,1.79333e-22,0.00257156,2.36185e-07,-9,-1151,2.4687e-30,-9,-98.3439,-1052.66,1.648
1.4778,1.47636,0.393981,0.0106342,0,1.19555e-22,0.00258304,1.57457e-07,-9,-1151,1.0972e-30,-9,-98.3439,-1052.66,1.652
1.4778,1.47636,0.393991,0.0106342,0,7.97036e-23,0.00259454,1.04971e-07,-9,-1151,4.87645e-31,-9,-98.3439,-1052.66,1.656
1.4778,1.47636,0.394002,0.0106342,0,5.31358e-23,0.00260607,6.99807e-08,-9,-1151,2.16731e-31,-9,-98.3439,-1052.66,1.66
1.4778,1.47636,0.394012,0.0106342,0,3.54238e-23,0.00261761,4.66538e-08,-9,-1151,9.63249e-32,-9,-98.3439,-1052.66,1.664
1.4778,1.47636,0.394023,0.0106342,0,2.36159e-23,0.00262918,3.11025e-08,-9,-1151,4.2811e-32,-9,-98.3439,-1052.66,1.668
1.4778,1.47636,0.394033,0.0106342,0,1.57439e-23,0.00264076,2.0735e-08,-9,-1151,1.90271e-32,-9,-98.3439,-1052.66,1.672
1.4778,1.47636,0.394044,0.0106342,0,1.0496e-23,0.00265237,1.38233e-08,-9,-1151,8.4565e-33,-9,-98.3439,-1052.66,1.676
1.4778,1.47636,0.394055,0.0106342,0,6.9973e-24,0.002664,9.21556e-09,-9,-1151,3.75845e-33,-9,-98.3439,-1052.66,1.68
1.4778,1.47636,0.394065,0.0106342,0,4.66487e-24,0.00267564,6.14371e-09,-9,-1151,1.67042e-33,-9,-98.3439,-1052.66,1.684
1.4778,1.47636,0.394076,0.0106342,0,3.10991e-24,0.00268731,4.09581e-09,-9,-1151,7.42409e-34,-9,-98.3439,-1052.66,1.688
1.4778,1.47636,0.394087,0.0106342,0,2.07327e-24,0.002699,2.73054e-09,-9,-1151,3.2996e-34,-9,-98.3439,-1052.66,1.692
1.4778,1.47636,0.394098,0.0106342,0,1.38218e-24,0.00271071,1.82036e-09,-9,-1151,1.46649e-34,-9,-98.3439,-1052.66,1.696
1.4778,1.47636,0.394108,0.0106342,0,9.21455e-25,0.00272244,1.21357e-09,-9,-1151,6.51772e-35,-9,-98.3439,-1052.66,1.7
1.4778,1.47636,0.394119,0.0106342,0,6.14303e-25,0.00273418,8.09048e-10,-9,-1151,2.89676e-35,-9,-98.3439,-1052.66,1.704
1.4778,1.47636,0.39413,0.0106342,0,4.09536e-25,0.00274595,5.39365e-10,-9,-1151,1.28745e-35,-9,-98.3439,-1052.66,1.708
1.4778,1.47636,0.394141,0.0106342,0,2.73024e-25,0.00275774,3.59577e-10,-9,-1151,5.722e-36,-9,-98.3439,-1052.66,1.712
1.4778,1.47636,0.394152,0.0106342,0,1.82016e-25,0.00276955,2.39718e-10,-9,-1151,2.54311e-36,-9,-98.3439,-1052.66,1.716
1.4778,1.47636,0.394163,0.0106342,0,1.21344e-25,0.00278138,1.59812e-10,-9,-1151,1.13027e-36,-9,-98.3439,-1052.66,1.72
1.4778,1.47636,0.394175,0.0106342,0,8.08959e-26,0.00279323,1.06541e-10,-9,-1151,5.02343e-37,-9,-98.3439,-1052.66,1.724
1.4778,1.47636,0.394186,0.0106342,0,5.39306e-26,0.0028051,7.10275e-11,-9,-1151,2.23264e-37,-9,-98.3439,-1052.66,1.728
1.4778,1.47636,0.394197,0.0106342,0,3.59537e-26,0.00281699,4.73517e-11,-9,-1151,9.92283e-38,-9,-98.3439,-1052.66,1.732
1.4778,1.47636,0.394208,0.0106342,0,2.39692e-26,0.0028289,3.15678e-11,-9,-1151,4.41015e-38,-9,-98.3439,-1052.66,1.736
1.4778,1.47636,0.39422,0.0106342,0,1.59794e-26,0.00284083,2.10452e-11,-9,-1151,1.96007e-38,-9,-98.3439,-1052.66,1.74
1.4778,1.47636,0.394231,0.0106342,0,1.0653e-26,0.00285278,1.40301e-11,-9,-1152,8.7114e-39,-9,-98.3439,-1053.66,1.744
1.4778,1.47636,0.394242,0.0106342,0,7.10197e-27,0.00286475,9.35342e-12,-9,-1152,3.87173e-39,-9,-98.3439,-1053.66,1.748
1.4778,1.47636,0.394254,0.0106342,0,4.73465e-27,0.00287674,6.23561e-12,-9,-1152,1.72077e-39,-9,-98.3439,-1053.66,1.752
1.4778,1.47636,0.394265,0.0106342,0,3.15643e-27,0.00288875,4.15708e-12,-9,-1152,7.64787e-40,-9,-98.3439,-1053.66,1.756
1.4778,1.47636,0.394277,0.0106342,0,2.10429e-27,0.00290078,2.77138e-12,-9,-1152,3.39905e-40,-9,-98.3439,-1053.66,1.76
1.4778,1.47636,0.394289,0.0106342,0,1.40286e-27,0.00291282,1.84759e-12,-9,-1152,1.51069e-40,-9,-98.3439,-1053.66,1.764
1.4778,1.47636,0.3943,0.0106342,0,9.35239e-28,0.00292489,1.23173e-12,-9,-1152,6.71418e-41,-9,-98.3439,-1053.66,1.768
1.4778,1.47636,0.394312,0.0106342,0,6.23493e-28,0.00293698,8.21151e-13,-9,-1152,2.98408e-41,-9,-98.3439,-1053.66,1.772
1.4778,1.47636,0.394324,0.0106342,0,4.15662e-28,0.00294909,5.47434e-13,-9,-1152,1.32626e-41,-9,-98.3439,-1053.66,1.776
1.4778,1.47636,0.394336,0.0106342,0,2.77108e-28,0.00296122,3.64956e-13,-9,-1152,5.89448e-42,-9,-98.3439,-1053.66,1.78
1.4778,1.47636,0.394348,0.0106342,0,1.84739e-28,0.00297336,2.43304e-13,-9,-1152,2.61977e-42,-9,-98.3439,-1053.66,1.784
1.4778,1.47636,0.394359,0.0106342,0,1.23159e-28,0.00298553,1.62203e-13,-9,-1152,1.16434e-42,-9,-98.3439,-1053.66,1.788
1.4778,1.47636,0.394371,0.0106342,0,8.21061e-29,0.00299772,1.08135e-13,-9,-1152,5.17485e-43,-9,-98.3439,-1053.66,1.792
1.4778,1.47636,0.394383,0.0106342,0,5.47374e-29,0.00300992,7.20901e-14,-9,-1152,2.29993e-43,-9,-98.3439,-1053.66,1.796
1.4778,1.47636,0.394396,0.0106342,0,3.64916e-29,0.00302215,4.806e-14,-9,-1152,1.02219e-43,-9,-98.3439,-1053.66,1.8
1.4778,1.47636,0.394408,0.0106342,0,2.43277e-29,0.00303439,3.204e-14,-9,-1152,4.54308e-44,-9,-98.3439,-1053.66,1.804
1.4778,1.47636,0.39442,0.0106342,0,1.62185e-29,0.00304665,2.136e-14,-9,-1152,2.01915e-44,-9,-98.3439,-1053.66,1.808
1.4778,1.47636,0.394432,0.0106342,0,1.08123e-29,0.00305894,1.424e-14,-9,-1152,8.97398e-45,-9,-98.3439,-1053.66,1.812
1.4778,1.47636,0.394444,0.0106342,0,7.20821e-30,0.00307124,9.49334e-15,-9,-1152,3.98844e-45,-9,-98.3439,-1053.66,1.816
1.4778,1.47636,0.394457,0.0106342,0,4.80548e-30,0.00308356,6.32889e-15,-9,-1152,1.77264e-45,-9,-98.3439,-1053.66,1.82
1.4778,1.47636,0.394469,0.0106342,0,3.20365e-30,0.0030959,4.21926e-15,-9,-1152,7.87839e-46,-9,-98.3439,-1053.66,1.824
1.4778,1.47636,0.394481,0.0106342,0,2.13577e-30,0.00310826,2.81284e-15,-9,-1152,3.50151e-46,-9,-98.3439,-1053.66,1.828
1.4778,1.47636,0.394494,0.0106342,0,1.42384e-30,0.00312064,1.87523e-15,-9,-1152,1.55623e-46,-9,-98.3439,-1053.66,1.832
1.4778,1.47636,0.394506,0.0106342,0,9.4923e-31,0.00313304,1.25015e-15,-9,-1152,6.91656e-47,-9,-98.3439,-1053.66,1.836
1.4778,1.47636,0.394519,0.0106342,0,6.3282e-31,0.00314546,8.33435e-16,-9,-1153,3.07403e-47,-9,-98.3439,-1054.66,1.84
1.4778,1.47636,0.394531,0.0106342,0,4.2188e-31,0.0031579,5.55623e-16,-9,-1153,1.36623e-47,-9,-98.3439,-1054.66,1.844
1.4778,1.47636,0.394544,0.0106342,0,2.81253e-31,0.00317036,3.70415e-16,-9,-1153,6.07215e-48,-9,-98.3439,-1054.66,1.848
1.4778,1.47636,0.394557,0.0106342,0,1.87502e-31,0.00318283,2.46944e-16,-9,-1153,2.69873e-48,-9,-98.3439,-1054.66,1.852
1.4778,1.47636,0.39457,0.0106342,0,1.25001e-31,0.00319533,1.64629e-16,-9,-1153,1.19944e-48,-9,-98.3439,-1054.66,1.856
1.4778,1.47636,0.394582,0.0106342,0,8.33343e-32,0.00320784,1.09753e-16,-9,-1153,5.33083e-49,-9,-98.3439,-1054.66,1.86
1.4778,1.47636,0.394595,0.0106342,0,5.55562e-32,0.00322037,7.31685e-17,-9,-1153,2.36926e-49,-9,-98.3439,-1054.66,1.864
1.4778,1.47636,0.394608,0.0106342,0,3.70375e-32,0.00323292,4.8779e-17,-9,-1153,1.053e-49,-9,-98.3439,-1054.66,1.868
1.4778,1.47636,0.394621,0.0106342,0,2.46916e-32,0.00324549,3.25193e-17,-9,-1153,4.68002e-50,-9,-98.3439,-1054.66,1.872
1.4778,1.47636,0.394634,0.0106342,0,1.64611e-32,0.00325808,2.16795e-17,-9,-1153,2.08001e-50,-9,-98.3439,-1054.66,1.876
1.4778,1.47636,0.394647,0.0106342,0,1.09741e-32,0.00327069,1.4453e-17,-9,-1153,9.24448e-51,-9,-98.3439,-1054.66,1.88
1.4778,1.47636,0.39466,0.0106342,0,7.31604e-33,0.00328332,9.63535e-18,-9,-1153,4.10866e-51,-9,-98.3439,-1054.66,1.884
1.4778,1.47636,0.394673,0.0106342,0,4.87736e-33,0.00329596,6.42357e-18,-9,-1153,1.82607e-51,-9,-98.3439,-1054.66,1.888
1.4778,1.47636,0.394687,0.0106342,0,3.25158e-33,0.00330863,4.28238e-18,-9,-1153,8.11587e-52,-9,-98.3439,-1054.66,1.892
1.4778,1.47636,0.3947,0.0106342,0,2.16772e-33,0.00332131,2.85492e-18,-9,-1153,3.60705e-52,-9,-98.3439,-1054.66,1.896
1.4778,1.47636,0.394713,0.0106342,0,1.44514e-33,0.00333401,1.90328e-18,-9,-1153,1.60313e-52,-9,-98.3439,-1054.66,1.9
1.4778,1.47636,0.394727,0.0106342,0,9.6343e-34,0.00334673,1.26885e-18,-9,-1153,7.12504e-53,-9,-98.3439,-1054.66,1.904
1.4778,1.47636,0.39474,0.0106342,0,6.42286e-34,0.00335947,8.45902e-19,-9,-1153,3.16668e-53,-9,-98.3439,-1054.66,1.908
1.4778,1.47636,0.394753,0.0106342,0,4.28191e-34,0.00337223,5.63935e-19,-9,-1153,1.40742e-53,-9,-98.3439,-1054.66,1.912
1.4778,1.47636,0.394767,0.0106342,0,2.85461e-34,0.003385,3.75956e-19,-9,-1153,6.25518e-54,-9,-98.3439,-1054.66,1.916
1.4778,1.47636,0.394781,0.0106342,0,1.90307e-34,0.0033978,2.50638e-19,-9,-1153,2.78008e-54,-9,-98.3439,-1054.66,1.92
1.4778,1.47636,0.394794,0.0106342,0,1.26871e-34,0.00341061,1.67092e-19,-9,-1154,1.23559e-54,-9,-98.3439,-1055.66,1.924
1.4778,1.47636,0.394808,0.0106342,0,8.45809e-35,0.00342344,1.11395e-19,-9,-1154,5.49151e-55,-9,-98.3439,-1055.66,1.928
1.4778,1.47636,0.394822,0.0106342,0,5.63873e-35,0.00343629,7.4263e-20,-9,-1154,2.44067e-55,-9,-98.3439,-1055.66,1.932
1.4778,1.47636,0.394835,0.0106342,0,3.75915e-35,0.00344916,4.95087e-20,-9,-1154,1.08474e-55,-9,-98.3439,-1055.66,1.936
1.4778,1.47636,0.394849,0.0106342,0,2.5061e-35,0.00346205,3.30058e-20,-9,-1154,4.82108e-56,-9,-98.3439,-1055.66,1.94
1.4778,1.47636,0.394863,0.0106342,0,1.67073e-35,0.00347495,2.20039e-20,-9,-1154,2.1427e-56,-9,-98.3439,-1055.66,1.944
1.4778,1.47636,0.394877,0.0106342,0,1.11382e-35,0.00348788,1.46692e-20,-9,-1154,9.52313e-57,-9,-98.3439,-1055.66,1.948
1.4778,1.47636,0.394891,0.0106342,0,7.42549e-36,0.00350082,9.77949e-21,-9,-1154,4.2325e-57,-9,-98.3439,-1055.66,1.952
1.4778,1.47636,0.394905,0.0106342,0,4.95032e-36,0.00351378,6.51966e-21,-9,-1154,1.88111e-57,-9,-98.3439,-1055.66,1.956
1.4778,1.47636,0.394919,0.0106342,0,3.30022e-36,0.00352676,4.34644e-21,-9,-1154,8.3605e-58,-9,-98.3439,-1055.66,1.96
1.4778,1.47636,0.394933,0.0106342,0,2.20014e-36,0.00353975,2.89763e-21,-9,-1154,3.71578e-58,-9,-98.3439,-1055.66,1.964
1.4778,1.47636,0.394947,0.0106342,0,1.46676e-36,0.00355277,1.93175e-21,-9,-1154,1.65146e-58,-9,-98.3439,-1055.66,1.968
1.4778,1.47636,0.394962,0.0106342,0,9.77842e-37,0.0035658,1.28783e-21,-9,-1154,7.3398e-59,-9,-98.3439,-1055.66,1.972
1.4778,1.47636,0.394976,0.0106342,0,6.51895e-37,0.00357885,8.58556e-22,-9,-1154,3.26214e-59,-9,-98.3439,-1055.66,1.976
1.4778,1.47636,0.39499,0.0106342,0,4.34596e-37,0.00359192,5.72371e-22,-9,-1154,1.44984e-59,-9,-98.3439,-1055.66,1.98
1.4778,1.47636,0.395005,0.0106342,0,2.89731e-37,0.003605,3.8158e-22,-9,-1154,6.44372e-60,-9,-98.3439,-1055.66,1.984
1.4778,1.47636,0.395019,0.0106342,0,1.93154e-37,0.00361811,2.54387e-22,-9,-1154,2.86388e-60,-9,-98.3439,-1055.66,1.988
1.4778,1.47636,0.395034,0.0106342,0,1.28769e-37,0.00363123,1.69591e-22,-9,-1154,1.27283e-60,-9,-98.3439,-1055.66,1.992
1.4778,1.47636,0.395048,0.0106342,0,8.58462e-38,0.00364437,1.13061e-22,-9,-1154,5.65704e-61,-9,-98.3439,-1055.66,1.996
1.4778,1.47636,0.395063,0.0106342,0,5.72308e-38,0.00365753,7.53739e-23,-9,-1154,2.51424e-61,-9,-98.3439,-1055.66,2
1.4778,1.47636,0.395077,0.0106342,0,3.81539e-38,0.0036707,5.02493e-23,-9,-1154,1.11744e-61,-9,-98.3439,-1055.66,2.004
1.4778,1.47636,0.395092,0.0106342,0,2.54359e-38,0.0036839,3.34995e-23,-9,-1155,4.9664e-62,-9,-98.3439,-1056.66,2.008
1.4778,1.47636,0.395107,0.0106342,0,1.69573e-38,0.00369711,2.2333e-23,-9,-1155,2.20729e-62,-9,-98.3439,-1056.66,2.012
1.4778,1.47636,0.395122,0.0106342,0,1.13048e-38,0.00371034,1.48887e-23,-9,-1155,9.81018e-63,-9,-98.3439,-1056.66,2.016
1.4778,1.47636,0.395137,0.0106342,0,7.53657e-39,0.00372359,9.92578e-24,-9,-1155,4.36008e-63,-9,-98.3439,-1056.66,2.02
1.4778,1.47636,0.395151,0.0106342,0,5.02438e-39,0.00373685,6.61719e-24,-9,-1155,1.93781e-63,-9,-98.3439,-1056.66,2.024
1.4778,1.47636,0.395166,0.0106342,0,3.34958e-39,0.00375013,4.41146e-24,-9,-1155,8.6125e-64,-9,-98.3439,-1056.66,2.028
1.4778,1.47636,0.395181,0.0106342,0,2.23306e-39,0.00376343,2.94097e-24,-9,-1155,3.82778e-64,-9,-98.3439,-1056.66,2.032
1.4778,1.47636,0.395197,0.0106342,0,1.4887e-39,0.00377675,1.96065e-24,-9,-1155,1.70123e-64,-9,-98.3439,-1056.66,2.036
1.4778,1.47636,0.395212,0.0106342,0,9.9247e-40,0.00379009,1.3071e-24,-9,-1155,7.56104e-65,-9,-98.3439,-1056.66,2.04
1.4778,1.47636,0.395227,0.0106342,0,6.61646e-40,0.00380344,8.71399e-25,-9,-1155,3.36046e-65,-9,-98.3439,-1056.66,2.044
1.4778,1.47636,0.395242,0.0106342,0,4.41098e-40,0.00381681,5.80933e-25,-9,-1155,1.49354e-65,-9,-98.3439,-1056.66,2.048
1.4778,1.47636,0.395257,0.0106342,0,2.94065e-40,0.0038302,3.87289e-25,-9,-1155,6.63795e-66,-9,-98.3439,-1056.66,2.052
1.4778,1.47636,0.395273,0.0106342,0,1.96043e-40,0.0038436,2.58192e-25,-9,-1155,2.9502e-66,-9,-98.3439,-1056.66,2.056
1.4778,1.47636,0.395288,0.0106342,0,1.30696e-40,0.00385703,1.72128e-25,-9,-1155,1.3112e-66,-9,-98.3439,-1056.66,2.06
1.4778,1.47636,0.395304,0.0106342,0,8.71304e-41,0.00387047,1.14752e-25,-9,-1155,5.82756e-67,-9,-98.3439,-1056.66,2.064
1.4778,1.47636,0.395319,0.0106342,0,5.80869e-41,0.00388392,7.65015e-26,-9,-1155,2.59003e-67,-9,-98.3439,-1056.66,2.068
1.4778,1.47636,0.395335,0.0106346,0,3.87246e-41,0.0038974,2.87909e-05,-9,-1155,6.49849e-47,-9,-98.3439,-1056.66,2.072
1.4778,1.47636,0.39535,0.0106342,0,2.58164e-41,0.00391089,-9.59697e-06,-9,-1155,-1.44406e-47,-9,-98.3439,-1056.66,2.076
1.4778,1.47636,0.395366,0.0106342,0,1.72109e-41,0.0039244,-6.39798e-06,-9,-1155,-6.41806e-48,-9,-98.3439,-1056.66,2.08
1.4778,1.47636,0.395382,0.0106342,0,1.1474e-41,0.00393792,-4.26532e-06,-9,-1156,-2.85247e-48,-9,-98.3439,-1057.66,2.084
1.4778,1.47636,0.395397,0.0106342,0,7.64931e-42,0.00395147,-2.84355e-06,-9,-1156,-1.26776e-48,-9,-98.3439,-1057.66,2.088
1.4778,1.47636,0.395413,0.0106342,0,5.09954e-42,0.00396503,-1.8957e-06,-9,-1156,-5.63451e-49,-9,-98.3439,-1057.66,2.092
1.4778,1.47636,0.395429,0.0106342,0,3.39969e-42,0.00397861,-1.2638e-06,-9,-1156,-2.50423e-49,-9,-98.3439,-1057.66,2.096
1.4778,1.47636,0.395445,0.0106342,0,2.26646e-42,0.0039922,-8.42533e-07,-9,-1156,-1.11299e-49,-9,-98.3439,-1057.66,2.1
1.4778,1.47636,0.395461,0.0106342,0,1.51097e-42,0.00400581,-5.61689e-07,-9,-1156,-4.94662e-50,-9,-98.3439,-1057.66,2.104
1.4778,1.47636,0.395477,0.0106342,0,1.00732e-42,0.00401944,-3.74459e-07,-9,-1156,-2.1985e-50,-9,-98.3439,-1057.66,2.108
1.4778,1.47636,0.395493,0.0106346,0,6.71544e-43,0.00403309,2.85413e-05,-9,-1156,1.11717e-48,-9,-98.3439,-1057.66,2.112
1.4778,1.47636,0.395509,0.0106342,0,4.47696e-43,0.00404675,-9.7634e-06,-9,-1156,-2.54765e-49,-9,-98.3439,-1057.66,2.116
1.4778,1.47636,0.395526,0.0106342,0,2.98464e-43,0.00406043,-6.50893e-06,-9,-1156,-1.13229e-49,-9,-98.3439,-1057.66,2.12
1.4778,1.47636,0.395542,0.0106342,0,1.98976e-43,0.00407413,-4.33929e-06,-9,-1156,-5.0324e-50,-9,-98.3439,-1057.66,2.124
1.4778,1.47636,0.395558,0.0106342,0,1.32651e-43,0.00408784,-2.89286e-06,-9,-1156,-2.23662e-50,-9,-98.3439,-1057.66,2.128
1.4778,1.47636,0.395575,0.0106342,0,8.84338e-44,0.00410157,-1.92857e-06,-9,-1156,-9.94055e-51,-9,-98.3439,-1057.66,2.132
1.4778,1.47636,0.395591,0.0106342,0,5.89559e-44,0.00411532,-1.28572e-06,-9,-1156,-4.41802e-51,-9,-98.3439,-1057.66,2.136
1.4778,1.47636,0.395608,0.0106339,0,3.93039e-44,0.00412908,-2.96481e-05,-9,-1156,-6.79163e-50,-9,-98.3439,-1057.66,2.14
1.4778,1.47636,0.395624,0.0106342,0,2.62026e-44,0.00414287,9.02555e-06,-9,-1156,1.3784e-50,-9,-98.3439,-1057.66,2.144
1.4778,1.47636,0.395641,0.0106342,0,1.74684e-44,0.00415666,6.01703e-06,-9,-1156,6.1262e-51,-9,-98.3439,-1057.66,2.148
1.4778,1.47636,0.395657,0.0106342,0,1.16456e-44,0.00417048,4.01135e-06,-9,-1156,2.72276e-51,-9,-98.3439,-1057.66,2.152
1.4778,1.47636,0.395674,0.0106342,0,7.76374e-45,0.00418431,2.67424e-06,-9,-1157,1.21011e-51,-9,-98.3439,-1058.66,2.156
1.4778,1.47636,0.395691,0.0106342,0,5.17582e-45,0.00419816,1.78282e-06,-9,-1157,5.37828e-52,-9,-98.3439,-1058.66,2.16
1.4778,1.47636,0.395708,0.0106342,0,3.45055e-45,0.00421202,1.18855e-06,-9,-1157,2.39035e-52,-9,-98.3439,-1058.66,2.164
1.4778,1.47636,0.395724,0.0106342,0,2.30037e-45,0.0042259,7.92366e-07,-9,-1157,1.06238e-52,-9,-98.3439,-1058.66,2.168
1.4778,1.47636,0.395741,0.0106342,0,1.53358e-45,0.0042398,5.28244e-07,-9,-1157,4.72168e-53,-9,-98.3439,-1058.66,2.172
1.4778,1.47636,0.395758,0.0106349,0,1.02238e-45,0.00425371,5.7934e-05,-9,-1157,3.45249e-51,-9,-98.3439,-1058.66,2.176
1.4778,1.47636,0.395775,0.0106342,0,6.8159e-46,0.00426764,-1.89592e-05,-9,-1157,-7.53179e-52,-9,-98.3439,-1058.66,2.18
1.4778,1.47636,0.395793,0.0106349,0,4.54393e-46,0.00428159,4.49424e-05,-9,-1157,1.19034e-51,-9,-98.3439,-1058.66,2.184
1.4778,1.47636,0.39581,0.0106339,0,3.02929e-46,0.00429555,-5.64112e-05,-9,-1157,-9.95973e-52,-9,-98.3439,-1058.66,2.188
1.4778,1.47636,0.395827,0.0106349,0,2.01953e-46,0.00430953,4.87653e-05,-9,-1157,5.74043e-52,-9,-98.3439,-1058.66,2.192
1.4778,1.47636,0.395844,0.0106349,0,1.34635e-46,0.00432353,3.25102e-05,-9,-1157,2.5513e-52,-9,-98.3439,-1058.66,2.196
1.4778,1.47636,0.395862,0.0106342,0,8.97567e-47,0.00433754,-3.59084e-05,-9,-1157,-1.87853e-52,-9,-98.3439,-1058.66,2.2
1.4778,1.47636,0.395879,0.0106349,0,5.98378e-47,0.00435157,3.36429e-05,-9,-1157,1.17342e-52,-9,-98.3439,-1058.66,2.204
1.4778,1.47636,0.395896,0.0106342,0,3.98919e-47,0.00436561,-3.51532e-05,-9,-1157,-8.17345e-53,-9,-98.3439,-1058.66,2.208
1.4778,1.47636,0.395914,0.0106346,0,2.65946e-47,0.00437967,5.35544e-06,-9,-1157,8.30153e-54,-9,-98.3439,-1058.66,2.212
1.4778,1.47636,0.395931,0.0106342,0,1.77297e-47,0.00439375,-2.52206e-05,-9,-1157,-2.60624e-53,-9,-98.3439,-1058.66,2.216
1.4778,1.47636,0.395949,0.0106346,0,1.18198e-47,0.00440784,1.19772e-05,-9,-1157,8.25154e-54,-9,-98.3439,-1058.66,2.22
1.4778,1.47636,0.395967,0.0106342,0,7.87987e-48,0.00442195,-2.08061e-05,-9,-1158,-9.55579e-54,-9,-98.3439,-1059.66,2.224
1.4778,1.47636,0.395984,0.0106339,0,5.25325e-48,0.00443608,-4.26617e-05,-9,-1158,-1.30619e-53,-9,-98.3439,-1059.66,2.228
1.4778,1.47636,0.396002,0.0106342,0,3.50217e-48,0.00445022,3.498e-07,-9,-1158,7.14023e-56,-9,-98.3439,-1059.66,2.232
1.4778,1.47636,0.39602,0.0106339,0,2.33478e-48,0.00446438,-2.85577e-05,-9,-1158,-3.88607e-54,-9,-98.3439,-1059.66,2.236
1.4778,1.47636,0.396038,0.0106339,0,1.55652e-48,0.00447855,-1.90385e-05,-9,-1158,-1.72714e-54,-9,-98.3439,-1059.66,2.24
1.4778,1.47636,0.396056,0.0106346,0,1.03768e-48,0.00449274,4.48895e-05,-9,-1158,2.71505e-54,-9,-98.3439,-1059.66,2.244
1.4778,1.47636,0.396074,0.0106339,0,6.91786e-49,0.00450695,-2.76555e-05,-9,-1158,-1.11505e-54,-9,-98.3439,-1059.66,2.248
1.4778,1.47636,0.396092,0.0106346,0,4.61191e-49,0.00452117,3.91449e-05,-9,-1158,1.05227e-54,-9,-98.3439,-1059.66,2.252
1.4778,1.47636,0.39611,0.0106349,0,3.0746e-49,0.00453541,5.48875e-05,-9,-1158,9.83664e-55,-9,-98.3439,-1059.66,2.256
1.4778,1.47636,0.396128,0.0106346,0,2.04974e-49,0.00454966,7.80074e-06,-9,-1158,9.31974e-56,-9,-98.3439,-1059.66,2.26
1.4778,1.47636,0.396146,0.0106342,0,1.36649e-49,0.00456393,-2.35904e-05,-9,-1158,-1.87888e-55,-9,-98.3439,-1059.66,2.264
1.4778,1.47636,0.396165,0.0106349,0,9.10994e-50,0.00457821,4.18549e-05,-9,-1158,2.22252e-55,-9,-98.3439,-1059.66,2.268
1.4778,1.47636,0.396183,0.0106346,0,6.07329e-50,0.00459251,-8.87662e-07,-9,-1158,-3.14226e-57,-9,-98.3439,-1059.66,2.272
1.4778,1.47636,0.396201,0.0106346,0,4.04886e-50,0.00460683,-5.91775e-07,-9,-1158,-1.39656e-57,-9,-98.3439,-1059.66,2.276
1.4778,1.47636,0.39622,0.0106346,0,2.69924e-50,0.00462116,-3.94517e-07,-9,-1158,-6.20693e-58,-9,-98.3439,-1059.66,2.28
1.4778,1.47636,0.396238,0.0106339,0,1.79949e-50,0.00463551,-5.78449e-05,-9,-1159,-6.06676e-56,-9,-98.3439,-1060.66,2.284
1.4778,1.47636,0.396257,0.0106339,0,1.19966e-50,0.00464987,-3.85632e-05,-9,-1159,-2.69634e-56,-9,-98.3439,-1060.66,2.288
1.4778,1.47636,0.396276,0.0106346,0,7.99775e-51,0.00466425,3.1873e-05,-9,-1159,1.4858e-56,-9,-98.3439,-1060.66,2.292
1.4778,1.47636,0.396294,0.0106342,0,5.33183e-51,0.00467865,-7.54224e-06,-9,-1159,-2.34387e-57,-9,-98.3439,-1060.66,2.296
1.4778,1.47636,0.396313,0.0106346,0,3.55456e-51,0.00469306,2.37628e-05,-9,-1159,4.92325e-57,-9,-98.3439,-1060.66,2.3
1.4778,1.47636,0.396332,0.0106346,0,2.3697e-51,0.00470748,1.58418e-05,-9,-1159,2.18811e-57,-9,-98.3439,-1060.66,2.304
1.4778,1.47636,0.396351,0.0106346,0,1.5798e-51,0.00472192,1.05612e-05,-9,-1159,9.72495e-58,-9,-98.3439,-1060.66,2.308
1.4778,1.47636,0.39637,0.0106349,0,1.0532e-51,0.00473638,3.58317e-05,-9,-1159,2.1997e-57,-9,-98.3439,-1060.66,2.312
1.4778,1.47636,0.396389,0.0106346,0,7.02135e-52,0.00475085,-4.9031e-06,-9,-1159,-2.0066e-58,-9,-98.3439,-1060.66,2.316
1.4778,1.47636,0.396408,0.0106346,0,4.6809e-52,0.00476534,-3.26873e-06,-9,-1159,-8.91822e-59,-9,-98.3439,-1060.66,2.32
1.4778,1.47636,0.396427,0.0106349,0,3.1206e-52,0.00477984,2.66118e-05,-9,-1159,4.84056e-58,-9,-98.3439,-1060.66,2.324
1.4778,1.47636,0.396446,0.0106346,0,2.0804e-52,0.00479436,-1.10497e-05,-9,-1159,-1.33989e-58,-9,-98.3439,-1060.66,2.328
1.4778,1.47636,0.396465,0.0106346,0,1.38693e-52,0.00480889,-7.3665e-06,-9,-1159,-5.95506e-59,-9,-98.3439,-1060.66,2.332
1.4778,1.47636,0.396484,0.0106346,0,9.24622e-53,0.00482344,-4.911e-06,-9,-1159,-2.64669e-59,-9,-98.3439,-1060.66,2.336
1.4778,1.47636,0.396504,0.0106349,0,6.16414e-53,0.00483801,2.55169e-05,-9,-1159,9.16823e-59,-9,-98.3439,-1060.66,2.34
1.4778,1.47636,0.396523,0.0106346,0,4.10943e-53,0.00485259,-1.17796e-05,-9,-1159,-2.82152e-59,-9,-98.3439,-1060.66,2.344
1.4778,1.47636,0.396542,0.0106346,0,2.73962e-53,0.00486718,-7.85309e-06,-9,-1159,-1.25401e-59,-9,-98.3439,-1060.66,2.348
1.4778,1.47636,0.396562,0.0106346,0,1.82641e-53,0.00488179,-5.2354e-06,-9,-1160,-5.57338e-60,-9,-98.3439,-1061.66,2.352
1.4778,1.47636,0.396581,0.0106346,0,1.21761e-53,0.00489641,-3.49026e-06,-9,-1160,-2.47706e-60,-9,-98.3439,-1061.66,2.356
1.4778,1.47636,0.396601,0.0106346,0,8.11739e-54,0.00491105,-2.32684e-06,-9,-1160,-1.10091e-60,-9,-98.3439,-1061.66,2.36
1.4778,1.47636,0.396621,0.0106346,0,5.41159e-54,0.00492571,-1.55123e-06,-9,-1160,-4.89295e-61,-9,-98.3439,-1061.66,2.364
1.4778,1.47636,0.39664,0.0106346,0,3.60773e-54,0.00494038,-1.03415e-06,-9,-1160,-2.17465e-61,-9,-98.3439,-1061.66,2.368
1.4778,1.47636,0.39666,0.0106346,0,2.40515e-54,0.00495506,-6.89435e-07,-9,-1160,-9.66509e-62,-9,-98.3439,-1061.66,2.372
1.4778,1.47636,0.39668,0.0106346,0,1.60344e-54,0.00496976,-4.59623e-07,-9,-1160,-4.2956e-62,-9,-98.3439,-1061.66,2.376
1.4778,1.47636,0.3967,0.0106346,0,1.06896e-54,0.00498448,-3.06415e-07,-9,-1160,-1.90915e-62,-9,-98.3439,-1061.66,2.38
1.4778,1.47636,0.39672,0.0106346,0,7.12638e-55,0.00499921,-2.04277e-07,-9,-1160,-8.48513e-63,-9,-98.3439,-1061.66,2.384
1.4778,1.47636,0.39674,0.0106346,0,4.75092e-55,0.00501395,-1.36185e-07,-9,-1160,-3.77117e-63,-9,-98.3439,-1061.66,2.388
1.4778,1.47636,0.39676,0.0106346,0,3.16728e-55,0.00502871,-9.07898e-08,-9,-1160,-1.67607e-63,-9,-98.3439,-1061.66,2.392
1.4778,1.47636,0.39678,0.0106346,0,2.11152e-55,0.00504349,-6.05265e-08,-9,-1160,-7.44922e-64,-9,-98.3439,-1061.66,2.396
1.4778,1.47636,0.3968,0.0106346,0,1.40768e-55,0.00505827,-4.0351e-08,-9,-1160,-3.31076e-64,-9,-98.3439,-1061.66,2.4
1.4778,1.47636,0.396821,0.0106346,0,9.38453e-56,0.00507308,-2.69007e-08,-9,-1160,-1.47145e-64,-9,-98.3439,-1061.66,2.404
1.4778,1.47636,0.396841,0.0106346,0,6.25636e-56,0.0050879,-1.79338e-08,-9,-1160,-6.53978e-65,-9,-98.3439,-1061.66,2.408
1.4778,1.47636,0.396861,0.0106346,0,4.1709e-56,0.00510273,-1.19559e-08,-9,-1161,-2.90657e-65,-9,-98.3439,-1062.66,2.412
1.4778,1.47636,0.396882,0.0106346,0,2.7806e-56,0.00511758,-7.97057e-09,-9,-1161,-1.29181e-65,-9,-98.3439,-1062.66,2.416
1.4778,1.47636,0.396902,0.0106346,0,1.85373e-56,0.00513244,-5.31371e-09,-9,-1161,-5.74137e-66,-9,-98.3439,-1062.66,2.42
1.4778,1.47636,0.396923,0.0106346,0,1.23582e-56,0.00514732,-3.54248e-09,-9,-1161,-2.55172e-66,-9,-98.3439,-1062.66,2.424
1.4778,1.47636,0.396944,0.0106346,0,8.23882e-57,0.00516221,-2.36165e-09,-9,-1161,-1.1341e-66,-9,-98.3439,-1062.66,2.428
1.4778,1.47636,0.396964,0.0106346,0,5.49255e-57,0.00517711,-1.57443e-09,-9,-1161,-5.04044e-67,-9,-98.3439,-1062.66,2.432
1.4778,1.47636,0.396985,0.0106346,0,3.6617e-57,0.00519204,-1.04962e-09,-9,-1161,-2.24019e-67,-9,-98.3439,-1062.66,2.436
1.4778,1.47636,0.397006,0.0106346,0,2.44113e-57,0.00520697,-6.99748e-10,-9,-1161,-9.95642e-68,-9,-98.3439,-1062.66,2.44
1.4778,1.47636,0.397027,0.0106346,0,1.62742e-57,0.00522192,-4.66499e-10,-9,-1161,-4.42507e-68,-9,-98.3439,-1062.66,2.444
1.4778,1.47636,0.397048,0.0106346,0,1.08495e-57,0.00523688,-3.10999e-10,-9,-1161,-1.9667e-68,-9,-98.3439,-1062.66,2.448
1.4778,1.47636,0.397068,0.0106346,0,7.23298e-58,0.00525186,-2.07333e-10,-9,-1161,-8.74089e-69,-9,-98.3439,-1062.66,2.452
1.4778,1.47636,0.39709,0.0106346,0,4.82199e-58,0.00526686,-1.38222e-10,-9,-1161,-3.88484e-69,-9,-98.3439,-1062.66,2.456
1.4778,1.47636,0.397111,0.0106346,0,3.21466e-58,0.00528186,-9.21479e-11,-9,-1161,-1.7266e-69,-9,-98.3439,-1062.66,2.46
1.4778,1.47636,0.397132,0.0106346,0,2.14311e-58,0.00529688,-6.14319e-11,-9,-1161,-7.67376e-70,-9,-98.3439,-1062.66,2.464
1.4778,1.47636,0.397153,0.0106346,0,1.42874e-58,0.00531192,-4.09546e-11,-9,-1162,-3.41056e-70,-9,-98.3439,-1063.66,2.468
1.4778,1.47636,0.397174,0.0106346,0,9.52492e-59,0.00532697,-2.73031e-11,-9,-1162,-1.5158e-70,-9,-98.3439,-1063.66,2.472
1.4778,1.47636,0.397196,0.0106346,0,6.34995e-59,0.00534203,-1.82021e-11,-9,-1162,-6.73691e-71,-9,-98.3439,-1063.66,2.476
1.4778,1.47636,0.397217,0.0106346,0,4.2333e-59,0.00535711,-1.21347e-11,-9,-1162,-2.99418e-71,-9,-98.3439,-1063.66,2.48
1.4778,1.47636,0.397238,0.0106346,0,2.8222e-59,0.0053722,-8.0898e-12,-9,-1162,-1.33075e-71,-9,-98.3439,-1063.66,2.484
1.4778,1.47636,0.39726,0.0106346,0,1.88147e-59,0.00538731,-5.3932e-12,-9,-1162,-5.91443e-72,-9,-98.3439,-1063.66,2.488
1.4778,1.47636,0.397282,0.0106346,0,1.25431e-59,0.00540243,-3.59547e-12,-9,-1162,-2.62864e-72,-9,-98.3439,-1063.66,2.492
1.4778,1.47636,0.397303,0.0106346,0,8.36207e-60,0.00541757,-2.39698e-12,-9,-1162,-1.16828e-72,-9,-98.3439,-1063.66,2.496
1.4778,1.47636,0.397325,0.0106346,0,5.57471e-60,0.00543272,-1.59799e-12,-9,-1162,-5.19237e-73,-9,-98.3439,-1063.66,2.5
1.4778,1.47636,0.397347,0.0106346,0,3.71647e-60,0.00544788,-1.06532e-12,-9,-1162,-2.30772e-73,-9,-98.3439,-1063.66,2.504
1.4778,1.47636,0.397368,0.0106346,0,2.47765e-60,0.00546306,-7.10216e-13,-9,-1162,-1.02565e-73,-9,-98.3439,-1063.66,2.508
1.4778,1.47636,0.39739,0.0106346,0,1.65177e-60,0.00547825,-4.73477e-13,-9,-1162,-4.55846e-74,-9,-98.3439,-1063.66,2.512
1.4778,1.47636,0.397412,0.0106346,0,1.10118e-60,0.00549345,-3.15652e-13,-9,-1162,-2.02598e-74,-9,-98.3439,-1063.66,2.516
1.4778,1.47636,0.397434,0.0106346,0,7.34118e-61,0.00550867,-2.10434e-13,-9,-1162,-9.00436e-75,-9,-98.3439,-1063.66,2.52
1.4778,1.47636,0.397456,0.0106346,0,4.89412e-61,0.0055239,-1.4029e-13,-9,-1163,-4.00194e-75,-9,-98.3439,-1064.66,2.524
1.4778,1.47636,0.397479,0.0106346,0,3.26275e-61,0.00553915,-9.35264e-14,-9,-1163,-1.77864e-75,-9,-98.3439,-1064.66,2.528
1.4778,1.47636,0.397501,0.0106346,0,2.17517e-61,0.00555441,-6.23509e-14,-9,-1163,-7.90506e-76,-9,-98.3439,-1064.66,2.532
1.4778,1.47636,0.397523,0.0106346,0,1.45011e-61,0.00556968,-4.15673e-14,-9,-1163,-3.51336e-76,-9,-98.3439,-1064.66,2.536
1.4778,1.47636,0.397545,0.0106346,0,9.6674e-62,0.00558497,-2.77115e-14,-9,-1163,-1.56149e-76,-9,-98.3439,-1064.66,2.54
1.4778,1.47636,0.397568,0.0106346,0,6.44494e-62,0.00560027,-1.84743e-14,-9,-1163,-6.93997e-77,-9,-98.3439,-1064.66,2.544
1.4778,1.47636,0.39759,0.0106346,0,4.29662e-62,0.00561559,-1.23162e-14,-9,-1163,-3.08443e-77,-9,-98.3439,-1064.66,2.548
1.4778,1.47636,0.397613,0.0106346,0,2.86442e-62,0.00563091,-8.21082e-15,-9,-1163,-1.37086e-77,-9,-98.3439,-1064.66,2.552
1.4778,1.47636,0.397635,0.0106346,0,1.90961e-62,0.00564626,-5.47388e-15,-9,-1163,-6.0927e-78,-9,-98.3439,-1064.66,2.556
1.4778,1.47636,0.397658,0.0106346,0,1.27307e-62,0.00566161,-3.64925e-15,-9,-1163,-2.70787e-78,-9,-98.3439,-1064.66,2.56
1.4778,1.47636,0.39768,0.0106346,0,8.48716e-63,0.00567698,-2.43284e-15,-9,-1163,-1.2035e-78,-9,-98.3439,-1064.66,2.564
1.4778,1.47636,0.397703,0.0106346,0,5.65811e-63,0.00569237,-1.62189e-15,-9,-1163,-5.34888e-79,-9,-98.3439,-1064.66,2.568
1.4778,1.47636,0.397726,0.0106346,0,3.77207e-63,0.00570776,-1.08126e-15,-9,-1163,-2.37728e-79,-9,-98.3439,-1064.66,2.572
1.4778,1.47636,0.397749,0.0106346,0,2.51471e-63,0.00572317,-7.2084e-16,-9,-1164,-1.05657e-79,-9,-98.3439,-1065.66,2.576
1.4778,1.47636,0.397772,0.0106346,0,1.67648e-63,0.0057386,-4.8056e-16,-9,-1164,-4.69586e-80,-9,-98.3439,-1065.66,2.58
1.4778,1.47636,0.397795,0.0106346,0,1.11765e-63,0.00575403,-3.20373e-16,-9,-1164,-2.08705e-80,-9,-98.3439,-1065.66,2.584
1.4778,1.47636,0.397818,0.0106346,0,7.451e-64,0.00576948,-2.13582e-16,-9,-1164,-9.27577e-81,-9,-98.3439,-1065.66,2.588
1.4778,1.47636,0.397841,0.0106346,0,4.96734e-64,0.00578495,-1.42388e-16,-9,-1164,-4.12256e-81,-9,-98.3439,-1065.66,2.592
1.4778,1.47636,0.397864,0.0106346,0,3.31156e-64,0.00580042,-9.49255e-17,-9,-1164,-1.83225e-81,-9,-98.3439,-1065.66,2.596
1.4778,1.47636,0.397887,0.0106346,0,2.2077e-64,0.00581591,-6.32836e-17,-9,-1164,-8.14334e-82,-9,-98.3439,-1065.66,2.6
1.4778,1.47636,0.397911,0.0106346,0,1.4718e-64,0.00583142,-4.21891e-17,-9,-1164,-3.61926e-82,-9,-98.3439,-1065.66,2.604
1.4778,1.47636,0.397934,0.0106346,0,9.81202e-65,0.00584693,-2.81261e-17,-9,-1164,-1.60856e-82,-9,-98.3439,-1065.66,2.608
1.4778,1.47636,0.397957,0.0106346,0,6.54135e-65,0.00586246,-1.87507e-17,-9,-1164,-7.14916e-83,-9,-98.3439,-1065.66,2.612
1.4778,1.47636,0.397981,0.0106346,0,4.3609e-65,0.00587801,-1.25005e-17,-9,-1164,-3.1774e-83,-9,-98.3439,-1065.66,2.616
1.4778,1.47636,0.398004,0.0106346,0,2.90727e-65,0.00589356,-8.33365e-18,-9,-1164,-1.41218e-83,-9,-98.3439,-1065.66,2.62
1.4778,1.47636,0.398028,0.0106346,0,1.93818e-65,0.00590913,-5.55577e-18,-9,-1164,-6.27635e-84,-9,-98.3439,-1065.66,2.624
1.4778,1.47636,0.398052,0.0106346,0,1.29212e-65,0.00592471,-3.70384e-18,-9,-1164,-2.78949e-84,-9,-98.3439,-1065.66,2.628
1.4778,1.47636,0.398075,0.0106346,0,8.61412e-66,0.00594031,-2.46923e-18,-9,-1165,-1.23977e-84,-9,-98.3439,-1066.66,2.632
1.4778,1.47636,0.398099,0.0106346,0,5.74275e-66,0.00595592,-1.64615e-18,-9,-1165,-5.5101e-85,-9,-98.3439,-1066.66,2.636
1.4778,1.47636,0.398123,0.0106346,0,3.8285e-66,0.00597154,-1.09744e-18,-9,-1165,-2.44893e-85,-9,-98.3439,-1066.66,2.64
1.4778,1.47636,0.398147,0.0106346,0,2.55233e-66,0.00598717,-7.31623e-19,-9,-1165,-1.08842e-85,-9,-98.3439,-1066.66,2.644
1.4778,1.47636,0.398171,0.0106346,0,1.70155e-66,0.00600282,-4.87749e-19,-9,-1165,-4.8374e-86,-9,-98.3439,-1066.66,2.648
1.4778,1.47636,0.398195,0.0106346,0,1.13437e-66,0.00601848,-3.25166e-19,-9,-1165,-2.14996e-86,-9,-98.3439,-1066.66,2.652
1.4778,1.47636,0.398219,0.0106346,0,7.56246e-67,0.00603415,-2.16777e-19,-9,-1165,-9.55536e-87,-9,-98.3439,-1066.66,2.656
1.4778,1.47636,0.398243,0.0106346,0,5.04164e-67,0.00604984,-1.44518e-19,-9,-1165,-4.24683e-87,-9,-98.3439,-1066.66,2.66
1.4778,1.47636,0.398267,0.0106346,0,3.3611e-67,0.00606554,-9.63455e-20,-9,-1165,-1.88748e-87,-9,-98.3439,-1066.66,2.664
1.4778,1.47636,0.398292,0.0106346,0,2.24073e-67,0.00608125,-6.42303e-20,-9,-1165,-8.3888e-88,-9,-98.3439,-1066.66,2.668
1.4778,1.47636,0.398316,0.0106346,0,1.49382e-67,0.00609698,-4.28202e-20,-9,-1165,-3.72835e-88,-9,-98.3439,-1066.66,2.672
1.4778,1.47636,0.398341,0.0106346,0,9.9588e-68,0.00611271,-2.85468e-20,-9,-1165,-1.65705e-88,-9,-98.3439,-1066.66,2.676
1.4778,1.47636,0.398365,0.0106346,0,6.6392e-68,0.00612846,-1.90312e-20,-9,-1166,-7.36465e-89,-9,-98.3439,-1067.66,2.68
1.4778,1.47636,0.39839,0.0106346,0,4.42613e-68,0.00614423,-1.26875e-20,-9,-1166,-3.27318e-89,-9,-98.3439,-1067.66,2.684
1.4778,1.47636,0.398414,0.0106346,0,2.95076e-68,0.00616,-8.45831e-21,-9,-1166,-1.45475e-89,-9,-98.3439,-1067.66,2.688
1.4778,1.47636,0.398439,0.0106346,0,1.96717e-68,0.00617579,-5.63888e-21,-9,-1166,-6.46554e-90,-9,-98.3439,-1067.66,2.692
1.4778,1.47636,0.398464,0.0106346,0,1.31145e-68,0.00619159,-3.75925e-21,-9,-1166,-2.87357e-90,-9,-98.3439,-1067.66,2.696
1.4778,1.47636,0.398488,0.0106346,0,8.74298e-69,0.0062074,-2.50617e-21,-9,-1166,-1.27714e-90,-9,-98.3439,-1067.66,2.7
1.4778,1.47636,0.398513,0.0106346,0,5.82865e-69,0.00622323,-1.67078e-21,-9,-1166,-5.67619e-91,-9,-98.3439,-1067.66,2.704
1.4778,1.47636,0.398538,0.0106346,0,3.88577e-69,0.00623907,-1.11385e-21,-9,-1166,-2.52275e-91,-9,-98.3439,-1067.66,2.708
1.4778,1.47636,0.398563,0.0106346,0,2.59051e-69,0.00625492,-7.42568e-22,-9,-1166,-1.12122e-91,-9,-98.3439,-1067.66,2.712
1.4778,1.47636,0.398588,0.0106346,0,1.72701e-69,0.00627078,-4.95045e-22,-9,-1166,-4.98321e-92,-9,-98.3439,-1067.66,2.716
1.4778,1.47636,0.398613,0.0106346,0,1.15134e-69,0.00628665,-3.3003e-22,-9,-1166,-2.21476e-92,-9,-98.3439,-1067.66,2.72
1.4778,1.47636,0.398638,0.0106346,0,7.67559e-70,0.00630254,-2.2002e-22,-9,-1166,-9.84338e-93,-9,-98.3439,-1067.66,2.724
1.4778,1.47636,0.398664,0.0106346,0,5.11706e-70,0.00631844,-1.4668e-22,-9,-1167,-4.37484e-93,-9,-98.3439,-1068.66,2.728
1.4778,1.47636,0.398689,0.0106346,0,3.41137e-70,0.00633436,-9.77867e-23,-9,-1167,-1.94437e-93,-9,-98.3439,-1068.66,2.732
1.4778,1.47636,0.398714,0.0106346,0,2.27425e-70,0.00635028,-6.51912e-23,-9,-1167,-8.64165e-94,-9,-98.3439,-1068.66,2.736
1.4778,1.47636,0.39874,0.0106346,0,1.51617e-70,0.00636622,-4.34608e-23,-9,-1167,-3.84073e-94,-9,-98.3439,-1068.66,2.74
1.4778,1.47636,0.398765,0.0106353,0,1.01078e-70,0.00638217,5.75818e-05,-9,-1167,3.39265e-76,-9,-98.3439,-1068.66,2.744
1.4778,1.47636,0.398791,0.0106346,0,6.73852e-71,0.00639813,-1.91939e-05,-9,-1167,-7.53874e-77,-9,-98.3439,-1068.66,2.748
1.4778,1.47636,0.398817,0.0106346,0,4.49235e-71,0.0064141,-1.2796e-05,-9,-1167,-3.35055e-77,-9,-98.3439,-1068.66,2.752
1.4778,1.47636,0.398842,0.0106346,0,2.9949e-71,0.00643009,-8.53064e-06,-9,-1167,-1.48913e-77,-9,-98.3439,-1068.66,2.756
1.4778,1.47636,0.398868,0.0106346,0,1.9966e-71,0.00644609,-5.6871e-06,-9,-1167,-6.61837e-78,-9,-98.3439,-1068.66,2.76
1.4778,1.47636,0.398894,0.0106346,0,1.33107e-71,0.0064621,-3.7914e-06,-9,-1167,-2.9415e-78,-9,-98.3439,-1068.66,2.764
1.4778,1.47636,0.39892,0.0106346,0,8.87377e-72,0.00647812,-2.5276e-06,-9,-1167,-1.30733e-78,-9,-98.3439,-1068.66,2.768
1.4778,1.47636,0.398946,0.0106346,0,5.91585e-72,0.00649415,-1.68507e-06,-9,-1167,-5.81037e-79,-9,-98.3439,-1068.66,2.772
1.4778,1.47636,0.398972,0.0106346,0,3.9439e-72,0.0065102,-1.12338e-06,-9,-1168,-2.58239e-79,-9,-98.3439,-1069.66,2.776
1.4778,1.47636,0.398998,0.0106346,0,2.62926e-72,0.00652626,-7.48918e-07,-9,-1168,-1.14773e-79,-9,-98.3439,-1069.66,2.78
1.4778,1.47636,0.399024,0.0106346,0,1.75284e-72,0.00654233,-4.99279e-07,-9,-1168,-5.10101e-80,-9,-98.3439,-1069.66,2.784
1.4778,1.47636,0.39905,0.0106346,0,1.16856e-72,0.00655841,-3.32852e-07,-9,-1168,-2.26711e-80,-9,-98.3439,-1069.66,2.788
1.4778,1.47636,0.399076,0.0106346,0,7.79041e-73,0.0065745,-2.21902e-07,-9,-1168,-1.00761e-80,-9,-98.3439,-1069.66,2.792
1.4778,1.47636,0.399103,0.0106342,0,5.19361e-73,0.00659061,-2.89389e-05,-9,-1168,-8.76005e-79,-9,-98.3439,-1069.66,2.796
1.4778,1.47636,0.399129,0.0106346,0,3.46241e-73,0.00660673,9.49835e-06,-9,-1168,1.91689e-79,-9,-98.3439,-1069.66,2.8
1.4778,1.47636,0.399155,0.0106346,0,2.30827e-73,0.00662285,6.33223e-06,-9,-1168,8.51949e-80,-9,-98.3439,-1069.66,2.804
1.4778,1.47636,0.399182,0.0106346,0,1.53885e-73,0.006639,4.22149e-06,-9,-1168,3.78644e-80,-9,-98.3439,-1069.66,2.808
1.4778,1.47636,0.399209,0.0106342,0,1.0259e-73,0.00665515,-2.59766e-05,-9,-1168,-1.55325e-79,-9,-98.3439,-1069.66,2.812
1.4778,1.47636,0.399235,0.0106346,0,6.83932e-74,0.00667131,1.14732e-05,-9,-1168,4.5737e-80,-9,-98.3439,-1069.66,2.816
1.4778,1.47636,0.399262,0.0106346,0,4.55955e-74,0.00668749,7.6488e-06,-9,-1168,2.03275e-80,-9,-98.3439,-1069.66,2.82
1.4778,1.47636,0.399289,0.0106346,0,3.0397e-74,0.00670368,5.0992e-06,-9,-1169,9.03446e-81,-9,-98.3439,-1070.66,2.824
1.4778,1.47636,0.399316,0.0106346,0,2.02647e-74,0.00671988,3.39946e-06,-9,-1169,4.01532e-81,-9,-98.3439,-1070.66,2.828
1.4778,1.47636,0.399342,0.0106349,0,1.35098e-74,0.00673609,3.10572e-05,-9,-1169,2.44565e-80,-9,-98.3439,-1070.66,2.832
1.4778,1.47636,0.399369,0.0106346,0,9.00651e-75,0.00675231,-8.0861e-06,-9,-1169,-4.24488e-81,-9,-98.3439,-1070.66,2.836
1.4778,1.47636,0.399397,0.0106346,0,6.00434e-75,0.00676855,-5.39073e-06,-9,-1169,-1.88662e-81,-9,-98.3439,-1070.66,2.84
1.4778,1.47636,0.399424,0.0106346,0,4.00289e-75,0.00678479,-3.59382e-06,-9,-1169,-8.38496e-82,-9,-98.3439,-1070.66,2.844
1.4778,1.47636,0.399451,0.0106346,0,2.6686e-75,0.00680105,-2.39588e-06,-9,-1169,-3.72665e-82,-9,-98.3439,-1070.66,2.848
1.4778,1.47636,0.399478,0.0106349,0,1.77906e-75,0.00681732,2.71937e-05,-9,-1169,2.81996e-81,-9,-98.3439,-1070.66,2.852
1.4778,1.47636,0.399505,0.0106346,0,1.18604e-75,0.0068336,-1.06618e-05,-9,-1169,-7.37058e-82,-9,-98.3439,-1070.66,2.856
1.4778,1.47636,0.399533,0.0106349,0,7.90695e-76,0.00684989,2.16831e-05,-9,-1169,9.99341e-82,-9,-98.3439,-1070.66,2.86
1.4778,1.47636,0.39956,0.0106346,0,5.2713e-76,0.00686619,-1.43356e-05,-9,-1169,-4.40456e-82,-9,-98.3439,-1070.66,2.864
1.4778,1.47636,0.399588,0.0106346,0,3.5142e-76,0.00688251,-9.55704e-06,-9,-1170,-1.95758e-82,-9,-98.3439,-1071.66,2.868
1.4778,1.47636,0.399615,0.0106349,0,2.3428e-76,0.00689883,2.24196e-05,-9,-1170,3.06159e-82,-9,-98.3439,-1071.66,2.872
1.4778,1.47636,0.399643,0.0106349,0,1.56187e-76,0.00691517,1.49464e-05,-9,-1170,1.36071e-82,-9,-98.3439,-1071.66,2.876
1.4778,1.47636,0.399671,0.0106346,0,1.04124e-76,0.00693152,-1.88267e-05,-9,-1170,-1.14261e-82,-9,-98.3439,-1071.66,2.88
1.4778,1.47636,0.399698,0.0106346,0,6.94163e-77,0.00694788,-1.25511e-05,-9,-1170,-5.07825e-83,-9,-98.3439,-1071.66,2.884
1.4778,1.47636,0.399726,0.0106349,0,4.62775e-77,0.00696425,2.04235e-05,-9,-1170,5.50915e-83,-9,-98.3439,-1071.66,2.888
1.4778,1.47636,0.399754,0.0106349,0,3.08517e-77,0.00698063,1.36157e-05,-9,-1170,2.44851e-83,-9,-98.3439,-1071.66,2.892
1.4778,1.47636,0.399782,0.0106349,0,2.05678e-77,0.00699703,9.07712e-06,-9,-1170,1.08823e-83,-9,-98.3439,-1071.66,2.896
1.4778,1.47636,0.39981,0.0106346,0,1.37119e-77,0.00701343,-2.27395e-05,-9,-1170,-1.81739e-83,-9,-98.3439,-1071.66,2.9
1.4778,1.47636,0.399838,0.0106349,0,9.14124e-78,0.00702985,1.36312e-05,-9,-1170,7.26315e-84,-9,-98.3439,-1071.66,2.904
1.4778,1.47636,0.399866,0.0106349,0,6.09416e-78,0.00704627,9.0875e-06,-9,-1170,3.22807e-84,-9,-98.3439,-1071.66,2.908
1.4778,1.47636,0.399894,0.0106349,0,4.06277e-78,0.00706271,6.05833e-06,-9,-1170,1.4347e-84,-9,-98.3439,-1071.66,2.912
1.4778,1.47636,0.399923,0.0106349,0,2.70852e-78,0.00707916,4.03889e-06,-9,-1171,6.37643e-85,-9,-98.3439,-1072.66,2.916
1.4778,1.47636,0.399951,0.0106346,0,1.80568e-78,0.00709562,-2.60983e-05,-9,-1171,-2.74677e-84,-9,-98.3439,-1072.66,2.92
1.4778,1.47636,0.399979,0.0106349,0,1.20379e-78,0.00711209,1.1392e-05,-9,-1171,7.99345e-85,-9,-98.3439,-1072.66,2.924
1.4778,1.47636,0.400008,0.0106349,0,8.02523e-79,0.00712857,7.59469e-06,-9,-1171,3.55265e-85,-9,-98.3439,-1072.66,2.928
1.4778,1.47636,0.400036,0.0106346,0,5.35016e-79,0.00714506,-2.37278e-05,-9,-1171,-7.39936e-85,-9,-98.3439,-1072.66,2.932
1.4778,1.47636,0.400065,0.0106346,0,3.56677e-79,0.00716156,-1.58185e-05,-9,-1171,-3.2886e-85,-9,-98.3439,-1072.66,2.936
1.4778,1.47636,0.400094,0.0106349,0,2.37785e-79,0.00717808,1.82452e-05,-9,-1171,2.52882e-85,-9,-98.3439,-1072.66,2.94
1.4778,1.47636,0.400123,0.0106349,0,1.58523e-79,0.0071946,1.21635e-05,-9,-1171,1.12392e-85,-9,-98.3439,-1072.66,2.944
1.4778,1.47636,0.400151,0.0106346,0,1.05682e-79,0.00721114,-2.06819e-05,-9,-1171,-1.27398e-85,-9,-98.3439,-1072.66,2.948
1.4778,1.47636,0.40018,0.0106349,0,7.04547e-80,0.00722768,1.5003e-05,-9,-1171,6.16129e-86,-9,-98.3439,-1072.66,2.952
1.4778,1.47636,0.400209,0.0106349,0,4.69698e-80,0.00724424,1.0002e-05,-9,-1171,2.73835e-86,-9,-98.3439,-1072.66,2.956
1.4778,1.47636,0.400238,0.0106349,0,3.13132e-80,0.00726081,6.66799e-06,-9,-1172,1.21704e-86,-9,-98.3439,-1073.66,2.96
1.4778,1.47636,0.400267,0.0106349,0,2.08755e-80,0.00727739,4.44532e-06,-9,-1172,5.40909e-87,-9,-98.3439,-1073.66,2.964
1.4778,1.47636,0.400296,0.0106349,0,1.3917e-80,0.00729398,2.96355e-06,-9,-1172,2.40404e-87,-9,-98.3439,-1073.66,2.968
1.4778,1.47636,0.400326,0.0106349,0,9.27799e-81,0.00731058,1.9757e-06,-9,-1172,1.06846e-87,-9,-98.3439,-1073.66,2.972
1.4778,1.47636,0.400355,0.0106349,0,6.18533e-81,0.00732719,1.31713e-06,-9,-1172,4.74872e-88,-9,-98.3439,-1073.66,2.976
1.4778,1.47636,0.400384,0.0106349,0,4.12355e-81,0.00734381,8.78089e-07,-9,-1172,2.11054e-88,-9,-98.3439,-1073.66,2.98
1.4778,1.47636,0.400414,0.0106349,0,2.74903e-81,0.00736044,5.85393e-07,-9,-1172,9.38018e-89,-9,-98.3439,-1073.66,2.984
1.4778,1.47636,0.400443,0.0106349,0,1.83269e-81,0.00737708,3.90262e-07,-9,-1172,4.16897e-89,-9,-98.3439,-1073.66,2.988
1.4778,1.47636,0.400473,0.0106349,0,1.22179e-81,0.00739373,2.60174e-07,-9,-1172,1.85288e-89,-9,-98.3439,-1073.66,2.992
1.4778,1.47636,0.400502,0.0106349,0,8.14529e-82,0.0074104,1.7345e-07,-9,-1172,8.235e-90,-9,-98.3439,-1073.66,2.996
1.4778,1.47636,0.400532,0.0106349,0,5.43019e-82,0.00742707,1.15633e-07,-9,-1173,3.66e-90,-9,-98.3439,-1074.66,3
1.4778,1.47636,0.400562,0.0106349,0,3.62013e-82,0.00744375,7.70887e-08,-9,-1173,1.62667e-90,-9,-98.3439,-1074.66,3.004
1.4778,1.47636,0.400591,0.0106349,0,2.41342e-82,0.00746045,5.13925e-08,-9,-1173,7.22963e-91,-9,-98.3439,-1074.66,3.008
1.4778,1.47636,0.400621,0.0106349,0,1.60895e-82,0.00747715,3.42617e-08,-9,-1173,3.21317e-91,-9,-98.3439,-1074.66,3.012
1.4778,1.47636,0.400651,0.0106349,0,1.07263e-82,0.00749386,2.28411e-08,-9,-1173,1.42808e-91,-9,-98.3439,-1074.66,3.016
1.4778,1.47636,0.400681,0.0106349,0,7.15087e-83,0.00751059,1.52274e-08,-9,-1173,6.347e-92,-9,-98.3439,-1074.66,3.02
1.4778,1.47636,0.400711,0.0106349,0,4.76725e-83,0.00752732,1.01516e-08,-9,-1173,2.82089e-92,-9,-98.3439,-1074.66,3.024
1.4778,1.47636,0.400742,0.0106349,0,3.17816e-83,0.00754407,6.76774e-09,-9,-1173,1.25373e-92,-9,-98.3439,-1074.66,3.028
1.4778,1.47636,0.400772,0.0106349,0,2.11878e-83,0.00756083,4.51182e-09,-9,-1173,5.57213e-93,-9,-98.3439,-1074.66,3.032
1.4778,1.47636,0.400802,0.0106349,0,1.41252e-83,0.00757759,3.00788e-09,-9,-1173,2.4765e-93,-9,-98.3439,-1074.66,3.036
1.4778,1.47636,0.400832,0.0106349,0,9.41678e-84,0.00759437,2.00525e-09,-9,-1173,1.10067e-93,-9,-98.3439,-1074.66,3.04
1.4778,1.47636,0.400863,0.0106349,0,6.27785e-84,0.00761115,1.33684e-09,-9,-1174,4.89186e-94,-9,-98.3439,-1075.66,3.044
1.4778,1.47636,0.400893,0.0106349,0,4.18524e-84,0.00762795,8.91224e-10,-9,-1174,2.17416e-94,-9,-98.3439,-1075.66,3.048
1.4778,1.47636,0.400924,0.0106349,0,2.79016e-84,0.00764475,5.9415e-10,-9,-1174,9.66292e-95,-9,-98.3439,-1075.66,3.052
1.4778,1.47636,0.400954,0.0106349,0,1.8601e-84,0.00766157,3.961e-10,-9,-1174,4.29463e-95,-9,-98.3439,-1075.66,3.056
1.4778,1.47636,0.400985,0.0106349,0,1.24007e-84,0.0076784,2.64066e-10,-9,-1174,1.90873e-95,-9,-98.3439,-1075.66,3.06
1.4778,1.47636,0.401016,0.0106349,0,8.26713e-85,0.00769523,1.76044e-10,-9,-1174,8.48323e-96,-9,-98.3439,-1075.66,3.064
1.4778,1.47636,0.401047,0.0106349,0,5.51142e-85,0.00771208,1.17363e-10,-9,-1174,3.77032e-96,-9,-98.3439,-1075.66,3.068
1.4778,1.47636,0.401078,0.0106349,0,3.67428e-85,0.00772893,7.82419e-11,-9,-1174,1.6757e-96,-9,-98.3439,-1075.66,3.072
1.4778,1.47636,0.401108,0.0106349,0,2.44952e-85,0.0077458,5.21613e-11,-9,-1174,7.44755e-97,-9,-98.3439,-1075.66,3.076
1.4778,1.47636,0.401139,0.0106349,0,1.63301e-85,0.00776268,3.47742e-11,-9,-1174,3.31002e-97,-9,-98.3439,-1075.66,3.08
1.4778,1.47636,0.401171,0.0106349,0,1.08868e-85,0.00777956,2.31828e-11,-9,-1175,1.47112e-97,-9,-98.3439,-1076.66,3.084
1.4778,1.47636,0.401202,0.0106349,0,7.25784e-86,0.00779646,1.54552e-11,-9,-1175,6.53832e-98,-9,-98.3439,-1076.66,3.088
1.4778,1.47636,0.401233,0.0106349,0,4.83856e-86,0.00781336,1.03035e-11,-9,-1175,2.90592e-98,-9,-98.3439,-1076.66,3.092
1.4778,1.47636,0.401264,0.0106349,0,3.22571e-86,0.00783028,6.86898e-12,-9,-1175,1.29152e-98,-9,-98.3439,-1076.66,3.096
1.4778,1.47636,0.401296,0.0106349,0,2.15047e-86,0.0078472,4.57932e-12,-9,-1175,5.74009e-99,-9,-98.3439,-1076.66,3.1
1.4778,1.47636,0.401327,0.0106349,0,1.43365e-86,0.00786413,3.05288e-12,-9,-1175,2.55115e-99,-9,-98.3439,-1076.66,3.104
1.4778,1.47636,0.401359,0.0106349,0,9.55765e-87,0.00788108,2.03525e-12,-9,-1175,1.13384e-99,-9,-98.3439,-1076.66,3.108
1.4778,1.47636,0.40139,0.0106349,0,6.37177e-87,0.00789803,1.35683e-12,-9,-1175,5.03931e-100,-9,-98.3439,-1076.66,3.112
1.4778,1.47636,0.401422,0.0106349,0,4.24784e-87,0.00791499,9.04556e-13,-9,-1175,2.23969e-100,-9,-98.3439,-1076.66,3.116
1.4778,1.47636,0.401453,0.0106349,0,2.8319e-87,0.00793197,6.03038e-13,-9,-1175,9.95419e-101,-9,-98.3439,-1076.66,3.12
1.4778,1.47636,0.401485,0.0106349,0,1.88793e-87,0.00794895,4.02025e-13,-9,-1176,4.42408e-101,-9,-98.3439,-1077.66,3.124
1.4778,1.47636,0.401517,0.0106349,0,1.25862e-87,0.00796594,2.68017e-13,-9,-1176,1.96626e-101,-9,-98.3439,-1077.66,3.128
1.4778,1.47636,0.401549,0.0106349,0,8.3908e-88,0.00798294,1.78678e-13,-9,-1176,8.73893e-102,-9,-98.3439,-1077.66,3.132
1.4778,1.47636,0.401581,0.0106349,0,5.59387e-88,0.00799995,1.19119e-13,-9,-1176,3.88397e-102,-9,-98.3439,-1077.66,3.136
1.4778,1.47636,0.401613,0.0106349,0,3.72925e-88,0.00801697,7.94124e-14,-9,-1176,1.72621e-102,-9,-98.3439,-1077.66,3.14
1.4778,1.47636,0.401645,0.0106349,0,2.48616e-88,0.008034,5.29416e-14,-9,-1176,7.67204e-103,-9,-98.3439,-1077.66,3.144
1.4778,1.47636,0.401677,0.0106349,0,1.65744e-88,0.00805104,3.52944e-14,-9,-1176,3.40979e-103,-9,-98.3439,-1077.66,3.148
1.4778,1.47636,0.401709,0.0106349,0,1.10496e-88,0.00806809,2.35296e-14,-9,-1176,1.51546e-103,-9,-98.3439,-1077.66,3.152
1.4778,1.47636,0.401742,0.0106349,0,7.36641e-89,0.00808515,1.56864e-14,-9,-1176,6.7354e-104,-9,-98.3439,-1077.66,3.156
1.4778,1.47636,0.401774,0.0106349,0,4.91094e-89,0.00810221,1.04576e-14,-9,-1176,2.99351e-104,-9,-98.3439,-1077.66,3.16
1.4778,1.47636,0.401807,0.0106349,0,3.27396e-89,0.00811929,6.97173e-15,-9,-1177,1.33045e-104,-9,-98.3439,-1078.66,3.164
1.4778,1.47636,0.401839,0.0106349,0,2.18264e-89,0.00813638,4.64782e-15,-9,-1177,5.9131e-105,-9,-98.3439,-1078.66,3.168
1.4778,1.47636,0.401872,0.0106349,0,1.45509e-89,0.00815347,3.09855e-15,-9,-1177,2.62805e-105,-9,-98.3439,-1078.66,3.172
1.4778,1.47636,0.401904,0.0106349,0,9.70062e-90,0.00817057,2.0657e-15,-9,-1177,1.16802e-105,-9,-98.3439,-1078.66,3.176
1.4778,1.47636,0.401937,0.0106349,0,6.46708e-90,0.00818769,1.37713e-15,-9,-1177,5.1912e-106,-9,-98.3439,-1078.66,3.18
1.4778,1.47636,0.40197,0.0106349,0,4.31139e-90,0.00820481,9.18088e-16,-9,-1177,2.3072e-106,-9,-98.3439,-1078.66,3.184
1.4778,1.47636,0.402003,0.0106349,0,2.87426e-90,0.00822194,6.12059e-16,-9,-1177,1.02542e-106,-9,-98.3439,-1078.66,3.188
1.4778,1.47636,0.402036,0.0106349,0,1.91617e-90,0.00823908,4.08039e-16,-9,-1177,4.55743e-107,-9,-98.3439,-1078.66,3.192
1.4778,1.47636,0.402069,0.0106349,0,1.27745e-90,0.00825623,2.72026e-16,-9,-1177,2.02553e-107,-9,-98.3439,-1078.66,3.196
1.4778,1.47636,0.402102,0.0106349,0,8.51632e-91,0.00827339,1.81351e-16,-9,-1178,9.00234e-108,-9,-98.3439,-1079.66,3.2
1.4778,1.47636,0.402135,0.0106349,0,5.67755e-91,0.00829056,1.209e-16,-9,-1178,4.00104e-108,-9,-98.3439,-1079.66,3.204
1.4778,1.47636,0.402168,0.0106349,0,3.78503e-91,0.00830773,8.06003e-17,-9,-1178,1.77824e-108,-9,-98.3439,-1079.66,3.208
1.4778,1.47636,0.402201,0.0106349,0,2.52335e-91,0.00832492,5.37335e-17,-9,-1178,7.90329e-109,-9,-98.3439,-1079.66,3.212
1.4778,1.47636,0.402234,0.0106349,0,1.68224e-91,0.00834211,3.58224e-17,-9,-1178,3.51257e-109,-9,-98.3439,-1079.66,3.216
1.4778,1.47636,0.402268,0.0106349,0,1.12149e-91,0.00835931,2.38816e-17,-9,-1178,1.56114e-109,-9,-98.3439,-1079.66,3.22
1.4778,1.47636,0.402301,0.0106353,0,7.47661e-92,0.00837653,2.87909e-05,-9,-1178,1.25475e-97,-9,-98.3439,-1079.66,3.224
1.4778,1.47636,0.402335,0.0106349,0,4.9844e-92,0.00839375,-9.59697e-06,-9,-1178,-2.78825e-98,-9,-98.3439,-1079.66,3.228
1.4778,1.47636,0.402369,0.0106349,0,3.32294e-92,0.00841098,-6.39798e-06,-9,-1178,-1.23922e-98,-9,-98.3439,-1079.66,3.232
1.4778,1.47636,0.402402,0.0106349,0,2.21529e-92,0.00842822,-4.26532e-06,-9,-1178,-5.50765e-99,-9,-98.3439,-1079.66,3.236
1.4778,1.47636,0.402436,0.0106349,0,1.47686e-92,0.00844546,-2.84355e-06,-9,-1179,-2.44785e-99,-9,-98.3439,-1080.66,3.24
1.4778,1.47636,0.40247,0.0106349,0,9.84574e-93,0.00846272,-1.8957e-06,-9,-1179,-1.08793e-99,-9,-98.3439,-1080.66,3.244
1.4778,1.47636,0.402504,0.0106349,0,6.56382e-93,0.00847998,-1.2638e-06,-9,-1179,-4.83525e-100,-9,-98.3439,-1080.66,3.248
1.4778,1.47636,0.402538,0.0106349,0,4.37588e-93,0.00849726,-8.42533e-07,-9,-1179,-2.149e-100,-9,-98.3439,-1080.66,3.252
1.4778,1.47636,0.402572,0.0106349,0,2.91726e-93,0.00851454,-5.61689e-07,-9,-1179,-9.55112e-101,-9,-98.3439,-1080.66,3.256
1.4778,1.47636,0.402606,0.0106349,0,1.94484e-93,0.00853183,-3.74459e-07,-9,-1179,-4.24494e-101,-9,-98.3439,-1080.66,3.26
1.4778,1.47636,0.40264,0.0106349,0,1.29656e-93,0.00854913,-2.49639e-07,-9,-1179,-1.88664e-101,-9,-98.3439,-1080.66,3.264
1.4778,1.47636,0.402674,0.0106349,0,8.64372e-94,0.00856644,-1.66426e-07,-9,-1179,-8.38507e-102,-9,-98.3439,-1080.66,3.268
1.4778,1.47636,0.402708,0.0106349,0,5.76248e-94,0.00858375,-1.10951e-07,-9,-1179,-3.7267e-102,-9,-98.3439,-1080.66,3.272
1.4778,1.47636,0.402743,0.0106349,0,3.84165e-94,0.00860108,-7.39672e-08,-9,-1180,-1.65631e-102,-9,-98.3439,-1081.66,3.276
1.4778,1.47636,0.402777,0.0106349,0,2.5611e-94,0.00861841,-4.93115e-08,-9,-1180,-7.36138e-103,-9,-98.3439,-1081.66,3.28
1.4778,1.47636,0.402812,0.0106353,0,1.7074e-94,0.00863575,2.87581e-05,-9,-1180,2.86216e-100,-9,-98.3439,-1081.66,3.284
1.4778,1.47636,0.402846,0.0106349,0,1.13827e-94,0.0086531,-9.61889e-06,-9,-1180,-6.38195e-101,-9,-98.3439,-1081.66,3.288
1.4778,1.47636,0.402881,0.0106349,0,7.58845e-95,0.00867046,-6.41259e-06,-9,-1180,-2.83642e-101,-9,-98.3439,-1081.66,3.292
1.4778,1.47636,0.402916,0.0106349,0,5.05897e-95,0.00868783,-4.27506e-06,-9,-1180,-1.26063e-101,-9,-98.3439,-1081.66,3.296
1.4778,1.47636,0.40295,0.0106349,0,3.37264e-95,0.0087052,-2.85004e-06,-9,-1180,-5.60281e-102,-9,-98.3439,-1081.66,3.3
1.4778,1.47636,0.402985,0.0106349,0,-5.75818e-05,0.00872259,-1.90003e-06,-10,-1180,6.37719e-12,-10,-98.3439,-1081.66,3.304
1.4778,1.47636,0.40302,0.0106349,0,1.91939e-05,0.00873998,-1.26669e-06,-9,-1180,-1.41715e-12,-9,-98.3439,-1081.66,3.308
1.4778,1.47636,0.403055,0.0106349,0,1.2796e-05,0.00875738,-8.44457e-07,-9,-1181,-6.29846e-13,-9,-98.3439,-1082.66,3.312
1.4778,1.47636,0.40309,0.0106349,0,8.53064e-06,0.00877479,-5.62971e-07,-9,-1181,-2.79932e-13,-9,-98.3439,-1082.66,3.316
1.4778,1.47636,0.403125,0.0106349,0,5.6871e-06,0.0087922,-3.75314e-07,-9,-1181,-1.24414e-13,-9,-98.3439,-1082.66,3.32
1.4778,1.47636,0.403161,0.0106353,0,3.7914e-06,0.00880963,2.85407e-05,-9,-1181,6.30757e-12,-9,-98.3439,-1082.66,3.324
1.4778,1.47636,0.403196,0.0106349,0,2.5276e-06,0.00882706,-9.76378e-06,-9,-1181,-1.4385e-12,-9,-98.3439,-1082.66,3.328
1.4778,1.47636,0.403231,0.0106349,0,1.68507e-06,0.0088445,-6.50919e-06,-9,-1181,-6.39334e-13,-9,-98.3439,-1082.66,3.332
1.4778,1.47636,0.403267,0.0106353,0,1.12338e-06,0.00886195,2.44515e-05,-9,-1181,1.60114e-12,-9,-98.3439,-1082.66,3.336
1.4778,1.47636,0.403302,0.0106349,0,7.48918e-07,0.00887941,-1.24899e-05,-9,-1181,-5.45229e-13,-9,-98.3439,-1082.66,3.34
1.4778,1.47636,0.403338,0.0106349,0,4.99279e-07,0.00889687,-8.32663e-06,-9,-1181,-2.42324e-13,-9,-98.3439,-1082.66,3.344
1.4778,1.47636,0.403373,0.0106353,0,3.32852e-07,0.00891435,2.32398e-05,-9,-1182,4.50903e-13,-9,-98.3439,-1083.66,3.348
