peachynonah/Fire_monitor_/csv_datas/trial11/cdsl_data_t11_7.csv
joint1_pos_desired, joint1_pos, joint2_pos_desired, joint2_pos, joint1_vel_desired, joint1_vel_filtered, joint2_vel_desired, joint2_vel_filtered, target_torque_joint1, target_torque_joint2, nonlinear_term_torque_joint1, PD_term_torque_joint1, nonlinear_term_torque_joint2, PD_term_torque_joint2, current_time
1.4778,1.47636,0.6089,0.21582,0,0,0.0999999,0,-9,-1255,0,-9,-96.0678,-1158.93,0.004
1.4778,1.47636,0.6093,0.21582,0,-2.87909e-05,0.0999996,0,-9,-1256,-0,-9,-96.0678,-1159.93,0.008
1.4778,1.47636,0.6097,0.215826,0,9.59697e-06,0.0999991,0.000489446,-9,-1257,5.38585e-09,-9,-96.0677,-1160.93,0.012
1.4778,1.47636,0.6101,0.215914,0,6.39798e-06,0.0999984,0.00766798,-9,-1252,5.62737e-08,-9,-96.0659,-1155.93,0.016
1.4778,1.47636,0.6105,0.216106,0,3.30562e-05,0.0999975,0.0211485,-9,-1241,8.02561e-07,-9,-96.0618,-1144.94,0.02
1.4778,1.47636,0.6109,0.216395,0,-6.75343e-06,0.0999964,0.0381107,-9,-1228,-2.9584e-07,-9,-96.0557,-1131.94,0.024
1.4778,1.47636,0.6113,0.21678,0,-4.50228e-06,0.0999951,0.057509,-9,-1212,-2.98111e-07,-9,-96.0476,-1115.95,0.028
1.4778,1.47636,0.6117,0.217253,0,-3.00152e-06,0.0999937,0.0777829,-9,-1195,-2.69353e-07,-9,-96.0376,-1098.96,0.032
1.4778,1.47636,0.6121,0.217806,0,2.67899e-05,0.099992,0.0979207,-9,-1178,3.03372e-06,-9,-96.0258,-1081.97,0.036
1.4778,1.47636,0.6125,0.218419,0,-1.0931e-05,0.0999901,0.116413,-9,-1162,-1.47548e-06,-9,-96.0128,-1065.99,0.04
1.4778,1.47636,0.6129,0.219082,0,-7.28732e-06,0.099988,0.132859,-9,-1148,-1.1258e-06,-9,-95.9986,-1052,0.044
1.4778,1.47636,0.6133,0.219795,0,-4.85822e-06,0.0999858,0.14791,-9,-1135,-8.38103e-07,-9,-95.9834,-1039.02,0.048
1.4778,1.47636,0.6137,0.220522,0,2.55521e-05,0.0999833,0.159241,-9,-1124,4.76041e-06,-9,-95.9677,-1028.03,0.052
1.4778,1.47636,0.6141,0.221277,0,1.70347e-05,0.0999806,0.169069,-9,-1115,3.38024e-06,-9,-95.9515,-1019.05,0.056
1.4778,1.47636,0.6145,0.222018,0,-1.74344e-05,0.0999778,0.174498,-9,-1110,-3.58182e-06,-9,-95.9354,-1014.06,0.06
1.4778,1.47636,0.614899,0.222748,0,1.7168e-05,0.0999747,0.177109,-9,-1107,3.59084e-06,-9,-95.9196,-1011.08,0.064
1.4778,1.47636,0.615299,0.223456,0,-1.73456e-05,0.0999715,0.177094,-9,-1106,-3.63844e-06,-9,-95.9042,-1010.1,0.068
1.4778,1.47636,0.615699,0.224151,0,-1.15637e-05,0.0999681,0.175961,-9,-1106,-2.41709e-06,-9,-95.889,-1010.11,0.072
1.4778,1.47636,0.616099,0.224837,0,-7.70916e-06,0.0999644,0.174458,-9,-1106,-1.60218e-06,-9,-95.874,-1010.13,0.076
1.4778,1.47636,0.616499,0.225527,0,2.36515e-05,0.0999606,0.173858,-9,-1106,4.91256e-06,-9,-95.8589,-1010.14,0.08
1.4778,1.47636,0.616899,0.226222,0,1.57677e-05,0.0999566,0.173804,-9,-1105,3.28341e-06,-9,-95.8436,-1009.16,0.084
1.4778,1.47636,0.617299,0.226927,0,1.05118e-05,0.0999524,0.174632,-9,-1104,2.20574e-06,-9,-95.828,-1008.17,0.088
1.4778,1.47636,0.617698,0.227619,0,7.00785e-06,0.099948,0.174089,-9,-1103,1.47009e-06,-9,-95.8126,-1007.19,0.092
1.4778,1.47636,0.618098,0.228308,0,4.6719e-06,0.0999434,0.173497,-9,-1103,9.79476e-07,-9,-95.7973,-1007.2,0.096
1.4778,1.47636,0.618498,0.228975,0,-2.56763e-05,0.0999387,0.171174,-9,-1104,-5.32541e-06,-8.99999,-95.7825,-1008.22,0.1
1.4778,1.47636,0.618898,0.22963,0,1.16734e-05,0.0999337,0.168732,-9,-1106,2.39293e-06,-9,-95.7678,-1010.23,0.104
1.4778,1.47636,0.619297,0.230275,0,7.78225e-06,0.0999285,0.16627,-9,-1107,1.57611e-06,-9,-95.7534,-1011.25,0.108
1.4778,1.47636,0.619697,0.23091,0,5.18817e-06,0.0999232,0.163707,-9,-1108,1.03719e-06,-9,-95.7391,-1012.26,0.112
1.4778,1.47636,0.620097,0.231545,0,3.45878e-06,0.0999176,0.162084,-9,-1109,6.86352e-07,-9,-95.7248,-1013.28,0.116
1.4778,1.47636,0.620496,0.232159,0,2.30585e-06,0.0999119,0.159218,-9,-1111,4.50581e-07,-9,-95.7109,-1015.29,0.12
1.4778,1.47636,0.620896,0.232766,0,1.53723e-06,0.099906,0.156702,-9,-1112,2.96357e-07,-9,-95.6972,-1016.3,0.124
1.4778,1.47636,0.621296,0.233351,0,1.02482e-06,0.0998999,0.153269,-9,-1115,1.93693e-07,-9,-95.6839,-1019.32,0.128
1.4778,1.47636,0.621695,0.233928,0,6.83215e-07,0.0998936,0.150202,-9,-1117,1.26835e-07,-9,-95.6707,-1021.33,0.132
1.4778,1.47636,0.622095,0.234489,0,-2.83354e-05,0.0998871,0.14692,-9,-1119,-5.15678e-06,-8.99999,-95.6579,-1023.34,0.136
1.4778,1.47636,0.622494,0.235041,0,9.90063e-06,0.0998804,0.143983,-9,-1121,1.76965e-06,-9,-95.6453,-1025.35,0.14
1.4778,1.47636,0.622894,0.235578,0,6.60042e-06,0.0998735,0.140701,-9,-1123,1.15531e-06,-9,-95.633,-1027.37,0.144
1.4778,1.47636,0.623293,0.236112,0,-2.43906e-05,0.0998665,0.138312,-9,-1125,-4.20553e-06,-9,-95.6207,-1029.38,0.148
1.4778,1.47636,0.623693,0.23664,0,1.25305e-05,0.0998593,0.1362,-9,-1126,2.13197e-06,-9,-95.6085,-1030.39,0.152
1.4778,1.47636,0.624092,0.237161,0,8.35366e-06,0.0998518,0.134188,-9,-1127,1.40316e-06,-9,-95.5965,-1031.4,0.156
1.4778,1.47636,0.624492,0.237667,0,5.56911e-06,0.0998442,0.131695,-9,-1129,9.19875e-07,-9,-95.5848,-1033.42,0.16
1.4778,1.47636,0.624891,0.238168,0,-2.50782e-05,0.0998364,0.129544,-9,-1131,-4.08253e-06,-9,-95.5732,-1035.43,0.164
1.4778,1.47636,0.62529,0.238651,0,1.20721e-05,0.0998284,0.126554,-9,-1133,1.92349e-06,-9,-95.562,-1037.44,0.168
1.4778,1.47636,0.62569,0.239124,0,8.04809e-06,0.0998203,0.123813,-9,-1135,1.25685e-06,-9,-95.551,-1039.45,0.172
1.4778,1.47636,0.626089,0.239589,0,5.36539e-06,0.0998119,0.121266,-9,-1137,8.22131e-07,-9,-95.5401,-1041.46,0.176
1.4778,1.47636,0.626488,0.240047,0,3.57693e-06,0.0998034,0.119021,-9,-1138,5.38888e-07,-9,-95.5294,-1042.47,0.18
1.4778,1.47636,0.626887,0.240498,0,2.38462e-06,0.0997947,0.116977,-9,-1140,3.53702e-07,-9,-95.5189,-1044.48,0.184
1.4778,1.47636,0.627286,0.240958,0,1.58975e-06,0.0997858,0.116277,-9,-1140,2.34802e-07,-9,-95.5081,-1044.49,0.188
1.4778,1.47636,0.627686,0.241389,0,1.05983e-06,0.0997767,0.11342,-9,-1142,1.52941e-07,-9,-95.498,-1046.5,0.192
1.4778,1.47636,0.628085,0.241819,0,7.06554e-07,0.0997674,0.111458,-9,-1144,1.00361e-07,-9,-95.4879,-1048.51,0.196
1.4778,1.47636,0.628484,0.242243,0,4.71036e-07,0.0997579,0.109632,-9,-1145,6.59173e-08,-9,-95.4779,-1049.52,0.2
1.4778,1.47636,0.628883,0.242661,0,3.14024e-07,0.0997483,0.107925,-9,-1147,4.33294e-08,-9,-95.468,-1051.53,0.204
1.4778,1.47636,0.629282,0.243071,0,2.09349e-07,0.0997385,0.106125,-9,-1148,2.84486e-08,-9,-95.4583,-1052.54,0.208
1.4778,1.47636,0.629681,0.243474,0,1.39566e-07,0.0997285,0.10432,-9,-1150,1.86716e-08,-9,-95.4488,-1054.55,0.212
1.4778,1.47636,0.63008,0.243859,0,9.30441e-08,0.0997183,0.101677,-9,-1152,1.21501e-08,-9,-95.4396,-1056.56,0.216
1.4778,1.47636,0.630478,0.24424,0,6.20294e-08,0.0997079,0.0995413,-9,-1154,7.94129e-09,-9,-95.4305,-1058.57,0.22
1.4778,1.47636,0.630877,0.244608,0,4.13529e-08,0.0996974,0.0970232,-9,-1156,5.16741e-09,-9,-95.4218,-1060.58,0.224
1.4778,1.47636,0.631276,0.244967,0,2.75686e-08,0.0996866,0.0945383,-9,-1158,3.36123e-09,-9,-95.4132,-1062.59,0.228
1.4778,1.47636,0.631675,0.245312,0,1.83791e-08,0.0996757,0.0917877,-9,-1160,2.17844e-09,-9,-95.405,-1064.59,0.232
1.4778,1.47636,0.632073,0.245645,0,1.22527e-08,0.0996646,0.0889462,-9,-1163,1.40909e-09,-9,-95.3971,-1067.6,0.236
1.4778,1.47636,0.632472,0.245965,0,8.16848e-09,0.0996533,0.0860155,-9,-1165,9.09527e-10,-9,-95.3894,-1069.61,0.24
1.4778,1.47636,0.632871,0.246273,0,5.44566e-09,0.0996419,0.0829388,-9,-1168,5.85333e-10,-9,-95.382,-1072.62,0.244
1.4778,1.47636,0.633269,0.246562,0,3.63044e-09,0.0996303,0.0793905,-9,-1171,3.7393e-10,-9,-95.3751,-1075.62,0.248
1.4778,1.47636,0.633668,0.246834,0,2.42029e-09,0.0996184,0.0756431,-9,-1175,2.3776e-10,-9,-95.3685,-1079.63,0.252
1.4778,1.47636,0.634066,0.247091,0,1.61353e-09,0.0996064,0.0718204,-9,-1178,1.5064e-10,-9,-95.3624,-1082.64,0.256
1.4778,1.47636,0.634465,0.24733,0,-2.87898e-05,0.0995943,0.0677748,-9,-1182,-2.53869e-06,-9,-95.3566,-1086.64,0.26
1.4778,1.47636,0.634863,0.247552,0,9.59769e-06,0.0995819,0.0636957,-9,-1186,7.96043e-07,-9,-95.3513,-1090.65,0.264
1.4778,1.47636,0.635261,0.247762,0,6.39846e-06,0.0995694,0.0599399,-9,-1189,4.99791e-07,-9,-95.3462,-1093.65,0.268
1.4778,1.47636,0.635659,0.247957,0,4.26564e-06,0.0995567,0.0562268,-9,-1193,3.12779e-07,-9,-95.3415,-1097.66,0.272
1.4778,1.47636,0.636058,0.248137,0,2.84376e-06,0.0995438,0.0524846,-9,-1197,1.94771e-07,-9,-95.3372,-1101.66,0.276
1.4778,1.47636,0.636456,0.248299,0,1.89584e-06,0.0995308,0.0484927,-9,-1201,1.20043e-07,-9,-95.3332,-1105.67,0.28
1.4778,1.47636,0.636854,0.248451,0,1.26389e-06,0.0995175,0.0449965,-9,-1204,7.43004e-08,-9,-95.3296,-1108.67,0.284
1.4778,1.47636,0.637252,0.248587,0,8.42596e-07,0.0995041,0.0413413,-9,-1208,4.55327e-08,-9,-95.3263,-1112.67,0.288
1.4778,1.47636,0.63765,0.248707,0,5.6173e-07,0.0994905,0.0375513,-9,-1212,2.75845e-08,-9,-95.3234,-1116.68,0.292
1.4778,1.47636,0.638048,0.248812,0,3.74487e-07,0.0994768,0.0338154,-9,-1216,1.65666e-08,-9,-95.3208,-1120.68,0.296
1.4778,1.47636,0.638446,0.248902,0,2.49658e-07,0.0994628,0.0300005,-9,-1220,9.80161e-09,-9,-95.3186,-1124.68,0.3
1.4778,1.47636,0.638844,0.248975,0,1.66439e-07,0.0994487,0.0261328,-9,-1224,5.69352e-09,-9,-95.3169,-1128.68,0.304
1.4778,1.47636,0.639241,0.24903,0,1.10959e-07,0.0994344,0.0219996,-9,-1228,3.196e-09,-9,-95.3155,-1132.68,0.308
1.4778,1.47636,0.639639,0.249065,0,7.39727e-08,0.0994199,0.0175743,-9,-1233,1.70229e-09,-9,-95.3147,-1137.69,0.312
1.4778,1.47636,0.640037,0.249077,0,4.93152e-08,0.0994053,0.0126951,-9,-1238,8.19822e-10,-9,-95.3144,-1142.69,0.316
1.4778,1.47636,0.640434,0.249077,0,3.28768e-08,0.0993905,0.00846339,-9,-1242,3.64365e-10,-9,-95.3144,-1146.69,0.32
1.4778,1.47636,0.640832,0.249077,0,2.19178e-08,0.0993755,0.00564226,-9,-1246,1.6194e-10,-9,-95.3144,-1150.69,0.324
1.4778,1.47636,0.641229,0.249077,0,1.46119e-08,0.0993603,0.00376151,-9,-1248,7.19734e-11,-9,-95.3144,-1152.69,0.328
1.4778,1.47636,0.641627,0.249077,0,9.74127e-09,0.099345,0.00250767,-9,-1250,3.19882e-11,-9,-95.3144,-1154.69,0.332
1.4778,1.47636,0.642024,0.249077,0,6.49418e-09,0.0993295,0.00167178,-9,-1252,1.4217e-11,-9,-95.3144,-1156.69,0.336
1.4778,1.47636,0.642421,0.249077,0,4.32945e-09,0.0993138,0.00111452,-9,-1254,6.31865e-12,-9,-95.3144,-1158.69,0.34
1.4778,1.47636,0.642819,0.249077,0,2.8863e-09,0.099298,0.000743014,-9,-1255,2.80829e-12,-9,-95.3144,-1159.69,0.344
1.4778,1.47636,0.643216,0.249077,0,1.9242e-09,0.0992819,0.000495342,-9,-1256,1.24813e-12,-9,-95.3144,-1160.69,0.348
1.4778,1.47636,0.643613,0.249077,0,1.2828e-09,0.0992657,0.000330228,-9,-1257,5.54724e-13,-9,-95.3144,-1161.69,0.352
1.4778,1.47636,0.64401,0.249077,0,8.552e-10,0.0992494,0.000220152,-9,-1259,2.46544e-13,-9,-95.3144,-1163.69,0.356
1.4778,1.47636,0.644407,0.249077,0,5.70134e-10,0.0992328,0.000146768,-9,-1260,1.09575e-13,-9,-95.3144,-1164.69,0.36
1.4778,1.47636,0.644804,0.249077,0,3.80089e-10,0.0992161,9.78454e-05,-9,-1261,4.87e-14,-9,-95.3144,-1165.69,0.364
1.4778,1.47636,0.645201,0.249077,0,2.53393e-10,0.0991993,6.52303e-05,-9,-1262,2.16445e-14,-9,-95.3144,-1166.69,0.368
1.4778,1.47636,0.645597,0.249077,0,1.68928e-10,0.0991822,4.34869e-05,-9,-1263,9.61976e-15,-9,-95.3144,-1167.69,0.372
1.4778,1.47636,0.645994,0.249077,0,1.12619e-10,0.099165,2.89912e-05,-9,-1264,4.27545e-15,-9,-95.3144,-1168.69,0.376
1.4778,1.47636,0.646391,0.249077,0,7.50793e-11,0.0991476,1.93275e-05,-9,-1265,1.9002e-15,-9,-95.3144,-1169.69,0.38
1.4778,1.47636,0.646787,0.249077,0,5.00529e-11,0.09913,1.2885e-05,-9,-1266,8.44533e-16,-9,-95.3144,-1170.69,0.384
1.4778,1.47636,0.647184,0.249077,0,3.33686e-11,0.0991123,8.59e-06,-9,-1267,3.75348e-16,-9,-95.3144,-1171.69,0.388
1.4778,1.47636,0.64758,0.249077,0,2.22457e-11,0.0990944,5.72666e-06,-9,-1268,1.66821e-16,-9,-95.3144,-1172.69,0.392
1.4778,1.47636,0.647976,0.249077,0,1.48305e-11,0.0990764,3.81778e-06,-9,-1270,7.41428e-17,-9,-95.3144,-1174.69,0.396
1.4778,1.47636,0.648373,0.249077,0,9.88699e-12,0.0990581,2.54518e-06,-9,-1271,3.29524e-17,-9,-95.3144,-1175.69,0.4
1.4778,1.47636,0.648769,0.249077,0,6.59133e-12,0.0990397,1.69679e-06,-9,-1272,1.46455e-17,-9,-95.3144,-1176.69,0.404
1.4778,1.47636,0.649165,0.249077,0,4.39422e-12,0.0990212,1.13119e-06,-9,-1273,6.50911e-18,-9,-95.3144,-1177.69,0.408
1.4778,1.47636,0.649561,0.249077,0,2.92948e-12,0.0990024,7.54129e-07,-9,-1274,2.89294e-18,-9,-95.3144,-1178.69,0.412
1.4778,1.47636,0.649957,0.249077,0,1.95299e-12,0.0989835,5.02752e-07,-9,-1275,1.28575e-18,-9,-95.3144,-1179.69,0.416
1.4778,1.47636,0.650353,0.249077,0,1.30199e-12,0.0989645,3.35168e-07,-9,-1276,5.71445e-19,-9,-95.3144,-1180.69,0.42
1.4778,1.47636,0.650749,0.249077,0,8.67993e-13,0.0989452,2.23446e-07,-9,-1277,2.53975e-19,-9,-95.3144,-1181.69,0.424
1.4778,1.47636,0.651144,0.249077,0,5.78662e-13,0.0989259,1.48964e-07,-9,-1278,1.12878e-19,-9,-95.3144,-1182.69,0.428
1.4778,1.47636,0.65154,0.249077,0,3.85775e-13,0.0989063,9.93091e-08,-9,-1279,5.0168e-20,-9,-95.3144,-1183.69,0.432
1.4778,1.47636,0.651936,0.249077,0,2.57183e-13,0.0988866,6.62061e-08,-9,-1280,2.22969e-20,-9,-95.3144,-1184.69,0.436
1.4778,1.47636,0.652331,0.249077,0,1.71455e-13,0.0988667,4.41374e-08,-9,-1281,9.90972e-21,-9,-95.3144,-1185.69,0.44
1.4778,1.47636,0.652727,0.249077,0,1.14304e-13,0.0988466,2.94249e-08,-9,-1282,4.40432e-21,-9,-95.3144,-1186.69,0.444
1.4778,1.47636,0.653122,0.249077,0,7.62024e-14,0.0988264,1.96166e-08,-9,-1283,1.95748e-21,-9,-95.3144,-1187.69,0.448
1.4778,1.47636,0.653517,0.249077,0,5.08016e-14,0.098806,1.30777e-08,-9,-1284,8.69989e-22,-9,-95.3144,-1188.69,0.452
1.4778,1.47636,0.653912,0.249077,0,3.38678e-14,0.0987855,8.7185e-09,-9,-1286,3.86662e-22,-9,-95.3144,-1190.69,0.456
1.4778,1.47636,0.654308,0.249077,0,2.25785e-14,0.0987647,5.81233e-09,-9,-1287,1.7185e-22,-9,-95.3144,-1191.69,0.46
1.4778,1.47636,0.654703,0.249077,0,1.50523e-14,0.0987439,3.87489e-09,-9,-1288,7.63777e-23,-9,-95.3144,-1192.69,0.464
1.4778,1.47636,0.655097,0.249077,0,1.00349e-14,0.0987228,2.58326e-09,-9,-1289,3.39456e-23,-9,-95.3144,-1193.69,0.468
1.4778,1.47636,0.655492,0.249077,0,6.68993e-15,0.0987016,1.72217e-09,-9,-1290,1.50869e-23,-9,-95.3144,-1194.69,0.472
1.4778,1.47636,0.655887,0.249077,0,4.45995e-15,0.0986803,1.14811e-09,-9,-1291,6.70531e-24,-9,-95.3144,-1195.69,0.476
1.4778,1.47636,0.656282,0.249077,0,2.9733e-15,0.0986587,7.6541e-10,-9,-1292,2.98014e-24,-9,-95.3144,-1196.69,0.48
1.4778,1.47636,0.656676,0.249077,0,1.9822e-15,0.0986371,5.10273e-10,-9,-1293,1.32451e-24,-9,-95.3144,-1197.69,0.484
1.4778,1.47636,0.657071,0.249077,0,1.32147e-15,0.0986152,3.40182e-10,-9,-1294,5.88669e-25,-9,-95.3144,-1198.69,0.488
1.4778,1.47636,0.657465,0.249077,0,8.80978e-16,0.0985932,2.26788e-10,-9,-1295,2.61631e-25,-9,-95.3144,-1199.69,0.492
1.4778,1.47636,0.65786,0.249077,0,5.87319e-16,0.098571,1.51192e-10,-9,-1296,1.1628e-25,-9,-95.3144,-1200.69,0.496
1.4778,1.47636,0.658254,0.249077,0,3.91546e-16,0.0985487,1.00795e-10,-9,-1297,5.16801e-26,-9,-95.3144,-1201.69,0.5
1.4778,1.47636,0.658648,0.249077,0,2.61031e-16,0.0985262,6.71965e-11,-9,-1298,2.2969e-26,-9,-95.3144,-1202.69,0.504
1.4778,1.47636,0.659042,0.249077,0,1.7402e-16,0.0985036,4.47976e-11,-9,-1299,1.02084e-26,-9,-95.3144,-1203.69,0.508
1.4778,1.47636,0.659436,0.249077,0,1.16014e-16,0.0984808,2.98651e-11,-9,-1300,4.53708e-27,-9,-95.3144,-1204.69,0.512
1.4778,1.47636,0.65983,0.249077,0,7.73424e-17,0.0984578,1.99101e-11,-9,-1301,2.01648e-27,-9,-95.3144,-1205.69,0.516
1.4778,1.47636,0.660224,0.249077,0,5.15616e-17,0.0984347,1.32734e-11,-9,-1303,8.96213e-28,-9,-95.3144,-1207.69,0.52
1.4778,1.47636,0.660617,0.249077,0,3.43744e-17,0.0984114,8.84892e-12,-9,-1304,3.98317e-28,-9,-95.3144,-1208.69,0.524
1.4778,1.47636,0.661011,0.249077,0,2.29163e-17,0.0983879,5.89928e-12,-9,-1305,1.7703e-28,-9,-95.3144,-1209.69,0.528
1.4778,1.47636,0.661404,0.249077,0,1.52775e-17,0.0983643,3.93285e-12,-9,-1306,7.86799e-29,-9,-95.3144,-1210.69,0.532
1.4778,1.47636,0.661798,0.249077,0,1.0185e-17,0.0983406,2.6219e-12,-9,-1307,3.49688e-29,-9,-95.3144,-1211.69,0.536
1.4778,1.47636,0.662191,0.249077,0,6.79e-18,0.0983167,1.74793e-12,-9,-1308,1.55417e-29,-9,-95.3144,-1212.69,0.54
1.4778,1.47636,0.662584,0.249077,0,4.52667e-18,0.0982926,1.16529e-12,-9,-1309,6.90742e-30,-9,-95.3144,-1213.69,0.544
1.4778,1.47636,0.662978,0.249077,0,3.01778e-18,0.0982684,2.87909e-05,-9,-1310,1.13775e-22,-9,-95.3144,-1214.69,0.548
1.4778,1.47636,0.663371,0.249077,0,2.01185e-18,0.098244,1.9194e-05,-9,-1311,5.05667e-23,-9,-95.3144,-1215.69,0.552
1.4778,1.47636,0.663764,0.249077,0,1.34124e-18,0.0982194,1.2796e-05,-9,-1312,2.24741e-23,-9,-95.3144,-1216.69,0.556
1.4778,1.47636,0.664156,0.249077,0,8.94157e-19,0.0981947,8.53064e-06,-9,-1313,9.98848e-24,-9,-95.3144,-1217.69,0.56
1.4778,1.47636,0.664549,0.249077,0,5.96104e-19,0.0981699,5.6871e-06,-9,-1314,4.43933e-24,-9,-95.3144,-1218.69,0.564
1.4778,1.47636,0.664942,0.249077,0,3.97403e-19,0.0981449,3.7914e-06,-9,-1315,1.97303e-24,-9,-95.3144,-1219.69,0.568
1.4778,1.47636,0.665334,0.249077,0,2.64935e-19,0.0981197,2.5276e-06,-9,-1316,8.76904e-25,-9,-95.3144,-1220.69,0.572
1.4778,1.47636,0.665727,0.249077,0,1.76624e-19,0.0980944,1.68507e-06,-9,-1317,3.89735e-25,-9,-95.3144,-1221.69,0.576
1.4778,1.47636,0.666119,0.249077,0,1.17749e-19,0.0980689,1.12338e-06,-9,-1318,1.73216e-25,-9,-95.3144,-1222.69,0.58
1.4778,1.47636,0.666511,0.249077,0,7.84994e-20,0.0980433,7.48918e-07,-9,-1319,7.69847e-26,-9,-95.3144,-1223.69,0.584
1.4778,1.47636,0.666903,0.249077,0,5.23329e-20,0.0980175,4.99279e-07,-9,-1320,3.42154e-26,-9,-95.3144,-1224.69,0.588
1.4778,1.47636,0.667295,0.249077,0,3.48886e-20,0.0979916,3.32852e-07,-9,-1322,1.52069e-26,-9,-95.3144,-1226.69,0.592
1.4778,1.47636,0.667687,0.249077,0,2.32591e-20,0.0979655,2.21902e-07,-9,-1323,6.7586e-27,-9,-95.3144,-1227.69,0.596
1.4778,1.47636,0.668079,0.249077,0,1.5506e-20,0.0979392,1.47934e-07,-9,-1324,3.00382e-27,-9,-95.3144,-1228.69,0.6
1.4778,1.47636,0.668471,0.249077,0,1.03374e-20,0.0979128,9.8623e-08,-9,-1325,1.33503e-27,-9,-95.3144,-1229.69,0.604
1.4778,1.47636,0.668862,0.249077,0,6.89158e-21,0.0978863,6.57486e-08,-9,-1326,5.93348e-28,-9,-95.3144,-1230.69,0.608
1.4778,1.47636,0.669254,0.249077,0,4.59438e-21,0.0978596,4.38324e-08,-9,-1327,2.6371e-28,-9,-95.3144,-1231.69,0.612
1.4778,1.47636,0.669645,0.249077,0,3.06292e-21,0.0978328,2.92216e-08,-9,-1328,1.17205e-28,-9,-95.3144,-1232.69,0.616
1.4778,1.47636,0.670037,0.249077,0,2.04195e-21,0.0978058,1.94811e-08,-9,-1329,5.20909e-29,-9,-95.3144,-1233.69,0.62
1.4778,1.47636,0.670428,0.249077,0,1.3613e-21,0.0977786,1.29874e-08,-9,-1330,2.31515e-29,-9,-95.3144,-1234.69,0.624
1.4778,1.47636,0.670819,0.249077,0,9.07533e-22,0.0977513,8.65826e-09,-9,-1331,1.02896e-29,-9,-95.3144,-1235.69,0.628
1.4778,1.47636,0.67121,0.249077,0,6.05022e-22,0.0977238,5.77217e-09,-9,-1332,4.57314e-30,-9,-95.3144,-1236.69,0.632
1.4778,1.47636,0.671601,0.249078,0,4.03348e-22,0.0976962,2.87948e-05,-9,-1333,1.52089e-26,-9,-95.3144,-1237.69,0.636
1.4778,1.47636,0.671991,0.249078,0,-2.87909e-05,0.0976685,1.91965e-05,-9,-1334,-7.2374e-10,-9,-95.3144,-1238.69,0.64
1.4778,1.47636,0.672382,0.249078,0,9.59697e-06,0.0976406,1.27977e-05,-9,-1335,1.60831e-10,-9,-95.3144,-1239.69,0.644
1.4778,1.47636,0.672772,0.249078,0,6.39798e-06,0.0976125,8.53178e-06,-9,-1336,7.14805e-11,-9,-95.3144,-1240.69,0.648
1.4778,1.47636,0.673163,0.249078,0,4.26532e-06,0.0975843,5.68786e-06,-9,-1337,3.17691e-11,-9,-95.3144,-1241.69,0.652
1.4778,1.47636,0.673553,0.249078,0,2.84355e-06,0.097556,3.7919e-06,-9,-1338,1.41196e-11,-9,-95.3144,-1242.69,0.656
1.4778,1.47636,0.673943,0.249078,0,1.8957e-06,0.0975275,2.52794e-06,-9,-1339,6.27538e-12,-9,-95.3144,-1243.69,0.66
1.4778,1.47636,0.674333,0.249078,0,1.2638e-06,0.0974988,1.68529e-06,-9,-1340,2.78906e-12,-9,-95.3144,-1244.69,0.664
1.4778,1.47636,0.674723,0.249078,0,8.42533e-07,0.09747,1.12353e-06,-9,-1341,1.23958e-12,-9,-95.3144,-1245.69,0.668
1.4778,1.47636,0.675113,0.249078,0,5.61689e-07,0.0974411,7.49018e-07,-9,-1343,5.50925e-13,-9,-95.3144,-1247.69,0.672
1.4778,1.47636,0.675503,0.249078,0,3.74459e-07,0.097412,4.99345e-07,-9,-1344,2.44856e-13,-9,-95.3144,-1248.69,0.676
1.4778,1.47636,0.675892,0.249078,0,2.49639e-07,0.0973828,3.32897e-07,-9,-1345,1.08825e-13,-9,-95.3144,-1249.69,0.68
1.4778,1.47636,0.676282,0.249078,0,1.66426e-07,0.0973534,2.21931e-07,-9,-1346,4.83665e-14,-9,-95.3144,-1250.69,0.684
1.4778,1.47636,0.676671,0.249078,0,1.10951e-07,0.0973238,1.47954e-07,-9,-1347,2.14962e-14,-9,-95.3144,-1251.69,0.688
1.4778,1.47636,0.67706,0.249078,0,7.39672e-08,0.0972942,9.86361e-08,-9,-1348,9.55388e-15,-9,-95.3144,-1252.69,0.692
1.4778,1.47636,0.67745,0.249078,0,4.93115e-08,0.0972643,2.88567e-05,-9,-1349,1.86337e-12,-9,-95.3144,-1253.69,0.696
1.4778,1.47636,0.677839,0.249078,0,3.28743e-08,0.0972344,-9.55314e-06,-9,-1350,-4.11251e-13,-9,-95.3144,-1254.69,0.7
1.4778,1.47636,0.678227,0.249078,0,2.19162e-08,0.0972043,2.24222e-05,-9,-1351,6.435e-13,-9,-95.3144,-1255.69,0.704
1.4778,1.47636,0.678616,0.249078,0,1.46108e-08,0.097174,1.49481e-05,-9,-1352,2.86e-13,-9,-95.3144,-1256.69,0.708
1.4778,1.47636,0.679005,0.249078,0,9.74054e-09,0.0971436,9.96541e-06,-9,-1353,1.27111e-13,-9,-95.3144,-1257.69,0.712
1.4778,1.47636,0.679393,0.249078,0,6.49369e-09,0.097113,6.64361e-06,-9,-1354,5.64938e-14,-9,-95.3144,-1258.69,0.716
1.4778,1.47636,0.679782,0.249078,0,4.32913e-09,0.0970824,4.42907e-06,-9,-1355,2.51084e-14,-9,-95.3144,-1259.69,0.72
1.4778,1.47636,0.68017,0.249078,0,2.88609e-09,0.0970515,2.95271e-06,-9,-1356,1.11593e-14,-9,-95.3144,-1260.69,0.724
1.4778,1.47636,0.680558,0.249078,0,1.92406e-09,0.0970205,1.96848e-06,-9,-1357,4.95967e-15,-9,-95.3144,-1261.69,0.728
1.4778,1.47636,0.680946,0.249078,0,1.2827e-09,0.0969894,1.31232e-06,-9,-1358,2.2043e-15,-9,-95.3144,-1262.69,0.732
1.4778,1.47636,0.681334,0.249078,0,8.55136e-10,0.0969581,8.74878e-07,-9,-1359,9.79689e-16,-9,-95.3144,-1263.69,0.736
1.4778,1.47636,0.681722,0.249078,0,5.70091e-10,0.0969267,5.83252e-07,-9,-1360,4.35417e-16,-9,-95.3144,-1264.69,0.74
1.4778,1.47636,0.682109,0.249078,0,3.80061e-10,0.0968952,3.88835e-07,-9,-1361,1.93519e-16,-9,-95.3144,-1265.69,0.744
1.4778,1.47636,0.682497,0.249078,0,2.53374e-10,0.0968635,2.59223e-07,-9,-1362,8.60083e-17,-9,-95.3144,-1266.69,0.748
1.4778,1.47636,0.682884,0.249078,0,1.68916e-10,0.0968317,1.72815e-07,-9,-1363,3.82259e-17,-9,-95.3144,-1267.69,0.752
1.4778,1.47636,0.683272,0.249079,0,1.12611e-10,0.0967997,5.76971e-05,-9,-1364,8.50823e-15,-9,-95.3144,-1268.69,0.756
1.4778,1.47636,0.683659,0.249078,0,7.50737e-11,0.0967676,9.67378e-06,-9,-1365,9.5102e-16,-9,-95.3144,-1269.69,0.76
1.4778,1.47636,0.684046,0.249079,0,5.00491e-11,0.0967353,3.52401e-05,-9,-1366,2.30962e-15,-9,-95.3144,-1270.69,0.764
1.4778,1.47636,0.684433,0.249078,0,3.33661e-11,0.0967029,-5.29752e-06,-9,-1367,-2.31464e-16,-9,-95.3144,-1271.69,0.768
1.4778,1.47636,0.684819,0.249078,0,2.22441e-11,0.0966704,-3.53168e-06,-9,-1368,-1.02873e-16,-9,-95.3144,-1272.69,0.772
1.4778,1.47636,0.685206,0.249078,0,1.48294e-11,0.0966377,-2.35445e-06,-9,-1370,-4.57213e-17,-9,-95.3144,-1274.69,0.776
1.4778,1.47636,0.685592,0.249078,0,9.88625e-12,0.0966049,-1.56963e-06,-9,-1371,-2.03206e-17,-9,-95.3144,-1275.69,0.78
1.4778,1.47636,0.685979,0.249078,0,6.59083e-12,0.0965719,-1.04642e-06,-9,-1372,-9.03136e-18,-9,-95.3144,-1276.69,0.784
1.4778,1.47636,0.686365,0.249078,0,4.39389e-12,0.0965388,-6.97615e-07,-9,-1373,-4.01394e-18,-9,-95.3144,-1277.69,0.788
1.4778,1.47636,0.686751,0.249078,0,2.92926e-12,0.0965056,-4.65077e-07,-9,-1374,-1.78397e-18,-9,-95.3144,-1278.69,0.792
1.4778,1.47636,0.687137,0.249078,0,1.95284e-12,0.0964722,-3.10051e-07,-9,-1375,-7.92877e-19,-9,-95.3144,-1279.69,0.796
1.4778,1.47636,0.687523,0.249078,0,1.30189e-12,0.0964387,-2.06701e-07,-9,-1376,-3.5239e-19,-9,-95.3144,-1280.69,0.8
1.4778,1.47636,0.687909,0.249078,0,8.67929e-13,0.096405,-1.37801e-07,-9,-1377,-1.56618e-19,-9,-95.3144,-1281.69,0.804
1.4778,1.47636,0.688294,0.249078,0,5.78619e-13,0.0963712,-9.1867e-08,-9,-1378,-6.96078e-20,-9,-95.3144,-1282.69,0.808
1.4778,1.47636,0.68868,0.249079,0,3.85746e-13,0.0963373,2.87297e-05,-9,-1379,1.45124e-17,-9,-95.3144,-1283.69,0.812
1.4778,1.47636,0.689065,0.249078,0,2.57164e-13,0.0963032,-3.84287e-05,-9,-1380,-1.29411e-17,-9,-95.3144,-1284.69,0.816
1.4778,1.47636,0.68945,0.249079,0,1.71443e-13,0.096269,3.19627e-05,-9,-1381,7.17577e-18,-9,-95.3144,-1285.69,0.82
1.4778,1.47636,0.689835,0.249079,0,1.14295e-13,0.0962347,2.13085e-05,-9,-1382,3.18923e-18,-9,-95.3144,-1286.69,0.824
1.4778,1.47636,0.69022,0.249079,0,7.61967e-14,0.0962002,1.42056e-05,-9,-1383,1.41744e-18,-9,-95.3144,-1287.69,0.828
1.4778,1.47636,0.690605,0.249079,0,5.07978e-14,0.0961656,9.47043e-06,-9,-1384,6.29972e-19,-9,-95.3144,-1288.69,0.832
1.4778,1.47636,0.690989,0.249079,0,3.38652e-14,0.0961308,6.31362e-06,-9,-1385,2.79987e-19,-9,-95.3144,-1289.69,0.836
1.4778,1.47636,0.691374,0.249079,0,2.25768e-14,0.096096,4.20908e-06,-9,-1386,1.24439e-19,-9,-95.3144,-1290.69,0.84
1.4778,1.47636,0.691758,0.249079,0,1.50512e-14,0.0960609,2.80605e-06,-9,-1387,5.53062e-20,-9,-95.3144,-1291.69,0.844
1.4778,1.47636,0.692142,0.249079,0,1.00341e-14,0.0960258,1.8707e-06,-9,-1388,2.45805e-20,-9,-95.3144,-1292.69,0.848
1.4778,1.47636,0.692526,0.249079,0,6.68943e-15,0.0959905,1.24713e-06,-9,-1389,1.09247e-20,-9,-95.3144,-1293.69,0.852
1.4778,1.47636,0.69291,0.249079,0,4.45962e-15,0.0959551,2.96223e-05,-9,-1390,1.72991e-19,-9,-95.3144,-1294.69,0.856
1.4778,1.47636,0.693294,0.249078,0,2.97308e-15,0.0959195,-3.78336e-05,-9,-1391,-1.47296e-19,-9,-95.3144,-1295.69,0.86
1.4778,1.47636,0.693677,0.249079,0,1.98205e-15,0.0958838,3.23594e-05,-9,-1392,8.39891e-20,-9,-95.3144,-1296.69,0.864
1.4778,1.47636,0.694061,0.249079,0,1.32137e-15,0.095848,2.1573e-05,-9,-1393,3.73285e-20,-9,-95.3144,-1297.69,0.868
1.4778,1.47636,0.694444,0.249079,0,8.80912e-16,0.095812,1.4382e-05,-9,-1394,1.65904e-20,-9,-95.3144,-1298.69,0.872
1.4778,1.47636,0.694827,0.249079,0,5.87275e-16,0.0957759,9.58798e-06,-9,-1395,7.37353e-21,-9,-95.3144,-1299.69,0.876
1.4778,1.47636,0.69521,0.249079,0,3.91517e-16,0.0957397,6.39199e-06,-9,-1396,3.27712e-21,-9,-95.3144,-1300.69,0.88
1.4778,1.47636,0.695593,0.249079,0,2.61011e-16,0.0957034,4.26133e-06,-9,-1397,1.4565e-21,-9,-95.3144,-1301.69,0.884
1.4778,1.47636,0.695976,0.249079,0,1.74007e-16,0.0956669,2.84088e-06,-9,-1398,6.47333e-22,-9,-95.3144,-1302.69,0.888
1.4778,1.47636,0.696359,0.24908,0,1.16005e-16,0.0956302,5.94758e-05,-9,-1399,9.03492e-21,-9,-95.3143,-1303.69,0.892
1.4778,1.47636,0.696741,0.24908,0,7.73366e-17,0.0955935,3.96505e-05,-9,-1400,4.01552e-21,-9,-95.3143,-1304.69,0.896
1.4778,1.47636,0.697123,0.249079,0,5.15577e-17,0.0955566,-2.35725e-06,-9,-1401,-1.5915e-22,-9,-95.3143,-1305.69,0.9
1.4778,1.47636,0.697506,0.249079,0,3.43718e-17,0.0955196,-1.5715e-06,-9,-1402,-7.07333e-23,-9,-95.3143,-1306.69,0.904
1.4778,1.47636,0.697888,0.249079,0,2.29145e-17,0.0954824,-1.04767e-06,-9,-1403,-3.1437e-23,-9,-95.3143,-1307.69,0.908
1.4778,1.47636,0.698269,0.249079,0,1.52764e-17,0.0954452,-6.98444e-07,-9,-1404,-1.3972e-23,-9,-95.3143,-1308.69,0.912
1.4778,1.47636,0.698651,0.249079,0,1.01842e-17,0.0954078,-4.65629e-07,-9,-1405,-6.20978e-24,-9,-95.3143,-1309.69,0.916
1.4778,1.47636,0.699033,0.249079,0,6.7895e-18,0.0953702,-3.1042e-07,-9,-1406,-2.7599e-24,-9,-95.3143,-1310.69,0.92
1.4778,1.47636,0.699414,0.249079,0,4.52633e-18,0.0953325,-2.89979e-05,-9,-1407,-1.71878e-22,-9,-95.3144,-1311.69,0.924
1.4778,1.47636,0.699795,0.24908,0,3.01755e-18,0.0952948,6.70409e-05,-9,-1408,2.64913e-22,-9,-95.3143,-1312.69,0.928
1.4778,1.47636,0.700176,0.24908,0,2.0117e-18,0.0952568,1.5903e-05,-9,-1409,4.18938e-23,-9,-95.3143,-1313.69,0.932
1.4778,1.47636,0.700557,0.24908,0,1.34113e-18,0.0952188,1.0602e-05,-9,-1410,1.86195e-23,-9,-95.3143,-1314.69,0.936
1.4778,1.47636,0.700938,0.24908,0,8.9409e-19,0.0951806,7.06799e-06,-9,-1411,8.27533e-24,-9,-95.3143,-1315.69,0.94
1.4778,1.47636,0.701319,0.24908,0,5.9606e-19,0.0951423,4.71199e-06,-9,-1412,3.67792e-24,-9,-95.3143,-1316.69,0.944
1.4778,1.47636,0.701699,0.24908,0,3.97373e-19,0.0951038,3.19323e-05,-9,-1413,1.66164e-23,-9,-95.3143,-1317.69,0.948
1.4778,1.47636,0.70208,0.24908,0,2.64916e-19,0.0950653,2.12882e-05,-9,-1414,7.38506e-24,-9,-95.3143,-1318.69,0.952
1.4778,1.47636,0.70246,0.24908,0,1.7661e-19,0.0950266,1.41921e-05,-9,-1415,3.28225e-24,-9,-95.3143,-1319.69,0.956
1.4778,1.47636,0.70284,0.24908,0,1.1774e-19,0.0949877,9.46141e-06,-9,-1416,1.45878e-24,-9,-95.3143,-1320.69,0.96
1.4778,1.47636,0.70322,0.249081,0,7.84935e-20,0.0949488,6.38895e-05,-9,-1417,6.56708e-24,-9,-95.3143,-1321.69,0.964
1.4778,1.47636,0.703599,0.24908,0,5.2329e-20,0.0949097,1.3802e-05,-9,-1418,9.4579e-25,-9,-95.3143,-1322.69,0.968
1.4778,1.47636,0.703979,0.24908,0,3.4886e-20,0.0948705,9.20136e-06,-9,-1419,4.20351e-25,-9,-95.3143,-1323.69,0.972
1.4778,1.47636,0.704358,0.249081,0,2.32573e-20,0.0948312,3.49252e-05,-9,-1420,1.06367e-24,-9,-95.3143,-1324.69,0.976
1.4778,1.47636,0.704738,0.249081,0,1.55049e-20,0.0947917,2.32834e-05,-9,-1422,4.72743e-25,-9,-95.3143,-1326.69,0.98
1.4778,1.47636,0.705117,0.249082,0,1.03366e-20,0.0947522,0.000101895,-9,-1422,1.37925e-24,-9,-95.3143,-1326.69,0.984
1.4778,1.47636,0.705496,0.249083,0,6.89106e-21,0.0947125,0.000154303,-9,-1423,1.39243e-24,-9,-95.3143,-1327.69,0.988
1.4778,1.47636,0.705874,0.249086,0,4.59404e-21,0.0946726,0.000361987,-9,-1424,2.17774e-24,-9,-95.3142,-1328.69,0.992
1.4778,1.47636,0.706253,0.249094,0,3.06269e-21,0.0946327,0.000874725,-9,-1425,3.50837e-24,-9,-95.314,-1329.69,0.996
1.4778,1.47636,0.706632,0.249109,0,2.0418e-21,0.0945926,0.00184995,-9,-1425,4.94683e-24,-9,-95.3136,-1329.69,1
1.4778,1.47636,0.70701,0.249132,0,1.3612e-21,0.0945524,0.0031335,-9,-1425,5.58652e-24,-9,-95.3131,-1329.69,1.004
1.4778,1.47636,0.707388,0.249165,0,9.07465e-22,0.0945121,0.00485293,-9,-1424,5.76869e-24,-9,-95.3123,-1328.69,1.008
1.4778,1.47636,0.707766,0.249209,0,6.04977e-22,0.0944716,0.00692052,-9,-1424,5.48519e-24,-9,-95.3112,-1328.69,1.012
1.4778,1.47636,0.708144,0.249261,0,4.03318e-22,0.094431,0.0089899,-9,-1423,4.75117e-24,-9,-95.3099,-1327.69,1.016
1.4778,1.47636,0.708521,0.249326,0,2.68878e-22,0.0943903,0.011406,-9,-1422,4.01966e-24,-9,-95.3084,-1326.69,1.02
1.4778,1.47636,0.708899,0.249405,0,1.79252e-22,0.0943495,0.0141683,-9,-1420,3.32974e-24,-9,-95.3064,-1324.69,1.024
1.4778,1.47636,0.709276,0.249502,0,1.19502e-22,0.0943086,0.017507,-9,-1418,2.74389e-24,-9,-95.3041,-1322.7,1.028
1.4778,1.47636,0.709653,0.249611,0,7.96677e-23,0.0942675,0.0207693,-9,-1416,2.17099e-24,-9,-95.3014,-1320.7,1.032
1.4778,1.47636,0.71003,0.249736,0,5.31118e-23,0.0942263,0.0242397,-9,-1414,1.68994e-24,-9,-95.2984,-1318.7,1.036
1.4778,1.47636,0.710407,0.249879,0,3.54079e-23,0.094185,0.0280792,-9,-1411,1.30577e-24,-9,-95.2949,-1315.71,1.04
1.4778,1.47636,0.710784,0.250042,0,2.36052e-23,0.0941436,0.0323376,-9,-1408,1.00313e-24,-9,-95.291,-1312.71,1.044
1.4778,1.47636,0.71116,0.250226,0,1.57368e-23,0.094102,0.0368464,-9,-1405,7.62509e-25,-9,-95.2865,-1309.71,1.048
1.4778,1.47636,0.711537,0.250424,0,1.04912e-23,0.0940604,0.0410615,-9,-1402,5.66901e-25,-9,-95.2817,-1306.72,1.052
1.4778,1.47636,0.711913,0.250646,0,6.99415e-24,0.0940186,0.0458869,-9,-1398,4.22691e-25,-9,-95.2763,-1302.72,1.056
1.4778,1.47636,0.712289,0.250883,0,4.66276e-24,0.0939766,0.050313,-9,-1395,3.09242e-25,-9,-95.2705,-1299.73,1.06
1.4778,1.47636,0.712665,0.251136,0,3.10851e-24,0.0939346,0.0547033,-9,-1392,2.24358e-25,-9,-95.2643,-1296.74,1.064
1.4778,1.47636,0.71304,0.251406,0,2.07234e-24,0.0938925,0.0589546,-9,-1389,1.61355e-25,-9,-95.2577,-1293.74,1.068
1.4778,1.47636,0.713416,0.251689,0,1.38156e-24,0.0938502,0.0628253,-9,-1386,1.1475e-25,-9,-95.2508,-1290.75,1.072
1.4778,1.47636,0.713791,0.251983,0,9.2104e-25,0.0938078,0.0663846,-9,-1383,8.09203e-26,-9,-95.2436,-1287.76,1.076
1.4778,1.47636,0.714166,0.252286,0,6.14027e-25,0.0937653,0.0695348,-9,-1380,5.6569e-26,-9,-95.2361,-1284.76,1.08
1.4778,1.47636,0.714541,0.2526,0,4.09351e-25,0.0937227,0.0725563,-9,-1378,3.93962e-26,-9,-95.2284,-1282.77,1.084
1.4778,1.47636,0.714916,0.252927,0,2.72901e-25,0.0936799,0.0756071,-9,-1376,2.74008e-26,-9,-95.2204,-1280.78,1.088
1.4778,1.47636,0.715291,0.253262,0,1.81934e-25,0.093637,0.0783031,-9,-1374,1.89414e-26,-9,-95.2121,-1278.79,1.092
1.4778,1.47636,0.715665,0.253614,0,1.21289e-25,0.0935941,0.0815112,-9,-1371,1.31617e-26,-9,-95.2034,-1275.8,1.096
1.4778,1.47636,0.716039,0.253974,0,8.08595e-26,0.093551,0.084341,-9,-1369,9.09081e-27,-9,-95.1945,-1273.81,1.1
1.4778,1.47636,0.716413,0.254339,0,5.39063e-26,0.0935077,0.0867169,-9,-1367,6.23946e-27,-9,-95.1855,-1271.81,1.104
1.4778,1.47636,0.716787,0.254711,0,3.59375e-26,0.0934644,0.0887903,-9,-1365,4.26477e-27,-9,-95.1763,-1269.82,1.108
1.4778,1.47636,0.717161,0.255088,0,2.39584e-26,0.0934209,0.0906044,-9,-1363,2.90519e-27,-9,-95.1669,-1267.83,1.112
1.4778,1.47636,0.717535,0.255477,0,1.59722e-26,0.0933774,0.092764,-9,-1361,1.98571e-27,-9,-95.1573,-1265.84,1.116
1.4778,1.47636,0.717908,0.255867,0,1.06482e-26,0.0933337,0.0944052,-9,-1360,1.3491e-27,-9,-95.1476,-1264.85,1.12
1.4778,1.47636,0.718281,0.256261,0,7.09877e-27,0.0932899,0.0957872,-9,-1359,9.13849e-28,-9,-95.1378,-1263.86,1.124
1.4778,1.47636,0.718654,0.256664,0,4.73252e-27,0.093246,0.0974284,-9,-1357,6.20558e-28,-9,-95.1277,-1261.87,1.128
1.4778,1.47636,0.719027,0.257066,0,3.15501e-27,0.0932019,0.0984649,-9,-1356,4.18703e-28,-9,-95.1177,-1260.88,1.132
1.4778,1.47636,0.7194,0.257478,0,2.10334e-27,0.0931578,0.0999045,-9,-1355,2.83629e-28,-9,-95.1074,-1259.89,1.136
1.4778,1.47636,0.719773,0.257882,0,1.40223e-27,0.0931135,0.100288,-9,-1355,1.90083e-28,-9,-95.0972,-1259.9,1.14
1.4778,1.47636,0.720145,0.258291,0,9.34818e-28,0.0930691,0.100947,-9,-1354,1.27739e-28,-9,-95.087,-1258.91,1.144
1.4778,1.47636,0.720517,0.258702,0,6.23212e-28,0.0930246,0.101588,-9,-1353,8.58241e-29,-9,-95.0766,-1257.92,1.148
1.4778,1.47636,0.720889,0.259114,0,4.15475e-28,0.09298,0.102015,-9,-1353,5.75398e-29,-9,-95.0663,-1257.93,1.152
1.4778,1.47636,0.721261,0.259524,0,2.76983e-28,0.0929353,0.102156,-9,-1352,3.8468e-29,-9,-95.0559,-1256.94,1.156
1.4778,1.47636,0.721633,0.259933,0,1.84655e-28,0.0928905,0.10225,-9,-1352,2.57057e-29,-9,-95.0456,-1256.95,1.16
1.4778,1.47636,0.722004,0.260332,0,1.23104e-28,0.0928455,0.101392,-9,-1353,1.70169e-29,-9,-95.0355,-1257.96,1.164
1.4778,1.47636,0.722375,0.260736,0,8.20691e-29,0.0928005,0.10128,-9,-1353,1.13481e-29,-9,-95.0253,-1257.97,1.168
1.4778,1.47636,0.722747,0.261131,0,5.47127e-29,0.0927553,0.100457,-9,-1353,7.51422e-30,-9,-95.0152,-1257.98,1.172
1.4778,1.47636,0.723117,0.261534,0,3.64751e-29,0.09271,0.100541,-9,-1353,5.02072e-30,-9,-95.005,-1258,1.176
1.4778,1.47636,0.723488,0.261932,0,2.43168e-29,0.0926646,0.100137,-9,-1353,3.33828e-30,-9,-94.9949,-1258.01,1.18
1.4778,1.47636,0.723859,0.262327,0,1.62112e-29,0.0926191,0.0997237,-9,-1354,2.21937e-30,-9,-94.9848,-1259.02,1.184
1.4778,1.47636,0.724229,0.262725,0,1.08074e-29,0.0925735,0.099592,-9,-1353,1.47965e-30,-9,-94.9747,-1258.03,1.188
1.4778,1.47636,0.724599,0.263119,0,7.20496e-30,0.0925277,0.0993027,-9,-1354,9.84909e-31,-9,-94.9646,-1259.04,1.192
1.4778,1.47636,0.724969,0.263513,0,4.80331e-30,0.0924819,0.0989947,-9,-1354,6.55456e-31,-9,-94.9545,-1259.05,1.196
1.4778,1.47636,0.725339,0.263908,0,3.20221e-30,0.0924359,0.0988757,-9,-1354,4.37037e-31,-9,-94.9444,-1259.06,1.2
1.4778,1.47636,0.725709,0.2643,0,2.1348e-30,0.0923899,0.0985948,-9,-1354,2.90921e-31,-9,-94.9343,-1259.07,1.204
1.4778,1.47636,0.726078,0.26469,0,1.4232e-30,0.0923437,0.0982348,-9,-1354,1.93497e-31,-9,-94.9243,-1259.08,1.208
1.4778,1.47636,0.726448,0.265078,0,9.48802e-31,0.0922974,0.0978797,-9,-1354,1.28703e-31,-9,-94.9143,-1259.09,1.212
1.4778,1.47636,0.726817,0.265466,0,6.32535e-31,0.092251,0.0975853,-9,-1354,8.56569e-32,-9,-94.9043,-1259.1,1.216
1.4778,1.47636,0.727186,0.265855,0,4.2169e-31,0.0922045,0.0974179,-9,-1354,5.7082e-32,-9,-94.8942,-1259.11,1.22
1.4778,1.47636,0.727554,0.266238,0,2.81127e-31,0.0921579,0.0968456,-9,-1355,3.78804e-32,-9,-94.8843,-1260.12,1.224
1.4778,1.47636,0.727923,0.266624,0,1.87418e-31,0.0921112,0.0968096,-9,-1355,2.52773e-32,-9,-94.8743,-1260.13,1.228
1.4778,1.47636,0.728291,0.26702,0,1.24945e-31,0.0920643,0.0975053,-9,-1354,1.69954e-32,-9,-94.8641,-1259.14,1.232
1.4778,1.47636,0.728659,0.267419,0,8.32967e-32,0.0920174,0.0982571,-9,-1353,1.1433e-32,-9,-94.8537,-1258.15,1.236
1.4778,1.47636,0.729027,0.267822,0,5.55312e-32,0.0919703,0.0990461,-9,-1352,7.69366e-33,-9,-94.8432,-1257.16,1.24
1.4778,1.47636,0.729395,0.268228,0,3.70208e-32,0.0919232,0.0998889,-9,-1352,5.17983e-33,-9,-94.8327,-1257.17,1.244
1.4778,1.47636,0.729763,0.268626,0,2.46805e-32,0.0918759,0.0997597,-9,-1352,3.45337e-33,-9,-94.8223,-1257.18,1.248
1.4778,1.47636,0.73013,0.269021,0,1.64537e-32,0.0918285,0.0994433,-9,-1352,2.29799e-33,-9,-94.812,-1257.19,1.252
1.4778,1.47636,0.730497,0.269413,0,1.09691e-32,0.0917811,0.0989157,-9,-1352,1.52586e-33,-9,-94.8017,-1257.2,1.256
1.4778,1.47636,0.730864,0.269802,0,7.31275e-33,0.0917335,0.0983911,-9,-1352,1.01317e-33,-9,-94.7915,-1257.21,1.26
1.4778,1.47636,0.731231,0.270188,0,4.87516e-33,0.0916858,0.0977823,-9,-1353,6.7213e-34,-9,-94.7814,-1258.22,1.264
1.4778,1.47636,0.731598,0.270579,0,3.25011e-33,0.091638,0.097722,-9,-1353,4.48393e-34,-9,-94.7711,-1258.23,1.268
1.4778,1.47636,0.731964,0.270959,0,2.16674e-33,0.0915901,0.0968756,-9,-1353,2.96715e-34,-9,-94.7611,-1258.24,1.272
1.4778,1.47636,0.732331,0.271347,0,1.44449e-33,0.091542,0.0968871,-9,-1353,1.98088e-34,-9,-94.7509,-1258.25,1.276
1.4778,1.47636,0.732697,0.271724,0,9.62995e-34,0.0914939,0.0959735,-9,-1354,1.30977e-34,-9,-94.741,-1259.26,1.28
1.4778,1.47636,0.733063,0.272105,0,6.41997e-34,0.0914457,0.0957675,-9,-1354,8.72405e-35,-9,-94.7309,-1259.27,1.284
1.4778,1.47636,0.733428,0.272488,0,4.27998e-34,0.0913974,0.0957742,-9,-1354,5.8238e-35,-9,-94.7208,-1259.28,1.288
1.4778,1.47636,0.733794,0.27287,0,2.85332e-34,0.0913489,0.0956346,-9,-1354,3.88175e-35,-9,-94.7107,-1259.29,1.292
1.4778,1.47636,0.734159,0.273251,0,1.90221e-34,0.0913004,0.0955416,-9,-1354,2.58856e-35,-9,-94.7005,-1259.3,1.296
1.4778,1.47636,0.734524,0.273629,0,1.26814e-34,0.0912517,0.0951629,-9,-1354,1.721e-35,-9,-94.6905,-1259.31,1.3
1.4778,1.47636,0.734889,0.273999,0,8.45428e-35,0.091203,0.0943058,-9,-1355,1.13838e-35,-9,-94.6807,-1260.32,1.304
1.4778,1.47636,0.735254,0.274368,0,5.63619e-35,0.0911541,0.093648,-9,-1355,7.54541e-36,-9,-94.6708,-1260.33,1.308
1.4778,1.47636,0.735618,0.274742,0,3.75746e-35,0.0911052,0.0935838,-9,-1355,5.03297e-36,-9,-94.6609,-1260.34,1.312
1.4778,1.47636,0.735983,0.275112,0,2.50497e-35,0.0910561,0.0932243,-9,-1355,3.34646e-36,-9,-94.651,-1260.35,1.316
1.4778,1.47636,0.736347,0.275487,0,1.66998e-35,0.091007,0.0933877,-9,-1355,2.23761e-36,-9,-94.641,-1260.36,1.32
1.4778,1.47636,0.736711,0.275864,0,1.11332e-35,0.0909577,0.0936981,-9,-1355,1.49854e-36,-9,-94.6309,-1260.37,1.324
1.4778,1.47636,0.737074,0.276246,0,7.42214e-36,0.0909083,0.0942506,-9,-1354,1.00616e-36,-9,-94.6206,-1259.38,1.328
1.4778,1.47636,0.737438,0.276627,0,4.94809e-36,0.0908589,0.0945901,-9,-1354,6.74023e-37,-9,-94.6104,-1259.39,1.332
1.4778,1.47636,0.737801,0.277008,0,3.29873e-36,0.0908093,0.0948453,-9,-1354,4.51117e-37,-9,-94.6001,-1259.4,1.336
1.4778,1.47636,0.738164,0.277384,0,2.19915e-36,0.0907596,0.0945835,-9,-1354,3.0028e-37,-9,-94.59,-1259.41,1.34
1.4778,1.47636,0.738527,0.277759,0,1.4661e-36,0.0907098,0.094265,-9,-1354,1.99753e-37,-9,-94.5799,-1259.42,1.344
1.4778,1.47636,0.73889,0.278131,0,9.77401e-37,0.09066,0.0938512,-9,-1354,1.32743e-37,-9,-94.5699,-1259.43,1.348
1.4778,1.47636,0.739253,0.278506,0,6.51601e-37,0.09061,0.0938056,-9,-1354,8.85591e-38,-9,-94.5598,-1259.44,1.352
1.4778,1.47636,0.739615,0.278876,0,4.344e-37,0.0905599,0.0933721,-9,-1354,5.88364e-38,-9,-94.5497,-1259.45,1.356
1.4778,1.47636,0.739977,0.279242,0,2.896e-37,0.0905097,0.0927665,-9,-1355,3.90156e-38,-9,-94.5398,-1260.46,1.36
1.4778,1.47636,0.740339,0.279606,0,1.93067e-37,0.0904594,0.0921324,-9,-1355,2.58627e-38,-9,-94.53,-1260.47,1.364
1.4778,1.47636,0.740701,0.279965,0,1.28711e-37,0.0904091,0.0913641,-9,-1356,1.71176e-38,-9,-94.5202,-1261.48,1.368
1.4778,1.47636,0.741062,0.280318,0,8.58075e-38,0.0903586,0.0903338,-9,-1357,1.12958e-38,-9,-94.5106,-1262.49,1.372
1.4778,1.47636,0.741424,0.28067,0,5.7205e-38,0.090308,0.0895892,-9,-1357,7.47682e-39,-9,-94.501,-1262.5,1.376
1.4778,1.47636,0.741785,0.281021,0,3.81367e-38,0.0902573,0.0889202,-9,-1358,4.95283e-39,-9,-94.4915,-1263.51,1.38
1.4778,1.47636,0.742146,0.281372,0,2.54244e-38,0.0902065,0.0885605,-9,-1358,3.2922e-39,-9,-94.4819,-1263.52,1.384
1.4778,1.47636,0.742506,0.281725,0,1.69496e-38,0.0901557,0.0884646,-9,-1358,2.19488e-39,-9,-94.4722,-1263.53,1.388
1.4778,1.47636,0.742867,0.282073,0,1.12998e-38,0.0901047,0.0879977,-9,-1359,1.45713e-39,-9,-94.4627,-1264.54,1.392
1.4778,1.47636,0.743227,0.282421,0,7.53317e-39,0.0900536,0.0876576,-9,-1359,9.68732e-40,-9,-94.4532,-1264.55,1.396
1.4778,1.47636,0.743587,0.282767,0,5.02211e-39,0.0900024,0.0872581,-9,-1359,6.4358e-40,-9,-94.4437,-1264.56,1.4
1.4778,1.47636,0.743947,0.283111,0,3.34807e-39,0.0899512,0.0867902,-9,-1359,4.27214e-40,-9,-94.4343,-1264.57,1.404
1.4778,1.47636,0.744307,0.28345,0,2.23205e-39,0.0898998,0.0861616,-9,-1360,2.83049e-40,-9,-94.4249,-1265.58,1.408
1.4778,1.47636,0.744667,0.283787,0,1.48803e-39,0.0898483,0.0855122,-9,-1361,1.87475e-40,-9,-94.4156,-1266.58,1.412
1.4778,1.47636,0.745026,0.284123,0,9.92022e-40,0.0897968,0.0850217,-9,-1361,1.24398e-40,-9,-94.4064,-1266.59,1.416
1.4778,1.47636,0.745385,0.284455,0,6.61348e-40,0.0897451,0.0842917,-9,-1362,8.23049e-41,-9,-94.3972,-1267.6,1.42
1.4778,1.47636,0.745744,0.284786,0,4.40899e-40,0.0896934,0.0838049,-9,-1362,5.46096e-41,-9,-94.3881,-1267.61,1.424
1.4778,1.47636,0.746102,0.285117,0,2.93932e-40,0.0896415,0.0834229,-9,-1362,3.62778e-41,-9,-94.379,-1267.62,1.428
1.4778,1.47636,0.746461,0.285446,0,1.95955e-40,0.0895896,0.0831106,-9,-1363,2.41195e-41,-9,-94.3698,-1268.63,1.432
1.4778,1.47636,0.746819,0.285779,0,1.30637e-40,0.0895375,0.0831039,-9,-1363,1.6095e-41,-9,-94.3606,-1268.64,1.436
1.4778,1.47636,0.747177,0.286108,0,8.70911e-41,0.0894854,0.0828692,-9,-1363,1.07107e-41,-9,-94.3515,-1268.65,1.44
1.4778,1.47636,0.747535,0.286443,0,5.80607e-41,0.0894332,0.0830869,-9,-1363,7.16663e-42,-9,-94.3422,-1268.66,1.444
1.4778,1.47636,0.747893,0.286779,0,3.87072e-41,0.0893808,0.0834336,-9,-1362,4.80269e-42,-9,-94.3328,-1267.67,1.448
1.4778,1.47636,0.74825,0.287119,0,2.58048e-41,0.0893284,0.0839815,-9,-1362,3.22621e-42,-9,-94.3234,-1267.68,1.452
1.4778,1.47636,0.748607,0.287462,0,1.72032e-41,0.0892759,0.0845483,-9,-1362,2.16762e-42,-9,-94.3138,-1267.69,1.456
1.4778,1.47636,0.748964,0.287808,0,1.14688e-41,0.0892233,0.0851852,-9,-1361,1.45752e-42,-9,-94.3042,-1266.7,1.46
1.4778,1.47636,0.749321,0.288157,0,7.64586e-42,0.0891706,0.0858978,-9,-1360,9.80862e-43,-9,-94.2944,-1265.71,1.464
1.4778,1.47636,0.749678,0.288513,0,5.09724e-42,0.0891178,0.086891,-9,-1359,6.62193e-43,-9,-94.2845,-1264.72,1.468
1.4778,1.47636,0.750034,0.288872,0,3.39816e-42,0.0890649,0.0878699,-9,-1359,4.46928e-43,-9,-94.2744,-1264.73,1.472
1.4778,1.47636,0.75039,0.289238,0,2.26544e-42,0.0890119,0.0890407,-9,-1358,3.02261e-43,-9,-94.2642,-1263.74,1.476
1.4778,1.47636,0.750746,0.289604,0,1.51029e-42,0.0889588,0.0899365,-9,-1357,2.03763e-43,-9,-94.2539,-1262.75,1.48
1.4778,1.47636,0.751102,0.289978,0,1.00686e-42,0.0889057,0.0910518,-9,-1356,1.37683e-43,-9,-94.2434,-1261.76,1.484
1.4778,1.47636,0.751457,0.290349,0,6.71241e-43,0.0888524,0.0916227,-9,-1355,9.2469e-44,-9,-94.2329,-1260.77,1.488
1.4778,1.47636,0.751813,0.290718,0,4.47494e-43,0.0887991,0.0918305,-9,-1355,6.18553e-44,-9,-94.2225,-1260.78,1.492
1.4778,1.47636,0.752168,0.291085,0,2.98329e-43,0.0887456,0.0918539,-9,-1355,4.12935e-44,-9,-94.2122,-1260.79,1.496
1.4778,1.47636,0.752523,0.291448,0,1.98886e-43,0.0886921,0.0914952,-9,-1355,2.74517e-44,-9,-94.2019,-1260.8,1.5
1.4778,1.47636,0.752877,0.291815,0,1.32591e-43,0.0886384,0.091544,-9,-1355,1.83313e-44,-9,-94.1915,-1260.81,1.504
1.4778,1.47636,0.753232,0.292182,0,8.83939e-44,0.0885847,0.0916341,-9,-1355,1.22465e-44,-9,-94.1811,-1260.82,1.508
1.4778,1.47636,0.753586,0.292552,0,5.89293e-44,0.0885309,0.0919245,-9,-1354,8.19936e-45,-9,-94.1707,-1259.83,1.512
1.4778,1.47636,0.75394,0.292921,0,3.92862e-44,0.088477,0.0920029,-9,-1354,5.47699e-45,-9,-94.1602,-1259.84,1.516
1.4778,1.47636,0.754294,0.293296,0,2.61908e-44,0.088423,0.0926022,-9,-1354,3.67927e-45,-9,-94.1495,-1259.85,1.52
1.4778,1.47636,0.754647,0.293665,0,1.74605e-44,0.0883689,0.0925123,-9,-1354,2.45319e-45,-9,-94.139,-1259.86,1.524
1.4778,1.47636,0.755001,0.294044,0,1.16404e-44,0.0883148,0.0932585,-9,-1353,1.65053e-45,-9,-94.1282,-1258.87,1.528
1.4778,1.47636,0.755354,0.294427,0,7.76023e-45,0.0882605,0.0940727,-9,-1352,1.11123e-45,-9,-94.1173,-1257.88,1.532
1.4778,1.47636,0.755707,0.294814,0,5.17349e-45,0.0882061,0.0949322,-9,-1351,7.48454e-46,-9,-94.1063,-1256.89,1.536
1.4778,1.47636,0.75606,0.295197,0,3.44899e-45,0.0881517,0.0951885,-9,-1351,5.00889e-46,-9,-94.0953,-1256.9,1.54
1.4778,1.47636,0.756412,0.295583,0,2.29933e-45,0.0880972,0.0956472,-9,-1350,3.35922e-46,-9,-94.0843,-1255.92,1.544
1.4778,1.47636,0.756764,0.295965,0,1.53289e-45,0.0880426,0.0956364,-9,-1350,2.24178e-46,-9,-94.0733,-1255.93,1.548
1.4778,1.47636,0.757116,0.296346,0,1.02192e-45,0.0879878,0.0954564,-9,-1350,1.49339e-46,-9,-94.0624,-1255.94,1.552
1.4778,1.47636,0.757468,0.296732,0,6.81283e-46,0.0879331,0.0957971,-9,-1350,1.00029e-46,-9,-94.0513,-1255.95,1.556
1.4778,1.47636,0.75782,0.297118,0,4.54188e-46,0.0878782,0.0960817,-9,-1349,6.6961e-47,-9,-94.0402,-1254.96,1.56
1.4778,1.47636,0.758171,0.297504,0,3.02792e-46,0.0878232,0.096214,-9,-1349,4.47532e-47,-9,-94.029,-1254.97,1.564
1.4778,1.47636,0.758522,0.297893,0,2.01862e-46,0.0877681,0.0965324,-9,-1349,2.99686e-47,-9,-94.0178,-1254.98,1.568
1.4778,1.47636,0.758873,0.298276,0,1.34574e-46,0.087713,0.0963129,-9,-1349,1.99562e-47,-9,-94.0068,-1254.99,1.572
1.4778,1.47636,0.759224,0.298655,0,8.97162e-47,0.0876578,0.0957346,-9,-1349,1.3239e-47,-9,-93.9958,-1255,1.576
1.4778,1.47636,0.759575,0.299028,0,5.98108e-47,0.0876024,0.0949461,-9,-1350,8.76288e-48,-9,-93.985,-1256.01,1.58
1.4778,1.47636,0.759925,0.299398,0,3.98739e-47,0.087547,0.0941613,-9,-1350,5.79993e-48,-9,-93.9743,-1256.03,1.584
1.4778,1.47636,0.760275,0.299769,0,2.65826e-47,0.0874915,0.0936668,-9,-1350,3.85049e-48,-9,-93.9635,-1256.04,1.588
1.4778,1.47636,0.760625,0.30014,0,1.77217e-47,0.087436,0.0933084,-9,-1351,2.55994e-48,-9,-93.9527,-1257.05,1.592
1.4778,1.47636,0.760975,0.300506,0,1.18145e-47,0.0873803,0.0927528,-9,-1351,1.69828e-48,-9,-93.9421,-1257.06,1.596
1.4778,1.47636,0.761324,0.300881,0,7.87632e-48,0.0873246,0.0930446,-9,-1351,1.13699e-48,-9,-93.9312,-1257.07,1.6
1.4778,1.47636,0.761673,0.301253,0,5.25088e-48,0.0872687,0.0930663,-9,-1350,7.58993e-49,-9,-93.9203,-1256.08,1.604
1.4778,1.47636,0.762022,0.301625,0,3.50059e-48,0.0872128,0.093052,-9,-1350,5.06465e-49,-9,-93.9094,-1256.09,1.608
1.4778,1.47636,0.762371,0.301999,0,2.33372e-48,0.0871568,0.0931865,-9,-1350,3.38498e-49,-9,-93.8985,-1256.1,1.612
1.4778,1.47636,0.762719,0.302367,0,1.55582e-48,0.0871007,0.0928154,-9,-1350,2.25007e-49,-9,-93.8877,-1256.11,1.616
1.4778,1.47636,0.763068,0.302733,0,1.03721e-48,0.0870445,0.0923666,-9,-1351,1.49437e-49,-9,-93.877,-1257.12,1.62
1.4778,1.47636,0.763416,0.3031,0,6.91474e-49,0.0869883,0.0921537,-9,-1351,9.95004e-50,-9,-93.8662,-1257.13,1.624
1.4778,1.47636,0.763764,0.303465,0,4.60983e-49,0.0869319,0.0918102,-9,-1351,6.61559e-50,-9,-93.8555,-1257.14,1.628
1.4778,1.47636,0.764111,0.303827,0,3.07322e-49,0.0868755,0.0914373,-9,-1351,4.39707e-50,-9,-93.8449,-1257.16,1.632
1.4778,1.47636,0.764459,0.304185,0,2.04881e-49,0.086819,0.0907568,-9,-1352,2.91255e-50,-9,-93.8343,-1258.17,1.636
1.4778,1.47636,0.764806,0.304539,0,1.36587e-49,0.0867624,0.0899864,-9,-1352,1.92718e-50,-9,-93.8239,-1258.18,1.64
1.4778,1.47636,0.765153,0.30489,0,9.10583e-50,0.0867057,0.0892713,-9,-1353,1.27586e-50,-9,-93.8136,-1259.19,1.644
1.4778,1.47636,0.765499,0.305244,0,6.07055e-50,0.086649,0.0889961,-9,-1353,8.48808e-51,-9,-93.8031,-1259.2,1.648
1.4778,1.47636,0.765846,0.305598,0,4.04704e-50,0.0865922,0.0888702,-9,-1353,5.65644e-51,-9,-93.7926,-1259.21,1.652
1.4778,1.47636,0.766192,0.305958,0,2.69802e-50,0.0865352,0.0892182,-9,-1352,3.78961e-51,-9,-93.782,-1258.22,1.656
1.4778,1.47636,0.766538,0.306319,0,1.79868e-50,0.0864782,0.0895365,-9,-1352,2.53803e-51,-9,-93.7713,-1258.23,1.66
1.4778,1.47636,0.766884,0.306676,0,1.19912e-50,0.0864211,0.0894608,-9,-1352,1.69231e-51,-9,-93.7607,-1258.24,1.664
1.4778,1.47636,0.767229,0.307032,0,7.99415e-51,0.086364,0.089324,-9,-1352,1.12762e-51,-9,-93.7501,-1258.25,1.668
1.4778,1.47636,0.767575,0.307384,0,5.32943e-51,0.0863067,0.0888873,-9,-1352,7.48817e-52,-9,-93.7396,-1258.26,1.672
1.4778,1.47636,0.76792,0.307735,0,3.55295e-51,0.0862494,0.0885386,-9,-1353,4.97748e-52,-9,-93.7292,-1259.27,1.676
1.4778,1.47636,0.768265,0.308091,0,2.36864e-51,0.086192,0.0886804,-9,-1352,3.32698e-52,-9,-93.7186,-1258.28,1.68
1.4778,1.47636,0.768609,0.308446,0,1.57909e-51,0.0861345,0.0886597,-9,-1352,2.21969e-52,-9,-93.708,-1258.29,1.684
1.4778,1.47636,0.768954,0.308803,0,1.05273e-51,0.086077,0.0888475,-9,-1352,1.48442e-52,-9,-93.6973,-1258.3,1.688
1.4778,1.47636,0.769298,0.309154,0,7.01818e-52,0.0860193,0.088512,-9,-1352,9.86851e-53,-9,-93.6868,-1258.31,1.692
1.4778,1.47636,0.769642,0.309506,0,4.67879e-52,0.0859616,0.0883172,-9,-1352,6.57101e-53,-9,-93.6763,-1258.32,1.696
1.4778,1.47636,0.769986,0.309851,0,3.11919e-52,0.0859038,0.0876403,-9,-1353,4.35131e-53,-9,-93.6659,-1259.33,1.7
1.4778,1.47636,0.770329,0.310198,0,2.07946e-52,0.0858459,0.0873329,-9,-1353,2.89351e-53,-9,-93.6555,-1259.34,1.704
1.4778,1.47636,0.770673,0.310533,0,1.38631e-52,0.0857879,0.0861491,-9,-1354,1.90464e-53,-9,-93.6455,-1260.35,1.708
1.4778,1.47636,0.771016,0.310868,0,9.24205e-53,0.0857299,0.0853888,-9,-1354,1.25973e-53,-9,-93.6354,-1260.36,1.712
1.4778,1.47636,0.771358,0.311199,0,6.16136e-53,0.0856718,0.0844788,-9,-1355,8.3164e-54,-9,-93.6254,-1261.37,1.716
1.4778,1.47636,0.771701,0.31153,0,4.10758e-53,0.0856136,0.0839297,-9,-1356,5.51331e-54,-9,-93.6154,-1262.38,1.72
1.4778,1.47636,0.772043,0.311857,0,2.73838e-53,0.0855553,0.0831317,-9,-1356,3.6439e-54,-9,-93.6056,-1262.39,1.724
1.4778,1.47636,0.772385,0.312176,0,1.82559e-53,0.0854969,0.0820528,-9,-1357,2.39987e-54,-9,-93.596,-1263.4,1.728
1.4778,1.47636,0.772727,0.312494,0,1.21706e-53,0.0854385,0.0811895,-9,-1358,1.58448e-54,-9,-93.5863,-1264.41,1.732
1.4778,1.47636,0.773069,0.312811,0,8.11373e-54,0.08538,0.0805852,-9,-1358,1.04938e-54,-9,-93.5767,-1264.42,1.736
1.4778,1.47636,0.77341,0.31313,0,5.40915e-54,0.0853214,0.0802399,-9,-1359,6.97201e-55,-9,-93.5671,-1265.43,1.74
1.4778,1.47636,0.773751,0.313444,0,3.6061e-54,0.0852627,0.079693,-9,-1359,4.62034e-55,-9,-93.5576,-1265.44,1.744
1.4778,1.47636,0.774092,0.313761,0,2.40407e-54,0.085204,0.07953,-9,-1359,3.07661e-55,-9,-93.548,-1265.45,1.748
1.4778,1.47636,0.774433,0.31407,0,1.60271e-54,0.0851452,0.0787878,-9,-1360,2.03367e-55,-9,-93.5386,-1266.46,1.752
1.4778,1.47636,0.774774,0.314381,0,1.06847e-54,0.0850863,0.0784659,-9,-1360,1.35139e-55,-9,-93.5291,-1266.47,1.756
1.4778,1.47636,0.775114,0.314692,0,7.12317e-55,0.0850273,0.0781648,-9,-1360,8.98239e-56,-9,-93.5197,-1266.48,1.76
1.4778,1.47636,0.775454,0.314997,0,4.74878e-55,0.0849683,0.0775898,-9,-1361,5.9492e-56,-9,-93.5104,-1267.49,1.764
1.4778,1.47636,0.775794,0.315303,0,3.16585e-55,0.0849091,0.0772065,-8,-1361,3.94985e-56,-8,-93.501,-1267.5,1.768
1.4778,1.47636,0.776133,0.315604,0,2.11057e-55,0.08485,0.0765191,-8,-1362,2.61194e-56,-8,-93.4919,-1268.51,1.772
1.4778,1.47636,0.776472,0.315903,0,1.40705e-55,0.0847907,0.0759169,-8,-1362,1.729e-56,-8,-93.4827,-1268.52,1.776
1.4778,1.47636,0.776811,0.316203,0,9.3803e-56,0.0847313,0.0756594,-8,-1363,1.1497e-56,-8,-93.4736,-1269.53,1.78
1.4778,1.47636,0.77715,0.316504,0,6.25353e-56,0.0846719,0.0755453,-8,-1363,7.6594e-57,-8,-93.4643,-1269.54,1.784
1.4778,1.47636,0.777489,0.316809,0,4.16902e-56,0.0846124,0.0757283,-8,-1363,5.12288e-57,-8,-93.455,-1269.54,1.788
1.4778,1.47636,0.777827,0.317118,0,2.77935e-56,0.0845529,0.0762822,-8,-1362,3.44313e-57,-8,-93.4455,-1268.55,1.792
1.4778,1.47636,0.778165,0.317432,0,1.8529e-56,0.0844932,0.0769682,-8,-1362,2.31804e-57,-8,-93.4359,-1268.56,1.796
1.4778,1.47636,0.778503,0.317743,0,1.23527e-56,0.0844335,0.0772815,-8,-1362,1.55296e-57,-8,-93.4263,-1268.57,1.8
1.4778,1.47636,0.778841,0.318055,0,8.23511e-57,0.0843737,0.0774616,-8,-1361,1.0386e-57,-8,-93.4168,-1267.58,1.804
1.4778,1.47636,0.779178,0.318366,0,5.49007e-57,0.0843139,0.0775817,-8,-1361,6.94055e-58,-8,-93.4072,-1267.59,1.808
1.4778,1.47636,0.779515,0.318677,0,3.66005e-57,0.0842539,0.077633,-8,-1361,4.63399e-58,-8,-93.3976,-1267.6,1.812
1.4778,1.47636,0.779852,0.318987,0,2.44003e-57,0.0841939,0.0775808,-8,-1361,3.08983e-58,-8,-93.3881,-1267.61,1.816
1.4778,1.47636,0.780189,0.319301,0,1.62669e-57,0.0841338,0.0778915,-8,-1361,2.06989e-58,-8,-93.3784,-1267.62,1.82
1.4778,1.47636,0.780525,0.319616,0,1.08446e-57,0.0840737,0.0781562,-8,-1361,1.38579e-58,-8,-93.3687,-1267.63,1.824
1.4778,1.47636,0.780861,0.319936,0,7.22972e-58,0.0840135,0.0788221,-8,-1360,9.32534e-59,-8,-93.3587,-1266.64,1.828
1.4778,1.47636,0.781197,0.320254,0,4.81982e-58,0.0839532,0.0790357,-8,-1360,6.23907e-59,-8,-93.3489,-1266.65,1.832
1.4778,1.47636,0.781533,0.320572,0,3.21321e-58,0.0838928,0.0791781,-8,-1360,4.17043e-59,-8,-93.3391,-1266.66,1.836
1.4778,1.47636,0.781868,0.320886,0,2.14214e-58,0.0838324,0.0789276,-8,-1360,2.77382e-59,-8,-93.3293,-1266.67,1.84
1.4778,1.47636,0.782204,0.321198,0,1.42809e-58,0.0837719,0.0786454,-8,-1360,1.84414e-59,-8,-93.3196,-1266.68,1.844
1.4778,1.47636,0.782539,0.321514,0,9.52062e-59,0.0837113,0.078774,-8,-1360,1.23248e-59,-8,-93.3098,-1266.69,1.848
1.4778,1.47636,0.782873,0.321834,0,6.34708e-59,0.0836506,0.0792052,-8,-1360,8.26854e-60,-8,-93.2999,-1266.7,1.852
1.4778,1.47636,0.783208,0.32216,0,4.23139e-59,0.0835899,0.0799245,-8,-1359,5.56725e-60,-8,-93.2897,-1265.71,1.856
1.4778,1.47636,0.783542,0.322489,0,2.82093e-59,0.0835291,0.0807495,-8,-1359,3.7531e-60,-8,-93.2795,-1265.72,1.86
1.4778,1.47636,0.783876,0.322819,0,1.88062e-59,0.0834683,0.0812996,-8,-1358,2.52132e-60,-8,-93.2692,-1264.73,1.864
1.4778,1.47636,0.78421,0.32315,0,1.25374e-59,0.0834074,0.0818102,-8,-1358,1.69292e-60,-8,-93.2588,-1264.74,1.868
1.4778,1.47636,0.784543,0.323481,0,8.3583e-60,0.0833464,0.0820643,-8,-1357,1.13311e-60,-8,-93.2485,-1263.75,1.872
1.4778,1.47636,0.784877,0.323807,0,5.5722e-60,0.0832853,0.0818881,-8,-1357,7.54437e-61,-8,-93.2383,-1263.76,1.876
1.4778,1.47636,0.78521,0.324133,0,3.7148e-60,0.0832242,0.0817995,-8,-1358,5.02847e-61,-8,-93.2281,-1264.77,1.88
1.4778,1.47636,0.785542,0.324459,0,2.47653e-60,0.083163,0.0816829,-8,-1358,3.35041e-61,-8,-93.2179,-1264.78,1.884
1.4778,1.47636,0.785875,0.324786,0,1.65102e-60,0.0831017,0.0816915,-8,-1358,2.23577e-61,-8,-93.2076,-1264.79,1.888
1.4778,1.47636,0.786207,0.325117,0,1.10068e-60,0.0830403,0.0821003,-8,-1357,1.49928e-61,-8,-93.1972,-1263.8,1.892
1.4778,1.47636,0.786539,0.325446,0,7.33787e-61,0.0829789,0.0821425,-8,-1357,1.0009e-61,-8,-93.1869,-1263.81,1.896
1.4778,1.47636,0.786871,0.325775,0,4.89192e-61,0.0829175,0.0821418,-8,-1357,6.67836e-62,-8,-93.1765,-1263.82,1.9
1.4778,1.47636,0.787203,0.326101,0,3.26128e-61,0.0828559,0.081911,-8,-1357,4.44352e-62,-8,-93.1663,-1263.83,1.904
1.4778,1.47636,0.787534,0.326425,0,2.17419e-61,0.0827943,0.081642,-8,-1357,2.95513e-62,-8,-93.1561,-1263.84,1.908
1.4778,1.47636,0.787865,0.326747,0,1.44946e-61,0.0827326,0.0812324,-8,-1358,1.96185e-62,-8,-93.1459,-1264.85,1.912
1.4778,1.47636,0.788196,0.327071,0,9.66304e-62,0.0826709,0.0811608,-8,-1358,1.30785e-62,-8,-93.1357,-1264.86,1.916
1.4778,1.47636,0.788526,0.32739,0,6.44203e-62,0.0826091,0.08071,-8,-1358,8.67781e-63,-8,-93.1256,-1264.87,1.92
1.4778,1.47636,0.788857,0.327706,0,4.29469e-62,0.0825472,0.0800928,-8,-1358,5.74568e-63,-8,-93.1156,-1264.88,1.924
1.4778,1.47636,0.789187,0.328021,0,2.86312e-62,0.0824853,0.0796525,-8,-1359,3.81252e-63,-8,-93.1056,-1265.89,1.928
1.4778,1.47636,0.789516,0.328332,0,1.90875e-62,0.0824233,0.0790135,-8,-1359,2.52332e-63,-8,-93.0958,-1265.9,1.932
1.4778,1.47636,0.789846,0.328643,0,1.2725e-62,0.0823612,0.0786163,-8,-1360,1.67511e-63,-8,-93.0859,-1266.91,1.936
1.4778,1.47636,0.790175,0.32895,0,8.48333e-63,0.0822991,0.0780348,-8,-1360,1.10936e-63,-8,-93.0761,-1266.92,1.94
1.4778,1.47636,0.790504,0.32926,0,5.65555e-63,0.0822368,0.0778199,-8,-1360,7.38129e-64,-8,-93.0663,-1266.93,1.944
1.4778,1.47636,0.790833,0.329571,0,3.77037e-63,0.0821746,0.0777629,-8,-1360,4.92121e-64,-8,-93.0564,-1266.94,1.948
1.4778,1.47636,0.791162,0.329876,0,2.51358e-63,0.0821122,0.0772931,-8,-1361,3.26356e-64,-8,-93.0467,-1267.95,1.952
1.4778,1.47636,0.79149,0.330185,0,1.67572e-63,0.0820498,0.0772966,-8,-1361,2.17754e-64,-8,-93.0368,-1267.96,1.956
1.4778,1.47636,0.791818,0.330496,0,1.11715e-63,0.0819874,0.0774717,-8,-1361,1.45615e-64,-8,-93.0269,-1267.97,1.96
1.4778,1.47636,0.792146,0.330805,0,7.44764e-64,0.0819249,0.0773581,-8,-1361,9.70109e-65,-8,-93.017,-1267.98,1.964
1.4778,1.47636,0.792474,0.331116,0,4.9651e-64,0.0818623,0.0774551,-8,-1361,6.48067e-65,-8,-93.0071,-1267.99,1.968
1.4778,1.47636,0.792801,0.331429,0,3.31006e-64,0.0817996,0.0777213,-8,-1360,4.33877e-65,-8,-92.9971,-1267,1.972
1.4778,1.47636,0.793128,0.331734,0,2.20671e-64,0.0817369,0.0772654,-8,-1361,2.8778e-65,-8,-92.9873,-1268.01,1.976
1.4778,1.47636,0.793455,0.332038,0,1.47114e-64,0.0816741,0.0768751,-8,-1361,1.91033e-65,-8,-92.9776,-1268.02,1.98
1.4778,1.47636,0.793781,0.332344,0,9.8076e-65,0.0816113,0.07673,-8,-1361,1.27214e-65,-8,-92.9678,-1268.03,1.984
1.4778,1.47636,0.794108,0.332646,0,6.5384e-65,0.0815484,0.0763166,-8,-1361,8.44174e-66,-8,-92.9581,-1268.04,1.988
1.4778,1.47636,0.794434,0.33295,0,4.35893e-65,0.0814854,0.076185,-8,-1362,5.62247e-66,-8,-92.9483,-1269.05,1.992
1.4778,1.47636,0.79476,0.333256,0,2.90595e-65,0.0814224,0.0763275,-8,-1361,3.75826e-66,-8,-92.9385,-1268.06,1.996
1.4778,1.47636,0.795085,0.333568,0,1.9373e-65,0.0813593,0.0768256,-8,-1361,2.52385e-66,-8,-92.9284,-1268.07,2
1.4778,1.47636,0.79541,0.333878,0,1.29154e-65,0.0812961,0.0770713,-8,-1361,1.68928e-66,-8,-92.9184,-1268.08,2.004
1.4778,1.47636,0.795735,0.334189,0,8.61024e-66,0.0812329,0.0773503,-8,-1360,1.13115e-66,-8,-92.9084,-1267.09,2.008
1.4778,1.47636,0.79606,0.334498,0,5.74016e-66,0.0811696,0.0772484,-8,-1361,7.53697e-67,-8,-92.8985,-1268.1,2.012
1.4778,1.47636,0.796385,0.3348,0,3.82677e-66,0.0811063,0.076691,-8,-1361,4.9922e-67,-8,-92.8887,-1268.11,2.016
1.4778,1.47636,0.796709,0.335098,0,2.55118e-66,0.0810429,0.0759739,-8,-1362,3.2995e-67,-8,-92.879,-1269.12,2.02
1.4778,1.47636,0.797033,0.335396,0,1.70079e-66,0.0809795,0.0754382,-8,-1362,2.1858e-67,-8,-92.8694,-1269.13,2.024
1.4778,1.47636,0.797357,0.335693,0,1.13386e-66,0.0809159,0.0750524,-8,-1362,1.45083e-67,-8,-92.8598,-1269.14,2.028
1.4778,1.47636,0.797681,0.335989,0,7.55905e-67,0.0808524,0.0747663,-8,-1363,9.64253e-68,-8,-92.8502,-1270.15,2.032
1.4778,1.47636,0.798004,0.336289,0,5.03937e-67,0.0807887,0.0748347,-8,-1363,6.43908e-68,-8,-92.8405,-1270.16,2.036
1.4778,1.47636,0.798327,0.336588,0,3.35958e-67,0.080725,0.0747652,-8,-1363,4.29195e-68,-8,-92.8308,-1270.17,2.04
1.4778,1.47636,0.79865,0.336881,0,2.23972e-67,0.0806613,0.0743157,-8,-1363,2.84619e-68,-8,-92.8212,-1270.18,2.044
1.4778,1.47636,0.798972,0.337171,0,1.49315e-67,0.0805974,0.0736994,-8,-1364,1.88309e-68,-8,-92.8118,-1271.19,2.048
1.4778,1.47636,0.799294,0.337458,0,9.95431e-68,0.0805336,0.0730006,-8,-1364,1.24438e-68,-8,-92.8025,-1271.2,2.052
1.4778,1.47636,0.799616,0.337742,0,6.63621e-68,0.0804696,0.0723908,-8,-1365,8.23243e-69,-8,-92.7932,-1272.21,2.056
1.4778,1.47636,0.799938,0.338023,0,4.42414e-68,0.0804056,0.07161,-8,-1365,5.43288e-69,-8,-92.7841,-1272.22,2.06
1.4778,1.47636,0.80026,0.338303,0,2.94943e-68,0.0803416,0.071147,-8,-1366,3.60103e-69,-8,-92.7749,-1273.23,2.064
1.4778,1.47636,0.800581,0.338583,0,1.96628e-68,0.0802775,0.0707232,-8,-1366,2.38804e-69,-8,-92.7658,-1273.23,2.068
1.4778,1.47636,0.800902,0.338863,0,1.31086e-68,0.0802133,0.0704407,-8,-1367,1.58677e-69,-8,-92.7566,-1274.24,2.072
1.4778,1.47636,0.801223,0.339143,0,8.73904e-69,0.0801491,0.0703675,-8,-1367,1.05749e-69,-8,-92.7474,-1274.25,2.076
1.4778,1.47636,0.801543,0.339424,0,5.82603e-69,0.0800848,0.0703187,-8,-1367,7.04993e-70,-8,-92.7383,-1274.26,2.08
1.4778,1.47636,0.801863,0.33971,0,3.88402e-69,0.0800205,0.0706604,-8,-1366,4.72613e-70,-8,-92.7289,-1273.27,2.084
1.4778,1.47636,0.802183,0.339995,0,2.58934e-69,0.0799561,0.0708595,-8,-1366,3.16186e-70,-8,-92.7196,-1273.28,2.088
1.4778,1.47636,0.802503,0.340282,0,1.72623e-69,0.0798916,0.0712225,-8,-1366,2.12021e-70,-8,-92.7101,-1273.29,2.092
1.4778,1.47636,0.802822,0.340578,0,1.15082e-69,0.0798271,0.0720691,-8,-1365,1.43132e-70,-8,-92.7004,-1272.3,2.096
1.4778,1.47636,0.803142,0.340872,0,7.67213e-70,0.0797625,0.0725759,-8,-1365,9.61622e-71,-8,-92.6908,-1272.31,2.1
1.4778,1.47636,0.80346,0.341169,0,5.11475e-70,0.0796979,0.0731729,-8,-1364,6.46829e-71,-8,-92.681,-1271.32,2.104
1.4778,1.47636,0.803779,0.341468,0,3.40984e-70,0.0796332,0.0736573,-8,-1364,4.34392e-71,-8,-92.6711,-1271.33,2.108
1.4778,1.47636,0.804098,0.341767,0,2.27322e-70,0.0795685,0.0740378,-8,-1364,2.91305e-71,-8,-92.6613,-1271.34,2.112
1.4778,1.47636,0.804416,0.342067,0,1.51548e-70,0.0795037,0.0743203,-8,-1364,1.95088e-71,-8,-92.6514,-1271.35,2.116
1.4778,1.47636,0.804734,0.342363,0,1.01032e-70,0.0794389,0.0742207,-8,-1364,1.29978e-71,-8,-92.6416,-1271.36,2.12
1.4778,1.47636,0.805051,0.342659,0,6.73548e-71,0.079374,0.0741831,-8,-1364,8.66712e-72,-8,-92.6318,-1271.37,2.124
1.4778,1.47636,0.805369,0.342951,0,4.49032e-71,0.079309,0.0737549,-8,-1364,5.74883e-72,-8,-92.6222,-1271.38,2.128
1.4778,1.47636,0.805686,0.343238,0,2.99355e-71,0.079244,0.0730952,-8,-1365,3.80094e-72,-8,-92.6127,-1272.39,2.132
1.4778,1.47636,0.806002,0.343522,0,1.9957e-71,0.0791789,0.0724251,-8,-1365,2.51247e-72,-8,-92.6033,-1272.4,2.136
1.4778,1.47636,0.806319,0.343798,0,1.33047e-71,0.0791138,0.0712585,-8,-1366,1.64911e-72,-8,-92.5942,-1273.41,2.14
1.4778,1.47636,0.806635,0.344073,0,8.86977e-72,0.0790486,0.0704233,-8,-1367,1.08725e-72,-8,-92.585,-1274.41,2.144
1.4778,1.47636,0.806951,0.344341,0,5.91318e-72,0.0789834,0.0693194,-8,-1368,7.13935e-73,-8,-92.5761,-1275.42,2.148
1.4778,1.47636,0.807267,0.344606,0,3.94212e-72,0.0789181,0.0682956,-8,-1369,4.69229e-73,-8,-92.5673,-1276.43,2.152
1.4778,1.47636,0.807583,0.34487,0,2.62808e-72,0.0788528,0.0674979,-8,-1369,3.09363e-73,-8,-92.5586,-1276.44,2.156
1.4778,1.47636,0.807898,0.34513,0,1.75205e-72,0.0787874,0.0666493,-8,-1370,2.03778e-73,-8,-92.5499,-1277.45,2.16
1.4778,1.47636,0.808213,0.345387,0,1.16804e-72,0.078722,0.0658821,-8,-1371,1.34372e-73,-8,-92.5414,-1278.46,2.164
1.4778,1.47636,0.808528,0.345636,0,7.7869e-73,0.0786565,0.0646509,-8,-1372,8.79598e-74,-8,-92.5331,-1279.47,2.168
1.4778,1.47636,0.808842,0.34588,0,5.19127e-73,0.0785909,0.0634558,-8,-1373,5.75899e-74,-8,-92.5249,-1280.48,2.172
1.4778,1.47636,0.809157,0.346121,0,3.46084e-73,0.0785253,0.0623711,-8,-1374,3.77589e-74,-8,-92.5169,-1281.48,2.176
1.4778,1.47636,0.809471,0.346356,0,2.30723e-73,0.0784597,0.0611298,-8,-1375,2.46856e-74,-8,-92.5091,-1282.49,2.18
1.4778,1.47636,0.809784,0.346587,0,1.53815e-73,0.078394,0.0600143,-8,-1377,1.61658e-74,-8,-92.5013,-1284.5,2.184
1.4778,1.47636,0.810098,0.346821,0,1.02544e-73,0.0783282,0.0595586,-8,-1377,1.07014e-74,-8,-92.4935,-1284.51,2.188
1.4778,1.47636,0.810411,0.347056,0,6.83624e-74,0.0782624,0.0592836,-8,-1377,7.10531e-75,-8,-92.4856,-1284.51,2.192
1.4778,1.47636,0.810724,0.347293,0,4.55749e-74,0.0781966,0.0592442,-8,-1378,4.73642e-75,-8,-92.4777,-1285.52,2.196
1.4778,1.47636,0.811036,0.347526,0,3.03833e-74,0.0781307,0.05893,-8,-1378,3.14263e-75,-8,-92.4699,-1285.53,2.2
1.4778,1.47636,0.811349,0.347759,0,2.02555e-74,0.0780647,0.0587205,-8,-1378,2.0888e-75,-8,-92.4621,-1285.54,2.204
1.4778,1.47636,0.811661,0.347991,0,1.35037e-74,0.0779987,0.0584945,-8,-1379,1.38795e-75,-8,-92.4543,-1286.55,2.208
1.4778,1.47636,0.811973,0.348218,0,9.00245e-75,0.0779327,0.0578832,-8,-1379,9.16125e-76,-8,-92.4467,-1286.55,2.212
1.4778,1.47636,0.812284,0.348443,0,6.00163e-75,0.0778665,0.0573317,-8,-1380,6.05256e-76,-8,-92.4392,-1287.56,2.216
1.4778,1.47636,0.812596,0.348669,0,4.00109e-75,0.0778004,0.0570792,-8,-1380,4.01944e-76,-8,-92.4316,-1287.57,2.22
1.4778,1.47636,0.812907,0.348896,0,2.66739e-75,0.0777342,0.0569108,-8,-1381,2.67317e-76,-8,-92.424,-1288.58,2.224
1.4778,1.47636,0.813218,0.349125,0,1.77826e-75,0.0776679,0.0570865,-8,-1381,1.78859e-76,-8,-92.4162,-1288.58,2.228
1.4778,1.47636,0.813528,0.349354,0,1.18551e-75,0.0776016,0.0571461,-8,-1381,1.19429e-76,-8,-92.4085,-1288.59,2.232
1.4778,1.47636,0.813838,0.349585,0,7.90339e-76,0.0775353,0.0573297,-8,-1381,7.99191e-77,-8,-92.4008,-1288.6,2.236
1.4778,1.47636,0.814148,0.349821,0,5.26892e-76,0.0774689,0.0578552,-8,-1381,5.37979e-77,-8,-92.3928,-1288.61,2.24
1.4778,1.47636,0.814458,0.350052,0,3.51262e-76,0.0774024,0.0578313,-8,-1381,3.58701e-77,-8,-92.385,-1288.61,2.244
1.4778,1.47636,0.814768,0.350282,0,2.34174e-76,0.0773359,0.0577289,-8,-1381,2.38841e-77,-8,-92.3773,-1288.62,2.248
1.4778,1.47636,0.815077,0.350508,0,1.56116e-76,0.0772694,0.057344,-8,-1381,1.58251e-77,-8,-92.3696,-1288.63,2.252
1.4778,1.47636,0.815386,0.35073,0,1.04078e-76,0.0772028,0.0567419,-8,-1382,1.04448e-77,-8,-92.3621,-1289.64,2.256
1.4778,1.47636,0.815695,0.350952,0,6.9385e-77,0.0771361,0.0562829,-8,-1383,6.91048e-78,-8,-92.3546,-1290.65,2.26
1.4778,1.47636,0.816003,0.351174,0,4.62567e-77,0.0770694,0.0560057,-8,-1383,4.5867e-78,-8,-92.3471,-1290.65,2.264
1.4778,1.47636,0.816311,0.351399,0,3.08378e-77,0.0770027,0.0561088,-8,-1383,3.06506e-78,-8,-92.3395,-1290.66,2.268
1.4778,1.47636,0.816619,0.351625,0,2.05585e-77,0.0769359,0.0562352,-8,-1383,2.04907e-78,-8,-92.3319,-1290.67,2.272
1.4778,1.47636,0.816927,0.35186,0,1.37057e-77,0.0768691,0.0570391,-8,-1383,1.38634e-78,-8,-92.3239,-1290.68,2.276
1.4778,1.47636,0.817234,0.352096,0,9.13712e-78,0.0768022,0.0576903,-8,-1382,9.35297e-79,-8,-92.3159,-1289.68,2.28
1.4778,1.47636,0.817541,0.352331,0,6.09141e-78,0.0767353,0.0580668,-8,-1382,6.27949e-79,-8,-92.3079,-1289.69,2.284
1.4778,1.47636,0.817848,0.352571,0,4.06094e-78,0.0766683,0.0587497,-8,-1382,4.23795e-79,-8,-92.2998,-1289.7,2.288
1.4778,1.47636,0.818154,0.352809,0,2.7073e-78,0.0766013,0.0589746,-8,-1382,2.8377e-79,-8,-92.2917,-1289.71,2.292
1.4778,1.47636,0.818461,0.353045,0,1.80486e-78,0.0765342,0.0589806,-8,-1382,1.89304e-79,-8,-92.2837,-1289.72,2.296
1.4778,1.47636,0.818767,0.353285,0,1.20324e-78,0.0764671,0.0593013,-8,-1382,1.2696e-79,-8,-92.2755,-1289.72,2.3
1.4778,1.47636,0.819072,0.353519,0,8.02162e-79,0.0764,0.0590832,-8,-1382,8.43753e-80,-8,-92.2675,-1289.73,2.304
1.4778,1.47636,0.819378,0.353755,0,5.34774e-79,0.0763328,0.0590242,-8,-1382,5.6225e-80,-8,-92.2595,-1289.74,2.308
1.4778,1.47636,0.819683,0.353995,0,3.56516e-79,0.0762655,0.0593304,-8,-1382,3.76989e-80,-8,-92.2513,-1289.75,2.312
1.4778,1.47636,0.819988,0.354236,0,2.37678e-79,0.0761982,0.0596785,-8,-1382,2.52943e-80,-8,-92.2431,-1289.76,2.316
1.4778,1.47636,0.820293,0.354476,0,1.58452e-79,0.0761309,0.0597953,-8,-1382,1.69054e-80,-8,-92.2349,-1289.77,2.32
1.4778,1.47636,0.820597,0.35472,0,1.05634e-79,0.0760635,0.0601324,-8,-1382,1.13402e-80,-8,-92.2266,-1289.77,2.324
1.4778,1.47636,0.820901,0.354965,0,7.0423e-80,0.0759961,0.0605298,-8,-1381,7.61444e-81,-8,-92.2182,-1288.78,2.328
1.4778,1.47636,0.821205,0.355208,0,4.69486e-80,0.0759286,0.060622,-8,-1381,5.0869e-81,-8,-92.2099,-1288.79,2.332
1.4778,1.47636,0.821509,0.355455,0,3.12991e-80,0.0758611,0.0609714,-8,-1381,3.41277e-81,-8,-92.2014,-1288.8,2.336
1.4778,1.47636,0.821812,0.355702,0,2.08661e-80,0.0757936,0.0612331,-8,-1381,2.28626e-81,-8,-92.193,-1288.81,2.34
1.4778,1.47636,0.822115,0.355946,0,1.39107e-80,0.075726,0.0611485,-8,-1381,1.52293e-81,-8,-92.1846,-1288.82,2.344
1.4778,1.47636,0.822418,0.356194,0,9.27381e-81,0.0756583,0.0614663,-8,-1381,1.02115e-81,-8,-92.1761,-1288.82,2.348
1.4778,1.47636,0.82272,0.356444,0,6.18254e-81,0.0755906,0.0617646,-8,-1381,6.84464e-82,-8,-92.1676,-1288.83,2.352
1.4778,1.47636,0.823022,0.3567,0,4.12169e-81,0.0755229,0.0625105,-8,-1380,4.62093e-82,-8,-92.1588,-1287.84,2.356
1.4778,1.47636,0.823324,0.356952,0,2.74779e-81,0.0754551,0.0627486,-8,-1380,3.09417e-82,-8,-92.1501,-1287.85,2.36
1.4778,1.47636,0.823626,0.357211,0,1.83186e-81,0.0753873,0.0633968,-8,-1380,2.08533e-82,-8,-92.1412,-1287.86,2.364
1.4778,1.47636,0.823927,0.35747,0,1.22124e-81,0.0753195,0.0638001,-8,-1379,1.3999e-82,-8,-92.1323,-1286.87,2.368
1.4778,1.47636,0.824229,0.357733,0,8.14161e-82,0.0752516,0.0644433,-8,-1379,9.43245e-83,-8,-92.1232,-1286.88,2.372
1.4778,1.47636,0.824529,0.357993,0,5.42774e-82,0.0751837,0.0646994,-8,-1379,6.31707e-83,-8,-92.1143,-1286.89,2.376
1.4778,1.47636,0.82483,0.35826,0,3.61849e-82,0.0751157,0.0653595,-8,-1378,4.25696e-83,-8,-92.1051,-1285.89,2.38
1.4778,1.47636,0.82513,0.358524,0,2.41233e-82,0.0750477,0.0655405,-8,-1378,2.84755e-83,-8,-92.096,-1285.9,2.384
1.4778,1.47636,0.82543,0.358784,0,1.60822e-82,0.0749796,0.0653444,-8,-1378,1.89382e-83,-8,-92.087,-1285.91,2.388
1.4778,1.47636,0.82573,0.359042,0,1.07215e-82,0.0749115,0.0650986,-8,-1379,1.25854e-83,-8,-92.0781,-1286.92,2.392
1.4778,1.47636,0.82603,0.359296,0,7.14764e-83,0.0748434,0.0645316,-8,-1379,8.32202e-84,-8,-92.0693,-1286.93,2.396
1.4778,1.47636,0.826329,0.359548,0,4.7651e-83,0.0747752,0.064096,-8,-1380,5.51375e-84,-8,-92.0606,-1287.94,2.4
1.4778,1.47636,0.826628,0.359795,0,3.17673e-83,0.074707,0.0632586,-8,-1380,3.62985e-84,-8,-92.052,-1287.95,2.404
1.4778,1.47636,0.826927,0.360039,0,2.11782e-83,0.0746387,0.0625276,-8,-1381,2.39327e-84,-8,-92.0436,-1288.96,2.408
1.4778,1.47636,0.827225,0.360284,0,1.41188e-83,0.0745704,0.0621266,-8,-1381,1.58617e-84,-8,-92.0351,-1288.96,2.412
1.4778,1.47636,0.827523,0.36053,0,9.41253e-84,0.074502,0.0618593,-8,-1382,1.05348e-84,-8,-92.0266,-1289.97,2.416
1.4778,1.47636,0.827821,0.360777,0,6.27502e-84,0.0744337,0.0618826,-8,-1382,7.02983e-85,-8,-92.018,-1289.98,2.42
1.4778,1.47636,0.828119,0.36103,0,4.18335e-84,0.0743652,0.06233,-8,-1381,4.72315e-85,-8,-92.0092,-1288.99,2.424
1.4778,1.47636,0.828416,0.361284,0,2.7889e-84,0.0742968,0.0626859,-8,-1381,3.16857e-85,-8,-92.0004,-1289,2.428
1.4778,1.47636,0.828713,0.361534,0,1.85927e-84,0.0742283,0.062664,-8,-1381,2.11284e-85,-8,-91.9917,-1289.01,2.432
1.4778,1.47636,0.82901,0.361786,0,1.23951e-84,0.0741598,0.0627646,-8,-1381,1.41163e-85,-8,-91.9829,-1289.02,2.436
1.4778,1.47636,0.829306,0.362036,0,8.26341e-85,0.0740912,0.0626877,-8,-1381,9.40463e-86,-8,-91.9742,-1289.03,2.44
1.4778,1.47636,0.829603,0.362286,0,5.50894e-85,0.0740226,0.0626076,-8,-1382,6.26528e-86,-8,-91.9655,-1290.03,2.444
1.4778,1.47636,0.829898,0.36254,0,3.67262e-85,0.0739539,0.0628998,-8,-1381,4.19875e-86,-8,-91.9566,-1289.04,2.448
1.4778,1.47636,0.830194,0.362801,0,2.44842e-85,0.0738852,0.0636991,-8,-1381,2.83641e-86,-8,-91.9475,-1289.05,2.452
1.4778,1.47636,0.83049,0.36307,0,1.63228e-85,0.0738165,0.0648366,-8,-1380,1.92587e-86,-8,-91.9381,-1288.06,2.456
1.4778,1.47636,0.830785,0.363344,0,1.08819e-85,0.0737477,0.0660556,-8,-1379,1.30886e-86,-8,-91.9286,-1287.07,2.46
1.4778,1.47636,0.83108,0.363624,0,7.25457e-86,0.0736789,0.0674153,-8,-1378,8.91097e-87,-8,-91.9188,-1286.08,2.464
1.4778,1.47636,0.831374,0.363908,0,4.83638e-86,0.0736101,0.0686097,-8,-1377,6.04975e-87,-8,-91.9088,-1285.09,2.468
1.4778,1.47636,0.831668,0.364195,0,3.22425e-86,0.0735412,0.0696075,-8,-1376,4.09445e-87,-8,-91.8988,-1284.1,2.472
1.4778,1.47636,0.831962,0.364479,0,2.1495e-86,0.0734723,0.0700999,-8,-1375,2.7507e-87,-8,-91.8888,-1283.11,2.476
1.4778,1.47636,0.832256,0.364766,0,1.433e-86,0.0734034,0.0706585,-8,-1375,1.8496e-87,-8,-91.8788,-1283.12,2.48
1.4778,1.47636,0.83255,0.365056,0,9.55334e-87,0.0733344,0.0712325,-8,-1374,1.24389e-87,-8,-91.8686,-1282.13,2.484
1.4778,1.47636,0.832843,0.365353,0,6.36889e-87,0.0732654,0.0723061,-8,-1373,8.42317e-88,-8,-91.8581,-1281.14,2.488
1.4778,1.47636,0.833136,0.365658,0,4.24593e-87,0.0731963,0.0735977,-8,-1372,5.71964e-88,-8,-91.8474,-1280.15,2.492
1.4778,1.47636,0.833428,0.365968,0,2.83062e-87,0.0731272,0.0748906,-8,-1371,3.88276e-88,-8,-91.8365,-1279.16,2.496
1.4778,1.47636,0.833721,0.366283,0,1.88708e-87,0.0730581,0.0762132,-8,-1370,2.63607e-88,-8,-91.8254,-1278.17,2.5
1.4778,1.47636,0.834013,0.366604,0,1.25805e-87,0.0729889,0.0775268,-8,-1369,1.78894e-88,-8,-91.8141,-1277.19,2.504
1.4778,1.47636,0.834305,0.366924,0,8.38702e-88,0.0729198,0.0783737,-8,-1368,1.20651e-88,-8,-91.8028,-1276.2,2.508
1.4778,1.47636,0.834596,0.367244,0,5.59135e-88,0.0728505,0.0789095,-8,-1367,8.10417e-89,-8,-91.7915,-1275.21,2.512
1.4778,1.47636,0.834888,0.367567,0,3.72756e-88,0.0727813,0.0794971,-8,-1366,5.44689e-89,-8,-91.7801,-1274.22,2.516
1.4778,1.47636,0.835179,0.367888,0,2.48504e-88,0.072712,0.0797736,-8,-1366,3.64648e-89,-8,-91.7688,-1274.23,2.52
1.4778,1.47636,0.835469,0.368211,0,1.6567e-88,0.0726426,0.0800443,-8,-1366,2.44098e-89,-8,-91.7574,-1274.24,2.524
1.4778,1.47636,0.83576,0.368532,0,1.10446e-88,0.0725733,0.0801097,-8,-1366,1.6298e-89,-8,-91.746,-1274.25,2.528
1.4778,1.47636,0.83605,0.368849,0,7.36309e-89,0.0725039,0.0798941,-8,-1366,1.08437e-89,-8,-91.7347,-1274.27,2.532
1.4778,1.47636,0.83634,0.369164,0,4.90873e-89,0.0724344,0.0794625,-8,-1366,7.19503e-90,-8,-91.7236,-1274.28,2.536
1.4778,1.47636,0.836629,0.369476,0,3.27248e-89,0.072365,0.079002,-8,-1366,4.77216e-90,-8,-91.7125,-1274.29,2.54
1.4778,1.47636,0.836919,0.369786,0,2.18166e-89,0.0722955,0.0785222,-8,-1366,3.16427e-90,-8,-91.7015,-1274.3,2.544
1.4778,1.47636,0.837208,0.370093,0,1.45444e-89,0.0722259,0.0778857,-8,-1367,2.09382e-90,-8,-91.6906,-1275.31,2.548
1.4778,1.47636,0.837496,0.370399,0,9.69625e-90,0.0721564,0.0774038,-8,-1367,1.38817e-90,-8,-91.6797,-1275.32,2.552
1.4778,1.47636,0.837785,0.3707,0,6.46417e-90,0.0720868,0.0767082,-8,-1367,9.17736e-91,-8,-91.669,-1275.33,2.556
1.4778,1.47636,0.838073,0.371004,0,4.30944e-90,0.0720171,0.0764748,-8,-1368,6.10367e-91,-8,-91.6581,-1276.34,2.56
1.4778,1.47636,0.838361,0.371302,0,2.87296e-90,0.0719475,0.0758298,-8,-1368,4.03742e-91,-8,-91.6475,-1276.35,2.564
1.4778,1.47636,0.838649,0.371605,0,1.91531e-90,0.0718778,0.0758028,-8,-1368,2.69243e-91,-8,-91.6367,-1276.36,2.568
1.4778,1.47636,0.838936,0.371914,0,1.27687e-90,0.071808,0.0762455,-8,-1367,1.80665e-91,-8,-91.6256,-1275.37,2.572
1.4778,1.47636,0.839223,0.372222,0,8.51248e-91,0.0717383,0.0765406,-8,-1367,1.2099e-91,-8,-91.6146,-1275.39,2.576
1.4778,1.47636,0.83951,0.372535,0,5.67499e-91,0.0716685,0.0771117,-8,-1366,8.13173e-92,-8,-91.6034,-1274.4,2.58
1.4778,1.47636,0.839796,0.372855,0,3.78333e-91,0.0715987,0.078097,-8,-1365,5.49423e-92,-8,-91.5919,-1273.41,2.584
1.4778,1.47636,0.840083,0.373175,0,2.52222e-91,0.0715288,0.0786963,-8,-1365,3.69348e-92,-8,-91.5805,-1273.42,2.588
1.4778,1.47636,0.840369,0.373499,0,1.68148e-91,0.0714589,0.0794988,-8,-1364,2.48918e-92,-8,-91.5688,-1272.43,2.592
1.4778,1.47636,0.840654,0.373833,0,1.12099e-91,0.071389,0.0807825,-8,-1363,1.68746e-92,-8,-91.5569,-1271.44,2.596
1.4778,1.47636,0.84094,0.374174,0,7.47324e-92,0.0713191,0.0823004,-8,-1361,1.14696e-92,-8,-91.5446,-1269.46,2.6
1.4778,1.47636,0.841225,0.374525,0,4.98216e-92,0.0712491,0.0841473,-8,-1359,7.82388e-93,-8,-91.532,-1267.47,2.604
1.4778,1.47636,0.84151,0.374883,0,3.32144e-92,0.0711791,0.0859256,-8,-1358,5.33025e-93,-8,-91.5191,-1266.48,2.608
1.4778,1.47636,0.841794,0.375253,0,2.21429e-92,0.0711091,0.0880612,-8,-1356,3.64471e-93,-8,-91.5058,-1264.49,2.612
1.4778,1.47636,0.842079,0.375624,0,1.47619e-92,0.071039,0.0896577,-8,-1354,2.47583e-93,-8,-91.4924,-1262.51,2.616
1.4778,1.47636,0.842363,0.376003,0,9.8413e-93,0.0709689,0.0913555,-8,-1352,1.68317e-93,-8,-91.4787,-1260.52,2.62
1.4778,1.47636,0.842646,0.376383,0,6.56087e-93,0.0708988,0.0925449,-8,-1351,1.13764e-93,-8,-91.465,-1259.54,2.624
1.4778,1.47636,0.84293,0.376769,0,4.37391e-93,0.0708286,0.0939136,-8,-1350,7.70282e-94,-8,-91.451,-1258.55,2.628
1.4778,1.47636,0.843213,0.377165,0,2.91594e-93,0.0707585,0.0956035,-8,-1348,5.23203e-94,-8,-91.4367,-1256.56,2.632
1.4778,1.47636,0.843496,0.377569,0,1.94396e-93,0.0706883,0.0973922,-8,-1346,3.55633e-94,-8,-91.422,-1254.58,2.636
1.4778,1.47636,0.843779,0.377971,0,1.29597e-93,0.070618,0.098412,-8,-1345,2.39776e-94,-8,-91.4075,-1253.59,2.64
1.4778,1.47636,0.844061,0.378378,0,8.63982e-94,0.0705478,0.0995237,-8,-1343,1.61796e-94,-8,-91.3927,-1251.61,2.644
1.4778,1.47636,0.844343,0.378789,0,5.75988e-94,0.0704775,0.10061,-8,-1342,1.09136e-94,-8,-91.3777,-1250.62,2.648
1.4778,1.47636,0.844625,0.379205,0,3.83992e-94,0.0704071,0.101709,-8,-1341,7.36168e-95,-8,-91.3626,-1249.64,2.652
1.4778,1.47636,0.844906,0.379628,0,2.55995e-94,0.0703368,0.103046,-8,-1339,4.97674e-95,-8,-91.3472,-1247.65,2.656
1.4778,1.47636,0.845187,0.380057,0,1.70663e-94,0.0702664,0.104513,-8,-1337,3.36811e-95,-8,-91.3315,-1245.67,2.66
1.4778,1.47636,0.845468,0.380491,0,1.13775e-94,0.070196,0.105837,-8,-1336,2.27592e-95,-8,-91.3157,-1244.68,2.664
1.4778,1.47636,0.845749,0.380927,0,7.58503e-95,0.0701256,0.106892,-8,-1334,1.53381e-95,-8,-91.2998,-1242.7,2.668
1.4778,1.47636,0.846029,0.381365,0,5.05669e-95,0.0700551,0.107711,-8,-1333,1.03132e-95,-8,-91.2838,-1241.72,2.672
1.4778,1.47636,0.846309,0.381802,0,3.37112e-95,0.0699846,0.108228,-8,-1332,6.91475e-96,-8,-91.2678,-1240.73,2.676
1.4778,1.47636,0.846589,0.382239,0,2.24742e-95,0.0699141,0.108601,-8,-1332,4.62997e-96,-8,-91.2517,-1240.75,2.68
1.4778,1.47636,0.846869,0.382668,0,1.49828e-95,0.0698436,0.10813,-8,-1331,3.07601e-96,-8,-91.236,-1239.76,2.684
1.4778,1.47636,0.847148,0.383093,0,9.98852e-96,0.069773,0.107471,-8,-1331,2.03997e-96,-8,-91.2204,-1239.78,2.688
1.4778,1.47636,0.847427,0.383505,0,6.65901e-96,0.0697024,0.106052,-8,-1332,1.34318e-96,-8,-91.2052,-1240.79,2.692
1.4778,1.47636,0.847706,0.38391,0,4.43934e-96,0.0696318,0.104387,-8,-1333,8.82131e-97,-8,-91.1903,-1241.81,2.696
1.4778,1.47636,0.847984,0.384308,0,2.95956e-96,0.0695612,0.102816,-8,-1334,5.79715e-97,-8,-91.1756,-1242.82,2.7
1.4778,1.47636,0.848262,0.384703,0,1.97304e-96,0.0694905,0.101394,-8,-1335,3.81444e-97,-8,-91.1611,-1243.84,2.704
1.4778,1.47636,0.84854,0.385098,0,1.31536e-96,0.0694198,0.100562,-8,-1335,2.52414e-97,-8,-91.1465,-1243.85,2.708
1.4778,1.47636,0.848817,0.385492,0,8.76907e-97,0.0693491,0.0998917,-8,-1335,1.6729e-97,-8,-91.1319,-1243.87,2.712
1.4778,1.47636,0.849095,0.385891,0,5.84605e-97,0.0692784,0.0997904,-8,-1335,1.11505e-97,-8,-91.1172,-1243.88,2.716
1.4778,1.47636,0.849372,0.386289,0,3.89736e-97,0.0692076,0.0997517,-8,-1335,7.43687e-98,-8,-91.1024,-1243.9,2.72
1.4778,1.47636,0.849648,0.386689,0,2.59824e-97,0.0691368,0.0997834,-8,-1334,4.96355e-98,-8,-91.0876,-1242.91,2.724
1.4778,1.47636,0.849925,0.387094,0,1.73216e-97,0.069066,0.100265,-8,-1333,3.32777e-98,-8,-91.0726,-1241.93,2.728
1.4778,1.47636,0.850201,0.387503,0,1.15477e-97,0.0689952,0.100961,-8,-1332,2.23577e-98,-8,-91.0574,-1240.94,2.732
1.4778,1.47636,0.850477,0.38792,0,7.6985e-98,0.0689243,0.102058,-8,-1331,1.50799e-98,-8,-91.0419,-1239.96,2.736
1.4778,1.47636,0.850752,0.388336,0,5.13233e-98,0.0688534,0.102732,-8,-1330,1.01282e-98,-8,-91.0264,-1238.97,2.74
1.4778,1.47636,0.851028,0.388763,0,3.42155e-98,0.0687825,0.104016,-8,-1328,6.8425e-99,-8,-91.0105,-1236.99,2.744
1.4778,1.47636,0.851303,0.389197,0,2.28104e-98,0.0687116,0.105505,-8,-1327,4.63106e-99,-8,-90.9943,-1236.01,2.748
1.4778,1.47636,0.851577,0.38964,0,1.52069e-98,0.0686406,0.107247,-8,-1325,3.14116e-99,-8,-90.9777,-1234.02,2.752
1.4778,1.47636,0.851852,0.390082,0,1.01379e-98,0.0685697,0.108321,-8,-1323,2.11698e-99,-8,-90.9612,-1232.04,2.756
1.4778,1.47636,0.852126,0.390532,0,6.75862e-99,0.0684987,0.109758,-8,-1322,1.43133e-99,-8,-90.9444,-1231.06,2.76
1.4778,1.47636,0.8524,0.390992,0,4.50575e-99,0.0684276,0.111521,-8,-1320,9.70455e-100,-8,-90.9271,-1229.07,2.764
1.4778,1.47636,0.852673,0.391455,0,3.00383e-99,0.0683566,0.112927,-8,-1318,6.55738e-100,-8,-90.9098,-1227.09,2.768
1.4778,1.47636,0.852947,0.391919,0,2.00256e-99,0.0682855,0.113922,-8,-1316,4.41421e-100,-8,-90.8924,-1225.11,2.772
1.4778,1.47636,0.85322,0.392387,0,1.33504e-99,0.0682144,0.11496,-8,-1315,2.9724e-100,-8,-90.8748,-1224.13,2.776
1.4778,1.47636,0.853492,0.392857,0,8.90025e-100,0.0681433,0.115767,-8,-1314,1.99738e-100,-8,-90.8571,-1223.14,2.78
1.4778,1.47636,0.853765,0.393324,0,5.9335e-100,0.0680722,0.116103,-8,-1313,1.3367e-100,-8,-90.8395,-1222.16,2.784
1.4778,1.47636,0.854037,0.393796,0,3.95567e-100,0.068001,0.116731,-8,-1312,8.96794e-101,-8,-90.8217,-1221.18,2.788
1.4778,1.47636,0.854309,0.394269,0,2.63711e-100,0.0679299,0.117293,-8,-1310,6.01308e-101,-8,-90.8038,-1219.2,2.792
1.4778,1.47636,0.85458,0.394736,0,1.75807e-100,0.0678587,0.117092,-8,-1310,4.00556e-101,-8,-90.7862,-1219.21,2.796
1.4778,1.47636,0.854852,0.395201,0,1.17205e-100,0.0677874,0.116842,-8,-1310,2.66715e-101,-8,-90.7686,-1219.23,2.8
1.4778,1.47636,0.855123,0.395666,0,7.81366e-101,0.0677162,0.11659,-8,-1309,1.77589e-101,-8,-90.751,-1218.25,2.804
1.4778,1.47636,0.855393,0.396125,0,5.20911e-101,0.067645,0.115961,-8,-1309,1.17861e-101,-8,-90.7336,-1218.27,2.808
1.4778,1.47636,0.855664,0.396586,0,3.47274e-101,0.0675737,0.115772,-8,-1309,7.8517e-102,-8,-90.716,-1218.28,2.812
1.4778,1.47636,0.855934,0.39704,0,2.31516e-101,0.0675024,0.114984,-8,-1309,5.20347e-102,-8,-90.6988,-1218.3,2.816
1.4778,1.47636,0.856204,0.397492,0,1.54344e-101,0.0674311,0.114343,-8,-1309,3.45272e-102,-8,-90.6816,-1218.32,2.82
1.4778,1.47636,0.856473,0.397932,0,1.02896e-101,0.0673597,0.11288,-8,-1309,2.27431e-102,-8,-90.6648,-1218.34,2.824
1.4778,1.47636,0.856743,0.398365,0,6.85973e-102,0.0672884,0.111328,-8,-1310,1.49663e-102,-8,-90.6483,-1219.35,2.828
1.4778,1.47636,0.857012,0.398792,0,4.57315e-102,0.067217,0.109862,-8,-1311,9.85439e-103,-8,-90.632,-1220.37,2.832
1.4778,1.47636,0.85728,0.399213,0,3.04877e-102,0.0671456,0.108309,-8,-1312,6.48202e-103,-8,-90.6159,-1221.38,2.836
1.4778,1.47636,0.857549,0.399623,0,2.03251e-102,0.0670742,0.106352,-8,-1313,4.24666e-103,-8,-90.6003,-1222.4,2.84
1.4778,1.47636,0.857817,0.400028,0,1.35501e-102,0.0670027,0.104644,-8,-1314,2.78784e-103,-8,-90.5848,-1223.42,2.844
1.4778,1.47636,0.858085,0.400428,0,9.03339e-103,0.0669313,0.103131,-8,-1315,1.83312e-103,-8,-90.5694,-1224.43,2.848
1.4778,1.47636,0.858352,0.400819,0,6.02226e-103,0.0668598,0.101346,-8,-1316,1.20183e-103,-8,-90.5544,-1225.45,2.852
1.4778,1.47636,0.85862,0.401209,0,4.01484e-103,0.0667883,0.100011,-8,-1316,7.91264e-104,-8,-90.5395,-1225.46,2.856
1.4778,1.47636,0.858887,0.401596,0,2.67656e-103,0.0667168,0.0989199,-8,-1317,5.22144e-104,-8,-90.5246,-1226.48,2.86
1.4778,1.47636,0.859153,0.401976,0,1.78437e-103,0.0666453,0.0976166,-8,-1317,3.43762e-104,-8,-90.51,-1226.49,2.864
1.4778,1.47636,0.85942,0.402351,0,1.18958e-103,0.0665738,0.0963447,-8,-1318,2.26352e-104,-8,-90.4955,-1227.5,2.868
1.4778,1.47636,0.859686,0.402725,0,7.93055e-104,0.0665022,0.0953816,-8,-1319,1.495e-104,-8,-90.4811,-1228.52,2.872
1.4778,1.47636,0.859952,0.403089,0,5.28703e-104,0.0664306,0.0939046,-8,-1319,9.8192e-105,-8,-90.4671,-1228.53,2.876
1.4778,1.47636,0.860217,0.403452,0,3.52469e-104,0.066359,0.0929199,-8,-1320,6.48201e-105,-8,-90.4531,-1229.55,2.88
1.4778,1.47636,0.860483,0.403812,0,2.34979e-104,0.0662874,0.0919467,-8,-1320,4.27903e-105,-8,-90.4392,-1229.56,2.884
1.4778,1.47636,0.860748,0.404164,0,1.56653e-104,0.0662158,0.0905782,-8,-1321,2.81211e-105,-8,-90.4256,-1230.57,2.888
1.4778,1.47636,0.861012,0.404513,0,1.04435e-104,0.0661441,0.0894643,-8,-1322,1.85292e-105,-8,-90.4121,-1231.59,2.892
1.4778,1.47636,0.861277,0.404859,0,6.96234e-105,0.0660725,0.0884914,-8,-1322,1.22265e-105,-8,-90.3987,-1231.6,2.896
1.4778,1.47636,0.861541,0.405196,0,4.64156e-105,0.0660008,0.0870942,-8,-1323,8.02748e-106,-8,-90.3856,-1232.61,2.9
1.4778,1.47636,0.861805,0.405525,0,3.09438e-105,0.0659291,0.0855005,-8,-1324,5.25702e-106,-8,-90.3728,-1233.63,2.904
1.4778,1.47636,0.862068,0.405846,0,2.06292e-105,0.0658574,0.0837183,-8,-1325,3.43372e-106,-8,-90.3604,-1234.64,2.908
1.4778,1.47636,0.862332,0.406155,0,1.37528e-105,0.0657857,0.0815801,-8,-1327,2.23199e-106,-8,-90.3484,-1236.65,2.912
1.4778,1.47636,0.862595,0.406456,0,9.16852e-106,0.0657139,0.0794636,-8,-1329,1.45021e-106,-8,-90.3367,-1238.66,2.916
1.4778,1.47636,0.862857,0.406745,0,6.11235e-106,0.0656422,0.077045,-8,-1330,9.37895e-107,-8,-90.3254,-1239.67,2.92
1.4778,1.47636,0.86312,0.407029,0,4.0749e-106,0.0655704,0.0750295,-8,-1332,6.09233e-107,-8,-90.3144,-1241.69,2.924
1.4778,1.47636,0.863382,0.407308,0,2.7166e-106,0.0654986,0.0733115,-8,-1333,3.97065e-107,-8,-90.3035,-1242.7,2.928
1.4778,1.47636,0.863644,0.407581,0,1.81107e-106,0.0654268,0.0715904,-8,-1335,2.58628e-107,-8,-90.2929,-1244.71,2.932
1.4778,1.47636,0.863905,0.40785,0,1.20738e-106,0.065355,0.0701263,-8,-1336,1.68978e-107,-8,-90.2824,-1245.72,2.936
1.4778,1.47636,0.864167,0.408112,0,8.04918e-107,0.0652832,0.0686031,-8,-1337,1.1026e-107,-8,-90.2722,-1246.73,2.94
1.4778,1.47636,0.864428,0.408368,0,5.36612e-107,0.0652113,0.0670695,-8,-1338,7.18978e-108,-8,-90.2622,-1247.74,2.944
1.4778,1.47636,0.864688,0.408619,0,3.57741e-107,0.0651395,0.065644,-8,-1339,4.69353e-108,-8,-90.2524,-1248.75,2.948
1.4778,1.47636,0.864949,0.408865,0,2.38494e-107,0.0650676,0.0642042,-8,-1340,3.0618e-108,-8,-90.2428,-1249.76,2.952
1.4778,1.47636,0.865209,0.40911,0,1.58996e-107,0.0649957,0.0632732,-8,-1341,2.01252e-108,-8,-90.2332,-1250.77,2.956
1.4778,1.47636,0.865469,0.409348,0,1.05997e-107,0.0649238,0.0619903,-8,-1342,1.31506e-108,-8,-90.2239,-1251.78,2.96
1.4778,1.47636,0.865728,0.409586,0,7.0665e-108,0.0648519,0.0611926,-8,-1343,8.65814e-109,-8,-90.2145,-1252.79,2.964
1.4778,1.47636,0.865988,0.409825,0,4.711e-108,0.06478,0.0607184,-8,-1343,5.72992e-109,-8,-90.2052,-1252.79,2.968
1.4778,1.47636,0.866247,0.410059,0,3.14066e-108,0.064708,0.0599704,-8,-1344,3.77454e-109,-8,-90.196,-1253.8,2.972
1.4778,1.47636,0.866505,0.410288,0,2.09378e-108,0.0646361,0.0590686,-8,-1345,2.47958e-109,-8,-90.187,-1254.81,2.976
1.4778,1.47636,0.866764,0.410518,0,1.39585e-108,0.0645641,0.0584963,-8,-1345,1.63773e-109,-8,-90.178,-1254.82,2.98
1.4778,1.47636,0.867022,0.410736,0,9.30567e-109,0.0644921,0.0572222,-8,-1346,1.06848e-109,-8,-90.1694,-1255.83,2.984
1.4778,1.47636,0.86728,0.410949,0,6.20378e-109,0.0644201,0.0558833,-8,-1347,6.95927e-110,-8,-90.1611,-1256.84,2.988
1.4778,1.47636,0.867537,0.411152,0,4.13585e-109,0.0643481,0.0541558,-8,-1349,4.49779e-110,-8,-90.1531,-1258.85,2.992
1.4778,1.47636,0.867794,0.411347,0,2.75724e-109,0.0642761,0.0523708,-8,-1350,2.90074e-110,-8,-90.1454,-1259.85,2.996
1.4778,1.47636,0.868051,0.411537,0,1.83816e-109,0.0642041,0.0506913,-8,-1352,1.87247e-110,-8,-90.138,-1261.86,3
1.4778,1.47636,0.868308,0.41172,0,1.22544e-109,0.0641321,0.0491109,-8,-1353,1.20981e-110,-8,-90.1307,-1262.87,3.004
1.4778,1.47636,0.868564,0.41191,0,8.16959e-110,0.06406,0.0485468,-8,-1354,7.97555e-111,-8,-90.1233,-1263.88,3.008
1.4778,1.47636,0.868821,0.412097,0,5.44639e-110,0.0639879,0.0479692,-8,-1354,5.25559e-111,-8,-90.1159,-1263.88,3.012
1.4778,1.47636,0.869076,0.412286,0,3.63093e-110,0.0639159,0.0477281,-8,-1355,3.48734e-111,-8,-90.1084,-1264.89,3.016
1.4778,1.47636,0.869332,0.412474,0,2.42062e-110,0.0638438,0.047481,-8,-1355,2.31366e-111,-8,-90.101,-1264.9,3.02
1.4778,1.47636,0.869587,0.412668,0,1.61375e-110,0.0637717,0.0477769,-8,-1355,1.55261e-111,-8,-90.0934,-1264.91,3.024
1.4778,1.47636,0.869842,0.412859,0,1.07583e-110,0.0636996,0.0478015,-8,-1355,1.03597e-111,-8,-90.0859,-1264.91,3.028
1.4778,1.47636,0.870097,0.413052,0,7.17221e-111,0.0636275,0.0479042,-8,-1355,6.92375e-112,-8,-90.0783,-1264.92,3.032
1.4778,1.47636,0.870351,0.413246,0,4.78147e-111,0.0635554,0.0481454,-8,-1355,4.64074e-112,-8,-90.0706,-1264.93,3.036
1.4778,1.47636,0.870605,0.413443,0,3.18765e-111,0.0634832,0.048479,-8,-1355,3.11639e-112,-8,-90.0628,-1264.94,3.04
1.4778,1.47636,0.870859,0.413639,0,2.1251e-111,0.0634111,0.0487014,-8,-1355,2.08788e-112,-8,-90.055,-1264.94,3.044
1.4778,1.47636,0.871112,0.413833,0,1.41673e-111,0.0633389,0.0486481,-8,-1355,1.39089e-112,-8,-90.0474,-1264.95,3.048
1.4778,1.47636,0.871366,0.414027,0,9.44488e-112,0.0632668,0.0485838,-8,-1355,9.26365e-113,-8,-90.0397,-1264.96,3.052
1.4778,1.47636,0.871619,0.41422,0,6.29659e-112,0.0631946,0.0484833,-8,-1355,6.16519e-113,-8,-90.0321,-1264.97,3.056
1.4778,1.47636,0.871871,0.414414,0,4.19772e-112,0.0631224,0.0485027,-8,-1355,4.11323e-113,-8,-90.0244,-1264.98,3.06
1.4778,1.47636,0.872124,0.414608,0,2.79848e-112,0.0630502,0.048458,-8,-1355,2.7406e-113,-8,-90.0167,-1264.98,3.064
1.4778,1.47636,0.872376,0.414806,0,1.86566e-112,0.062978,0.0488026,-8,-1355,1.84073e-113,-8,-90.0089,-1264.99,3.068
1.4778,1.47636,0.872627,0.415,0,1.24377e-112,0.0629058,0.0486868,-8,-1355,1.22467e-113,-8,-90.0012,-1265,3.072
1.4778,1.47636,0.872879,0.415192,0,8.2918e-113,0.0628336,0.0484944,-8,-1356,8.13508e-114,-8,-89.9935,-1266.01,3.076
1.4778,1.47636,0.87313,0.415384,0,5.52787e-113,0.0627614,0.0483086,-8,-1356,5.4045e-114,-8,-89.9859,-1266.01,3.08
1.4778,1.47636,0.873381,0.415578,0,3.68524e-113,0.0626891,0.048415,-8,-1356,3.61222e-114,-8,-89.9782,-1266.02,3.084
1.4778,1.47636,0.873632,0.415772,0,2.45683e-113,0.0626169,0.0483708,-8,-1356,2.4068e-114,-8,-89.9705,-1266.03,3.088
1.4778,1.47636,0.873882,0.415966,0,1.63789e-113,0.0625446,0.0484277,-8,-1356,1.60699e-114,-8,-89.9628,-1266.04,3.092
1.4778,1.47636,0.874132,0.416163,0,1.09192e-113,0.0624724,0.0487535,-8,-1356,1.07892e-114,-8,-89.955,-1266.05,3.096
1.4778,1.47636,0.874382,0.416359,0,7.2795e-114,0.0624001,0.0488268,-8,-1356,7.20619e-115,-8,-89.9472,-1266.05,3.1
1.4778,1.47636,0.874631,0.416556,0,4.853e-114,0.0623278,0.0489332,-8,-1356,4.81632e-115,-8,-89.9394,-1266.06,3.104
1.4778,1.47636,0.87488,0.41675,0,3.23533e-114,0.0622556,0.0488315,-8,-1356,3.20533e-115,-8,-89.9316,-1266.07,3.108
1.4778,1.47636,0.875129,0.416947,0,2.15689e-114,0.0621833,0.0489363,-8,-1356,2.14224e-115,-8,-89.9238,-1266.08,3.112
1.4778,1.47636,0.875378,0.417144,0,1.43793e-114,0.062111,0.0490351,-8,-1356,1.43155e-115,-8,-89.916,-1266.08,3.116
1.4778,1.47636,0.875626,0.417341,0,9.58617e-115,0.0620387,0.0491009,-8,-1356,9.55991e-116,-8,-89.9081,-1266.09,3.12
1.4778,1.47636,0.875874,0.417544,0,6.39078e-115,0.0619664,0.0496918,-8,-1356,6.45235e-116,-8,-89.9,-1266.1,3.124
1.4778,1.47636,0.876122,0.41775,0,4.26052e-115,0.0618941,0.0502584,-8,-1355,4.35224e-116,-8,-89.8918,-1265.11,3.128
1.4778,1.47636,0.876369,0.417961,0,2.84035e-115,0.0618218,0.0510681,-8,-1355,2.94936e-116,-8,-89.8834,-1265.12,3.132
1.4778,1.47636,0.876616,0.418167,0,1.89356e-115,0.0617494,0.0512624,-8,-1354,1.97446e-116,-8,-89.8751,-1264.12,3.136
1.4778,1.47636,0.876863,0.418381,0,1.26238e-115,0.0616771,0.0519965,-8,-1354,1.33567e-116,-8,-89.8666,-1264.13,3.14
1.4778,1.47636,0.87711,0.418591,0,8.41584e-116,0.0616048,0.0521692,-8,-1354,8.93744e-117,-8,-89.8582,-1264.14,3.144
1.4778,1.47636,0.877356,0.418802,0,5.61056e-116,0.0615324,0.0523419,-8,-1354,5.98029e-117,-8,-89.8498,-1264.15,3.148
1.4778,1.47636,0.877602,0.419016,0,3.74037e-116,0.0614601,0.052745,-8,-1353,4.01911e-117,-8,-89.8412,-1263.16,3.152
1.4778,1.47636,0.877848,0.419234,0,2.49358e-116,0.0613877,0.0533016,-8,-1353,2.70874e-117,-8,-89.8325,-1263.17,3.156
1.4778,1.47636,0.878093,0.41945,0,1.66239e-116,0.0613154,0.0535863,-8,-1353,1.81618e-117,-8,-89.8238,-1263.18,3.16
1.4778,1.47636,0.878338,0.41966,0,1.10826e-116,0.061243,0.0531715,-8,-1353,1.20187e-117,-8,-89.8154,-1263.18,3.164
1.4778,1.47636,0.878583,0.419876,0,7.38839e-117,0.0611706,0.0534996,-8,-1353,8.06502e-118,-8,-89.8067,-1263.19,3.168
1.4778,1.47636,0.878828,0.420096,0,4.92559e-117,0.0610983,0.0540062,-8,-1352,5.42974e-118,-8,-89.7979,-1262.2,3.172
1.4778,1.47636,0.879072,0.420318,0,3.28373e-117,0.0610259,0.0544879,-8,-1352,3.65356e-118,-8,-89.789,-1262.21,3.176
1.4778,1.47636,0.879316,0.420548,0,2.18915e-117,0.0609535,0.0555,-8,-1351,2.48197e-118,-8,-89.7798,-1261.22,3.18
1.4778,1.47636,0.879559,0.420782,0,1.45944e-117,0.0608811,0.0564915,-8,-1350,1.68491e-118,-8,-89.7704,-1260.23,3.184
1.4778,1.47636,0.879803,0.421019,0,9.72957e-118,0.0608088,0.0574116,-8,-1349,1.14205e-118,-8,-89.7609,-1259.24,3.188
1.4778,1.47636,0.880046,0.421262,0,6.48638e-118,0.0607364,0.0585432,-8,-1348,7.76713e-119,-8,-89.7511,-1258.25,3.192
1.4778,1.47636,0.880289,0.421508,0,4.32425e-118,0.060664,0.0595279,-8,-1347,5.26749e-119,-8,-89.7412,-1257.26,3.196
1.4778,1.47636,0.880531,0.421757,0,2.88284e-118,0.0605916,0.0604148,-8,-1347,3.56556e-119,-8,-89.7312,-1257.27,3.2
1.4778,1.47636,0.880773,0.422012,0,1.92189e-118,0.0605192,0.0615242,-8,-1346,2.42179e-119,-8,-89.7209,-1256.28,3.204
1.4778,1.47636,0.881015,0.422269,0,1.28126e-118,0.0604468,0.0624366,-8,-1345,1.63922e-119,-8,-89.7105,-1255.29,3.208
1.4778,1.47636,0.881257,0.422531,0,8.54173e-119,0.0603744,0.0634479,-8,-1344,1.11103e-119,-8,-89.7,-1254.3,3.212
1.4778,1.47636,0.881498,0.422799,0,5.69449e-119,0.060302,0.0646116,-8,-1343,7.54629e-120,-8,-89.6892,-1253.31,3.216
1.4778,1.47636,0.881739,0.423074,0,3.79633e-119,0.0602296,0.0660207,-8,-1341,5.14309e-120,-8,-89.6781,-1251.32,3.22
1.4778,1.47636,0.88198,0.423354,0,2.53088e-119,0.0601571,0.0673633,-8,-1340,3.50018e-120,-8,-89.6668,-1250.33,3.224
1.4778,1.47636,0.882221,0.423643,0,1.68726e-119,0.0600847,0.0689205,-8,-1339,2.38861e-120,-8,-89.6551,-1249.34,3.228
1.4778,1.47636,0.882461,0.423935,0,1.12484e-119,0.0600123,0.0702753,-8,-1337,1.62455e-120,-8,-89.6433,-1247.36,3.232
1.4778,1.47636,0.882701,0.424232,0,7.49892e-120,0.0599399,0.0716104,-8,-1336,1.10419e-120,-8,-89.6313,-1246.37,3.236
1.4778,1.47636,0.88294,0.42453,0,4.99928e-120,0.0598675,0.0726444,-8,-1335,7.47147e-121,-8,-89.6192,-1245.38,3.24
1.4778,1.47636,0.88318,0.424832,0,3.33285e-120,0.0597951,0.0735641,-8,-1334,5.04672e-121,-8,-89.6069,-1244.39,3.244
1.4778,1.47636,0.883419,0.425135,0,2.2219e-120,0.0597226,0.0742636,-8,-1333,3.39828e-121,-8,-89.5947,-1243.41,3.248
1.4778,1.47636,0.883658,0.425441,0,1.48127e-120,0.0596502,0.074989,-8,-1332,2.28888e-121,-8,-89.5823,-1242.42,3.252
1.4778,1.47636,0.883896,0.42575,0,9.87512e-121,0.0595778,0.0757893,-8,-1331,1.54304e-121,-8,-89.5697,-1241.43,3.256
1.4778,1.47636,0.884134,0.426058,0,6.58341e-121,0.0595054,0.0761789,-8,-1331,1.03454e-121,-8,-89.5572,-1241.44,3.26
1.4778,1.47636,0.884372,0.42637,0,4.38894e-121,0.0594329,0.0767842,-8,-1330,6.95551e-122,-8,-89.5445,-1240.46,3.264
1.4778,1.47636,0.88461,0.426683,0,2.92596e-121,0.0593605,0.077274,-8,-1329,4.66914e-122,-8,-89.5318,-1239.47,3.268
1.4778,1.47636,0.884847,0.426999,0,1.95064e-121,0.0592881,0.0778885,-8,-1328,3.13924e-122,-8,-89.5189,-1238.48,3.272
1.4778,1.47636,0.885084,0.427315,0,1.30043e-121,0.0592157,0.0782118,-8,-1328,2.10267e-122,-8,-89.506,-1238.49,3.276
1.4778,1.47636,0.885321,0.427629,0,8.66951e-122,0.0591432,0.0783121,-8,-1328,1.40435e-122,-8,-89.4932,-1238.51,3.28
1.4778,1.47636,0.885557,0.427942,0,5.77967e-122,0.0590708,0.0782639,-8,-1327,9.36162e-123,-8,-89.4805,-1237.52,3.284
1.4778,1.47636,0.885793,0.428255,0,3.85312e-122,0.0589984,0.0782605,-8,-1327,6.2442e-123,-8,-89.4677,-1237.53,3.288
1.4778,1.47636,0.886029,0.428568,0,2.56874e-122,0.058926,0.078287,-8,-1327,4.16648e-123,-8,-89.4549,-1237.55,3.292
1.4778,1.47636,0.886265,0.428881,0,1.7125e-122,0.0588535,0.0782471,-8,-1326,2.77774e-123,-8,-89.4421,-1236.56,3.296
1.4778,1.47636,0.8865,0.429192,0,1.14166e-122,0.0587811,0.0781054,-8,-1326,1.84947e-123,-8,-89.4294,-1236.57,3.3
1.4778,1.47636,0.886735,0.429508,0,7.61109e-123,0.0587087,0.0784427,-8,-1326,1.23898e-123,-8,-89.4164,-1236.58,3.304
1.4778,1.47636,0.88697,0.429828,0,5.07406e-123,0.0586363,0.0789268,-8,-1325,8.31541e-124,-8,-89.4033,-1235.6,3.308
1.4778,1.47636,0.887204,0.43015,0,3.38271e-123,0.0585639,0.0794222,-8,-1324,5.58149e-124,-8,-89.3901,-1234.61,3.312
1.4778,1.47636,0.887438,0.430467,0,2.25514e-123,0.0584914,0.079407,-8,-1324,3.72232e-124,-8,-89.3771,-1234.62,3.316
1.4778,1.47636,0.887672,0.430787,0,1.50343e-123,0.058419,0.0795984,-8,-1324,2.48889e-124,-8,-89.364,-1234.64,3.32
1.4778,1.47636,0.887905,0.43111,0,1.00228e-123,0.0583466,0.0799851,-8,-1323,1.66825e-124,-8,-89.3507,-1233.65,3.324
1.4778,1.47636,0.888139,0.431436,0,6.68189e-124,0.0582742,0.080502,-8,-1322,1.11998e-124,-8,-89.3373,-1232.66,3.328
1.4778,1.47636,0.888372,0.431767,0,4.4546e-124,0.0582018,0.0812497,-8,-1321,7.54013e-125,-8,-89.3237,-1231.68,3.332
1.4778,1.47636,0.888604,0.432102,0,2.96973e-124,0.0581294,0.0820361,-8,-1320,5.07831e-125,-8,-89.3099,-1230.69,3.336
1.4778,1.47636,0.888837,0.43244,0,1.97982e-124,0.058057,0.0828771,-8,-1319,3.42222e-125,-8,-89.296,-1229.7,3.34
1.4778,1.47636,0.889069,0.432783,0,1.31988e-124,0.0579846,0.0838695,-8,-1318,2.31015e-125,-8,-89.2818,-1228.72,3.344
1.4778,1.47636,0.889301,0.433124,0,8.7992e-125,0.0579122,0.0843297,-8,-1317,1.54945e-125,-8,-89.2677,-1227.73,3.348
1.4778,1.47636,0.889532,0.433467,0,5.86613e-125,0.0578398,0.0847516,-8,-1316,1.03874e-125,-8,-89.2536,-1226.75,3.352
1.4778,1.47636,0.889763,0.433811,0,3.91076e-125,0.0577674,0.0852056,-8,-1316,6.96609e-126,-8,-89.2394,-1226.76,3.356
1.4778,1.47636,0.889994,0.434153,0,2.60717e-125,0.057695,0.0853355,-8,-1315,4.65384e-126,-8,-89.2252,-1225.77,3.36
1.4778,1.47636,0.890225,0.434503,0,1.73811e-125,0.0576226,0.0860268,-8,-1314,3.12954e-126,-8,-89.2107,-1224.79,3.364
1.4778,1.47636,0.890455,0.434858,0,1.15874e-125,0.0575502,0.0869483,-8,-1313,2.10998e-126,-8,-89.196,-1223.8,3.368
1.4778,1.47636,0.890685,0.435211,0,7.72495e-126,0.0574778,0.0873322,-8,-1312,1.4137e-126,-8,-89.1814,-1222.82,3.372
1.4778,1.47636,0.890915,0.435568,0,5.14997e-126,0.0574054,0.0879913,-8,-1311,9.50153e-127,-8,-89.1666,-1221.83,3.376
1.4778,1.47636,0.891144,0.435922,0,3.43331e-126,0.0573331,0.0881716,-8,-1311,6.35111e-127,-8,-89.1519,-1221.85,3.38
1.4778,1.47636,0.891374,0.436279,0,2.28887e-126,0.0572607,0.0885221,-8,-1310,4.25345e-127,-8,-89.1371,-1220.86,3.384
1.4778,1.47636,0.891603,0.436631,0,1.52592e-126,0.0571883,0.0883239,-8,-1310,2.83096e-127,-8,-89.1225,-1220.88,3.388
1.4778,1.47636,0.891831,0.436985,0,1.01728e-126,0.057116,0.0884509,-8,-1309,1.89114e-127,-8,-89.1077,-1219.89,3.392
1.4778,1.47636,0.892059,0.437337,0,6.78185e-127,0.0570436,0.0882476,-8,-1309,1.2586e-127,-8,-89.0931,-1219.91,3.396
1.4778,1.47636,0.892287,0.437687,0,4.52123e-127,0.0569713,0.0880257,-8,-1309,8.37449e-128,-8,-89.0785,-1219.92,3.4
1.4778,1.47636,0.892515,0.438036,0,3.01416e-127,0.0568989,0.0877915,-8,-1309,5.57138e-128,-8,-89.0639,-1219.94,3.404
1.4778,1.47636,0.892743,0.438387,0,2.00944e-127,0.0568266,0.0877216,-8,-1308,3.71346e-128,-8,-89.0493,-1218.95,3.408
1.4778,1.47636,0.89297,0.438732,0,1.33962e-127,0.0567542,0.087272,-8,-1308,2.46437e-128,-8,-89.0348,-1218.97,3.412
1.4778,1.47636,0.893197,0.439078,0,8.93083e-128,0.0566819,0.0870011,-8,-1308,1.63875e-128,-8,-89.0204,-1218.98,3.416
1.4778,1.47636,0.893423,0.439418,0,5.95389e-128,0.0566096,0.086331,-8,-1308,1.0847e-128,-8,-89.0062,-1218.99,3.42
1.4778,1.47636,0.89365,0.439765,0,3.96926e-128,0.0565373,0.0864601,-8,-1308,7.2463e-129,-8,-88.9917,-1219.01,3.424
1.4778,1.47636,0.893876,0.440105,0,2.64617e-128,0.056465,0.0859415,-8,-1308,4.80459e-129,-8,-88.9774,-1219.02,3.428
1.4778,1.47636,0.894101,0.440444,0,1.76411e-128,0.0563927,0.0856246,-8,-1308,3.19304e-129,-8,-88.9632,-1219.04,3.432
1.4778,1.47636,0.894327,0.440781,0,1.17608e-128,0.0563204,0.0851254,-8,-1308,2.11746e-129,-8,-88.9491,-1219.05,3.436
1.4778,1.47636,0.894552,0.441117,0,7.84051e-129,0.0562481,0.0847351,-8,-1308,1.40594e-129,-8,-88.935,-1219.07,3.44
1.4778,1.47636,0.894777,0.441451,0,5.22701e-129,0.0561758,0.0843597,-8,-1308,9.33657e-130,-8,-88.9209,-1219.08,3.444
1.4778,1.47636,0.895001,0.441788,0,3.48467e-129,0.0561035,0.0843397,-8,-1307,6.22635e-130,-8,-88.9067,-1218.09,3.448
1.4778,1.47636,0.895226,0.442123,0,2.32311e-129,0.0560312,0.0840673,-8,-1307,4.13976e-130,-8,-88.8927,-1218.11,3.452
1.4778,1.47636,0.89545,0.44246,0,1.54874e-129,0.055959,0.0841736,-8,-1307,2.76486e-130,-8,-88.8785,-1218.12,3.456
1.4778,1.47636,0.895673,0.442802,0,1.0325e-129,0.0558867,0.0846188,-8,-1306,1.85403e-130,-8,-88.8641,-1217.14,3.46
1.4778,1.47636,0.895897,0.443147,0,6.8833e-130,0.0558144,0.0851746,-8,-1305,1.24484e-130,-8,-88.8495,-1216.15,3.464
1.4778,1.47636,0.89612,0.443497,0,4.58887e-130,0.0557422,0.0859195,-8,-1304,8.37627e-131,-8,-88.8348,-1215.17,3.468
1.4778,1.47636,0.896343,0.443851,0,3.05924e-130,0.05567,0.0867904,-8,-1303,5.64404e-131,-8,-88.8198,-1214.18,3.472
1.4778,1.47636,0.896565,0.444208,0,2.0395e-130,0.0555977,0.0876301,-8,-1302,3.8013e-131,-8,-88.8047,-1213.2,3.476
