peachynonah/Fire_monitor_/csv_datas/trial11/cdsl_data_t11_5.csv
joint1_pos_desired, joint1_pos, joint2_pos_desired, joint2_pos, joint1_vel_desired, joint1_vel_filtered, joint2_vel_desired, joint2_vel_filtered, target_torque_joint1, target_torque_joint2, nonlinear_term_torque_joint1, PD_term_torque_joint1, nonlinear_term_torque_joint2, PD_term_torque_joint2, current_time
1.4778,1.47636,0.5869,0.192728,0,0,0.0999999,0,-9,-1259,0,-9,-96.5285,-1162.47,0.004
1.4778,1.47636,0.5873,0.192649,0,0,0.0999996,-0.00662191,-9,-1265,-0,-9,-96.53,-1168.47,0.008
1.4778,1.47636,0.5877,0.192595,0,0,0.0999991,-0.00890599,-9,-1268,-0,-9,-96.531,-1171.47,0.012
1.4778,1.47636,0.5881,0.192625,0,0,0.0999984,-0.00337494,-9,-1265,-0,-9,-96.5305,-1168.47,0.016
1.4778,1.47636,0.5885,0.192765,0,0,0.0999975,0.00938158,-9,-1255,0,-9,-96.5278,-1158.47,0.02
1.4778,1.47636,0.5889,0.193012,0,2.87909e-05,0.0999964,0.0268687,-9,-1241,7.98234e-07,-9,-96.5232,-1144.48,0.024
1.4778,1.47636,0.5893,0.193357,0,1.91939e-05,0.0999951,0.0465882,-9,-1225,9.2428e-07,-9,-96.5167,-1128.48,0.028
1.4778,1.47636,0.5897,0.193782,0,1.2796e-05,0.0999937,0.0665292,-9,-1209,8.8177e-07,-9,-96.5086,-1112.49,0.032
1.4778,1.47636,0.5901,0.194259,0,8.53064e-06,0.099992,0.0841131,-9,-1194,7.44953e-07,-9,-96.4996,-1097.5,0.036
1.4778,1.47636,0.5905,0.19474,0,5.6871e-06,0.0999901,0.0961236,-9,-1184,5.68882e-07,-9,-96.4904,-1087.51,0.04
1.4778,1.47636,0.5909,0.195217,0,3.7914e-06,0.099988,0.103871,-9,-1177,4.10777e-07,-9,-96.4813,-1080.52,0.044
1.4778,1.47636,0.5913,0.195683,0,2.5276e-06,0.0999858,0.108029,-9,-1174,2.85457e-07,-9,-96.4724,-1077.53,0.048
1.4778,1.47636,0.5917,0.196139,0,1.68507e-06,0.0999833,0.110081,-9,-1172,1.94348e-07,-9,-96.4637,-1075.54,0.052
1.4778,1.47636,0.5921,0.196584,0,1.12338e-06,0.0999806,0.11047,-9,-1171,1.30303e-07,-9,-96.4552,-1074.54,0.056
1.4778,1.47636,0.5925,0.197019,0,7.48918e-07,0.0999778,0.109894,-9,-1172,8.65974e-08,-9,-96.4468,-1075.55,0.06
1.4778,1.47636,0.592899,0.197451,0,4.99279e-07,0.0999747,0.109194,-9,-1172,5.74826e-08,-9,-96.4385,-1075.56,0.064
1.4778,1.47636,0.593299,0.197875,0,3.32852e-07,0.0999715,0.108151,-9,-1173,3.8033e-08,-9,-96.4303,-1076.57,0.068
1.4778,1.47636,0.593699,0.1983,0,2.21902e-07,0.0999681,0.107571,-9,-1173,2.52708e-08,-9,-96.4221,-1076.58,0.072
1.4778,1.47636,0.594099,0.198725,0,1.47934e-07,0.0999644,0.107127,-9,-1174,1.68116e-08,-9,-96.4138,-1077.59,0.076
1.4778,1.47636,0.594499,0.19915,0,9.86229e-08,0.0999606,0.106802,-9,-1174,1.11964e-08,-9,-96.4056,-1077.59,0.08
1.4778,1.47636,0.594899,0.199568,0,6.57486e-08,0.0999566,0.106067,-9,-1174,7.42762e-09,-9,-96.3974,-1077.6,0.084
1.4778,1.47636,0.595299,0.199976,0,4.38324e-08,0.0999524,0.104714,-9,-1175,4.89801e-09,-9,-96.3895,-1078.61,0.088
1.4778,1.47636,0.595698,0.200367,0,2.92216e-08,0.099948,0.102372,-9,-1177,3.19821e-09,-9,-96.3818,-1080.62,0.092
1.4778,1.47636,0.596098,0.200733,0,1.94811e-08,0.0999434,0.0987373,-9,-1180,2.06e-09,-9,-96.3746,-1083.63,0.096
1.4778,1.47636,0.596498,0.201074,0,1.29874e-08,0.0999387,0.0942415,-9,-1184,1.31291e-09,-9,-96.3679,-1087.63,0.1
1.4778,1.47636,0.596898,0.201384,0,8.65826e-09,0.0999337,0.0886819,-9,-1189,8.24837e-10,-9,-96.3618,-1092.64,0.104
1.4778,1.47636,0.597297,0.201668,0,5.77217e-09,0.0999285,0.0827298,-9,-1194,5.13666e-10,-9,-96.3563,-1097.64,0.108
1.4778,1.47636,0.597697,0.201931,0,3.84811e-09,0.0999232,0.0770919,-9,-1199,3.19501e-10,-9,-96.3511,-1102.65,0.112
1.4778,1.47636,0.598097,0.202176,0,2.56541e-09,0.0999176,0.0718362,-9,-1204,1.98707e-10,-9,-96.3462,-1107.65,0.116
1.4778,1.47636,0.598496,0.202403,0,1.71027e-09,0.0999119,0.0667488,-9,-1209,1.2322e-10,-9,-96.3418,-1112.66,0.12
1.4778,1.47636,0.598896,0.202614,0,1.14018e-09,0.099906,0.0620905,-9,-1213,7.64891e-11,-9,-96.3376,-1116.66,0.124
1.4778,1.47636,0.599296,0.202809,0,7.60121e-10,0.0998999,0.0577181,-9,-1217,4.74451e-11,-9,-96.3337,-1120.67,0.128
1.4778,1.47636,0.599695,0.202988,0,5.06748e-10,0.0998936,0.0533924,-9,-1221,2.9284e-11,-9,-96.3302,-1124.67,0.132
1.4778,1.47636,0.600095,0.203154,0,3.37832e-10,0.0998871,0.0494146,-9,-1225,1.80821e-11,-9,-96.3269,-1128.67,0.136
1.4778,1.47636,0.600494,0.203299,0,2.25221e-10,0.0998804,0.0450353,-9,-1229,1.09938e-11,-9,-96.324,-1132.68,0.14
1.4778,1.47636,0.600894,0.203418,0,1.50147e-10,0.0998735,0.03987,-9,-1234,6.49215e-12,-9,-96.3217,-1137.68,0.144
1.4778,1.47636,0.601293,0.203508,0,1.00098e-10,0.0998665,0.034152,-9,-1240,3.70895e-12,-9,-96.3198,-1143.68,0.148
1.4778,1.47636,0.601693,0.20357,0,6.67322e-11,0.0998593,0.0278928,-9,-1246,2.02003e-12,-9,-96.3186,-1149.68,0.152
1.4778,1.47636,0.602092,0.203607,0,4.44881e-11,0.0998518,0.0217046,-9,-1252,1.0481e-12,-9,-96.3179,-1155.68,0.156
1.4778,1.47636,0.602492,0.203624,0,2.96587e-11,0.0998442,0.0158517,-9,-1258,5.10351e-13,-9,-96.3176,-1161.68,0.16
1.4778,1.47636,0.602891,0.203625,0,1.97725e-11,0.0998364,0.0106542,-9,-1263,2.28678e-13,-9,-96.3175,-1166.68,0.164
1.4778,1.47636,0.60329,0.203625,0,1.31817e-11,0.0998284,0.00710279,-9,-1267,1.01634e-13,-9,-96.3175,-1170.68,0.168
1.4778,1.47636,0.60369,0.203625,0,8.78778e-12,0.0998203,0.00473519,-9,-1270,4.51709e-14,-9,-96.3175,-1173.68,0.172
1.4778,1.47636,0.604089,0.203625,0,5.85852e-12,0.0998119,0.00315679,-9,-1273,2.00759e-14,-9,-96.3175,-1176.68,0.176
1.4778,1.47636,0.604488,0.203625,0,3.90568e-12,0.0998034,0.00210453,-9,-1275,8.92264e-15,-9,-96.3175,-1178.68,0.18
1.4778,1.47636,0.604887,0.203625,0,2.60379e-12,0.0997947,0.00140302,-9,-1276,3.96562e-15,-9,-96.3175,-1179.68,0.184
1.4778,1.47636,0.605286,0.203625,0,1.73586e-12,0.0997858,0.000935346,-9,-1278,1.7625e-15,-9,-96.3175,-1181.68,0.188
1.4778,1.47636,0.605686,0.203625,0,1.15724e-12,0.0997767,0.000623564,-9,-1279,7.83332e-16,-9,-96.3175,-1182.68,0.192
1.4778,1.47636,0.606085,0.203625,0,7.71492e-13,0.0997674,0.000415709,-9,-1280,3.48148e-16,-9,-96.3175,-1183.68,0.196
1.4778,1.47636,0.606484,0.203625,0,5.14328e-13,0.0997579,0.00027714,-9,-1282,1.54732e-16,-9,-96.3175,-1185.68,0.2
1.4778,1.47636,0.606883,0.203625,0,3.42885e-13,0.0997483,0.00018476,-9,-1283,6.87699e-17,-9,-96.3175,-1186.68,0.204
1.4778,1.47636,0.607282,0.203625,0,2.2859e-13,0.0997385,0.000123173,-9,-1284,3.05644e-17,-9,-96.3175,-1187.68,0.208
1.4778,1.47636,0.607681,0.203625,0,1.52393e-13,0.0997285,8.21154e-05,-9,-1285,1.35842e-17,-9,-96.3175,-1188.68,0.212
1.4778,1.47636,0.60808,0.203625,0,1.01596e-13,0.0997183,5.47436e-05,-9,-1286,6.03741e-18,-9,-96.3175,-1189.68,0.216
1.4778,1.47636,0.608478,0.203625,0,6.77304e-14,0.0997079,3.64958e-05,-9,-1287,2.68329e-18,-9,-96.3175,-1190.68,0.22
1.4778,1.47636,0.608877,0.203625,0,4.51536e-14,0.0996974,2.43305e-05,-9,-1288,1.19258e-18,-9,-96.3175,-1191.68,0.224
1.4778,1.47636,0.609276,0.203625,0,3.01024e-14,0.0996866,1.62203e-05,-9,-1290,5.30033e-19,-9,-96.3175,-1193.68,0.228
1.4778,1.47636,0.609675,0.203625,0,2.00683e-14,0.0996757,1.08136e-05,-9,-1291,2.3557e-19,-9,-96.3175,-1194.68,0.232
1.4778,1.47636,0.610073,0.203625,0,1.33789e-14,0.0996646,7.20904e-06,-9,-1292,1.04698e-19,-9,-96.3175,-1195.68,0.236
1.4778,1.47636,0.610472,0.203625,0,8.91924e-15,0.0996533,4.80603e-06,-9,-1293,4.65324e-20,-9,-96.3175,-1196.68,0.24
1.4778,1.47636,0.610871,0.203625,0,5.94616e-15,0.0996419,3.20402e-06,-9,-1294,2.06811e-20,-9,-96.3175,-1197.68,0.244
1.4778,1.47636,0.611269,0.203625,0,3.9641e-15,0.0996303,2.13601e-06,-9,-1295,9.19159e-21,-9,-96.3175,-1198.68,0.248
1.4778,1.47636,0.611668,0.203625,0,2.64274e-15,0.0996184,1.42401e-06,-9,-1296,4.08515e-21,-9,-96.3175,-1199.68,0.252
1.4778,1.47636,0.612066,0.203625,0,1.76182e-15,0.0996064,9.49338e-07,-9,-1297,1.81562e-21,-9,-96.3175,-1200.68,0.256
1.4778,1.47636,0.612465,0.203626,0,1.17455e-15,0.0995943,5.82147e-05,-9,-1298,7.42246e-20,-9,-96.3175,-1201.68,0.26
1.4778,1.47636,0.612863,0.203625,0,7.83033e-16,0.0995819,-4.75629e-05,-9,-1299,-4.04287e-20,-9,-96.3175,-1202.68,0.264
1.4778,1.47636,0.613261,0.203625,0,5.22022e-16,0.0995694,-2.91771e-06,-9,-1300,-1.65338e-21,-9,-96.3175,-1203.68,0.268
1.4778,1.47636,0.613659,0.203625,0,3.48015e-16,0.0995567,2.68458e-05,-9,-1301,1.01418e-20,-9,-96.3175,-1204.68,0.272
1.4778,1.47636,0.614058,0.203625,0,2.3201e-16,0.0995438,1.78972e-05,-9,-1302,4.50748e-21,-9,-96.3175,-1205.68,0.276
1.4778,1.47636,0.614456,0.203625,0,1.54673e-16,0.0995308,-1.68595e-05,-9,-1304,-2.83075e-21,-9,-96.3175,-1207.68,0.28
1.4778,1.47636,0.614854,0.203625,0,1.03115e-16,0.0995175,1.75513e-05,-9,-1305,1.96461e-21,-9,-96.3175,-1208.68,0.284
1.4778,1.47636,0.615252,0.203625,0,6.87436e-17,0.0995041,1.17009e-05,-9,-1306,8.73158e-22,-9,-96.3175,-1209.68,0.288
1.4778,1.47636,0.61565,0.203625,0,4.58291e-17,0.0994905,7.80057e-06,-9,-1307,3.8807e-22,-9,-96.3175,-1210.68,0.292
1.4778,1.47636,0.616048,0.203625,0,3.05527e-17,0.0994768,5.20038e-06,-9,-1308,1.72476e-22,-9,-96.3175,-1211.68,0.296
1.4778,1.47636,0.616446,0.203625,0,2.03685e-17,0.0994628,3.46692e-06,-9,-1309,7.66559e-23,-9,-96.3175,-1212.68,0.3
1.4778,1.47636,0.616844,0.203625,0,1.3579e-17,0.0994487,2.31128e-06,-9,-1310,3.40693e-23,-9,-96.3175,-1213.68,0.304
1.4778,1.47636,0.617241,0.203625,0,9.05266e-18,0.0994344,1.54085e-06,-9,-1311,1.51419e-23,-9,-96.3175,-1214.68,0.308
1.4778,1.47636,0.617639,0.203625,0,6.03511e-18,0.0994199,1.02724e-06,-9,-1312,6.72973e-24,-9,-96.3175,-1215.68,0.312
1.4778,1.47636,0.618037,0.203625,0,4.0234e-18,0.0994053,6.84824e-07,-9,-1313,2.99099e-24,-9,-96.3175,-1216.68,0.316
1.4778,1.47636,0.618434,0.203625,0,2.68227e-18,0.0993905,4.56549e-07,-9,-1314,1.32933e-24,-9,-96.3175,-1217.68,0.32
1.4778,1.47636,0.618832,0.203625,0,1.78818e-18,0.0993755,3.04366e-07,-9,-1315,5.90813e-25,-9,-96.3175,-1218.68,0.324
1.4778,1.47636,0.619229,0.203625,0,1.19212e-18,0.0993603,2.02911e-07,-9,-1317,2.62584e-25,-9,-96.3175,-1220.68,0.328
1.4778,1.47636,0.619627,0.203625,0,7.94747e-19,0.099345,1.35274e-07,-9,-1318,1.16704e-25,-9,-96.3175,-1221.68,0.332
1.4778,1.47636,0.620024,0.203625,0,5.29831e-19,0.0993295,9.01825e-08,-9,-1319,5.18684e-26,-9,-96.3175,-1222.68,0.336
1.4778,1.47636,0.620421,0.203625,0,3.53221e-19,0.0993138,6.01217e-08,-9,-1320,2.30526e-26,-9,-96.3175,-1223.68,0.34
1.4778,1.47636,0.620819,0.203625,0,2.3548e-19,0.099298,4.00811e-08,-9,-1321,1.02456e-26,-9,-96.3175,-1224.68,0.344
1.4778,1.47636,0.621216,0.203625,0,1.56987e-19,0.0992819,2.67208e-08,-9,-1322,4.5536e-27,-9,-96.3175,-1225.68,0.348
1.4778,1.47636,0.621613,0.203625,0,1.04658e-19,0.0992657,1.78138e-08,-9,-1323,2.02382e-27,-9,-96.3175,-1226.68,0.352
1.4778,1.47636,0.62201,0.203625,0,6.9772e-20,0.0992494,1.18759e-08,-9,-1324,8.99477e-28,-9,-96.3175,-1227.68,0.356
1.4778,1.47636,0.622407,0.203625,0,4.65147e-20,0.0992328,7.91726e-09,-9,-1325,3.99768e-28,-9,-96.3175,-1228.68,0.36
1.4778,1.47636,0.622804,0.203625,0,3.10098e-20,0.0992161,-2.87856e-05,-9,-1326,-9.68984e-25,-9,-96.3175,-1229.68,0.364
1.4778,1.47636,0.623201,0.203626,0,2.06732e-20,0.0991993,6.71823e-05,-9,-1327,1.50767e-24,-9,-96.3175,-1230.68,0.368
1.4778,1.47636,0.623597,0.203625,0,1.37821e-20,0.0991822,-1.27936e-05,-9,-1328,-1.91405e-25,-9,-96.3175,-1231.68,0.372
1.4778,1.47636,0.623994,0.203626,0,9.18808e-21,0.099165,4.90528e-05,-9,-1329,4.89252e-25,-9,-96.3175,-1232.68,0.376
1.4778,1.47636,0.624391,0.203626,0,6.12539e-21,0.0991476,3.91092e-06,-9,-1330,2.6005e-26,-9,-96.3175,-1233.68,0.38
1.4778,1.47636,0.624787,0.203626,0,4.08359e-21,0.09913,2.60728e-06,-9,-1332,1.15578e-26,-9,-96.3175,-1235.68,0.384
1.4778,1.47636,0.625184,0.203625,0,2.72239e-21,0.0991123,-5.58437e-05,-9,-1333,-1.65032e-25,-9,-96.3175,-1236.68,0.388
1.4778,1.47636,0.62558,0.203626,0,1.81493e-21,0.0990944,2.03527e-05,-9,-1334,4.00983e-26,-9,-96.3175,-1237.68,0.392
1.4778,1.47636,0.625976,0.203626,0,1.20995e-21,0.0990764,4.23594e-05,-9,-1335,5.56369e-26,-9,-96.3175,-1238.68,0.396
1.4778,1.47636,0.626373,0.203626,0,8.06635e-22,0.0990581,-5.51312e-07,-9,-1336,-4.82746e-28,-9,-96.3175,-1239.68,0.4
1.4778,1.47636,0.626769,0.203626,0,5.37757e-22,0.0990397,-3.67541e-07,-9,-1337,-2.14554e-28,-9,-96.3175,-1240.68,0.404
1.4778,1.47636,0.627165,0.203626,0,3.58505e-22,0.0990212,-2.45028e-07,-9,-1338,-9.53571e-29,-9,-96.3175,-1241.68,0.408
1.4778,1.47636,0.627561,0.203626,0,2.39003e-22,0.0990024,-1.63352e-07,-9,-1339,-4.2381e-29,-9,-96.3175,-1242.68,0.412
1.4778,1.47636,0.627957,0.203626,0,1.59335e-22,0.0989835,-1.08901e-07,-9,-1340,-1.8836e-29,-9,-96.3175,-1243.68,0.416
1.4778,1.47636,0.628353,0.203626,0,1.06224e-22,0.0989645,-7.26008e-08,-9,-1341,-8.37155e-30,-9,-96.3175,-1244.68,0.42
1.4778,1.47636,0.628749,0.203626,0,7.08157e-23,0.0989452,-4.84005e-08,-9,-1342,-3.72069e-30,-9,-96.3175,-1245.68,0.424
1.4778,1.47636,0.629144,0.203626,0,4.72105e-23,0.0989259,-3.2267e-08,-9,-1343,-1.65364e-30,-9,-96.3175,-1246.68,0.428
1.4778,1.47636,0.62954,0.203626,0,3.14737e-23,0.0989063,-2.15113e-08,-9,-1344,-7.34951e-31,-9,-96.3175,-1247.68,0.432
1.4778,1.47636,0.629936,0.203626,0,2.09824e-23,0.0988866,-1.43409e-08,-9,-1345,-3.26645e-31,-9,-96.3175,-1248.68,0.436
1.4778,1.47636,0.630331,0.203626,0,1.39883e-23,0.0988667,-9.5606e-09,-9,-1347,-1.45175e-31,-9,-96.3175,-1250.68,0.44
1.4778,1.47636,0.630727,0.203626,0,9.32553e-24,0.0988466,2.87846e-05,-9,-1348,2.91392e-28,-9,-96.3175,-1251.68,0.444
1.4778,1.47636,0.631122,0.203625,0,6.21702e-24,0.0988264,-3.83921e-05,-9,-1349,-2.591e-28,-9,-96.3175,-1252.68,0.448
1.4778,1.47636,0.631517,0.203626,0,4.14468e-24,0.098806,3.19871e-05,-9,-1350,1.43916e-28,-9,-96.3175,-1253.68,0.452
1.4778,1.47636,0.631912,0.203626,0,2.76312e-24,0.0987855,2.13247e-05,-9,-1351,6.39628e-29,-9,-96.3175,-1254.68,0.456
1.4778,1.47636,0.632308,0.203626,0,1.84208e-24,0.0987647,1.42165e-05,-9,-1352,2.84279e-29,-9,-96.3175,-1255.68,0.46
1.4778,1.47636,0.632703,0.203626,0,1.22805e-24,0.0987439,9.47765e-06,-9,-1353,1.26346e-29,-9,-96.3175,-1256.68,0.464
1.4778,1.47636,0.633097,0.203626,0,8.18702e-25,0.0987228,6.31844e-06,-9,-1354,5.61539e-30,-9,-96.3175,-1257.68,0.468
1.4778,1.47636,0.633492,0.203626,0,5.45801e-25,0.0987016,4.21229e-06,-9,-1355,2.49573e-30,-9,-96.3175,-1258.68,0.472
1.4778,1.47636,0.633887,0.203626,0,3.63868e-25,0.0986803,2.80819e-06,-9,-1356,1.10921e-30,-9,-96.3175,-1259.68,0.476
1.4778,1.47636,0.634282,0.203626,0,2.42578e-25,0.0986587,1.87213e-06,-9,-1357,4.92983e-31,-9,-96.3175,-1260.68,0.48
1.4778,1.47636,0.634676,0.203626,0,1.61719e-25,0.0986371,1.24809e-06,-9,-1358,2.19104e-31,-9,-96.3175,-1261.68,0.484
1.4778,1.47636,0.635071,0.203626,0,1.07813e-25,0.0986152,8.32057e-07,-9,-1359,9.73794e-32,-9,-96.3175,-1262.68,0.488
1.4778,1.47636,0.635465,0.203626,0,7.18751e-26,0.0985932,5.54705e-07,-9,-1360,4.32797e-32,-9,-96.3175,-1263.68,0.492
1.4778,1.47636,0.63586,0.203626,0,4.79167e-26,0.098571,3.69803e-07,-9,-1361,1.92354e-32,-9,-96.3175,-1264.68,0.496
1.4778,1.47636,0.636254,0.203626,0,3.19445e-26,0.0985487,2.90375e-05,-9,-1362,1.00693e-30,-9,-96.3175,-1265.68,0.5
1.4778,1.47636,0.636648,0.203626,0,2.12963e-26,0.0985262,-3.82235e-05,-9,-1364,-8.83647e-31,-9,-96.3175,-1267.68,0.504
1.4778,1.47636,0.637042,0.203626,0,1.41975e-26,0.0985036,3.20995e-05,-9,-1365,4.94716e-31,-9,-96.3175,-1268.68,0.508
1.4778,1.47636,0.637436,0.203626,0,9.46503e-27,0.0984808,2.13997e-05,-9,-1366,2.19874e-31,-9,-96.3175,-1269.68,0.512
1.4778,1.47636,0.63783,0.203626,0,6.31002e-27,0.0984578,1.42664e-05,-9,-1367,9.77217e-32,-9,-96.3175,-1270.68,0.516
1.4778,1.47636,0.638224,0.203626,0,4.20668e-27,0.0984347,9.51096e-06,-9,-1368,4.34319e-32,-9,-96.3175,-1271.68,0.52
1.4778,1.47636,0.638617,0.203626,0,2.80445e-27,0.0984114,6.34064e-06,-9,-1369,1.93031e-32,-9,-96.3175,-1272.68,0.524
1.4778,1.47636,0.639011,0.203626,0,1.86964e-27,0.0983879,4.22709e-06,-9,-1370,8.57914e-33,-9,-96.3175,-1273.68,0.528
1.4778,1.47636,0.639404,0.203626,0,1.24642e-27,0.0983643,2.81806e-06,-9,-1371,3.81295e-33,-9,-96.3175,-1274.68,0.532
1.4778,1.47636,0.639798,0.203626,0,8.30949e-28,0.0983406,1.87871e-06,-9,-1372,1.69464e-33,-9,-96.3175,-1275.68,0.536
1.4778,1.47636,0.640191,0.203626,0,5.53966e-28,0.0983167,1.25247e-06,-9,-1373,7.53175e-34,-9,-96.3175,-1276.68,0.54
1.4778,1.47636,0.640584,0.203627,0,3.69311e-28,0.0982926,2.96259e-05,-9,-1374,1.18771e-32,-9,-96.3175,-1277.68,0.544
1.4778,1.47636,0.640978,0.203627,0,2.46207e-28,0.0982684,1.97506e-05,-9,-1375,5.2787e-33,-9,-96.3175,-1278.68,0.548
1.4778,1.47636,0.641371,0.203627,0,1.64138e-28,0.098244,1.31671e-05,-9,-1376,2.34609e-33,-9,-96.3175,-1279.68,0.552
1.4778,1.47636,0.641764,0.203627,0,1.09425e-28,0.0982194,8.77805e-06,-9,-1377,1.04271e-33,-9,-96.3175,-1280.68,0.556
1.4778,1.47636,0.642156,0.203627,0,7.29503e-29,0.0981947,5.85203e-06,-9,-1378,4.63425e-34,-9,-96.3175,-1281.68,0.56
1.4778,1.47636,0.642549,0.203627,0,4.86335e-29,0.0981699,3.90135e-06,-9,-1379,2.05966e-34,-9,-96.3175,-1282.68,0.564
1.4778,1.47636,0.642942,0.203627,0,3.24223e-29,0.0981449,2.6009e-06,-9,-1381,9.15407e-35,-9,-96.3175,-1284.68,0.568
1.4778,1.47636,0.643334,0.203627,0,2.16149e-29,0.0981197,1.73394e-06,-9,-1382,4.06847e-35,-9,-96.3175,-1285.68,0.572
1.4778,1.47636,0.643727,0.203627,0,1.44099e-29,0.0980944,1.15596e-06,-9,-1383,1.80821e-35,-9,-96.3175,-1286.68,0.576
1.4778,1.47636,0.644119,0.203627,0,9.60662e-30,0.0980689,2.95616e-05,-9,-1384,3.08279e-34,-9,-96.3175,-1287.68,0.58
1.4778,1.47636,0.644511,0.203627,0,6.40441e-30,0.0980433,1.97077e-05,-9,-1385,1.37013e-34,-9,-96.3175,-1288.68,0.584
1.4778,1.47636,0.644903,0.203627,0,4.26961e-30,0.0980175,1.31385e-05,-9,-1386,6.08947e-35,-9,-96.3175,-1289.68,0.588
1.4778,1.47636,0.645295,0.203627,0,2.84641e-30,0.0979916,8.75898e-06,-9,-1387,2.70643e-35,-9,-96.3175,-1290.68,0.592
1.4778,1.47636,0.645687,0.203627,0,1.8976e-30,0.0979655,5.83932e-06,-9,-1388,1.20286e-35,-9,-96.3175,-1291.68,0.596
1.4778,1.47636,0.646079,0.203627,0,1.26507e-30,0.0979392,3.89288e-06,-9,-1389,5.34603e-36,-9,-96.3175,-1292.68,0.6
1.4778,1.47636,0.646471,0.203627,0,8.4338e-31,0.0979128,2.59525e-06,-9,-1390,2.37601e-36,-9,-96.3175,-1293.68,0.604
1.4778,1.47636,0.646862,0.203627,0,5.62253e-31,0.0978863,1.73017e-06,-9,-1391,1.05601e-36,-9,-96.3175,-1294.68,0.608
1.4778,1.47636,0.647254,0.203627,0,3.74835e-31,0.0978596,2.99444e-05,-9,-1392,1.21844e-35,-9,-96.3175,-1295.68,0.612
1.4778,1.47636,0.647645,0.203627,0,2.4989e-31,0.0978328,1.99629e-05,-9,-1393,5.41527e-36,-9,-96.3175,-1296.68,0.616
1.4778,1.47636,0.648037,0.203627,0,1.66593e-31,0.0978058,1.33086e-05,-9,-1394,2.40679e-36,-9,-96.3175,-1297.68,0.62
1.4778,1.47636,0.648428,0.203627,0,1.11062e-31,0.0977786,8.87241e-06,-9,-1395,1.06968e-36,-9,-96.3175,-1298.68,0.624
1.4778,1.47636,0.648819,0.203627,0,7.40415e-32,0.0977513,5.91494e-06,-9,-1396,4.75415e-37,-9,-96.3175,-1299.68,0.628
1.4778,1.47636,0.64921,0.203627,0,4.9361e-32,0.0977238,3.94329e-06,-9,-1397,2.11295e-37,-9,-96.3175,-1300.68,0.632
1.4778,1.47636,0.649601,0.203627,0,3.29074e-32,0.0976962,2.62886e-06,-9,-1398,9.39091e-38,-9,-96.3175,-1301.68,0.636
1.4778,1.47636,0.649991,0.203627,0,2.19382e-32,0.0976685,1.75257e-06,-9,-1399,4.17374e-38,-9,-96.3175,-1302.68,0.64
1.4778,1.47636,0.650382,0.203627,0,1.46255e-32,0.0976406,1.16838e-06,-9,-1400,1.85499e-38,-9,-96.3175,-1303.68,0.644
1.4778,1.47636,0.650772,0.203628,0,9.75033e-33,0.0976125,2.95698e-05,-9,-1401,3.1298e-37,-9,-96.3175,-1304.68,0.648
1.4778,1.47636,0.651163,0.203628,0,6.50022e-33,0.0975843,1.97132e-05,-9,-1403,1.39102e-37,-9,-96.3175,-1306.68,0.652
1.4778,1.47636,0.651553,0.203628,0,4.33348e-33,0.097556,1.31422e-05,-9,-1404,6.18231e-38,-9,-96.3175,-1307.68,0.656
1.4778,1.47636,0.651943,0.203628,0,2.88899e-33,0.0975275,8.76144e-06,-9,-1405,2.74769e-38,-9,-96.3175,-1308.68,0.66
1.4778,1.47636,0.652333,0.203628,0,1.92599e-33,0.0974988,5.84096e-06,-9,-1406,1.2212e-38,-9,-96.3175,-1309.68,0.664
1.4778,1.47636,0.652723,0.203628,0,1.28399e-33,0.09747,3.26849e-05,-9,-1407,4.55573e-38,-9,-96.3175,-1310.68,0.668
1.4778,1.47636,0.653113,0.203628,0,8.55996e-34,0.0974411,2.17899e-05,-9,-1408,2.02477e-38,-9,-96.3175,-1311.68,0.672
1.4778,1.47636,0.653503,0.203628,0,5.70664e-34,0.097412,1.45266e-05,-9,-1409,8.99898e-39,-9,-96.3175,-1312.68,0.676
1.4778,1.47636,0.653892,0.203628,0,3.80443e-34,0.0973828,9.68441e-06,-9,-1410,3.99955e-39,-9,-96.3175,-1313.68,0.68
1.4778,1.47636,0.654282,0.203628,0,2.53628e-34,0.0973534,6.45628e-06,-9,-1411,1.77758e-39,-9,-96.3175,-1314.68,0.684
1.4778,1.47636,0.654671,0.203628,0,1.69086e-34,0.0973238,3.30951e-05,-9,-1412,6.07462e-39,-9,-96.3175,-1315.68,0.688
1.4778,1.47636,0.65506,0.203628,0,1.12724e-34,0.0972942,2.20634e-05,-9,-1413,2.69983e-39,-9,-96.3175,-1316.68,0.692
1.4778,1.47636,0.65545,0.203629,0,7.51492e-35,0.0972643,7.22908e-05,-9,-1414,5.89736e-39,-9,-96.3174,-1317.68,0.696
1.4778,1.47636,0.655839,0.20363,0,5.00994e-35,0.0972344,0.000134567,-9,-1415,7.31851e-39,-9,-96.3174,-1318.68,0.7
1.4778,1.47636,0.656227,0.203634,0,3.33996e-35,0.0972043,0.000435202,-9,-1416,1.57795e-38,-9,-96.3173,-1319.68,0.704
1.4778,1.47636,0.656616,0.203645,0,2.22664e-35,0.097174,0.00121144,-9,-1416,2.92844e-38,-9,-96.3171,-1319.68,0.708
1.4778,1.47636,0.657005,0.203663,0,1.48443e-35,0.0971436,0.00224718,-9,-1416,3.62171e-38,-9,-96.3168,-1319.68,0.712
1.4778,1.47636,0.657393,0.203682,0,9.89618e-36,0.097113,0.0031392,-9,-1417,3.37322e-38,-9,-96.3164,-1320.68,0.716
1.4778,1.47636,0.657782,0.203707,0,6.59746e-36,0.0970824,0.00419454,-9,-1417,3.00517e-38,-9,-96.3159,-1320.68,0.72
1.4778,1.47636,0.65817,0.203739,0,4.3983e-36,0.0970515,0.00538754,-9,-1417,2.57363e-38,-9,-96.3153,-1320.68,0.724
1.4778,1.47636,0.658558,0.203774,0,2.9322e-36,0.0970205,0.00658595,-9,-1417,2.09776e-38,-9,-96.3146,-1320.69,0.728
1.4778,1.47636,0.658946,0.203815,0,1.9548e-36,0.0969894,0.00775917,-9,-1417,1.64794e-38,-9,-96.3138,-1320.69,0.732
1.4778,1.47636,0.659334,0.20386,0,1.3032e-36,0.0969581,0.0089156,-9,-1416,1.26263e-38,-9,-96.3129,-1319.69,0.736
1.4778,1.47636,0.659722,0.203912,0,8.68801e-37,0.0969267,0.0102912,-9,-1416,9.71862e-39,-9,-96.3118,-1319.69,0.74
1.4778,1.47636,0.660109,0.203967,0,5.79201e-37,0.0968952,0.0114673,-9,-1416,7.22141e-39,-9,-96.3107,-1319.69,0.744
1.4778,1.47636,0.660497,0.204032,0,3.86134e-37,0.0968635,0.0130576,-9,-1416,5.48355e-39,-9,-96.3094,-1319.69,0.748
1.4778,1.47636,0.660884,0.204105,0,2.57422e-37,0.0968317,0.0147799,-9,-1415,4.1393e-39,-9,-96.308,-1318.69,0.752
1.4778,1.47636,0.661272,0.204189,0,1.71615e-37,0.0967997,0.0168783,-9,-1414,3.15254e-39,-9,-96.3063,-1317.69,0.756
1.4778,1.47636,0.661659,0.204285,0,1.1441e-37,0.0967676,0.0192273,-9,-1413,2.39525e-39,-9,-96.3044,-1316.7,0.76
1.4778,1.47636,0.662046,0.204389,0,7.62733e-38,0.0967353,0.0214555,-9,-1412,1.78274e-39,-9,-96.3023,-1315.7,0.764
1.4778,1.47636,0.662433,0.2045,0,5.08489e-38,0.0967029,0.0236031,-9,-1411,1.30813e-39,-9,-96.3001,-1314.7,0.768
1.4778,1.47636,0.662819,0.204623,0,3.38993e-38,0.0966704,0.0259562,-9,-1410,9.59572e-40,-9,-96.2976,-1313.7,0.772
1.4778,1.47636,0.663206,0.204754,0,2.25995e-38,0.0966377,0.0282447,-9,-1408,6.96538e-40,-9,-96.295,-1311.7,0.776
1.4778,1.47636,0.663592,0.204897,0,1.50663e-38,0.0966049,0.0307492,-9,-1407,5.05868e-40,-9,-96.2921,-1310.71,0.78
1.4778,1.47636,0.663979,0.20505,0,1.00442e-38,0.0965719,0.0332539,-9,-1406,3.64972e-40,-9,-96.2891,-1309.71,0.784
1.4778,1.47636,0.664365,0.205213,0,6.69615e-39,0.0965388,0.0357586,-9,-1404,2.61838e-40,-9,-96.2858,-1307.71,0.788
1.4778,1.47636,0.664751,0.205388,0,4.4641e-39,0.0965056,0.0384072,-9,-1402,1.87639e-40,-9,-96.2823,-1305.72,0.792
1.4778,1.47636,0.665137,0.205571,0,2.97607e-39,0.0964722,0.0408064,-9,-1401,1.33018e-40,-9,-96.2787,-1304.72,0.796
1.4778,1.47636,0.665523,0.205764,0,-2.87909e-05,0.0964387,0.0432984,-9,-1399,-1.36663e-06,-9,-96.2748,-1302.73,0.8
1.4778,1.47636,0.665909,0.205967,0,9.59697e-06,0.096405,0.0457947,-9,-1398,4.82256e-07,-9,-96.2707,-1301.73,0.804
1.4778,1.47636,0.666294,0.206183,0,6.39798e-06,0.0963712,0.0485241,-9,-1396,3.41003e-07,-9,-96.2663,-1299.73,0.808
1.4778,1.47636,0.66668,0.206407,0,4.26532e-06,0.0963373,0.0510347,-9,-1394,2.39342e-07,-9,-96.2618,-1297.74,0.812
1.4778,1.47636,0.667065,0.206642,0,2.84355e-06,0.0963032,0.0536298,-9,-1393,1.67855e-07,-9,-96.2571,-1296.74,0.816
1.4778,1.47636,0.66745,0.206888,0,1.8957e-06,0.096269,0.0562523,-9,-1391,1.17507e-07,-9,-96.2521,-1294.75,0.82
1.4778,1.47636,0.667835,0.207143,0,1.2638e-06,0.0962347,0.0586917,-9,-1389,8.18299e-08,-9,-96.247,-1292.75,0.824
1.4778,1.47636,0.66822,0.207404,0,8.42533e-07,0.0962002,0.0609225,-9,-1388,5.66942e-08,-9,-96.2417,-1291.76,0.828
1.4778,1.47636,0.668605,0.207671,0,5.61689e-07,0.0961656,0.0628128,-9,-1386,3.9016e-08,-9,-96.2363,-1289.76,0.832
1.4778,1.47636,0.668989,0.207942,0,3.74459e-07,0.0961308,0.0644761,-9,-1385,2.67323e-08,-9,-96.2308,-1288.77,0.836
1.4778,1.47636,0.669374,0.20822,0,2.49639e-07,0.096096,0.066132,-9,-1384,1.83022e-08,-9,-96.2251,-1287.77,0.84
1.4778,1.47636,0.669758,0.208501,0,1.66426e-07,0.0960609,0.0675526,-9,-1383,1.24794e-08,-9,-96.2194,-1286.78,0.844
1.4778,1.47636,0.670142,0.208787,0,1.10951e-07,0.0960258,0.0688739,-9,-1382,8.49331e-09,-9,-96.2136,-1285.79,0.848
1.4778,1.47636,0.670526,0.209082,0,7.39672e-08,0.0959905,0.0704746,-9,-1381,5.8015e-09,-9,-96.2076,-1284.79,0.852
1.4778,1.47636,0.67091,0.209378,0,4.93115e-08,0.0959551,0.0716281,-9,-1381,3.9362e-09,-9,-96.2015,-1284.8,0.856
1.4778,1.47636,0.671294,0.20968,0,3.28743e-08,0.0959195,0.0729729,-9,-1380,2.67704e-09,-9,-96.1953,-1283.8,0.86
1.4778,1.47636,0.671677,0.209983,0,2.19162e-08,0.0958838,0.0738983,-9,-1379,1.80978e-09,-9,-96.1891,-1282.81,0.864
1.4778,1.47636,0.672061,0.210287,0,1.46108e-08,0.095848,0.0745439,-9,-1379,1.21871e-09,-9,-96.1829,-1282.82,0.868
1.4778,1.47636,0.672444,0.210588,0,9.74054e-09,0.095812,0.0748304,-9,-1379,8.16699e-10,-9,-96.1767,-1282.82,0.872
1.4778,1.47636,0.672827,0.210888,0,6.49369e-09,0.0957759,0.0748775,-9,-1379,5.45537e-10,-9,-96.1705,-1282.83,0.876
1.4778,1.47636,0.67321,0.211183,0,4.32913e-09,0.0957397,0.074477,-9,-1379,3.62221e-10,-9,-96.1645,-1282.84,0.88
1.4778,1.47636,0.673593,0.211475,0,2.88609e-09,0.0957034,0.0740372,-9,-1380,2.40368e-10,-9,-96.1584,-1283.84,0.884
1.4778,1.47636,0.673976,0.211766,0,1.92406e-09,0.0956669,0.0735713,-9,-1381,1.59442e-10,-9,-96.1524,-1284.85,0.888
1.4778,1.47636,0.674359,0.212052,0,1.2827e-09,0.0956302,0.0729152,-9,-1381,1.05481e-10,-9,-96.1465,-1284.85,0.892
1.4778,1.47636,0.674741,0.212336,0,8.55136e-10,0.0955935,0.0722763,-9,-1382,6.9792e-11,-9,-96.1406,-1285.86,0.896
1.4778,1.47636,0.675123,0.212618,0,2.87915e-05,0.0955566,0.07162,-9,-1383,2.33138e-06,-9,-96.1348,-1286.87,0.9
1.4778,1.47636,0.675506,0.212894,0,-9.59659e-06,0.0955196,0.0708082,-9,-1384,-7.6921e-07,-9,-96.129,-1287.87,0.904
1.4778,1.47636,0.675888,0.213167,0,-6.39773e-06,0.0954824,0.0698927,-9,-1385,-5.06784e-07,-9,-96.1234,-1288.88,0.908
1.4778,1.47636,0.676269,0.213432,0,-4.26515e-06,0.0954452,0.0687066,-9,-1386,-3.32511e-07,-9,-96.1179,-1289.88,0.912
1.4778,1.47636,0.676651,0.213689,0,-2.84344e-06,0.0954078,0.067196,-9,-1388,-2.17045e-07,-9,-96.1125,-1291.89,0.916
1.4778,1.47636,0.677033,0.213941,0,-1.89562e-06,0.0953702,0.0657859,-9,-1389,-1.41817e-07,-9,-96.1072,-1292.89,0.92
1.4778,1.47636,0.677414,0.214189,0,-1.26375e-06,0.0953325,0.0645868,-9,-1390,-9.29224e-08,-9,-96.1021,-1293.9,0.924
1.4778,1.47636,0.677795,0.214431,0,-8.42499e-07,0.0952948,0.0632403,-9,-1392,-6.07211e-08,-9,-96.097,-1295.9,0.928
1.4778,1.47636,0.678176,0.214674,0,-5.61666e-07,0.0952568,0.0623714,-9,-1393,-3.99669e-08,-9,-96.0919,-1296.91,0.932
1.4778,1.47636,0.678557,0.214914,0,-3.74444e-07,0.0952188,0.0615906,-9,-1394,-2.63387e-08,-9,-96.0869,-1297.91,0.936
1.4778,1.47636,0.678938,0.215156,0,-2.49629e-07,0.0951806,0.0612141,-9,-1395,-1.74702e-08,-9,-96.0818,-1298.92,0.94
1.4778,1.47636,0.679319,0.2154,0,-1.6642e-07,0.0951423,0.0611646,-9,-1395,-1.16497e-08,-9,-96.0767,-1298.92,0.944
1.4778,1.47636,0.679699,0.215647,0,-1.10946e-07,0.0951038,0.0613331,-9,-1395,-7.79625e-09,-9,-96.0715,-1298.93,0.948
1.4778,1.47636,0.68008,0.215894,0,-7.39643e-08,0.0950653,0.061503,-9,-1395,-5.21751e-09,-9,-96.0663,-1298.93,0.952
1.4778,1.47636,0.68046,0.21614,0,-4.93095e-08,0.0950266,0.0614724,-9,-1396,-3.48031e-09,-9,-96.0611,-1299.94,0.956
1.4778,1.47636,0.68084,0.216385,0,-3.2873e-08,0.0949877,0.0613943,-9,-1396,-2.31972e-09,-9,-96.0559,-1299.94,0.96
1.4778,1.47636,0.68122,0.216631,0,-2.19153e-08,0.0949488,0.0613999,-9,-1396,-1.54827e-09,-9,-96.0507,-1299.95,0.964
1.4778,1.47636,0.681599,0.216874,0,-1.46102e-08,0.0949097,0.0612597,-9,-1397,-1.03091e-09,-9,-96.0456,-1300.95,0.968
1.4778,1.47636,0.681979,0.217121,0,-9.74015e-09,0.0948705,0.0613965,-9,-1397,-6.89539e-10,-9,-96.0404,-1300.96,0.972
1.4778,1.47636,0.682358,0.217374,0,-6.49343e-09,0.0948312,0.0619772,-9,-1397,-4.64546e-10,-9,-96.035,-1300.97,0.976
1.4778,1.47636,0.682738,0.217633,0,-4.32896e-09,0.0947917,0.0629113,-9,-1396,-3.14716e-10,-9,-96.0295,-1299.97,0.98
1.4778,1.47636,0.683117,0.217897,0,-2.88597e-09,0.0947522,0.0639659,-9,-1396,-2.1357e-10,-9,-96.0239,-1299.98,0.984
1.4778,1.47636,0.683496,0.218171,0,-1.92398e-09,0.0947125,0.0654752,-9,-1395,-1.45911e-10,-9,-96.0181,-1298.98,0.988
1.4778,1.47636,0.683874,0.21845,0,-1.28265e-09,0.0946726,0.0669132,-9,-1394,-9.95294e-11,-9,-96.0121,-1297.99,0.992
1.4778,1.47636,0.684253,0.218732,0,-8.55103e-10,0.0946327,0.068131,-9,-1393,-6.76422e-11,-9,-96.0061,-1296.99,0.996
1.4778,1.47636,0.684632,0.219017,0,-5.70068e-10,0.0945926,0.0691444,-9,-1392,-4.58212e-11,-9,-96,-1296,1
1.4778,1.47636,0.68501,0.219304,0,-3.80046e-10,0.0945524,0.0699639,-9,-1392,-3.09474e-11,-9,-95.9939,-1296.01,1.004
1.4778,1.47636,0.685388,0.219597,0,-2.53364e-10,0.0945121,0.0710573,-9,-1391,-2.09802e-11,-9,-95.9876,-1295.01,1.008
1.4778,1.47636,0.685766,0.219894,0,-1.68909e-10,0.0944716,0.0721317,-9,-1391,-1.42162e-11,-9,-95.9812,-1295.02,1.012
1.4778,1.47636,0.686144,0.220195,0,-1.12606e-10,0.094431,0.0731935,-9,-1390,-9.62931e-12,-9,-95.9748,-1294.03,1.016
1.4778,1.47636,0.686521,0.2205,0,-7.50707e-11,0.0943903,0.0742469,-9,-1389,-6.52036e-12,-9,-95.9682,-1293.03,1.02
1.4778,1.47636,0.686899,0.220809,0,-5.00472e-11,0.0943495,0.075237,-9,-1389,-4.41064e-12,-9,-95.9616,-1293.04,1.024
1.4778,1.47636,0.687276,0.221124,0,-3.33648e-11,0.0943086,0.0763577,-9,-1388,-2.9882e-12,-9,-95.9548,-1292.05,1.028
1.4778,1.47636,0.687653,0.221439,0,-2.22432e-11,0.0942675,0.0772201,-9,-1387,-2.01732e-12,-9,-95.948,-1291.05,1.032
1.4778,1.47636,0.68803,0.221759,0,-1.48288e-11,0.0942263,0.0780829,-9,-1387,-1.36173e-12,-9,-95.9411,-1291.06,1.036
1.4778,1.47636,0.688407,0.222078,0,-9.88586e-12,0.094185,0.0786868,-9,-1386,-9.16076e-13,-9,-95.9341,-1290.07,1.04
1.4778,1.47636,0.688784,0.222402,0,-6.59057e-12,0.0941436,0.079435,-9,-1386,-6.17362e-13,-9,-95.9271,-1290.07,1.044
1.4778,1.47636,0.68916,0.222729,0,-4.39371e-12,0.094102,0.0802505,-9,-1385,-4.16371e-13,-9,-95.92,-1289.08,1.048
1.4778,1.47636,0.689537,0.223061,0,-2.92914e-12,0.0940604,0.0811108,-9,-1384,-2.80946e-13,-9,-95.9128,-1288.09,1.052
1.4778,1.47636,0.689913,0.223393,0,-1.95276e-12,0.0940186,0.0817419,-9,-1384,-1.89017e-13,-9,-95.9056,-1288.09,1.056
1.4778,1.47636,0.690289,0.223729,0,-1.30184e-12,0.0939766,0.0825082,-9,-1383,-1.27371e-13,-9,-95.8983,-1287.1,1.06
1.4778,1.47636,0.690665,0.224064,0,-8.67894e-13,0.0939346,0.0829615,-9,-1383,-8.54998e-14,-9,-95.8909,-1287.11,1.064
1.4778,1.47636,0.69104,0.224409,0,-5.78596e-13,0.0938925,0.0839834,-9,-1382,-5.77846e-14,-9,-95.8834,-1286.12,1.068
1.4778,1.47636,0.691416,0.22474,0,-3.85731e-13,0.0938502,0.0836282,-9,-1383,-3.8413e-14,-9,-95.8761,-1287.12,1.072
1.4778,1.47636,0.691791,0.225076,0,-2.57154e-13,0.0938078,0.0837081,-9,-1383,-2.56688e-14,-9,-95.8688,-1287.13,1.076
1.4778,1.47636,0.692166,0.225406,0,-1.71436e-13,0.0937653,0.0833008,-9,-1383,-1.70525e-14,-9,-95.8615,-1287.14,1.08
1.4778,1.47636,0.692541,0.225734,0,-1.14291e-13,0.0937227,0.0828564,-9,-1384,-1.1323e-14,-9,-95.8543,-1288.15,1.084
1.4778,1.47636,0.692916,0.226054,0,-7.61937e-14,0.0936799,0.0819268,-9,-1384,-7.47383e-15,-9,-95.8473,-1288.15,1.088
1.4778,1.47636,0.693291,0.226365,0,-5.07958e-14,0.093637,0.0805585,-9,-1386,-4.90561e-15,-9,-95.8404,-1290.16,1.092
1.4778,1.47636,0.693665,0.226668,0,-3.38639e-14,0.0935941,0.0789553,-9,-1387,-3.20932e-15,-9,-95.8337,-1291.17,1.096
1.4778,1.47636,0.694039,0.226961,0,-2.25759e-14,0.093551,0.0770516,-9,-1389,-2.09047e-15,-9,-95.8272,-1293.17,1.1
1.4778,1.47636,0.694413,0.227242,0,-1.50506e-14,0.0935077,0.0748035,-9,-1391,-1.35454e-15,-9,-95.821,-1295.18,1.104
1.4778,1.47636,0.694787,0.227514,0,-1.00337e-14,0.0934644,0.0724987,-9,-1393,-8.76178e-16,-9,-95.815,-1297.19,1.108
1.4778,1.47636,0.695161,0.227775,0,-6.68916e-15,0.0934209,0.0701272,-9,-1395,-5.65616e-16,-9,-95.8092,-1299.19,1.112
1.4778,1.47636,0.695535,0.228033,0,-4.45944e-15,0.0933774,0.0682583,-9,-1397,-3.67415e-16,-9,-95.8034,-1301.2,1.116
1.4778,1.47636,0.695908,0.228286,0,-2.97296e-15,0.0933337,0.0665805,-9,-1399,-2.39169e-16,-9,-95.7978,-1303.2,1.12
1.4778,1.47636,0.696281,0.228535,0,-1.98197e-15,0.0932899,0.0651452,-9,-1400,-1.56167e-16,-9,-95.7923,-1304.21,1.124
1.4778,1.47636,0.696654,0.228787,0,-1.32132e-15,0.093246,0.0643612,-9,-1401,-1.02963e-16,-9,-95.7867,-1305.21,1.128
1.4778,1.47636,0.697027,0.229038,0,-8.80877e-16,0.0932019,0.0638384,-9,-1402,-6.81541e-17,-9,-95.7811,-1306.22,1.132
1.4778,1.47636,0.6974,0.229288,0,-5.87251e-16,0.0931578,0.0633748,-9,-1403,-4.51518e-17,-9,-95.7755,-1307.22,1.136
1.4778,1.47636,0.697773,0.229538,0,-3.91501e-16,0.0931135,0.0630945,-9,-1403,-2.99984e-17,-9,-95.7699,-1307.23,1.14
1.4778,1.47636,0.698145,0.229789,0,-2.61001e-16,0.0930691,0.0629652,-9,-1404,-1.99782e-17,-9,-95.7643,-1308.24,1.144
1.4778,1.47636,0.698517,0.230036,0,-1.74e-16,0.0930246,0.0626199,-9,-1404,-1.3259e-17,-9,-95.7587,-1308.24,1.148
1.4778,1.47636,0.698889,0.230285,0,-1.16e-16,0.09298,0.0624761,-9,-1405,-8.8279e-18,-9,-95.7531,-1309.25,1.152
1.4778,1.47636,0.699261,0.230532,0,-7.73335e-17,0.0929353,0.062265,-9,-1405,-5.87123e-18,-9,-95.7476,-1309.25,1.156
1.4778,1.47636,0.699633,0.230785,0,-5.15557e-17,0.0928905,0.062585,-9,-1405,-3.93827e-18,-9,-95.7419,-1309.26,1.16
1.4778,1.47636,0.700004,0.231037,0,-3.43705e-17,0.0928455,0.0626831,-9,-1405,-2.63229e-18,-9,-95.7362,-1309.26,1.164
1.4778,1.47636,0.700375,0.231295,0,-2.29136e-17,0.0928005,0.0632956,-9,-1405,-1.77384e-18,-9,-95.7304,-1309.27,1.168
1.4778,1.47636,0.700747,0.231558,0,-1.52758e-17,0.0927553,0.0641645,-9,-1405,-1.20006e-18,-9,-95.7245,-1309.28,1.172
1.4778,1.47636,0.701117,0.231826,0,-1.01838e-17,0.09271,0.0650893,-9,-1404,-8.12444e-19,-9,-95.7184,-1308.28,1.176
1.4778,1.47636,0.701488,0.232098,0,-6.78923e-18,0.0926646,0.0660513,-9,-1403,-5.50233e-19,-9,-95.7123,-1307.29,1.18
1.4778,1.47636,0.701859,0.232375,0,-4.52615e-18,0.0926191,0.0671245,-9,-1403,-3.73194e-19,-9,-95.706,-1307.29,1.184
1.4778,1.47636,0.702229,0.232658,0,-3.01743e-18,0.0925735,0.0682719,-9,-1402,-2.53334e-19,-9,-95.6996,-1306.3,1.188
1.4778,1.47636,0.702599,0.232944,0,-2.01162e-18,0.0925277,0.0694111,-9,-1401,-1.71903e-19,-9,-95.6931,-1305.31,1.192
1.4778,1.47636,0.702969,0.233233,0,-1.34108e-18,0.0924819,0.0703432,-9,-1401,-1.16275e-19,-9,-95.6865,-1305.31,1.196
1.4778,1.47636,0.703339,0.233527,0,-8.94054e-19,0.0924359,0.0714254,-9,-1400,-7.8801e-20,-9,-95.6798,-1304.32,1.2
1.4778,1.47636,0.703709,0.233829,0,-5.96036e-19,0.0923899,0.0727226,-9,-1399,-5.3552e-20,-9,-95.673,-1303.33,1.204
1.4778,1.47636,0.704078,0.234135,0,-3.97358e-19,0.0923437,0.0740193,-9,-1398,-3.6382e-20,-9,-95.666,-1302.33,1.208
1.4778,1.47636,0.704448,0.234447,0,-2.64905e-19,0.0922974,0.0753732,-9,-1397,-2.47288e-20,-9,-95.6589,-1301.34,1.212
1.4778,1.47636,0.704817,0.234763,0,-1.76603e-19,0.092251,0.0765061,-9,-1396,-1.67545e-20,-9,-95.6517,-1300.35,1.216
1.4778,1.47636,0.705186,0.23508,0,-1.17736e-19,0.0922045,0.0774341,-9,-1396,-1.13193e-20,-9,-95.6444,-1300.36,1.22
1.4778,1.47636,0.705554,0.235397,0,-7.84904e-20,0.0921579,0.078024,-9,-1395,-7.61315e-21,-9,-95.6371,-1299.36,1.224
1.4778,1.47636,0.705923,0.235711,0,-5.23269e-20,0.0921112,0.0782446,-9,-1395,-5.09607e-21,-9,-95.6299,-1299.37,1.228
1.4778,1.47636,0.706291,0.236025,0,-3.48846e-20,0.0920643,0.078334,-9,-1395,-3.40546e-21,-9,-95.6227,-1299.38,1.232
1.4778,1.47636,0.706659,0.236337,0,-2.32564e-20,0.0920174,0.0781633,-9,-1395,-2.26812e-21,-9,-95.6155,-1299.38,1.236
1.4778,1.47636,0.707027,0.236647,0,-1.55043e-20,0.0919703,0.0779919,-9,-1396,-1.5106e-21,-9,-95.6084,-1300.39,1.24
1.4778,1.47636,0.707395,0.236958,0,-1.03362e-20,0.0919232,0.0779064,-9,-1396,-1.00718e-21,-9,-95.6012,-1300.4,1.244
1.4778,1.47636,0.707763,0.237268,0,-6.89079e-21,0.0918759,0.0777343,-9,-1396,-6.7078e-22,-9,-95.5941,-1300.41,1.248
1.4778,1.47636,0.70813,0.237574,0,-4.59386e-21,0.0918285,0.0773604,-9,-1397,-4.45567e-22,-9,-95.587,-1301.41,1.252
1.4778,1.47636,0.708497,0.237877,0,-3.06257e-21,0.0917811,0.0767945,-9,-1397,-2.95218e-22,-9,-95.58,-1301.42,1.256
1.4778,1.47636,0.708864,0.238175,0,-2.04171e-21,0.0917335,0.0760141,-9,-1398,-1.95037e-22,-9,-95.5731,-1302.43,1.26
1.4778,1.47636,0.709231,0.238467,0,-1.36114e-21,0.0916858,0.0750044,-9,-1399,-1.28443e-22,-9,-95.5663,-1303.43,1.264
1.4778,1.47636,0.709598,0.238757,0,-9.07429e-22,0.091638,0.0742449,-9,-1400,-8.48569e-23,-9,-95.5595,-1304.44,1.268
1.4778,1.47636,0.709964,0.239046,0,-6.04953e-22,0.0915901,0.073537,-9,-1400,-5.60944e-23,-9,-95.5528,-1304.45,1.272
1.4778,1.47636,0.710331,0.239337,0,-4.03302e-22,0.091542,0.0732378,-9,-1401,-3.72859e-23,-9,-95.546,-1305.45,1.276
1.4778,1.47636,0.710697,0.239623,0,-2.68868e-22,0.0914939,0.0726929,-9,-1402,-2.46995e-23,-9,-95.5393,-1306.46,1.28
1.4778,1.47636,0.711063,0.239907,0,-1.79245e-22,0.0914457,0.0720993,-9,-1402,-1.63497e-23,-9,-95.5327,-1306.47,1.284
1.4778,1.47636,0.711428,0.240188,0,-1.19497e-22,0.0913974,0.0715308,-9,-1403,-1.08256e-23,-9,-95.5261,-1307.47,1.288
1.4778,1.47636,0.711794,0.240461,0,-7.96645e-23,0.0913489,0.0704032,-9,-1404,-7.11071e-24,-9,-95.5198,-1308.48,1.292
1.4778,1.47636,0.712159,0.240726,0,-5.31097e-23,0.0913004,0.0690469,-9,-1405,-4.65388e-24,-9,-95.5135,-1309.49,1.296
1.4778,1.47636,0.712524,0.240978,0,-3.54065e-23,0.0912517,0.0670487,-9,-1407,-3.0157e-24,-9,-95.5076,-1311.49,1.3
1.4778,1.47636,0.712889,0.241217,0,-2.36043e-23,0.091203,0.0646224,-9,-1410,-1.93949e-24,-9,-95.502,-1314.5,1.304
1.4778,1.47636,0.713254,0.241449,0,-1.57362e-23,0.0911541,0.0623427,-9,-1412,-1.24848e-24,-9,-95.4966,-1316.5,1.308
1.4778,1.47636,0.713618,0.241664,0,-1.04908e-23,0.0911052,0.0595562,-9,-1414,-7.95772e-25,-9,-95.4915,-1318.51,1.312
1.4778,1.47636,0.713983,0.241869,0,-6.99387e-24,0.0910561,0.0567771,-9,-1417,-5.06154e-25,-9,-95.4867,-1321.51,1.316
1.4778,1.47636,0.714347,0.242068,0,-4.66258e-24,0.091007,0.054435,-9,-1419,-3.23762e-25,-9,-95.482,-1323.52,1.32
1.4778,1.47636,0.714711,0.242256,0,-3.10839e-24,0.0909577,0.0519235,-9,-1422,-2.06029e-25,-9,-95.4776,-1326.52,1.324
1.4778,1.47636,0.715074,0.242436,0,-2.07226e-24,0.0909083,0.0496445,-9,-1424,-1.31414e-25,-9,-95.4733,-1328.53,1.328
1.4778,1.47636,0.715438,0.242607,0,-1.3815e-24,0.0908589,0.0473478,-9,-1427,-8.36109e-26,-9,-95.4693,-1331.53,1.332
1.4778,1.47636,0.715801,0.242773,0,-9.21003e-25,0.0908093,0.0453849,-9,-1429,-5.34633e-26,-9,-95.4653,-1333.53,1.336
1.4778,1.47636,0.716164,0.242931,0,-6.14002e-25,0.0907596,0.043414,-9,-1431,-3.41148e-26,-9,-95.4616,-1335.54,1.34
1.4778,1.47636,0.716527,0.243083,0,-4.09335e-25,0.0907098,0.0415819,-9,-1433,-2.17959e-26,-9,-95.458,-1337.54,1.344
1.4778,1.47636,0.71689,0.243228,0,-2.7289e-25,0.09066,0.0398422,-9,-1435,-1.39304e-26,-9,-95.4546,-1339.55,1.348
1.4778,1.47636,0.717253,0.243367,0,-1.81927e-25,0.09061,0.0381067,-9,-1437,-8.88701e-27,-9,-95.4513,-1341.55,1.352
1.4778,1.47636,0.717615,0.243501,0,-1.21284e-25,0.0905599,0.0365753,-9,-1439,-5.68947e-27,-9,-95.4481,-1343.55,1.356
1.4778,1.47636,0.717977,0.243627,0,-8.08563e-26,0.0905097,0.0348634,-9,-1441,-3.61717e-27,-9,-95.4451,-1345.55,1.36
1.4778,1.47636,0.718339,0.243748,0,-5.39042e-26,0.0904594,0.0333767,-9,-1443,-2.30967e-27,-9,-95.4422,-1347.56,1.364
1.4778,1.47636,0.718701,0.243869,0,-3.59361e-26,0.0904091,0.0323567,-9,-1444,-1.49341e-27,-9,-95.4394,-1348.56,1.368
1.4778,1.47636,0.719062,0.243985,0,-2.39574e-26,0.0903586,0.0312161,-9,-1446,-9.60929e-28,-9,-95.4366,-1350.56,1.372
1.4778,1.47636,0.719424,0.244098,0,-1.59716e-26,0.090308,0.0302254,-9,-1447,-6.20551e-28,-9,-95.4339,-1351.57,1.376
1.4778,1.47636,0.719785,0.244211,0,-1.06477e-26,0.0902573,0.0295361,-9,-1448,-4.04438e-28,-9,-95.4313,-1352.57,1.38
1.4778,1.47636,0.720146,0.244322,0,-7.09849e-27,0.0902065,0.0289326,-9,-1449,-2.64226e-28,-9,-95.4286,-1353.57,1.384
1.4778,1.47636,0.720506,0.244429,0,-4.73233e-27,0.0901557,0.0282136,-9,-1451,-1.71843e-28,-9,-95.4261,-1355.57,1.388
1.4778,1.47636,0.720867,0.244532,0,-3.15489e-27,0.0901047,0.0273888,-9,-1452,-1.11255e-28,-9,-95.4236,-1356.58,1.392
1.4778,1.47636,0.721227,0.24463,0,-2.10326e-27,0.0900536,0.0264646,-9,-1453,-7.16941e-29,-9,-95.4213,-1357.58,1.396
1.4778,1.47636,0.721587,0.244726,0,-1.40217e-27,0.0900024,0.0256469,-9,-1455,-4.63361e-29,-9,-95.419,-1359.58,1.4
1.4778,1.47636,0.721947,0.244821,0,-9.34781e-28,0.0899512,0.0249867,-9,-1456,-3.01062e-29,-9,-95.4167,-1360.58,1.404
1.4778,1.47636,0.722307,0.244916,0,-6.23187e-28,0.0898998,0.0245753,-9,-1457,-1.97474e-29,-9,-95.4145,-1361.59,1.408
1.4778,1.47636,0.722667,0.245006,0,-4.15458e-28,0.0898483,0.0239267,-9,-1458,-1.28218e-29,-9,-95.4123,-1362.59,1.412
1.4778,1.47636,0.723026,0.245093,0,-2.76972e-28,0.0897968,0.0231777,-9,-1459,-8.28298e-30,-9,-95.4102,-1363.59,1.416
1.4778,1.47636,0.723385,0.245177,0,-1.84648e-28,0.0897451,0.022448,-9,-1461,-5.34982e-30,-9,-95.4082,-1365.59,1.42
1.4778,1.47636,0.723744,0.245263,0,-1.23099e-28,0.0896934,0.0221631,-9,-1462,-3.52242e-30,-9,-95.4062,-1366.59,1.424
1.4778,1.47636,0.724102,0.245347,0,-8.20658e-29,0.0896415,0.0217716,-9,-1463,-2.30752e-30,-9,-95.4042,-1367.6,1.428
1.4778,1.47636,0.724461,0.245431,0,-5.47105e-29,0.0895896,0.021453,-9,-1464,-1.51631e-30,-9,-95.4022,-1368.6,1.432
1.4778,1.47636,0.724819,0.245512,0,-3.64737e-29,0.0895375,0.0210391,-9,-1465,-9.9167e-31,-9,-95.4002,-1369.6,1.436
1.4778,1.47636,0.725177,0.24559,0,-2.43158e-29,0.0894854,0.0205616,-9,-1466,-6.46299e-31,-9,-95.3984,-1370.6,1.44
1.4778,1.47636,0.725535,0.245664,0,-1.62105e-29,0.0894332,0.0198402,-9,-1467,-4.15863e-31,-9,-95.3966,-1371.6,1.444
1.4778,1.47636,0.725893,0.245734,0,-1.0807e-29,0.0893808,0.0190714,-9,-1469,-2.66569e-31,-9,-95.3949,-1373.61,1.448
1.4778,1.47636,0.72625,0.245802,0,-7.20468e-30,0.0893284,0.0184148,-9,-1470,-1.71639e-31,-9,-95.3933,-1374.61,1.452
1.4778,1.47636,0.726607,0.245869,0,-4.80312e-30,0.0892759,0.017862,-9,-1471,-1.11018e-31,-9,-95.3917,-1375.61,1.456
1.4778,1.47636,0.726964,0.245932,0,-3.20208e-30,0.0892233,0.0171767,-9,-1472,-7.11896e-32,-9,-95.3902,-1376.61,1.46
1.4778,1.47636,0.727321,0.245996,0,-2.13472e-30,0.0891706,0.0167199,-9,-1474,-4.62084e-32,-9,-95.3887,-1378.61,1.464
1.4778,1.47636,0.727678,0.246055,0,-1.42315e-30,0.0891178,0.0161274,-9,-1475,-2.97206e-32,-9,-95.3872,-1379.61,1.468
1.4778,1.47636,0.728034,0.246112,0,-9.48764e-31,0.0890649,0.0155021,-9,-1476,-1.90496e-32,-9,-95.3859,-1380.61,1.472
1.4778,1.47636,0.72839,0.246162,0,-6.3251e-31,0.0890119,0.0144806,-9,-1478,-1.18651e-32,-9,-95.3847,-1382.62,1.476
1.4778,1.47636,0.728746,0.246206,0,-4.21673e-31,0.0889588,0.0133102,-9,-1480,-7.2719e-33,-9,-95.3836,-1384.62,1.48
1.4778,1.47636,0.729102,0.246237,0,-2.81115e-31,0.0889057,0.0114647,-9,-1482,-4.17622e-33,-9,-95.3829,-1386.62,1.484
1.4778,1.47636,0.729457,0.246259,0,-1.8741e-31,0.0888524,0.00948572,-9,-1484,-2.30376e-33,-9,-95.3823,-1388.62,1.488
1.4778,1.47636,0.729813,0.246272,0,-1.2494e-31,0.0887991,0.00736029,-9,-1487,-1.19176e-33,-9,-95.382,-1391.62,1.492
1.4778,1.47636,0.730168,0.246275,0,-8.32934e-32,0.0887456,0.00522356,-9,-1490,-5.63867e-34,-9,-95.382,-1394.62,1.496
1.4778,1.47636,0.730523,0.246275,0,-5.5529e-32,0.0886921,0.00348237,-9,-1492,-2.50608e-34,-9,-95.382,-1396.62,1.5
1.4778,1.47636,0.730877,0.246275,0,-3.70193e-32,0.0886384,0.00232158,-9,-1494,-1.11381e-34,-9,-95.382,-1398.62,1.504
1.4778,1.47636,0.731232,0.246275,0,-2.46795e-32,0.0885847,0.00154772,-9,-1496,-4.95027e-35,-9,-95.382,-1400.62,1.508
1.4778,1.47636,0.731586,0.246275,0,-1.6453e-32,0.0885309,0.00103181,-9,-1497,-2.20012e-35,-9,-95.382,-1401.62,1.512
1.4778,1.47636,0.73194,0.246275,0,-1.09687e-32,0.088477,0.000687876,-9,-1498,-9.77832e-36,-9,-95.382,-1402.62,1.516
1.4778,1.47636,0.732294,0.246275,0,-7.31246e-33,0.088423,0.000458584,-9,-1499,-4.34592e-36,-9,-95.382,-1403.62,1.52
1.4778,1.47636,0.732647,0.246275,0,-4.87497e-33,0.0883689,0.000305723,-9,-1500,-1.93152e-36,-9,-95.382,-1404.62,1.524
1.4778,1.47636,0.733001,0.246275,0,-3.24998e-33,0.0883148,0.000203815,-9,-1501,-8.58453e-37,-9,-95.382,-1405.62,1.528
1.4778,1.47636,0.733354,0.246275,0,-2.16665e-33,0.0882605,0.000135877,-9,-1502,-3.81535e-37,-9,-95.382,-1406.62,1.532
1.4778,1.47636,0.733707,0.246275,0,-1.44444e-33,0.0882061,9.05845e-05,-9,-1503,-1.69571e-37,-9,-95.382,-1407.62,1.536
1.4778,1.47636,0.73406,0.246275,0,-9.62957e-34,0.0881517,6.03897e-05,-9,-1504,-7.53649e-38,-9,-95.382,-1408.62,1.54
1.4778,1.47636,0.734412,0.246275,0,-6.41971e-34,0.0880972,4.02598e-05,-9,-1505,-3.34955e-38,-9,-95.382,-1409.62,1.544
1.4778,1.47636,0.734764,0.246276,0,-4.27981e-34,0.0880426,5.56308e-05,-9,-1506,-3.0856e-38,-9,-95.3819,-1410.62,1.548
1.4778,1.47636,0.735116,0.246275,0,-2.85321e-34,0.0879878,8.29626e-06,-9,-1507,-3.06772e-39,-9,-95.382,-1411.62,1.552
1.4778,1.47636,0.735468,0.246275,0,-1.90214e-34,0.0879331,5.53084e-06,-9,-1508,-1.36343e-39,-9,-95.382,-1412.62,1.556
1.4778,1.47636,0.73582,0.246276,0,-1.26809e-34,0.0878782,3.24782e-05,-9,-1509,-5.33755e-39,-9,-95.3819,-1413.62,1.56
1.4778,1.47636,0.736171,0.246276,0,-8.45394e-35,0.0878232,2.16521e-05,-9,-1510,-2.37224e-39,-9,-95.3819,-1414.62,1.564
1.4778,1.47636,0.736522,0.246276,0,-5.63596e-35,0.0877681,1.44347e-05,-9,-1511,-1.05433e-39,-9,-95.3819,-1415.62,1.568
1.4778,1.47636,0.736873,0.246276,0,-3.75731e-35,0.087713,9.62316e-06,-9,-1512,-4.68592e-40,-9,-95.3819,-1416.62,1.572
1.4778,1.47636,0.737224,0.246276,0,-2.50487e-35,0.0876578,6.41544e-06,-9,-1512,-2.08263e-40,-9,-95.3819,-1416.62,1.576
1.4778,1.47636,0.737575,0.246276,0,-1.66992e-35,0.0876024,4.27696e-06,-9,-1513,-9.25613e-41,-9,-95.3819,-1417.62,1.58
1.4778,1.47636,0.737925,0.246276,0,-1.11328e-35,0.087547,2.85131e-06,-9,-1514,-4.11384e-41,-9,-95.3819,-1418.62,1.584
1.4778,1.47636,0.738275,0.246276,0,-7.42184e-36,0.0874915,1.90087e-06,-9,-1515,-1.82837e-41,-9,-95.3819,-1419.62,1.588
1.4778,1.47636,0.738625,0.246276,0,-4.9479e-36,0.087436,1.26725e-06,-9,-1516,-8.12609e-42,-9,-95.3819,-1420.62,1.592
1.4778,1.47636,0.738975,0.246276,0,-3.2986e-36,0.0873803,8.44831e-07,-9,-1517,-3.6116e-42,-9,-95.3819,-1421.62,1.596
1.4778,1.47636,0.739324,0.246276,0,-2.19907e-36,0.0873246,5.63221e-07,-9,-1518,-1.60515e-42,-9,-95.3819,-1422.62,1.6
1.4778,1.47636,0.739673,0.246276,0,-1.46604e-36,0.0872687,3.75481e-07,-9,-1519,-7.13402e-43,-9,-95.3819,-1423.62,1.604
1.4778,1.47636,0.740022,0.246276,0,-9.77362e-37,0.0872128,2.5032e-07,-9,-1520,-3.17068e-43,-9,-95.3819,-1424.62,1.608
1.4778,1.47636,0.740371,0.246276,0,-6.51575e-37,0.0871568,1.6688e-07,-9,-1521,-1.40919e-43,-9,-95.3819,-1425.62,1.612
1.4778,1.47636,0.740719,0.246276,0,-4.34383e-37,0.0871007,1.11253e-07,-9,-1522,-6.26306e-44,-9,-95.3819,-1426.62,1.616
1.4778,1.47636,0.741068,0.246276,0,-2.89589e-37,0.0870445,7.4169e-08,-9,-1522,-2.78358e-44,-9,-95.3819,-1426.62,1.62
1.4778,1.47636,0.741416,0.246276,0,-1.93059e-37,0.0869883,4.9446e-08,-9,-1523,-1.23715e-44,-9,-95.3819,-1427.62,1.624
1.4778,1.47636,0.741764,0.246276,0,-1.28706e-37,0.0869319,3.2964e-08,-9,-1524,-5.49844e-45,-9,-95.3819,-1428.62,1.628
1.4778,1.47636,0.742111,0.246276,0,-8.58041e-38,0.0868755,2.1976e-08,-9,-1525,-2.44375e-45,-9,-95.3819,-1429.62,1.632
1.4778,1.47636,0.742459,0.246276,0,-5.72027e-38,0.086819,1.46507e-08,-9,-1526,-1.08611e-45,-9,-95.3819,-1430.62,1.636
1.4778,1.47636,0.742806,0.246276,0,-3.81352e-38,0.0867624,9.76711e-09,-9,-1527,-4.82716e-46,-9,-95.3819,-1431.62,1.64
1.4778,1.47636,0.743153,0.246276,0,-2.54234e-38,0.0867057,6.51141e-09,-9,-1528,-2.1454e-46,-9,-95.3819,-1432.62,1.644
1.4778,1.47636,0.743499,0.246276,0,-1.6949e-38,0.086649,4.34094e-09,-9,-1529,-9.53513e-47,-9,-95.3819,-1433.62,1.648
1.4778,1.47636,0.743846,0.246276,0,-1.12993e-38,0.0865922,2.89396e-09,-9,-1530,-4.23784e-47,-9,-95.3819,-1434.62,1.652
1.4778,1.47636,0.744192,0.246276,0,-7.53287e-39,0.0865352,5.75838e-05,-9,-1531,-5.62162e-43,-9,-95.3819,-1435.62,1.656
1.4778,1.47636,0.744538,0.246276,0,-5.02191e-39,0.0864782,3.83892e-05,-9,-1531,-2.4985e-43,-9,-95.3819,-1435.62,1.66
1.4778,1.47636,0.744884,0.246276,0,-3.34794e-39,0.0864211,-3.19813e-06,-9,-1532,1.38763e-44,-9,-95.3819,-1436.62,1.664
1.4778,1.47636,0.745229,0.246275,0,-2.23196e-39,0.086364,-5.97139e-05,-9,-1533,1.72728e-43,-9,-95.382,-1437.62,1.668
1.4778,1.47636,0.745575,0.246275,0,-1.48797e-39,0.0863067,-3.98093e-05,-9,-1534,7.67679e-44,-9,-95.382,-1438.62,1.672
1.4778,1.47636,0.74592,0.246276,0,-9.91983e-40,0.0862494,3.10423e-05,-9,-1535,-3.99079e-44,-9,-95.3819,-1439.62,1.676
1.4778,1.47636,0.746265,0.246276,0,-6.61322e-40,0.086192,4.94858e-05,-9,-1536,-4.24126e-44,-9,-95.3819,-1440.62,1.68
1.4778,1.47636,0.746609,0.246276,0,-4.40881e-40,0.0861345,4.19961e-06,-9,-1537,-2.39956e-45,-9,-95.3819,-1441.62,1.684
1.4778,1.47636,0.746954,0.246276,0,-2.93921e-40,0.086077,2.79974e-06,-9,-1538,-1.06647e-45,-9,-95.3819,-1442.62,1.688
1.4778,1.47636,0.747298,0.246276,0,-1.95947e-40,0.0860193,1.86649e-06,-9,-1539,-4.73987e-46,-9,-95.3819,-1443.62,1.692
1.4778,1.47636,0.747642,0.246276,0,-1.30631e-40,0.0859616,1.24433e-06,-9,-1540,-2.10661e-46,-9,-95.3819,-1444.62,1.696
1.4778,1.47636,0.747986,0.246276,0,-8.70877e-41,0.0859038,8.29553e-07,-9,-1540,-9.36271e-47,-9,-95.3819,-1444.62,1.7
1.4778,1.47636,0.748329,0.246276,0,-5.80584e-41,0.0858459,5.53035e-07,-9,-1541,-4.1612e-47,-9,-95.3819,-1445.62,1.704
1.4778,1.47636,0.748673,0.246276,0,-3.87056e-41,0.0857879,3.6869e-07,-9,-1542,-1.84942e-47,-9,-95.3819,-1446.62,1.708
1.4778,1.47636,0.749016,0.246276,0,-2.58038e-41,0.0857299,2.45793e-07,-9,-1543,-8.21966e-48,-9,-95.3819,-1447.62,1.712
1.4778,1.47636,0.749358,0.246276,0,-1.72025e-41,0.0856718,1.63862e-07,-9,-1544,-3.65318e-48,-9,-95.3819,-1448.62,1.716
1.4778,1.47636,0.749701,0.246276,0,-1.14683e-41,0.0856136,1.09242e-07,-9,-1545,-1.62364e-48,-9,-95.3819,-1449.62,1.72
1.4778,1.47636,0.750043,0.246276,0,-7.64556e-42,0.0855553,7.28277e-08,-9,-1546,-7.21616e-49,-9,-95.3819,-1450.62,1.724
1.4778,1.47636,0.750385,0.246276,0,-5.09704e-42,0.0854969,4.85518e-08,-9,-1547,-3.20718e-49,-9,-95.3819,-1451.62,1.728
1.4778,1.47636,0.750727,0.246276,0,-3.39802e-42,0.0854385,3.23679e-08,-9,-1548,-1.42541e-49,-9,-95.3819,-1452.62,1.732
1.4778,1.47636,0.751069,0.246276,0,-2.26535e-42,0.08538,2.15786e-08,-9,-1548,-6.33518e-50,-9,-95.3819,-1452.62,1.736
1.4778,1.47636,0.75141,0.246276,0,-1.51023e-42,0.0853214,1.43857e-08,-9,-1549,-2.81563e-50,-9,-95.3819,-1453.62,1.74
1.4778,1.47636,0.751751,0.246276,0,-1.00682e-42,0.0852627,9.59048e-09,-9,-1550,-1.25139e-50,-9,-95.3819,-1454.62,1.744
1.4778,1.47636,0.752092,0.246276,0,-6.71215e-43,0.085204,6.39365e-09,-9,-1551,-5.56175e-51,-9,-95.3819,-1455.62,1.748
1.4778,1.47636,0.752433,0.246276,0,-4.47477e-43,0.0851452,4.26244e-09,-9,-1552,-2.47189e-51,-9,-95.3819,-1456.62,1.752
1.4778,1.47636,0.752774,0.246277,0,-2.98318e-43,0.0850863,5.75847e-05,-9,-1553,-2.22632e-47,-9,-95.3819,-1457.62,1.756
1.4778,1.47636,0.753114,0.246276,0,-1.98878e-43,0.0850273,-1.91921e-05,-9,-1554,4.94663e-48,-9,-95.3819,-1458.62,1.76
1.4778,1.47636,0.753454,0.246276,0,-1.32586e-43,0.0849683,-1.27947e-05,-9,-1555,2.1985e-48,-9,-95.3819,-1459.62,1.764
1.4778,1.47636,0.753794,0.246277,0,-8.83904e-44,0.0849091,4.9052e-05,-9,-1556,-5.61907e-48,-9,-95.3819,-1460.62,1.768
1.4778,1.47636,0.754133,0.246276,0,-5.89269e-44,0.08485,-2.48805e-05,-9,-1556,1.90009e-48,-9,-95.3819,-1460.62,1.772
1.4778,1.47636,0.754472,0.246277,0,-3.92846e-44,0.0847907,4.09949e-05,-9,-1557,-2.08715e-48,-9,-95.3819,-1461.62,1.776
1.4778,1.47636,0.754811,0.246276,0,-2.61898e-44,0.0847313,-1.46102e-06,-9,-1558,4.95893e-50,-9,-95.3819,-1462.62,1.78
1.4778,1.47636,0.75515,0.246276,0,-1.74598e-44,0.0846719,-9.74012e-07,-9,-1559,2.20397e-50,-9,-95.3819,-1463.62,1.784
1.4778,1.47636,0.755489,0.246276,0,-1.16399e-44,0.0846124,-6.49341e-07,-9,-1560,9.79542e-51,-9,-95.3819,-1464.62,1.788
1.4778,1.47636,0.755827,0.246276,0,-7.75993e-45,0.0845529,-5.80147e-05,-9,-1561,5.8344e-49,-9,-95.3819,-1465.62,1.792
1.4778,1.47636,0.756165,0.246276,0,-5.17328e-45,0.0844932,1.89054e-05,-9,-1562,-1.26751e-49,-9,-95.3819,-1466.62,1.796
1.4778,1.47636,0.756503,0.246276,0,-3.44886e-45,0.0844335,1.26036e-05,-9,-1563,-5.63339e-50,-9,-95.3819,-1467.62,1.8
1.4778,1.47636,0.756841,0.246276,0,-2.29924e-45,0.0843737,8.40238e-06,-9,-1563,-2.50373e-50,-9,-95.3819,-1467.62,1.804
1.4778,1.47636,0.757178,0.246276,0,-1.53283e-45,0.0843139,5.60159e-06,-9,-1564,-1.11277e-50,-9,-95.3819,-1468.62,1.808
1.4778,1.47636,0.757515,0.246276,0,-1.02188e-45,0.0842539,3.73439e-06,-9,-1565,-4.94564e-51,-9,-95.3819,-1469.62,1.812
1.4778,1.47636,0.757852,0.246276,0,-6.81256e-46,0.0841939,2.48959e-06,-9,-1566,-2.19806e-51,-9,-95.3819,-1470.62,1.816
1.4778,1.47636,0.758189,0.246276,0,-4.5417e-46,0.0841338,1.65973e-06,-9,-1567,-9.76916e-52,-9,-95.3819,-1471.62,1.82
1.4778,1.47636,0.758525,0.246276,0,-3.0278e-46,0.0840737,1.10649e-06,-9,-1568,-4.34185e-52,-9,-95.3819,-1472.62,1.824
1.4778,1.47636,0.758861,0.246276,0,-2.01854e-46,0.0840135,7.37657e-07,-9,-1569,-1.92971e-52,-9,-95.3819,-1473.62,1.828
1.4778,1.47636,0.759197,0.246276,0,-1.34569e-46,0.0839532,4.91772e-07,-9,-1570,-8.57649e-53,-9,-95.3819,-1474.62,1.832
1.4778,1.47636,0.759533,0.246276,0,-8.97127e-47,0.0838928,3.27848e-07,-9,-1570,-3.81177e-53,-9,-95.3819,-1474.62,1.836
1.4778,1.47636,0.759868,0.246276,0,-5.98084e-47,0.0838324,2.18565e-07,-9,-1571,-1.69412e-53,-9,-95.3819,-1475.62,1.84
1.4778,1.47636,0.760204,0.246276,0,-3.98723e-47,0.0837719,1.4571e-07,-9,-1572,-7.52943e-54,-9,-95.3819,-1476.62,1.844
1.4778,1.47636,0.760539,0.246276,0,-2.65815e-47,0.0837113,9.71401e-08,-9,-1573,-3.34641e-54,-9,-95.3819,-1477.62,1.848
1.4778,1.47636,0.760873,0.246276,0,-1.7721e-47,0.0836506,6.47601e-08,-9,-1574,-1.48729e-54,-9,-95.3819,-1478.62,1.852
1.4778,1.47636,0.761208,0.246276,0,-1.1814e-47,0.0835899,4.31734e-08,-9,-1575,-6.6102e-55,-9,-95.3819,-1479.62,1.856
1.4778,1.47636,0.761542,0.246276,0,-7.87601e-48,0.0835291,2.87822e-08,-9,-1576,-2.93787e-55,-9,-95.3819,-1480.62,1.86
1.4778,1.47636,0.761876,0.246277,0,-5.25067e-48,0.0834683,2.88101e-05,-9,-1577,-1.96048e-52,-9,-95.3819,-1481.62,1.864
1.4778,1.47636,0.76221,0.246277,0,-3.50045e-48,0.0834074,4.79977e-05,-9,-1577,-2.17744e-52,-9,-95.3819,-1481.62,1.868
1.4778,1.47636,0.762543,0.246277,0,-2.33363e-48,0.0833464,3.20752e-06,-9,-1578,-9.70071e-54,-9,-95.3819,-1482.62,1.872
1.4778,1.47636,0.762877,0.246277,0,-1.55576e-48,0.0832853,2.13835e-06,-9,-1579,-4.31143e-54,-9,-95.3819,-1483.62,1.876
1.4778,1.47636,0.76321,0.246277,0,-1.03717e-48,0.0832242,1.42556e-06,-9,-1580,-1.91619e-54,-9,-95.3819,-1484.62,1.88
1.4778,1.47636,0.763542,0.246277,0,-6.91447e-49,0.083163,9.50376e-07,-9,-1581,-8.5164e-55,-9,-95.3819,-1485.62,1.884
1.4778,1.47636,0.763875,0.246277,0,-4.60964e-49,0.0831017,6.33584e-07,-9,-1582,-3.78507e-55,-9,-95.3819,-1486.62,1.888
1.4778,1.47636,0.764207,0.246277,0,-3.0731e-49,0.0830403,4.22389e-07,-9,-1583,-1.68225e-55,-9,-95.3819,-1487.62,1.892
1.4778,1.47636,0.764539,0.246277,0,-2.04873e-49,0.0829789,2.81593e-07,-9,-1583,-7.47667e-56,-9,-95.3819,-1487.62,1.896
1.4778,1.47636,0.764871,0.246277,0,-1.36582e-49,0.0829175,1.87729e-07,-9,-1584,-3.32297e-56,-9,-95.3819,-1488.62,1.9
1.4778,1.47636,0.765203,0.246277,0,-9.10547e-50,0.0828559,1.25152e-07,-9,-1585,-1.47687e-56,-9,-95.3819,-1489.62,1.904
1.4778,1.47636,0.765534,0.246277,0,-6.07031e-50,0.0827943,2.88744e-05,-9,-1586,-2.27157e-54,-9,-95.3819,-1490.62,1.908
1.4778,1.47636,0.765865,0.246277,0,-4.04688e-50,0.0827326,-9.54135e-06,-9,-1587,5.00416e-55,-9,-95.3819,-1491.62,1.912
1.4778,1.47636,0.766196,0.246277,0,-2.69792e-50,0.0826709,2.243e-05,-9,-1588,-7.84261e-55,-9,-95.3819,-1492.62,1.916
1.4778,1.47636,0.766526,0.246277,0,-1.79861e-50,0.0826091,1.49533e-05,-9,-1589,-3.4856e-55,-9,-95.3819,-1493.62,1.92
1.4778,1.47636,0.766857,0.246277,0,-1.19907e-50,0.0825472,9.9689e-06,-9,-1589,-1.54916e-55,-9,-95.3819,-1493.62,1.924
1.4778,1.47636,0.767187,0.246277,0,-7.99383e-51,0.0824853,6.64593e-06,-9,-1590,-6.88514e-56,-9,-95.3819,-1494.62,1.928
1.4778,1.47636,0.767516,0.246277,0,-5.32922e-51,0.0824233,4.43062e-06,-9,-1591,-3.06006e-56,-9,-95.3819,-1495.62,1.932
1.4778,1.47636,0.767846,0.246277,0,-3.55281e-51,0.0823612,2.95375e-06,-9,-1592,-1.36003e-56,-9,-95.3819,-1496.62,1.936
1.4778,1.47636,0.768175,0.246278,0,-2.36854e-51,0.0822991,5.9551e-05,-9,-1593,-1.82799e-55,-9,-95.3819,-1497.62,1.94
1.4778,1.47636,0.768504,0.246278,0,-1.57903e-51,0.0822368,3.97007e-05,-9,-1594,-8.1244e-56,-9,-95.3819,-1498.62,1.944
1.4778,1.47636,0.768833,0.246278,0,-1.05269e-51,0.0821746,2.64671e-05,-9,-1595,-3.61084e-56,-9,-95.3819,-1499.62,1.948
1.4778,1.47636,0.769162,0.246277,0,-7.0179e-52,0.0821122,-1.11462e-05,-9,-1595,1.01376e-56,-9,-95.3819,-1499.62,1.952
1.4778,1.47636,0.76949,0.246277,0,-4.6786e-52,0.0820498,-7.43079e-06,-9,-1596,4.50561e-57,-9,-95.3819,-1500.62,1.956
1.4778,1.47636,0.769818,0.246277,0,-3.11907e-52,0.0819874,-4.95386e-06,-9,-1597,2.00249e-57,-9,-95.3819,-1501.62,1.96
1.4778,1.47636,0.770146,0.246277,0,-2.07938e-52,0.0819249,-3.30257e-06,-9,-1598,8.89997e-58,-9,-95.3819,-1502.62,1.964
1.4778,1.47636,0.770474,0.246277,0,-1.38625e-52,0.0818623,-3.09926e-05,-9,-1599,5.56805e-57,-9,-95.3819,-1503.62,1.968
1.4778,1.47636,0.770801,0.246278,0,-9.24168e-53,0.0817996,3.69201e-05,-9,-1600,-4.42198e-57,-9,-95.3819,-1504.62,1.972
1.4778,1.47636,0.771128,0.246278,0,-6.16112e-53,0.0817369,2.46134e-05,-9,-1600,-1.96533e-57,-9,-95.3819,-1504.62,1.976
1.4778,1.47636,0.771455,0.246278,0,-4.10741e-53,0.0816741,7.39908e-05,-9,-1601,-3.93868e-57,-9,-95.3819,-1505.62,1.98
1.4778,1.47636,0.771781,0.246278,0,-2.73828e-53,0.0816113,2.05363e-05,-9,-1602,-7.2879e-58,-9,-95.3819,-1506.62,1.984
1.4778,1.47636,0.772108,0.246279,0,-1.82552e-53,0.0815484,0.000100064,-9,-1603,-2.36738e-57,-9,-95.3819,-1507.62,1.988
1.4778,1.47636,0.772434,0.24628,0,-1.21701e-53,0.0814854,9.55e-05,-9,-1604,-1.50628e-57,-9,-95.3819,-1508.62,1.992
1.4778,1.47636,0.77276,0.246283,0,-8.11341e-54,0.0814224,0.000351576,-9,-1604,-3.69687e-57,-9,-95.3818,-1508.62,1.996
1.4778,1.47636,0.773085,0.246291,0,-5.40894e-54,0.0813593,0.000867784,-9,-1605,-6.08342e-57,-9,-95.3816,-1509.62,2
1.4778,1.47636,0.77341,0.246303,0,-3.60596e-54,0.0812961,0.00164379,-9,-1605,-7.68265e-57,-9,-95.3813,-1509.62,2.004
1.4778,1.47636,0.773735,0.246321,0,-2.40397e-54,0.0812329,0.0025642,-9,-1605,-7.99013e-57,-9,-95.3809,-1509.62,2.008
1.4778,1.47636,0.77406,0.246344,0,-1.60265e-54,0.0811696,0.00363846,-9,-1605,-7.55903e-57,-9,-95.3803,-1509.62,2.012
1.4778,1.47636,0.774385,0.246372,0,-1.06843e-54,0.0811063,0.00472891,-9,-1605,-6.55034e-57,-9,-95.3796,-1509.62,2.016
1.4778,1.47636,0.774709,0.246408,0,-7.12288e-55,0.0810429,0.00620445,-9,-1604,-5.73025e-57,-9,-95.3788,-1508.62,2.02
1.4778,1.47636,0.775033,0.246457,0,-4.74859e-55,0.0809795,0.00822461,-9,-1603,-5.06494e-57,-9,-95.3776,-1507.62,2.024
1.4778,1.47636,0.775357,0.246518,0,-3.16573e-55,0.0809159,0.0105503,-9,-1602,-4.33241e-57,-9,-95.3761,-1506.62,2.028
1.4778,1.47636,0.775681,0.2466,0,-2.11048e-55,0.0808524,0.0138282,-9,-1600,-3.78679e-57,-9,-95.3742,-1504.63,2.032
1.4778,1.47636,0.776004,0.2467,0,-1.40699e-55,0.0807887,0.0175969,-9,-1597,-3.21377e-57,-9,-95.3718,-1501.63,2.036
1.4778,1.47636,0.776327,0.24682,0,-9.37993e-56,0.080725,0.0216642,-9,-1595,-2.63889e-57,-9,-95.3689,-1499.63,2.04
1.4778,1.47636,0.77665,0.24696,0,-6.25329e-56,0.0806613,0.0261607,-9,-1591,-2.12551e-57,-9,-95.3655,-1495.63,2.044
1.4778,1.47636,0.776972,0.247128,0,-4.16886e-56,0.0805974,0.0314328,-9,-1587,-1.70364e-57,-9,-95.3615,-1491.64,2.048
1.4778,1.47636,0.777294,0.24732,0,-2.77924e-56,0.0805336,0.0369342,-9,-1583,-1.33549e-57,-9,-95.3569,-1487.64,2.052
1.4778,1.47636,0.777616,0.247535,0,-1.85283e-56,0.0804696,0.0425595,-9,-1579,-1.02675e-57,-9,-95.3517,-1483.65,2.056
1.4778,1.47636,0.777938,0.247778,0,-1.23522e-56,0.0804056,0.0485843,-9,-1574,-7.82097e-58,-9,-95.3458,-1478.65,2.06
1.4778,1.47636,0.77826,0.248043,0,-8.23478e-57,0.0803416,0.0545009,-9,-1569,-5.85469e-58,-9,-95.3394,-1473.66,2.064
1.4778,1.47636,0.778581,0.248329,0,-5.48985e-57,0.0802775,0.0601441,-9,-1565,-4.31181e-58,-9,-95.3325,-1469.67,2.068
1.4778,1.47636,0.778902,0.248638,0,-3.6599e-57,0.0802133,0.0658639,-9,-1560,-3.15151e-58,-9,-95.325,-1464.67,2.072
1.4778,1.47636,0.779223,0.248962,0,-2.43993e-57,0.0801491,0.0708864,-9,-1556,-2.26392e-58,-9,-95.3172,-1460.68,2.076
1.4778,1.47636,0.779543,0.249298,0,-1.62662e-57,0.0800848,0.0753287,-9,-1552,-1.60585e-58,-9,-95.309,-1456.69,2.08
1.4778,1.47636,0.779863,0.249646,0,-1.08442e-57,0.0800205,0.0792116,-9,-1549,-1.12719e-58,-9,-95.3006,-1453.7,2.084
1.4778,1.47636,0.780183,0.250004,0,-7.22944e-58,0.0799561,0.0826064,-9,-1546,-7.84691e-59,-9,-95.2919,-1450.71,2.088
1.4778,1.47636,0.780503,0.250372,0,-4.81962e-58,0.0798916,0.0857044,-9,-1543,-5.43477e-59,-9,-95.2829,-1447.72,2.092
1.4778,1.47636,0.780822,0.250748,0,-3.21308e-58,0.0798271,0.0885472,-9,-1540,-3.74851e-59,-9,-95.2737,-1444.73,2.096
1.4778,1.47636,0.781142,0.251136,0,-2.14206e-58,0.0797625,0.0913349,-9,-1538,-2.58133e-59,-9,-95.2643,-1442.74,2.1
1.4778,1.47636,0.78146,0.251534,0,-1.42804e-58,0.0796979,0.0940859,-9,-1535,-1.77529e-59,-9,-95.2545,-1439.75,2.104
1.4778,1.47636,0.781779,0.251939,0,-9.52025e-59,0.0796332,0.0964093,-9,-1533,-1.21453e-59,-9,-95.2446,-1437.76,2.108
1.4778,1.47636,0.782098,0.252349,0,-6.34683e-59,0.0795685,0.0985053,-9,-1531,-8.28525e-60,-9,-95.2346,-1435.77,2.112
1.4778,1.47636,0.782416,0.252768,0,-4.23122e-59,0.0795037,0.100507,-9,-1529,-5.64428e-60,-9,-95.2243,-1433.78,2.116
1.4778,1.47636,0.782734,0.253189,0,-2.82081e-59,0.0794389,0.102101,-9,-1527,-3.82834e-60,-9,-95.2139,-1431.79,2.12
1.4778,1.47636,0.783051,0.253618,0,-1.88054e-59,0.079374,0.103826,-9,-1526,-2.59935e-60,-9,-95.2033,-1430.8,2.124
1.4778,1.47636,0.783369,0.254051,0,-1.25369e-59,0.079309,0.10535,-9,-1524,-1.76108e-60,-9,-95.1926,-1428.81,2.128
1.4778,1.47636,0.783686,0.254485,0,-8.35797e-60,0.079244,0.106337,-9,-1523,-1.1869e-60,-9,-95.1819,-1427.82,2.132
1.4778,1.47636,0.784002,0.254916,0,-5.57198e-60,0.0791789,0.10688,-9,-1522,-7.96538e-61,-9,-95.1712,-1426.83,2.136
1.4778,1.47636,0.784319,0.255347,0,-3.71465e-60,0.0791138,0.107127,-9,-1521,-5.33071e-61,-9,-95.1605,-1425.84,2.14
1.4778,1.47636,0.784635,0.255778,0,-2.47643e-60,0.0790486,0.107349,-9,-1521,-3.56666e-61,-9,-95.1498,-1425.85,2.144
1.4778,1.47636,0.784951,0.256209,0,-1.65096e-60,0.0789834,0.107439,-9,-1520,-2.38343e-61,-9,-95.1391,-1424.86,2.148
1.4778,1.47636,0.785267,0.25664,0,-1.10064e-60,0.0789181,0.107615,-9,-1520,-1.59399e-61,-9,-95.1283,-1424.87,2.152
1.4778,1.47636,0.785583,0.257072,0,-7.33758e-61,0.0788528,0.107674,-9,-1519,-1.06487e-61,-9,-95.1175,-1423.88,2.156
1.4778,1.47636,0.785898,0.257499,0,-4.89172e-61,0.0787874,0.107369,-9,-1519,-7.08968e-62,-9,-95.1069,-1423.89,2.16
1.4778,1.47636,0.786213,0.257926,0,-3.26115e-61,0.078722,0.107193,-9,-1519,-4.72587e-62,-9,-95.0961,-1423.9,2.164
1.4778,1.47636,0.786528,0.258352,0,-2.1741e-61,0.0786565,0.106961,-9,-1519,-3.14849e-62,-9,-95.0854,-1423.91,2.168
1.4778,1.47636,0.786842,0.258776,0,-1.4494e-61,0.0785909,0.106663,-9,-1519,-2.09626e-62,-9,-95.0748,-1423.93,2.172
1.4778,1.47636,0.787157,0.259202,0,-9.66266e-62,0.0785253,0.10655,-9,-1518,-1.39811e-62,-9,-95.0641,-1422.94,2.176
1.4778,1.47636,0.787471,0.259624,0,-6.44177e-62,0.0784597,0.106245,-9,-1518,-9.3078e-63,-9,-95.0534,-1422.95,2.18
1.4778,1.47636,0.787784,0.260047,0,-4.29452e-62,0.078394,0.106099,-9,-1518,-6.20585e-63,-9,-95.0427,-1422.96,2.184
1.4778,1.47636,0.788098,0.260469,0,-2.86301e-62,0.0783282,0.105829,-9,-1518,-4.13277e-63,-9,-95.032,-1422.97,2.188
1.4778,1.47636,0.788411,0.26089,0,-1.90867e-62,0.0782624,0.105677,-9,-1518,-2.75528e-63,-9,-95.0214,-1422.98,2.192
1.4778,1.47636,0.788724,0.26131,0,-1.27245e-62,0.0781966,0.10549,-9,-1517,-1.83628e-63,-9,-95.0107,-1421.99,2.196
1.4778,1.47636,0.789036,0.26173,0,-8.483e-63,0.0781307,0.105308,-9,-1517,-1.22385e-63,-9,-95,-1422,2.2
1.4778,1.47636,0.789349,0.262151,0,-5.65533e-63,0.0780647,0.105301,-9,-1517,-8.17041e-64,-9,-94.9893,-1422.01,2.204
1.4778,1.47636,0.789661,0.262573,0,-3.77022e-63,0.0779987,0.105326,-9,-1517,-5.45615e-64,-9,-94.9785,-1422.02,2.208
1.4778,1.47636,0.789973,0.262991,0,-2.51348e-63,0.0779327,0.105083,-9,-1516,-3.63429e-64,-9,-94.9678,-1421.03,2.212
1.4778,1.47636,0.790284,0.26341,0,-1.67565e-63,0.0778665,0.104979,-9,-1516,-2.42395e-64,-9,-94.9571,-1421.04,2.216
1.4778,1.47636,0.790596,0.263827,0,-1.1171e-63,0.0778004,0.104736,-9,-1516,-1.61455e-64,-9,-94.9464,-1421.05,2.22
1.4778,1.47636,0.790907,0.264246,0,-7.44735e-64,0.0777342,0.104719,-9,-1516,-1.07773e-64,-9,-94.9357,-1421.06,2.224
1.4778,1.47636,0.791218,0.264666,0,-4.9649e-64,0.0776679,0.104765,-9,-1515,-7.19834e-65,-9,-94.9249,-1420.08,2.228
1.4778,1.47636,0.791528,0.265087,0,-3.30993e-64,0.0776016,0.104939,-9,-1515,-4.81381e-65,-9,-94.9141,-1420.09,2.232
1.4778,1.47636,0.791838,0.265508,0,-2.20662e-64,0.0775353,0.105056,-9,-1514,-3.21738e-65,-9,-94.9032,-1419.1,2.236
1.4778,1.47636,0.792148,0.265928,0,-1.47108e-64,0.0774689,0.105018,-9,-1514,-2.14722e-65,-9,-94.8924,-1419.11,2.24
1.4778,1.47636,0.792458,0.26635,0,-9.80721e-65,0.0774024,0.105195,-9,-1513,-1.43594e-65,-9,-94.8814,-1418.12,2.244
1.4778,1.47636,0.792768,0.266773,0,-6.53814e-65,0.0773359,0.10537,-9,-1513,-9.60264e-66,-9,-94.8705,-1418.13,2.248
1.4778,1.47636,0.793077,0.267202,0,-4.35876e-65,0.0772694,0.106034,-9,-1512,-6.45146e-66,-9,-94.8593,-1417.14,2.252
1.4778,1.47636,0.793386,0.267636,0,-2.90584e-65,0.0772028,0.106822,-9,-1511,-4.33928e-66,-9,-94.8481,-1416.15,2.256
1.4778,1.47636,0.793695,0.268068,0,-1.93723e-65,0.0771361,0.107232,-9,-1510,-2.9082e-66,-9,-94.8368,-1415.16,2.26
1.4778,1.47636,0.794003,0.268503,0,-1.29148e-65,0.0770694,0.107707,-9,-1509,-1.95023e-66,-9,-94.8255,-1414.17,2.264
1.4778,1.47636,0.794311,0.268936,0,-8.60989e-66,0.0770027,0.107937,-9,-1509,-1.30483e-66,-9,-94.8142,-1414.19,2.268
1.4778,1.47636,0.794619,0.269368,0,-5.73993e-66,0.0769359,0.107976,-9,-1508,-8.71459e-67,-9,-94.8029,-1413.2,2.272
1.4778,1.47636,0.794927,0.269801,0,-3.82662e-66,0.0768691,0.10803,-9,-1508,-5.82106e-67,-9,-94.7915,-1413.21,2.276
1.4778,1.47636,0.795234,0.270229,0,-2.55108e-66,0.0768022,0.107721,-9,-1508,-3.87513e-67,-9,-94.7803,-1413.22,2.28
1.4778,1.47636,0.795541,0.270659,0,-1.70072e-66,0.0767353,0.10763,-9,-1507,-2.58494e-67,-9,-94.769,-1412.23,2.284
1.4778,1.47636,0.795848,0.271089,0,-1.13381e-66,0.0766683,0.10754,-9,-1507,-1.72432e-67,-9,-94.7577,-1412.24,2.288
1.4778,1.47636,0.796154,0.271518,0,-7.55875e-67,0.0766013,0.107452,-9,-1507,-1.15024e-67,-9,-94.7464,-1412.25,2.292
1.4778,1.47636,0.796461,0.271948,0,-5.03917e-67,0.0765342,0.107479,-9,-1506,-7.68113e-68,-9,-94.735,-1411.26,2.296
1.4778,1.47636,0.796767,0.272378,0,-3.35945e-67,0.0764671,0.107526,-9,-1506,-5.13028e-68,-9,-94.7237,-1411.28,2.3
1.4778,1.47636,0.797072,0.272815,0,-2.23963e-67,0.0764,0.108076,-9,-1505,-3.44263e-68,-9,-94.7121,-1410.29,2.304
1.4778,1.47636,0.797378,0.27325,0,-1.49309e-67,0.0763328,0.108327,-9,-1504,-2.30372e-68,-9,-94.7006,-1409.3,2.308
1.4778,1.47636,0.797683,0.273684,0,-9.95392e-68,0.0762655,0.108351,-9,-1504,-1.53833e-68,-9,-94.689,-1409.31,2.312
1.4778,1.47636,0.797988,0.274116,0,-6.63594e-68,0.0761982,0.10828,-9,-1504,-1.02634e-68,-9,-94.6775,-1409.32,2.316
1.4778,1.47636,0.798293,0.274548,0,-4.42396e-68,0.0761309,0.108147,-9,-1503,-6.8435e-69,-9,-94.666,-1408.33,2.32
1.4778,1.47636,0.798597,0.274981,0,-2.94931e-68,0.0760635,0.108202,-9,-1503,-4.57111e-69,-9,-94.6545,-1408.35,2.324
1.4778,1.47636,0.798901,0.275412,0,-1.96621e-68,0.0759961,0.108008,-9,-1502,-3.04623e-69,-9,-94.643,-1407.36,2.328
1.4778,1.47636,0.799205,0.275843,0,-1.3108e-68,0.0759286,0.107908,-9,-1502,-2.03178e-69,-9,-94.6314,-1407.37,2.332
1.4778,1.47636,0.799509,0.276272,0,-8.73869e-69,0.0758611,0.107697,-9,-1502,-1.35376e-69,-9,-94.6199,-1407.38,2.336
1.4778,1.47636,0.799812,0.276697,0,-5.82579e-69,0.0757936,0.107211,-9,-1502,-8.99668e-70,-9,-94.6085,-1407.39,2.34
1.4778,1.47636,0.800115,0.277122,0,-3.88386e-69,0.075726,0.106915,-9,-1502,-5.9895e-70,-9,-94.5971,-1407.4,2.344
1.4778,1.47636,0.800418,0.277548,0,-2.58924e-69,0.0756583,0.106776,-9,-1501,-3.99329e-70,-9,-94.5856,-1406.41,2.348
1.4778,1.47636,0.80072,0.27797,0,-1.72616e-69,0.0755906,0.106395,-9,-1501,-2.65631e-70,-9,-94.5742,-1406.43,2.352
1.4778,1.47636,0.801022,0.278394,0,-1.15077e-69,0.0755229,0.106257,-9,-1501,-1.77098e-70,-9,-94.5628,-1406.44,2.356
1.4778,1.47636,0.801324,0.278817,0,-7.67183e-70,0.0754551,0.106078,-9,-1501,-1.18027e-70,-9,-94.5513,-1406.45,2.36
1.4778,1.47636,0.801626,0.279237,0,-5.11455e-70,0.0753873,0.1057,-9,-1501,-7.85094e-71,-9,-94.54,-1406.46,2.364
1.4778,1.47636,0.801927,0.279652,0,-3.4097e-70,0.0753195,0.105073,-9,-1501,-5.20985e-71,-9,-94.5287,-1406.47,2.368
1.4778,1.47636,0.802229,0.280062,0,-2.27313e-70,0.0752516,0.104224,-9,-1501,-3.44967e-71,-9,-94.5176,-1406.48,2.372
1.4778,1.47636,0.802529,0.280472,0,-1.51542e-70,0.0751837,0.1036,-9,-1501,-2.28899e-71,-9,-94.5064,-1406.49,2.376
1.4778,1.47636,0.80283,0.280878,0,-1.01028e-70,0.0751157,0.102953,-9,-1502,-1.51844e-71,-9,-94.4953,-1407.5,2.38
1.4778,1.47636,0.80313,0.281287,0,-6.73521e-71,0.0750477,0.102724,-9,-1501,-1.01135e-71,-9,-94.4842,-1406.52,2.384
1.4778,1.47636,0.80343,0.281694,0,-4.49014e-71,0.0749796,0.10237,-9,-1501,-6.72774e-72,-9,-94.4731,-1406.53,2.388
1.4778,1.47636,0.80373,0.2821,0,-2.99343e-71,0.0749115,0.102047,-9,-1501,-4.47676e-72,-9,-94.462,-1406.54,2.392
1.4778,1.47636,0.80403,0.282505,0,-1.99562e-71,0.0748434,0.101774,-9,-1501,-2.98034e-72,-9,-94.4509,-1406.55,2.396
1.4778,1.47636,0.804329,0.282909,0,-1.33041e-71,0.0747752,0.101564,-9,-1501,-1.98531e-72,-9,-94.4398,-1406.56,2.4
1.4778,1.47636,0.804628,0.283314,0,-8.86942e-72,0.074707,0.101423,-9,-1501,-1.3234e-72,-9,-94.4287,-1406.57,2.404
1.4778,1.47636,0.804927,0.283716,0,-5.91294e-72,0.0746387,0.101128,-9,-1501,-8.80809e-73,-9,-94.4176,-1406.58,2.408
1.4778,1.47636,0.805225,0.284117,0,-3.94196e-72,0.0745704,0.100816,-9,-1500,-5.86131e-73,-9,-94.4066,-1405.59,2.412
1.4778,1.47636,0.805523,0.284512,0,-2.62798e-72,0.074502,0.100176,-9,-1501,-3.88755e-73,-9,-94.3957,-1406.6,2.416
1.4778,1.47636,0.805821,0.284906,0,-1.75198e-72,0.0744337,0.0996059,-9,-1501,-2.58011e-73,-9,-94.3848,-1406.62,2.42
1.4778,1.47636,0.806119,0.285298,0,-1.16799e-72,0.0743652,0.0990817,-9,-1501,-1.71312e-73,-9,-94.3739,-1406.63,2.424
1.4778,1.47636,0.806416,0.28569,0,-7.78659e-73,0.0742968,0.0986746,-9,-1501,-1.13877e-73,-9,-94.3631,-1406.64,2.428
1.4778,1.47636,0.806713,0.286084,0,-5.19106e-73,0.0742283,0.0986335,-9,-1501,-7.59796e-74,-9,-94.3522,-1406.65,2.432
1.4778,1.47636,0.80701,0.286481,0,-3.46071e-73,0.0741598,0.0988652,-9,-1500,-5.08347e-74,-9,-94.3411,-1405.66,2.436
1.4778,1.47636,0.807306,0.286888,0,-2.30714e-73,0.0740912,0.0997683,-9,-1499,-3.42424e-74,-9,-94.3298,-1404.67,2.44
1.4778,1.47636,0.807603,0.2873,0,-1.53809e-73,0.0740226,0.100917,-9,-1498,-2.31207e-74,-9,-94.3183,-1403.68,2.444
1.4778,1.47636,0.807898,0.287719,0,-1.02539e-73,0.0739539,0.102173,-9,-1496,-1.56257e-74,-9,-94.3066,-1401.69,2.448
1.4778,1.47636,0.808194,0.288144,0,-6.83597e-74,0.0738852,0.103499,-9,-1495,-1.05662e-74,-9,-94.2948,-1400.71,2.452
1.4778,1.47636,0.80849,0.288572,0,-4.55731e-74,0.0738165,0.104671,-9,-1493,-7.1333e-75,-9,-94.2828,-1398.72,2.456
1.4778,1.47636,0.808785,0.289005,0,-3.03821e-74,0.0737477,0.105885,-9,-1492,-4.81706e-75,-9,-94.2707,-1397.73,2.46
1.4778,1.47636,0.80908,0.289443,0,-2.02547e-74,0.0736789,0.107068,-9,-1490,-3.25161e-75,-9,-94.2584,-1395.74,2.464
1.4778,1.47636,0.809374,0.289885,0,-1.35031e-74,0.0736101,0.108202,-9,-1489,-2.19367e-75,-9,-94.246,-1394.75,2.468
1.4778,1.47636,0.809668,0.290326,0,-9.0021e-75,0.0735412,0.10893,-9,-1488,-1.47426e-75,-9,-94.2336,-1393.77,2.472
1.4778,1.47636,0.809962,0.290762,0,-6.0014e-75,0.0734723,0.108925,-9,-1487,-9.84105e-76,-9,-94.2213,-1392.78,2.476
1.4778,1.47636,0.810256,0.2912,0,-4.00093e-75,0.0734034,0.109095,-9,-1487,-6.57967e-76,-9,-94.2089,-1392.79,2.48
1.4778,1.47636,0.81055,0.291638,0,-2.66729e-75,0.0733344,0.109294,-9,-1486,-4.40032e-76,-9,-94.1965,-1391.8,2.484
1.4778,1.47636,0.810843,0.292075,0,-1.77819e-75,0.0732654,0.109255,-9,-1486,-2.93636e-76,-9,-94.1842,-1391.82,2.488
1.4778,1.47636,0.811136,0.292515,0,-1.18546e-75,0.0731963,0.109516,-9,-1485,-1.96487e-76,-9,-94.1717,-1390.83,2.492
1.4778,1.47636,0.811428,0.292953,0,-7.90307e-76,0.0731272,0.109489,-9,-1485,-1.31132e-76,-9,-94.1593,-1390.84,2.496
1.4778,1.47636,0.811721,0.293392,0,-5.26872e-76,0.0730581,0.109615,-9,-1484,-8.76376e-77,-9,-94.1468,-1389.85,2.5
1.4778,1.47636,0.812013,0.293833,0,-3.51248e-76,0.0729889,0.109814,-9,-1483,-5.86087e-77,-9,-94.1342,-1388.87,2.504
1.4778,1.47636,0.812305,0.294277,0,-2.34165e-76,0.0729198,0.110177,-9,-1483,-3.92538e-77,-9,-94.1216,-1388.88,2.508
1.4778,1.47636,0.812596,0.294722,0,-1.5611e-76,0.0728505,0.110563,-9,-1482,-2.62959e-77,-9,-94.1089,-1387.89,2.512
1.4778,1.47636,0.812888,0.29517,0,-1.04073e-76,0.0727813,0.110993,-9,-1481,-1.76223e-77,-9,-94.0961,-1386.9,2.516
1.4778,1.47636,0.813179,0.295618,0,-6.93823e-77,0.072712,0.111395,-9,-1480,-1.18066e-77,-9,-94.0832,-1385.92,2.52
1.4778,1.47636,0.813469,0.296059,0,-4.62548e-77,0.0726426,0.111,-9,-1480,-7.85348e-78,-9,-94.0706,-1385.93,2.524
1.4778,1.47636,0.81376,0.296503,0,-3.08366e-77,0.0725733,0.110968,-9,-1480,-5.24102e-78,-9,-94.0579,-1385.94,2.528
1.4778,1.47636,0.81405,0.29695,0,-2.05577e-77,0.0725039,0.111205,-9,-1479,-3.50613e-78,-9,-94.045,-1384.95,2.532
1.4778,1.47636,0.81434,0.297396,0,-1.37051e-77,0.0724344,0.111363,-9,-1478,-2.34384e-78,-9,-94.0322,-1383.97,2.536
1.4778,1.47636,0.814629,0.29784,0,-9.13676e-78,0.072365,0.111181,-9,-1478,-1.56205e-78,-9,-94.0194,-1383.98,2.54
1.4778,1.47636,0.814919,0.298281,0,-6.09117e-78,0.0722955,0.110915,-9,-1478,-1.04023e-78,-9,-94.0066,-1383.99,2.544
1.4778,1.47636,0.815208,0.298716,0,-4.06078e-78,0.0722259,0.11022,-9,-1478,-6.90023e-79,-9,-93.994,-1384.01,2.548
1.4778,1.47636,0.815496,0.299145,0,-2.70719e-78,0.0721564,0.10921,-9,-1478,-4.56372e-79,-9,-93.9816,-1384.02,2.552
1.4778,1.47636,0.815785,0.299569,0,-1.80479e-78,0.0720868,0.108104,-9,-1479,-3.01542e-79,-9,-93.9693,-1385.03,2.556
1.4778,1.47636,0.816073,0.299992,0,-1.20319e-78,0.0720171,0.107338,-9,-1479,-1.99851e-79,-9,-93.957,-1385.04,2.56
1.4778,1.47636,0.816361,0.30041,0,-8.0213e-79,0.0719475,0.106425,-9,-1479,-1.32262e-79,-9,-93.9449,-1385.06,2.564
1.4778,1.47636,0.816649,0.300834,0,-5.34753e-79,0.0718778,0.106219,-9,-1479,-8.81125e-80,-9,-93.9325,-1385.07,2.568
1.4778,1.47636,0.816936,0.301256,0,-3.56502e-79,0.071808,0.106024,-9,-1479,-5.8706e-80,-9,-93.9202,-1385.08,2.572
1.4778,1.47636,0.817223,0.301679,0,-2.37668e-79,0.0717383,0.105894,-9,-1478,-3.91374e-80,-9,-93.9079,-1384.09,2.576
1.4778,1.47636,0.81751,0.302101,0,-1.58445e-79,0.0716685,0.10575,-9,-1478,-2.60879e-80,-9,-93.8955,-1384.1,2.58
1.4778,1.47636,0.817796,0.302521,0,-1.0563e-79,0.0715987,0.105538,-9,-1478,-1.73783e-80,-9,-93.8832,-1384.12,2.584
1.4778,1.47636,0.818083,0.302938,0,-7.04202e-80,0.0715288,0.105138,-9,-1478,-1.15556e-80,-9,-93.871,-1384.13,2.588
1.4778,1.47636,0.818369,0.303355,0,-4.69468e-80,0.0714589,0.104785,-9,-1477,-7.68708e-81,-9,-93.8588,-1383.14,2.592
1.4778,1.47636,0.818654,0.303768,0,-3.12979e-80,0.071389,0.104262,-9,-1477,-5.10519e-81,-9,-93.8466,-1383.15,2.596
1.4778,1.47636,0.81894,0.304175,0,-2.08652e-80,0.0713191,0.103424,-9,-1478,-3.38005e-81,-9,-93.8347,-1384.17,2.6
1.4778,1.47636,0.819225,0.304577,0,-1.39102e-80,0.0712491,0.102462,-9,-1478,-2.23499e-81,-9,-93.8228,-1384.18,2.604
1.4778,1.47636,0.81951,0.304974,0,-9.27344e-81,0.0711791,0.101389,-9,-1479,-1.47606e-81,-9,-93.8111,-1385.19,2.608
1.4778,1.47636,0.819794,0.305371,0,-6.18229e-81,0.0711091,0.100702,-9,-1479,-9.78488e-82,-9,-93.7993,-1385.2,2.612
1.4778,1.47636,0.820079,0.30577,0,-4.12153e-81,0.071039,0.100388,-9,-1479,-6.51034e-82,-9,-93.7875,-1385.21,2.616
1.4778,1.47636,0.820363,0.30617,0,-2.74769e-81,0.0709689,0.100294,-9,-1478,-4.34111e-82,-9,-93.7757,-1384.22,2.62
1.4778,1.47636,0.820646,0.306573,0,-1.83179e-81,0.0708988,0.100404,-9,-1478,-2.90057e-82,-9,-93.7637,-1384.24,2.624
1.4778,1.47636,0.82093,0.306973,0,-1.22119e-81,0.0708286,0.100305,-9,-1478,-1.934e-82,-9,-93.7518,-1384.25,2.628
1.4778,1.47636,0.821213,0.307373,0,-8.14129e-82,0.0707585,0.10021,-9,-1477,-1.28957e-82,-9,-93.7399,-1383.26,2.632
1.4778,1.47636,0.821496,0.307776,0,-5.42753e-82,0.0706883,0.100348,-9,-1477,-8.61881e-83,-9,-93.728,-1383.27,2.636
1.4778,1.47636,0.821779,0.308185,0,-3.61835e-82,0.070618,0.100958,-9,-1476,-5.7875e-83,-9,-93.7158,-1382.28,2.64
1.4778,1.47636,0.822061,0.308595,0,-2.41223e-82,0.0705478,0.10148,-9,-1475,-3.88277e-83,-9,-93.7035,-1381.3,2.644
1.4778,1.47636,0.822343,0.309002,0,-1.60816e-82,0.0704775,0.101569,-9,-1474,-2.59376e-83,-9,-93.6914,-1380.31,2.648
1.4778,1.47636,0.822625,0.309407,0,-1.0721e-82,0.0704071,0.101485,-9,-1474,-1.7297e-83,-9,-93.6792,-1380.32,2.652
1.4778,1.47636,0.822906,0.309807,0,-7.14736e-83,0.0703368,0.101025,-9,-1474,-1.1492e-83,-9,-93.6672,-1380.33,2.656
1.4778,1.47636,0.823187,0.310205,0,-4.76491e-83,0.0702664,0.100517,-9,-1474,-7.63133e-84,-9,-93.6553,-1380.34,2.66
1.4778,1.47636,0.823468,0.310601,0,-3.1766e-83,0.070196,0.0999483,-9,-1474,-5.06435e-84,-9,-93.6434,-1380.36,2.664
1.4778,1.47636,0.823749,0.310993,0,-2.11774e-83,0.0701256,0.0993099,-9,-1474,-3.35835e-84,-9,-93.6316,-1380.37,2.668
1.4778,1.47636,0.824029,0.311381,0,-1.41182e-83,0.0700551,0.0985676,-9,-1475,-2.22457e-84,-9,-93.6199,-1381.38,2.672
1.4778,1.47636,0.824309,0.311767,0,-9.41216e-84,0.0699846,0.0978712,-9,-1475,-1.47415e-84,-9,-93.6083,-1381.39,2.676
1.4778,1.47636,0.824589,0.312146,0,-6.27477e-84,0.0699141,0.0968023,-9,-1475,-9.73057e-85,-9,-93.5969,-1381.4,2.68
1.4778,1.47636,0.824869,0.312524,0,-4.18318e-84,0.0698436,0.0960609,-9,-1476,-6.44412e-85,-9,-93.5854,-1382.41,2.684
1.4778,1.47636,0.825148,0.312904,0,-2.78879e-84,0.069773,0.0956819,-9,-1476,-4.28363e-85,-9,-93.574,-1382.43,2.688
1.4778,1.47636,0.825427,0.313282,0,-1.85919e-84,0.0697024,0.0953428,-9,-1476,-2.84861e-85,-9,-93.5625,-1382.44,2.692
1.4778,1.47636,0.825706,0.31366,0,-1.23946e-84,0.0696318,0.0950303,-9,-1475,-1.89483e-85,-9,-93.551,-1381.45,2.696
1.4778,1.47636,0.825984,0.314036,0,-8.26308e-85,0.0695612,0.0947069,-9,-1475,-1.26022e-85,-9,-93.5396,-1381.46,2.7
1.4778,1.47636,0.826262,0.314411,0,-5.50872e-85,0.0694905,0.0944049,-9,-1475,-8.38336e-86,-9,-93.5282,-1381.47,2.704
1.4778,1.47636,0.82654,0.314784,0,-3.67248e-85,0.0694198,0.094002,-9,-1475,-5.57076e-86,-9,-93.5169,-1381.48,2.708
1.4778,1.47636,0.826817,0.315157,0,-2.44832e-85,0.0693491,0.0937334,-9,-1475,-3.70702e-86,-9,-93.5055,-1381.49,2.712
1.4778,1.47636,0.827095,0.315528,0,-1.63221e-85,0.0692784,0.0933816,-8,-1475,-2.46457e-86,-8,-93.4942,-1381.51,2.716
1.4778,1.47636,0.827372,0.315897,0,-1.08814e-85,0.0692076,0.0930319,-8,-1475,-1.63855e-86,-8,-93.4829,-1381.52,2.72
1.4778,1.47636,0.827648,0.316266,0,-7.25428e-86,0.0691368,0.09277,-8,-1475,-1.09039e-86,-8,-93.4716,-1381.53,2.724
1.4778,1.47636,0.827925,0.316638,0,-4.83619e-86,0.069066,0.0928545,-8,-1475,-7.28326e-87,-8,-93.4602,-1381.54,2.728
1.4778,1.47636,0.828201,0.317013,0,-3.22412e-86,0.0689952,0.0931411,-8,-1474,-4.87547e-87,-8,-93.4488,-1380.55,2.732
1.4778,1.47636,0.828477,0.317392,0,-2.14942e-86,0.0689243,0.0936489,-8,-1473,-3.2714e-87,-8,-93.4371,-1379.56,2.736
1.4778,1.47636,0.828752,0.317773,0,-1.43294e-86,0.0688534,0.0942466,-8,-1472,-2.19713e-87,-8,-93.4254,-1378.57,2.74
1.4778,1.47636,0.829028,0.318158,0,-9.55296e-87,0.0687825,0.0949042,-8,-1472,-1.47651e-87,-8,-93.4136,-1378.59,2.744
1.4778,1.47636,0.829303,0.318541,0,-6.36864e-87,0.0687116,0.0951698,-8,-1471,-9.88117e-88,-8,-93.4018,-1377.6,2.748
1.4778,1.47636,0.829577,0.318925,0,-4.24576e-87,0.0686406,0.0954044,-8,-1470,-6.61053e-88,-8,-93.39,-1376.61,2.752
1.4778,1.47636,0.829852,0.319314,0,-2.83051e-87,0.0685697,0.0960503,-8,-1469,-4.44152e-88,-8,-93.378,-1375.62,2.756
1.4778,1.47636,0.830126,0.319702,0,-1.887e-87,0.0684987,0.0963946,-8,-1469,-2.97473e-88,-8,-93.366,-1375.63,2.76
1.4778,1.47636,0.8304,0.320097,0,-1.258e-87,0.0684276,0.0971711,-8,-1468,-2.00125e-88,-8,-93.3538,-1374.65,2.764
1.4778,1.47636,0.830673,0.320491,0,-8.38669e-88,0.0683566,0.0976024,-8,-1467,-1.34151e-88,-8,-93.3416,-1373.66,2.768
1.4778,1.47636,0.830947,0.320885,0,-5.59112e-88,0.0682855,0.0979187,-8,-1466,-8.98184e-89,-8,-93.3293,-1372.67,2.772
1.4778,1.47636,0.83122,0.321281,0,-3.72742e-88,0.0682144,0.0982735,-8,-1466,-6.01596e-89,-8,-93.3171,-1372.68,2.776
1.4778,1.47636,0.831492,0.321681,0,-2.48494e-88,0.0681433,0.0988556,-8,-1465,-4.0387e-89,-8,-93.3046,-1371.7,2.78
1.4778,1.47636,0.831765,0.322087,0,-1.65663e-88,0.0680722,0.0997331,-8,-1464,-2.71931e-89,-8,-93.292,-1370.71,2.784
1.4778,1.47636,0.832037,0.322497,0,-1.10442e-88,0.068001,0.100606,-8,-1462,-1.83073e-89,-8,-93.2792,-1368.72,2.788
1.4778,1.47636,0.832309,0.32291,0,-7.3628e-89,0.0679299,0.101533,-8,-1461,-1.23309e-89,-8,-93.2663,-1367.73,2.792
1.4778,1.47636,0.83258,0.323325,0,-4.90853e-89,0.0678587,0.102238,-8,-1460,-8.28678e-90,-8,-93.2534,-1366.75,2.796
1.4778,1.47636,0.832852,0.323737,0,-3.27235e-89,0.0677874,0.102535,-8,-1459,-5.54662e-90,-8,-93.2405,-1365.76,2.8
1.4778,1.47636,0.833123,0.324149,0,-2.18157e-89,0.0677162,0.102704,-8,-1459,-3.70789e-90,-8,-93.2276,-1365.77,2.804
1.4778,1.47636,0.833393,0.324561,0,-1.45438e-89,0.067645,0.102788,-8,-1458,-2.47664e-90,-8,-93.2147,-1364.79,2.808
1.4778,1.47636,0.833664,0.324974,0,-9.69587e-90,0.0675737,0.102902,-8,-1458,-1.65471e-90,-8,-93.2017,-1364.8,2.812
1.4778,1.47636,0.833934,0.325387,0,-6.46391e-90,0.0675024,0.103006,-8,-1457,-1.10546e-90,-8,-93.1888,-1363.81,2.816
1.4778,1.47636,0.834204,0.325797,0,-4.30927e-90,0.0674311,0.102903,-8,-1457,-7.37031e-91,-8,-93.1758,-1363.82,2.82
1.4778,1.47636,0.834473,0.326208,0,-2.87285e-90,0.0673597,0.102806,-8,-1456,-4.91416e-91,-8,-93.1629,-1362.84,2.824
1.4778,1.47636,0.834743,0.326619,0,-1.91523e-90,0.0672884,0.10277,-8,-1456,-3.27848e-91,-8,-93.15,-1362.85,2.828
1.4778,1.47636,0.835012,0.327027,0,-1.27682e-90,0.067217,0.102573,-8,-1456,-2.18379e-91,-8,-93.1371,-1362.86,2.832
1.4778,1.47636,0.83528,0.327431,0,-8.51215e-91,0.0671456,0.10201,-8,-1456,-1.44939e-91,-8,-93.1243,-1362.88,2.836
1.4778,1.47636,0.835549,0.32783,0,-5.67476e-91,0.0670742,0.101289,-8,-1456,-9.60431e-92,-8,-93.1117,-1362.89,2.84
1.4778,1.47636,0.835817,0.328227,0,-3.78318e-91,0.0670027,0.100607,-8,-1456,-6.36631e-92,-8,-93.0991,-1362.9,2.844
1.4778,1.47636,0.836085,0.328623,0,-2.52212e-91,0.0669313,0.100065,-8,-1456,-4.22572e-92,-8,-93.0865,-1362.91,2.848
1.4778,1.47636,0.836352,0.329014,0,-1.68141e-91,0.0668598,0.0992728,-8,-1456,-2.79766e-92,-8,-93.0741,-1362.93,2.852
1.4778,1.47636,0.83662,0.329406,0,-1.12094e-91,0.0667883,0.0988308,-8,-1456,-1.85868e-92,-8,-93.0616,-1362.94,2.856
1.4778,1.47636,0.836887,0.3298,0,-7.47294e-92,0.0667168,0.0987089,-8,-1456,-1.23885e-92,-8,-93.0491,-1362.95,2.86
1.4778,1.47636,0.837153,0.330183,0,-4.98196e-92,0.0666453,0.097735,-8,-1456,-8.18562e-93,-8,-93.0369,-1362.96,2.864
1.4778,1.47636,0.83742,0.330573,0,-3.32131e-92,0.0665738,0.0976904,-8,-1456,-5.46007e-93,-8,-93.0244,-1362.98,2.868
1.4778,1.47636,0.837686,0.330965,0,-2.2142e-92,0.0665022,0.0977759,-8,-1455,-3.6469e-93,-8,-93.0119,-1361.99,2.872
1.4778,1.47636,0.837952,0.331356,0,-1.47614e-92,0.0664306,0.0977752,-8,-1455,-2.43369e-93,-8,-92.9994,-1362,2.876
1.4778,1.47636,0.838217,0.331743,0,-9.84091e-93,0.066359,0.0974581,-8,-1455,-1.6188e-93,-8,-92.987,-1362.01,2.88
1.4778,1.47636,0.838483,0.33213,0,-6.56061e-93,0.0662874,0.0971603,-8,-1455,-1.07697e-93,-8,-92.9746,-1362.03,2.884
1.4778,1.47636,0.838748,0.332512,0,-4.37374e-93,0.0662158,0.0966451,-8,-1455,-7.14868e-94,-8,-92.9624,-1362.04,2.888
1.4778,1.47636,0.839012,0.332896,0,-2.91582e-93,0.0661441,0.096388,-8,-1455,-4.75776e-94,-8,-92.9501,-1362.05,2.892
1.4778,1.47636,0.839277,0.333281,0,-1.94388e-93,0.0660725,0.0963605,-8,-1454,-3.17404e-94,-8,-92.9377,-1361.06,2.896
1.4778,1.47636,0.839541,0.333669,0,-1.29592e-93,0.0660008,0.0965726,-8,-1454,-2.12278e-94,-8,-92.9252,-1361.07,2.9
1.4778,1.47636,0.839805,0.334056,0,-8.63948e-94,0.0659291,0.0966276,-8,-1453,-1.41738e-94,-8,-92.9127,-1360.09,2.904
1.4778,1.47636,0.840068,0.334442,0,-5.75965e-94,0.0658574,0.0966354,-8,-1453,-9.45922e-95,-8,-92.9002,-1360.1,2.908
1.4778,1.47636,0.840332,0.334823,0,-3.83977e-94,0.0657857,0.09618,-8,-1453,-6.28248e-95,-8,-92.8879,-1360.11,2.912
1.4778,1.47636,0.840595,0.335203,0,-2.55985e-94,0.0657139,0.0957324,-8,-1453,-4.17282e-95,-8,-92.8757,-1360.12,2.916
1.4778,1.47636,0.840857,0.335584,0,-1.70656e-94,0.0656422,0.095578,-8,-1452,-2.78006e-95,-8,-92.8633,-1359.14,2.92
1.4778,1.47636,0.84112,0.335963,0,-1.13771e-94,0.0655704,0.0953023,-8,-1452,-1.84979e-95,-8,-92.851,-1359.15,2.924
1.4778,1.47636,0.841382,0.336343,0,-7.58473e-95,0.0654986,0.0952049,-8,-1452,-1.23311e-95,-8,-92.8387,-1359.16,2.928
1.4778,1.47636,0.841644,0.336718,0,-5.05649e-95,0.0654268,0.0947081,-8,-1452,-8.18554e-96,-8,-92.8265,-1359.17,2.932
1.4778,1.47636,0.841905,0.337089,0,-3.37099e-95,0.065355,0.0940602,-8,-1452,-5.42473e-96,-8,-92.8145,-1359.19,2.936
1.4778,1.47636,0.842167,0.337455,0,-2.24733e-95,0.0652832,0.0931964,-8,-1453,-3.58656e-96,-8,-92.8026,-1360.2,2.94
1.4778,1.47636,0.842428,0.337818,0,-1.49822e-95,0.0652113,0.0924478,-8,-1453,-2.37399e-96,-8,-92.7907,-1360.21,2.944
1.4778,1.47636,0.842688,0.338176,0,-9.98812e-96,0.0651395,0.0914592,-8,-1453,-1.56713e-96,-8,-92.779,-1360.22,2.948
1.4778,1.47636,0.842949,0.338535,0,-6.65875e-96,0.0650676,0.0908866,-8,-1453,-1.03914e-96,-8,-92.7673,-1360.23,2.952
1.4778,1.47636,0.843209,0.338895,0,-4.43916e-96,0.0649957,0.0905336,-8,-1453,-6.90688e-97,-8,-92.7556,-1360.24,2.956
1.4778,1.47636,0.843469,0.339256,0,-2.95944e-96,0.0649238,0.0904711,-8,-1453,-4.60554e-97,-8,-92.7438,-1360.26,2.96
1.4778,1.47636,0.843728,0.339616,0,-1.97296e-96,0.0648519,0.0902854,-8,-1453,-3.06679e-97,-8,-92.732,-1360.27,2.964
1.4778,1.47636,0.843988,0.339978,0,-1.31531e-96,0.06478,0.0904207,-8,-1452,-2.04943e-97,-8,-92.7201,-1359.28,2.968
1.4778,1.47636,0.844247,0.340345,0,-8.76872e-97,0.064708,0.0908277,-8,-1452,-1.37368e-97,-8,-92.7081,-1359.29,2.972
1.4778,1.47636,0.844505,0.340715,0,-5.84581e-97,0.0646361,0.0914156,-8,-1451,-9.22558e-98,-8,-92.6959,-1358.3,2.976
1.4778,1.47636,0.844764,0.341086,0,-3.89721e-97,0.0645641,0.0918076,-8,-1450,-6.1824e-98,-8,-92.6837,-1357.32,2.98
1.4778,1.47636,0.845022,0.341456,0,-2.59814e-97,0.0644921,0.092069,-8,-1450,-4.1371e-98,-8,-92.6715,-1357.33,2.984
1.4778,1.47636,0.84528,0.341826,0,-1.73209e-97,0.0644201,0.0921856,-8,-1449,-2.76407e-98,-8,-92.6593,-1356.34,2.988
1.4778,1.47636,0.845537,0.342195,0,-1.15473e-97,0.0643481,0.0922346,-8,-1449,-1.84536e-98,-8,-92.6472,-1356.35,2.992
1.4778,1.47636,0.845794,0.342556,0,-7.69819e-98,0.0642761,0.091605,-8,-1449,-1.22293e-98,-8,-92.6352,-1356.36,2.996
1.4778,1.47636,0.846051,0.342916,0,-5.13213e-98,0.0642041,0.0910126,-8,-1449,-8.10724e-99,-8,-92.6234,-1356.38,3
1.4778,1.47636,0.846308,0.343271,0,-3.42142e-98,0.0641321,0.0902433,-8,-1449,-5.36379e-99,-8,-92.6116,-1356.39,3.004
1.4778,1.47636,0.846564,0.343621,0,-2.28095e-98,0.06406,0.0893562,-8,-1450,-3.54373e-99,-8,-92.6,-1357.4,3.008
1.4778,1.47636,0.846821,0.343969,0,-1.52063e-98,0.0639879,0.0885633,-8,-1450,-2.34351e-99,-8,-92.5885,-1357.41,3.012
1.4778,1.47636,0.847076,0.344305,0,-1.01375e-98,0.0639159,0.0870845,-8,-1451,-1.53751e-99,-8,-92.5773,-1358.42,3.016
1.4778,1.47636,0.847332,0.344639,0,-6.75836e-99,0.0638438,0.0858684,-8,-1452,-1.01151e-99,-8,-92.5662,-1359.43,3.02
1.4778,1.47636,0.847587,0.34497,0,-4.50557e-99,0.0637717,0.0847985,-8,-1452,-6.66474e-100,-8,-92.5552,-1359.44,3.024
1.4778,1.47636,0.847842,0.345294,0,-3.00371e-99,0.0636996,0.083567,-8,-1453,-4.38208e-100,-8,-92.5444,-1360.46,3.028
1.4778,1.47636,0.848097,0.345611,0,-2.00248e-99,0.0636275,0.0820838,-8,-1454,-2.87173e-100,-8,-92.5339,-1361.47,3.032
1.4778,1.47636,0.848351,0.345919,0,-1.33498e-99,0.0635554,0.0804041,-8,-1455,-1.87671e-100,-8,-92.5236,-1362.48,3.036
1.4778,1.47636,0.848605,0.34622,0,-8.89989e-100,0.0634832,0.0787372,-8,-1456,-1.22609e-100,-8,-92.5136,-1363.49,3.04
1.4778,1.47636,0.848859,0.346515,0,-5.93326e-100,0.0634111,0.0770213,-8,-1458,-8.00149e-101,-8,-92.5037,-1365.5,3.044
1.4778,1.47636,0.849112,0.346807,0,-3.95551e-100,0.0633389,0.0756759,-8,-1458,-5.24483e-101,-8,-92.494,-1365.51,3.048
1.4778,1.47636,0.849366,0.347098,0,-2.63701e-100,0.0632668,0.0747501,-8,-1459,-3.4562e-101,-8,-92.4842,-1366.52,3.052
1.4778,1.47636,0.849619,0.34739,0,-1.758e-100,0.0631946,0.0741042,-8,-1459,-2.28582e-101,-8,-92.4745,-1366.53,3.056
1.4778,1.47636,0.849871,0.347681,0,-1.172e-100,0.0631224,0.0737023,-8,-1460,-1.51668e-101,-8,-92.4647,-1367.54,3.06
1.4778,1.47636,0.850124,0.347968,0,-7.81335e-101,0.0630502,0.0730601,-8,-1460,-1.003e-101,-8,-92.4551,-1367.54,3.064
1.4778,1.47636,0.850376,0.348254,0,-5.2089e-101,0.062978,0.0725169,-8,-1460,-6.64146e-102,-8,-92.4455,-1367.55,3.068
1.4778,1.47636,0.850627,0.348536,0,-3.4726e-101,0.0629058,0.0718668,-8,-1461,-4.39091e-102,-8,-92.436,-1368.56,3.072
1.4778,1.47636,0.850879,0.348817,0,-2.31507e-101,0.0628336,0.071347,-8,-1461,-2.90805e-102,-8,-92.4266,-1368.57,3.076
1.4778,1.47636,0.85113,0.349099,0,-1.54338e-101,0.0627614,0.0710005,-8,-1461,-1.93058e-102,-8,-92.4171,-1368.58,3.08
1.4778,1.47636,0.851381,0.34938,0,-1.02892e-101,0.0626891,0.0707407,-8,-1461,-1.2832e-102,-8,-92.4077,-1368.59,3.084
1.4778,1.47636,0.851632,0.349664,0,-6.85946e-102,0.0626169,0.0708266,-8,-1461,-8.57087e-103,-8,-92.3981,-1368.6,3.088
1.4778,1.47636,0.851882,0.349947,0,-4.57297e-102,0.0625446,0.0707975,-8,-1461,-5.7154e-103,-8,-92.3886,-1368.61,3.092
1.4778,1.47636,0.852132,0.350228,0,-3.04865e-102,0.0624724,0.0706917,-8,-1461,-3.80712e-103,-8,-92.3791,-1368.62,3.096
1.4778,1.47636,0.852382,0.350507,0,-2.03243e-102,0.0624001,0.0703621,-8,-1461,-2.52792e-103,-8,-92.3697,-1368.63,3.1
1.4778,1.47636,0.852631,0.350782,0,-1.35495e-102,0.0623278,0.0697968,-8,-1461,-1.67283e-103,-8,-92.3604,-1368.64,3.104
1.4778,1.47636,0.85288,0.351056,0,-9.03303e-103,0.0622556,0.0693912,-8,-1461,-1.10946e-103,-8,-92.3511,-1368.65,3.108
1.4778,1.47636,0.853129,0.351329,0,-6.02202e-103,0.0621833,0.0689769,-8,-1461,-7.35695e-104,-8,-92.3419,-1368.66,3.112
1.4778,1.47636,0.853378,0.351605,0,-4.01468e-103,0.062111,0.0689885,-8,-1461,-4.90866e-104,-8,-92.3325,-1368.67,3.116
1.4778,1.47636,0.853626,0.351884,0,-2.67645e-103,0.0620387,0.0692842,-8,-1461,-3.28863e-104,-8,-92.3231,-1368.68,3.12
1.4778,1.47636,0.853874,0.352165,0,-1.7843e-103,0.0619664,0.0695677,-8,-1461,-2.20285e-104,-8,-92.3135,-1368.69,3.124
1.4778,1.47636,0.854122,0.352445,0,-1.18953e-103,0.0618941,0.0697567,-8,-1460,-1.47353e-104,-8,-92.304,-1367.7,3.128
1.4778,1.47636,0.854369,0.352726,0,-7.93023e-104,0.0618218,0.0698827,-8,-1460,-9.84775e-105,-8,-92.2945,-1367.71,3.132
1.4778,1.47636,0.854616,0.353006,0,-5.28682e-104,0.0617494,0.0699091,-8,-1460,-6.57196e-105,-8,-92.285,-1367.72,3.136
1.4778,1.47636,0.854863,0.353286,0,-3.52455e-104,0.0616771,0.0699843,-8,-1460,-4.38891e-105,-8,-92.2754,-1367.72,3.14
1.4778,1.47636,0.85511,0.353564,0,-2.3497e-104,0.0616048,0.0697753,-8,-1460,-2.9191e-105,-8,-92.266,-1367.73,3.144
1.4778,1.47636,0.855356,0.353841,0,-1.56647e-104,0.0615324,0.0696072,-8,-1460,-1.94263e-105,-8,-92.2566,-1367.74,3.148
1.4778,1.47636,0.855602,0.354118,0,-1.04431e-104,0.0614601,0.0694951,-8,-1459,-1.29384e-105,-8,-92.2471,-1366.75,3.152
1.4778,1.47636,0.855848,0.354397,0,-6.96207e-105,0.0613877,0.0695931,-8,-1459,-8.64341e-106,-8,-92.2376,-1366.76,3.156
1.4778,1.47636,0.856093,0.354677,0,-4.64138e-105,0.0613154,0.0697449,-8,-1459,-5.77861e-106,-8,-92.228,-1366.77,3.16
1.4778,1.47636,0.856338,0.354956,0,-3.09425e-105,0.061243,0.0697309,-8,-1459,-3.85413e-106,-8,-92.2185,-1366.78,3.164
1.4778,1.47636,0.856583,0.355234,0,-2.06284e-105,0.0611706,0.0696064,-8,-1459,-2.56649e-106,-8,-92.209,-1366.79,3.168
1.4778,1.47636,0.856828,0.355512,0,-1.37522e-105,0.0610983,0.0696385,-8,-1459,-1.71289e-106,-8,-92.1995,-1366.8,3.172
1.4778,1.47636,0.857072,0.355792,0,-9.16816e-106,0.0610259,0.0697175,-8,-1458,-1.14397e-106,-8,-92.1899,-1365.81,3.176
1.4778,1.47636,0.857316,0.356069,0,-6.1121e-106,0.0609535,0.0695399,-8,-1458,-7.61189e-107,-8,-92.1804,-1365.82,3.18
1.4778,1.47636,0.857559,0.356347,0,-4.07474e-106,0.0608811,0.0695366,-8,-1458,-5.07762e-107,-8,-92.1709,-1365.83,3.184
1.4778,1.47636,0.857803,0.356626,0,-2.71649e-106,0.0608088,0.069592,-8,-1458,-3.38996e-107,-8,-92.1613,-1365.84,3.188
1.4778,1.47636,0.858046,0.356908,0,-1.81099e-106,0.0607364,0.0698881,-8,-1458,-2.27107e-107,-8,-92.1516,-1365.85,3.192
1.4778,1.47636,0.858289,0.357191,0,-1.20733e-106,0.060664,0.0702582,-8,-1457,-1.52306e-107,-8,-92.1419,-1364.86,3.196
1.4778,1.47636,0.858531,0.357477,0,-8.04886e-107,0.0605916,0.0705913,-8,-1457,-1.02086e-107,-8,-92.1321,-1364.87,3.2
1.4778,1.47636,0.858773,0.357763,0,-5.36591e-107,0.0605192,0.0709573,-8,-1456,-6.84554e-108,-8,-92.1222,-1363.88,3.204
1.4778,1.47636,0.859015,0.35805,0,-3.57727e-107,0.0604468,0.0712302,-8,-1456,-4.58426e-108,-8,-92.1123,-1363.89,3.208
1.4778,1.47636,0.859257,0.35834,0,-2.38485e-107,0.0603744,0.0715848,-8,-1455,-3.07343e-108,-8,-92.1023,-1362.9,3.212
1.4778,1.47636,0.859498,0.358629,0,-1.5899e-107,0.060302,0.07185,-8,-1455,-2.05791e-108,-8,-92.0923,-1362.91,3.216
1.4778,1.47636,0.859739,0.358918,0,-1.05993e-107,0.0602296,0.071998,-8,-1454,-1.37568e-108,-8,-92.0823,-1361.92,3.22
1.4778,1.47636,0.85998,0.359202,0,-7.06622e-108,0.0601571,0.071636,-8,-1455,-9.13101e-109,-8,-92.0725,-1362.93,3.224
1.4778,1.47636,0.860221,0.359482,0,-4.71081e-108,0.0600847,0.071078,-8,-1455,-6.04379e-109,-8,-92.0629,-1362.94,3.228
1.4778,1.47636,0.860461,0.359758,0,-3.14054e-108,0.0600123,0.0704469,-8,-1455,-3.99594e-109,-8,-92.0533,-1362.95,3.232
1.4778,1.47636,0.860701,0.360034,0,-2.09369e-108,0.0599399,0.0698821,-8,-1455,-2.64426e-109,-8,-92.0438,-1362.96,3.236
1.4778,1.47636,0.86094,0.360307,0,-1.3958e-108,0.0598675,0.0693617,-8,-1456,-1.7508e-109,-8,-92.0343,-1363.97,3.24
1.4778,1.47636,0.86118,0.360581,0,-9.3053e-109,0.0597951,0.0691299,-8,-1456,-1.16403e-109,-8,-92.0248,-1363.98,3.244
1.4778,1.47636,0.861419,0.360855,0,-6.20354e-109,0.0597226,0.068889,-8,-1456,-7.73797e-110,-8,-92.0153,-1363.98,3.248
1.4778,1.47636,0.861658,0.361133,0,-4.13569e-109,0.0596502,0.0690451,-8,-1455,-5.17359e-110,-8,-92.0056,-1362.99,3.252
1.4778,1.47636,0.861896,0.361412,0,-2.75713e-109,0.0595778,0.0693219,-8,-1455,-3.46509e-110,-8,-91.9959,-1363,3.256
1.4778,1.47636,0.862134,0.36169,0,-1.83808e-109,0.0595054,0.0693913,-8,-1455,-2.31383e-110,-8,-91.9862,-1363.01,3.26
1.4778,1.47636,0.862372,0.361965,0,-1.22539e-109,0.0594329,0.0692073,-8,-1455,-1.53942e-110,-8,-91.9766,-1363.02,3.264
1.4778,1.47636,0.86261,0.362241,0,-8.16927e-110,0.0593605,0.0691133,-8,-1455,-1.02553e-110,-8,-91.967,-1363.03,3.268
1.4778,1.47636,0.862847,0.362522,0,-5.44618e-110,0.0592881,0.0694538,-8,-1454,-6.87487e-111,-8,-91.9573,-1362.04,3.272
1.4778,1.47636,0.863084,0.362808,0,-3.63079e-110,0.0592157,0.070199,-8,-1453,-4.63542e-111,-8,-91.9473,-1361.05,3.276
1.4778,1.47636,0.863321,0.363101,0,-2.42052e-110,0.0591432,0.0711852,-8,-1452,-3.13576e-111,-8,-91.937,-1360.06,3.28
1.4778,1.47636,0.863557,0.363401,0,-1.61368e-110,0.0590708,0.0724473,-8,-1451,-2.12901e-111,-8,-91.9266,-1359.07,3.284
1.4778,1.47636,0.863793,0.363707,0,-1.07579e-110,0.0589984,0.0737782,-8,-1450,-1.44641e-111,-8,-91.9159,-1358.08,3.288
1.4778,1.47636,0.864029,0.364016,0,-7.17192e-111,0.058926,0.0749821,-8,-1449,-9.80688e-112,-8,-91.905,-1357.09,3.292
1.4778,1.47636,0.864265,0.364326,0,-4.78128e-111,0.0588535,0.0758135,-8,-1448,-6.61501e-112,-8,-91.8942,-1356.11,3.296
1.4778,1.47636,0.8645,0.36464,0,-3.18752e-111,0.0587811,0.0766845,-8,-1447,-4.4638e-112,-8,-91.8832,-1355.12,3.3
1.4778,1.47636,0.864735,0.364955,0,-2.12501e-111,0.0587087,0.0773515,-8,-1446,-3.00387e-112,-8,-91.8721,-1354.13,3.304
1.4778,1.47636,0.86497,0.365277,0,-1.41668e-111,0.0586363,0.0784008,-8,-1445,-2.0312e-112,-8,-91.8608,-1353.14,3.308
1.4778,1.47636,0.865204,0.365605,0,-9.44451e-112,0.0585639,0.0795898,-8,-1443,-1.37568e-112,-8,-91.8493,-1351.15,3.312
1.4778,1.47636,0.865438,0.36594,0,-6.29634e-112,0.0584914,0.0810447,-8,-1442,-9.34582e-113,-8,-91.8375,-1350.16,3.316
1.4778,1.47636,0.865672,0.366282,0,-4.19756e-112,0.058419,0.0824752,-8,-1440,-6.34534e-113,-8,-91.8255,-1348.17,3.32
1.4778,1.47636,0.865905,0.366627,0,-2.79837e-112,0.0583466,0.0837168,-8,-1439,-4.2972e-113,-8,-91.8133,-1347.19,3.324
1.4778,1.47636,0.866139,0.366973,0,-1.86558e-112,0.0582742,0.0846597,-8,-1438,-2.89929e-113,-8,-91.8011,-1346.2,3.328
1.4778,1.47636,0.866372,0.367317,0,-1.24372e-112,0.0582018,0.0851444,-8,-1437,-1.94541e-113,-8,-91.7889,-1345.21,3.332
1.4778,1.47636,0.866604,0.367664,0,-8.29147e-113,0.0581294,0.0856402,-8,-1436,-1.30549e-113,-8,-91.7767,-1344.22,3.336
1.4778,1.47636,0.866837,0.36801,0,-5.52765e-113,0.058057,0.0859132,-8,-1435,-8.73771e-114,-8,-91.7645,-1343.24,3.34
1.4778,1.47636,0.867069,0.368356,0,-3.6851e-113,0.0579846,0.0861528,-8,-1435,-5.84585e-114,-8,-91.7522,-1343.25,3.344
1.4778,1.47636,0.867301,0.368699,0,-2.45673e-113,0.0579122,0.0860533,-8,-1435,-3.89568e-114,-8,-91.74,-1343.26,3.348
1.4778,1.47636,0.867532,0.369041,0,-1.63782e-113,0.0578398,0.0858431,-8,-1434,-2.59273e-114,-8,-91.7279,-1342.27,3.352
1.4778,1.47636,0.867763,0.369377,0,-1.09188e-113,0.0577674,0.0851847,-8,-1435,-1.71649e-114,-8,-91.716,-1343.28,3.356
1.4778,1.47636,0.867994,0.369713,0,-7.27921e-114,0.057695,0.0848034,-8,-1434,-1.14005e-114,-8,-91.7041,-1342.3,3.36
1.4778,1.47636,0.868225,0.370045,0,-4.8528e-114,0.0576226,0.0842037,-8,-1435,-7.55205e-115,-8,-91.6923,-1343.31,3.364
1.4778,1.47636,0.868455,0.370375,0,-3.2352e-114,0.0575502,0.0836311,-8,-1435,-5.00408e-115,-8,-91.6805,-1343.32,3.368
1.4778,1.47636,0.868685,0.370701,0,-2.1568e-114,0.0574778,0.0829039,-8,-1435,-3.3094e-115,-8,-91.6689,-1343.33,3.372
1.4778,1.47636,0.868915,0.371028,0,-1.43787e-114,0.0574054,0.0825919,-8,-1435,-2.19954e-115,-8,-91.6572,-1343.34,3.376
1.4778,1.47636,0.869144,0.371356,0,-9.58579e-115,0.0573331,0.082355,-8,-1435,-1.4632e-115,-8,-91.6456,-1343.35,3.38
1.4778,1.47636,0.869374,0.371687,0,-6.39053e-115,0.0572607,0.0824563,-8,-1434,-9.77367e-116,-8,-91.6338,-1342.37,3.384
1.4778,1.47636,0.869603,0.372021,0,-4.26035e-115,0.0571883,0.0828405,-8,-1434,-6.5509e-116,-8,-91.6218,-1342.38,3.388
1.4778,1.47636,0.869831,0.372361,0,-2.84023e-115,0.057116,0.0835285,-8,-1433,-4.40679e-116,-8,-91.6097,-1341.39,3.392
1.4778,1.47636,0.870059,0.372702,0,-1.89349e-115,0.0570436,0.0841311,-8,-1432,-2.96124e-116,-8,-91.5974,-1340.4,3.396
1.4778,1.47636,0.870287,0.373046,0,-1.26233e-115,0.0569713,0.0847631,-8,-1431,-1.99048e-116,-8,-91.5851,-1339.41,3.4
1.4778,1.47636,0.870515,0.373394,0,-8.41551e-116,0.0568989,0.08553,-8,-1430,-1.34e-116,-8,-91.5726,-1338.43,3.404
1.4778,1.47636,0.870743,0.37375,0,-5.61034e-116,0.0568266,0.0866459,-8,-1429,-9.05682e-117,-8,-91.5599,-1337.44,3.408
1.4778,1.47636,0.87097,0.374114,0,-3.74023e-116,0.0567542,0.0880808,-8,-1427,-6.14269e-117,-8,-91.5468,-1335.45,3.412
1.4778,1.47636,0.871197,0.374487,0,-2.49348e-116,0.0566819,0.0898723,-8,-1425,-4.18178e-117,-8,-91.5333,-1333.47,3.416
1.4778,1.47636,0.871423,0.37487,0,-1.66232e-116,0.0566096,0.0918152,-8,-1423,-2.85047e-117,-8,-91.5196,-1331.48,3.42
1.4778,1.47636,0.87165,0.375263,0,-1.10821e-116,0.0565373,0.0939166,-8,-1421,-1.94544e-117,-8,-91.5054,-1329.49,3.424
1.4778,1.47636,0.871876,0.375659,0,-7.3881e-117,0.056465,0.0956631,-8,-1419,-1.3222e-117,-8,-91.4911,-1327.51,3.428
1.4778,1.47636,0.872101,0.376062,0,-4.9254e-117,0.0563927,0.0973456,-8,-1417,-8.97746e-118,-8,-91.4766,-1325.52,3.432
1.4778,1.47636,0.872327,0.37647,0,-3.2836e-117,0.0563204,0.0988704,-8,-1415,-6.08401e-118,-8,-91.4618,-1323.54,3.436
