peachynonah/Fire_monitor_/csv_datas/trial11/cdsl_data_t11_2.csv
joint1_pos_desired, joint1_pos, joint2_pos_desired, joint2_pos, joint1_vel_desired, joint1_vel_filtered, joint2_vel_desired, joint2_vel_filtered, target_torque_joint1, target_torque_joint2, nonlinear_term_torque_joint1, PD_term_torque_joint1, nonlinear_term_torque_joint2, PD_term_torque_joint2, current_time
1.4778,1.47636,0.5575,0.162148,0,0,1.7696e-08,0,-9,-1288,0,-9,-97.0594,-1190.94,0.004
1.4778,1.47636,0.5575,0.162016,0,2.87909e-05,7.07583e-08,-0.0109406,-9,-1298,-2.74859e-07,-9,-97.0615,-1200.94,0.008
1.4778,1.47636,0.5575,0.161926,0,1.91939e-05,1.59148e-07,-0.0147793,-9,-1301,-2.47401e-07,-9,-97.0629,-1203.94,0.012
1.4778,1.47636,0.5575,0.161913,0,1.2796e-05,2.82827e-07,-0.0109757,-9,-1298,-1.22477e-07,-9,-97.0631,-1200.94,0.016
1.4778,1.47636,0.5575,0.161993,0,8.53064e-06,4.41757e-07,-0.000666457,-9,-1289,-4.9603e-09,-9,-97.0618,-1191.94,0.02
1.4778,1.47636,0.5575,0.162159,0,3.4478e-05,6.35898e-07,0.0134041,-9,-1277,4.03613e-07,-9,-97.0592,-1179.94,0.024
1.4778,1.47636,0.5575,0.162407,0,2.29853e-05,8.65213e-07,0.029608,-9,-1263,5.95229e-07,-9,-97.0552,-1165.94,0.028
1.4778,1.47636,0.5575,0.162734,0,1.53236e-05,1.12966e-06,0.0469461,-9,-1248,6.30412e-07,-9,-97.05,-1150.95,0.032
1.4778,1.47636,0.5575,0.163138,0,1.02157e-05,1.42921e-06,0.0650403,-9,-1232,5.83657e-07,-9,-97.0436,-1134.96,0.036
1.4778,1.47636,0.5575,0.16361,0,6.81047e-06,1.76381e-06,0.0826598,-9,-1216,4.95892e-07,-9,-97.036,-1118.96,0.04
1.4778,1.47636,0.5575,0.164119,0,4.54032e-06,2.13344e-06,0.0975444,-9,-1202,3.91295e-07,-9,-97.0279,-1104.97,0.044
1.4778,1.47636,0.5575,0.16463,0,3.02688e-06,2.53804e-06,0.107583,-9,-1192,2.88571e-07,-9,-97.0197,-1094.98,0.048
1.4778,1.47636,0.5575,0.165122,0,2.01792e-06,2.97759e-06,0.112691,-9,-1187,2.02096e-07,-9,-97.0117,-1089.99,0.052
1.4778,1.47636,0.5575,0.165588,0,5.89271e-05,3.45204e-06,0.114024,-9,-1184,5.98765e-06,-9.00001,-97.0042,-1087,0.056
1.4778,1.47636,0.5575,0.166036,0,-1.82971e-05,3.96135e-06,0.1133,-9,-1183,-1.85219e-06,-9,-96.9969,-1086,0.06
1.4778,1.47636,0.5575,0.166464,0,-1.21981e-05,4.5055e-06,0.111234,-9,-1184,-1.21529e-06,-9,-96.9899,-1087.01,0.064
1.4778,1.47636,0.5575,0.16687,0,-8.13204e-06,5.08443e-06,0.107986,-9,-1185,-7.88378e-07,-9,-96.9833,-1088.02,0.068
1.4778,1.47636,0.5575,0.167262,0,-5.42136e-06,5.69811e-06,0.104668,-9,-1187,-5.10591e-07,-9,-96.9769,-1090.02,0.072
1.4778,1.47636,0.5575,0.167641,0,-3.61424e-06,6.3465e-06,0.101362,-9,-1188,-3.30362e-07,-9,-96.9707,-1091.03,0.076
1.4778,1.47636,0.5575,0.168017,0,-2.40949e-06,7.02957e-06,0.0988706,-9,-1189,-2.1529e-07,-9,-96.9645,-1092.04,0.08
1.4778,1.47636,0.5575,0.168385,0,-1.60633e-06,7.74727e-06,0.0965761,-9,-1190,-1.40491e-07,-9,-96.9585,-1093.04,0.084
1.4778,1.47636,0.5575,0.168747,0,-1.07089e-06,8.49957e-06,0.0945857,-9,-1191,-9.19206e-08,-9,-96.9525,-1094.05,0.088
1.4778,1.47636,0.5575,0.169096,0,-7.13924e-07,9.28643e-06,0.092136,-9,-1192,-5.98119e-08,-9,-96.9467,-1095.05,0.092
1.4778,1.47636,0.5575,0.16943,0,-4.75949e-07,1.01078e-05,0.0892072,-9,-1193,-3.86803e-08,-9,-96.9412,-1096.06,0.096
1.4778,1.47636,0.5575,0.169735,0,-3.173e-07,1.09637e-05,0.0849227,-9,-1196,-2.45909e-08,-9,-96.9361,-1099.06,0.1
1.4778,1.47636,0.5575,0.170011,0,-2.11533e-07,1.1854e-05,0.0796191,-9,-1199,-1.53941e-08,-9,-96.9315,-1102.07,0.104
1.4778,1.47636,0.5575,0.170255,0,-1.41022e-07,1.27787e-05,0.073377,-9,-1204,-9.47117e-09,-9,-96.9275,-1107.07,0.108
1.4778,1.47636,0.557501,0.170457,0,-9.40147e-08,1.37378e-05,0.0657895,-9,-1209,-5.66768e-09,-9,-96.9241,-1112.08,0.112
1.4778,1.47636,0.557501,0.170626,0,-6.26765e-08,1.47312e-05,0.0579384,-9,-1215,-3.33071e-09,-9,-96.9213,-1118.08,0.116
1.4778,1.47636,0.557501,0.170765,0,-4.17843e-08,1.57589e-05,0.0501708,-9,-1221,-1.92428e-09,-9,-96.919,-1124.08,0.12
1.4778,1.47636,0.557501,0.170878,0,-2.78562e-08,1.68208e-05,0.0429194,-9,-1227,-1.09814e-09,-9,-96.9171,-1130.08,0.124
1.4778,1.47636,0.557501,0.17097,0,-1.85708e-08,1.7917e-05,0.0362425,-9,-1232,-6.18522e-10,-9,-96.9155,-1135.08,0.128
1.4778,1.47636,0.557501,0.171042,0,-1.23805e-08,1.90473e-05,0.030179,-9,-1237,-3.435e-10,-9,-96.9143,-1140.09,0.132
1.4778,1.47636,0.557501,0.171095,0,-8.25369e-09,2.02118e-05,0.0245243,-9,-1241,-1.86147e-10,-9,-96.9134,-1144.09,0.136
1.4778,1.47636,0.557501,0.17113,0,-5.50246e-09,2.14104e-05,0.019315,-9,-1245,-9.77575e-11,-9,-96.9128,-1148.09,0.14
1.4778,1.47636,0.557501,0.171145,0,-3.66831e-09,2.2643e-05,0.0140859,-9,-1250,-4.75317e-11,-9,-96.9126,-1153.09,0.144
1.4778,1.47636,0.557501,0.171145,0,-2.87934e-05,2.39097e-05,0.00941939,-9,-1253,-2.49488e-07,-9,-96.9126,-1156.09,0.148
1.4778,1.47636,0.557501,0.171145,0,9.59534e-06,2.52103e-05,0.00627959,-9,-1256,5.54276e-08,-9,-96.9126,-1159.09,0.152
1.4778,1.47636,0.557501,0.171145,0,6.3969e-06,2.65449e-05,0.0041864,-9,-1258,2.46345e-08,-9,-96.9126,-1161.09,0.156
1.4778,1.47636,0.557501,0.171145,0,4.2646e-06,2.79134e-05,0.00279093,-9,-1259,1.09487e-08,-9,-96.9126,-1162.09,0.16
1.4778,1.47636,0.557502,0.171145,0,2.84307e-06,2.93158e-05,0.00186062,-9,-1260,4.86607e-09,-9,-96.9126,-1163.09,0.164
1.4778,1.47636,0.557502,0.171145,0,-2.68955e-05,3.0752e-05,0.00124041,-9,-1260,-3.06889e-08,-9,-96.9126,-1163.09,0.168
1.4778,1.47636,0.557502,0.171145,0,1.08606e-05,3.2222e-05,0.000826942,-9,-1261,8.26155e-09,-9,-96.9126,-1164.09,0.172
1.4778,1.47636,0.557502,0.171145,0,-2.15506e-05,3.37258e-05,0.000551295,-9,-1261,-1.09289e-08,-9,-96.9126,-1164.09,0.176
1.4778,1.47636,0.557502,0.171145,0,7.20057e-05,3.52632e-05,0.00036753,-8,-1261,2.43441e-08,-8,-96.9126,-1164.09,0.18
1.4778,1.47636,0.557502,0.171145,0,-9.57802e-06,3.68344e-05,0.00024502,-9,-1261,-2.1588e-09,-9,-96.9126,-1164.09,0.184
1.4778,1.47636,0.557502,0.171145,0,-6.38535e-06,3.84392e-05,0.000163347,-9,-1261,-9.59465e-10,-9,-96.9126,-1164.09,0.188
1.4778,1.47636,0.557503,0.171145,0,-4.2569e-06,4.00776e-05,0.000108898,-9,-1261,-4.26429e-10,-9,-96.9126,-1164.09,0.192
1.4778,1.47636,0.557503,0.171145,0,-3.16289e-05,4.17496e-05,7.25985e-05,-9,-1261,-2.11225e-09,-9,-96.9126,-1164.09,0.196
1.4778,1.47636,0.557503,0.171145,0,6.52869e-05,4.34551e-05,4.8399e-05,-9,-1261,2.90667e-09,-9,-96.9126,-1164.09,0.2
1.4778,1.47636,0.557503,0.171145,0,-4.28482e-05,4.51941e-05,3.2266e-05,-10,-1261,-1.27178e-09,-10,-96.9126,-1164.09,0.204
1.4778,1.47636,0.557503,0.171145,0,2.25462e-07,4.69665e-05,2.15107e-05,-9,-1261,4.46129e-12,-9,-96.9126,-1164.09,0.208
1.4778,1.47636,0.557503,0.171145,0,2.89412e-05,4.87724e-05,1.43404e-05,-9,-1261,3.81781e-10,-9,-96.9126,-1164.09,0.212
1.4778,1.47636,0.557504,0.171145,0,1.92942e-05,5.06116e-05,9.5603e-06,-9,-1261,1.6968e-10,-9,-96.9126,-1164.09,0.216
1.4778,1.47636,0.557504,0.171145,0,-1.59282e-05,5.24842e-05,6.37353e-06,-9,-1261,-9.33856e-11,-9,-96.9126,-1164.09,0.22
1.4778,1.47636,0.557504,0.171145,0,-1.06188e-05,5.43901e-05,4.24902e-06,-9,-1261,-4.15047e-11,-9,-96.9126,-1164.09,0.224
1.4778,1.47636,0.557504,0.171145,0,-7.07918e-06,5.63293e-05,2.83268e-06,-9,-1261,-1.84465e-11,-9,-96.9126,-1164.09,0.228
1.4778,1.47636,0.557505,0.171145,0,-4.71945e-06,5.83016e-05,1.88845e-06,-9,-1261,-8.19846e-12,-9,-96.9126,-1164.09,0.232
1.4778,1.47636,0.557505,0.171145,0,2.56446e-05,6.03072e-05,1.25897e-06,-9,-1261,2.96993e-11,-9,-96.9126,-1164.09,0.236
1.4778,1.47636,0.557505,0.171145,0,1.70964e-05,6.23459e-05,8.39313e-07,-9,-1261,1.31997e-11,-9,-96.9126,-1164.09,0.24
1.4778,1.47636,0.557505,0.171145,0,-4.61842e-05,6.44177e-05,5.59542e-07,-10,-1261,-2.37717e-11,-10,-96.9126,-1164.09,0.244
1.4778,1.47636,0.557506,0.171145,0,2.67924e-05,6.65226e-05,3.73028e-07,-9,-1261,9.19362e-12,-9,-96.9126,-1164.09,0.248
1.4778,1.47636,0.557506,0.171145,0,4.66525e-05,6.86606e-05,2.48685e-07,-9,-1261,1.06723e-11,-9,-96.9126,-1164.09,0.252
1.4778,1.47636,0.557506,0.171145,0,-2.64802e-05,7.08315e-05,1.6579e-07,-9,-1261,-4.03844e-12,-9,-96.9126,-1164.09,0.256
1.4778,1.47636,0.557506,0.171145,0,-1.76535e-05,7.30354e-05,1.10527e-07,-9,-1261,-1.79486e-12,-9,-96.9126,-1164.09,0.26
1.4778,1.47636,0.557507,0.171145,0,-1.1769e-05,7.52722e-05,7.36845e-08,-9,-1261,-7.97717e-13,-9,-96.9126,-1164.09,0.264
1.4778,1.47636,0.557507,0.171145,0,-7.84598e-06,7.75419e-05,4.9123e-08,-9,-1261,-3.54541e-13,-9,-96.9126,-1164.09,0.268
1.4778,1.47636,0.557507,0.171145,0,2.35603e-05,7.98445e-05,3.27487e-08,-9,-1261,7.09754e-13,-9,-96.9126,-1164.09,0.272
1.4778,1.47636,0.557508,0.171145,0,-1.30841e-05,8.21799e-05,2.18325e-08,-9,-1261,-2.62772e-13,-9,-96.9126,-1164.09,0.276
1.4778,1.47636,0.557508,0.171145,0,-8.72272e-06,8.4548e-05,1.4555e-08,-9,-1261,-1.16788e-13,-9,-96.9126,-1164.09,0.28
1.4778,1.47636,0.557508,0.171145,0,-5.81515e-06,8.69489e-05,9.70331e-09,-9,-1261,-5.19057e-14,-9,-96.9126,-1164.09,0.284
1.4778,1.47636,0.557509,0.171145,0,-3.87676e-06,8.93825e-05,6.46887e-09,-9,-1261,-2.30692e-14,-9,-96.9126,-1164.09,0.288
1.4778,1.47636,0.557509,0.171145,0,-2.58451e-06,9.18487e-05,4.31258e-09,-9,-1261,-1.0253e-14,-9,-96.9126,-1164.09,0.292
1.4778,1.47636,0.557509,0.171145,0,-1.72301e-06,9.43476e-05,2.87506e-09,-9,-1261,-4.55688e-15,-9,-96.9126,-1164.09,0.296
1.4778,1.47636,0.55751,0.171145,0,2.76423e-05,9.6879e-05,1.9167e-09,-9,-1261,4.87374e-14,-9,-96.9126,-1164.09,0.3
1.4778,1.47636,0.55751,0.171145,0,1.84282e-05,9.9443e-05,1.2778e-09,-9,-1261,2.16611e-14,-9,-96.9126,-1164.09,0.304
1.4778,1.47636,0.557511,0.171145,0,-1.65055e-05,0.00010204,8.51868e-10,-9,-1261,-1.29341e-14,-9,-96.9126,-1164.09,0.308
1.4778,1.47636,0.557511,0.171145,0,-1.10037e-05,0.000104668,5.67912e-10,-9,-1261,-5.74847e-15,-9,-96.9126,-1164.09,0.312
1.4778,1.47636,0.557511,0.171145,0,-7.33577e-06,0.00010733,3.78608e-10,-9,-1261,-2.55487e-15,-9,-96.9126,-1164.09,0.316
1.4778,1.47636,0.557512,0.171145,0,-4.89051e-06,0.000110024,2.52405e-10,-9,-1261,-1.1355e-15,-9,-96.9126,-1164.09,0.32
1.4778,1.47636,0.557512,0.171145,0,-3.26034e-06,0.00011275,1.6827e-10,-9,-1261,-5.04667e-16,-9,-96.9126,-1164.09,0.324
1.4778,1.47636,0.557513,0.171145,0,-2.17356e-06,0.000115508,1.1218e-10,-9,-1261,-2.24296e-16,-9,-96.9126,-1164.09,0.328
1.4778,1.47636,0.557513,0.171145,0,-1.44904e-06,0.000118299,7.47868e-11,-9,-1261,-9.96872e-17,-9,-96.9126,-1164.09,0.332
1.4778,1.47636,0.557514,0.171145,0,-9.66027e-07,0.000121122,4.98579e-11,-9,-1261,-4.43054e-17,-9,-96.9126,-1164.09,0.336
1.4778,1.47636,0.557514,0.171145,0,-6.44018e-07,0.000123977,3.32386e-11,-9,-1261,-1.96913e-17,-9,-96.9126,-1164.09,0.34
1.4778,1.47636,0.557515,0.171145,0,-4.29345e-07,0.000126865,2.2159e-11,-9,-1261,-8.75169e-18,-9,-96.9126,-1164.09,0.344
1.4778,1.47636,0.557515,0.171145,0,-2.8623e-07,0.000129784,1.47727e-11,-9,-1261,-3.88964e-18,-9,-96.9126,-1164.09,0.348
1.4778,1.47636,0.557516,0.171145,0,-1.9082e-07,0.000132736,9.84847e-12,-9,-1261,-1.72873e-18,-9,-96.9126,-1164.09,0.352
1.4778,1.47636,0.557516,0.171145,0,-1.27213e-07,0.00013572,6.56564e-12,-9,-1261,-7.68324e-19,-9,-96.9126,-1164.09,0.356
1.4778,1.47636,0.557517,0.171145,0,-8.4809e-08,0.000138735,4.3771e-12,-9,-1261,-3.41477e-19,-9,-96.9126,-1164.09,0.36
1.4778,1.47636,0.557517,0.171145,0,-5.65393e-08,0.000141783,2.91806e-12,-9,-1261,-1.51768e-19,-9,-96.9126,-1164.09,0.364
1.4778,1.47636,0.557518,0.171145,0,-3.76929e-08,0.000144863,1.94538e-12,-9,-1261,-6.74523e-20,-9,-96.9126,-1164.09,0.368
1.4778,1.47636,0.557519,0.171145,0,-2.51286e-08,0.000147974,1.29692e-12,-9,-1261,-2.99788e-20,-9,-96.9126,-1164.09,0.372
1.4778,1.47636,0.557519,0.171145,0,2.87742e-05,0.000151118,8.64612e-13,-9,-1261,2.28854e-17,-9,-96.9126,-1164.09,0.376
1.4778,1.47636,0.55752,0.171145,0,-9.60814e-06,0.000154293,5.76408e-13,-9,-1261,-5.09452e-18,-9,-96.9126,-1164.09,0.38
1.4778,1.47636,0.55752,0.171145,0,-6.40543e-06,0.0001575,3.84272e-13,-9,-1261,-2.26423e-18,-9,-96.9126,-1164.09,0.384
1.4778,1.47636,0.557521,0.171145,0,2.45206e-05,0.000160739,2.56181e-13,-9,-1261,5.77847e-18,-9,-96.9126,-1164.09,0.388
1.4778,1.47636,0.557522,0.171145,0,-1.24438e-05,0.00016401,1.70787e-13,-9,-1261,-1.95499e-18,-9,-96.9126,-1164.09,0.392
1.4778,1.47636,0.557522,0.171145,0,2.0495e-05,0.000167312,1.13858e-13,-9,-1261,2.14658e-18,-9,-96.9126,-1164.09,0.396
1.4778,1.47636,0.557523,0.171145,0,-1.51276e-05,0.000170646,7.59055e-14,-9,-1261,-1.05627e-18,-9,-96.9126,-1164.09,0.4
1.4778,1.47636,0.557524,0.171145,0,-1.0085e-05,0.000174011,5.06037e-14,-9,-1261,-4.69455e-19,-9,-96.9126,-1164.09,0.404
1.4778,1.47636,0.557524,0.171145,0,2.20676e-05,0.000177408,3.37358e-14,-9,-1261,6.84825e-19,-9,-96.9126,-1164.09,0.408
1.4778,1.47636,0.557525,0.171145,0,1.47117e-05,0.000180837,2.24905e-14,-9,-1261,3.04367e-19,-9,-96.9126,-1164.09,0.412
1.4778,1.47636,0.557526,0.171145,0,-1.89831e-05,0.000184297,1.49937e-14,-9,-1261,-2.61824e-19,-9,-96.9126,-1164.09,0.416
1.4778,1.47636,0.557527,0.171145,0,-1.26554e-05,0.000187789,9.99579e-15,-9,-1261,-1.16366e-19,-9,-96.9126,-1164.09,0.42
1.4778,1.47636,0.557527,0.171145,0,-8.43694e-06,0.000191312,6.66386e-15,-9,-1261,-5.17184e-20,-9,-96.9126,-1164.09,0.424
1.4778,1.47636,0.557528,0.171145,0,-5.62463e-06,0.000194866,4.44257e-15,-9,-1261,-2.2986e-20,-9,-96.9126,-1164.09,0.428
1.4778,1.47636,0.557529,0.171145,0,-3.74975e-06,0.000198452,2.96172e-15,-9,-1261,-1.0216e-20,-9,-96.9126,-1164.09,0.432
1.4778,1.47636,0.55753,0.171145,0,-2.49983e-06,0.000202069,1.97448e-15,-9,-1261,-4.54044e-21,-9,-96.9126,-1164.09,0.436
1.4778,1.47636,0.55753,0.171145,0,-1.66656e-06,0.000205717,1.31632e-15,-9,-1261,-2.01797e-21,-9,-96.9126,-1164.09,0.44
1.4778,1.47636,0.557531,0.171145,0,-1.11104e-06,0.000209397,8.77546e-16,-9,-1261,-8.96876e-22,-9,-96.9126,-1164.09,0.444
1.4778,1.47636,0.557532,0.171145,0,-7.40692e-07,0.000213108,5.8503e-16,-9,-1261,-3.98612e-22,-9,-96.9126,-1164.09,0.448
1.4778,1.47636,0.557533,0.171145,0,-4.93795e-07,0.00021685,3.9002e-16,-9,-1261,-1.77161e-22,-9,-96.9126,-1164.09,0.452
1.4778,1.47636,0.557534,0.171145,0,-3.29196e-07,0.000220623,2.60013e-16,-9,-1261,-7.87381e-23,-9,-96.9126,-1164.09,0.456
1.4778,1.47636,0.557535,0.171145,0,2.85715e-05,0.000224427,1.73342e-16,-9,-1261,4.55587e-21,-9,-96.9126,-1164.09,0.46
1.4778,1.47636,0.557536,0.171145,0,-9.74328e-06,0.000228262,1.15562e-16,-9,-1261,-1.03574e-21,-9,-96.9126,-1164.09,0.464
1.4778,1.47636,0.557537,0.171145,0,-6.49552e-06,0.000232128,7.7041e-17,-9,-1261,-4.60331e-22,-9,-96.9126,-1164.09,0.468
1.4778,1.47636,0.557538,0.171145,0,-4.33035e-06,0.000236026,5.13607e-17,-9,-1261,-2.04592e-22,-9,-96.9126,-1164.09,0.472
1.4778,1.47636,0.557538,0.171145,0,-2.8869e-06,0.000239954,3.42405e-17,-9,-1261,-9.09296e-23,-9,-96.9126,-1164.09,0.476
1.4778,1.47636,0.557539,0.171145,0,-1.9246e-06,0.000243913,2.2827e-17,-9,-1261,-4.04132e-23,-9,-96.9126,-1164.09,0.48
1.4778,1.47636,0.55754,0.171145,0,-1.28307e-06,0.000247903,1.5218e-17,-9,-1261,-1.79614e-23,-9,-96.9126,-1164.09,0.484
1.4778,1.47636,0.557541,0.171145,0,-8.55378e-07,0.000251924,1.01453e-17,-9,-1261,-7.98285e-24,-9,-96.9126,-1164.09,0.488
1.4778,1.47636,0.557542,0.171145,0,-5.70252e-07,0.000255975,6.76355e-18,-9,-1262,-3.54793e-24,-9,-96.9126,-1165.09,0.492
1.4778,1.47636,0.557543,0.171145,0,-3.80168e-07,0.000260058,4.50903e-18,-9,-1262,-1.57686e-24,-9,-96.9126,-1165.09,0.496
1.4778,1.47636,0.557545,0.171145,0,-2.53445e-07,0.000264171,3.00602e-18,-9,-1262,-7.00826e-25,-9,-96.9126,-1165.09,0.5
1.4778,1.47636,0.557546,0.171145,0,-1.68963e-07,0.000268314,2.00401e-18,-9,-1262,-3.11478e-25,-9,-96.9126,-1165.09,0.504
1.4778,1.47636,0.557547,0.171145,0,-1.12642e-07,0.000272489,1.33601e-18,-9,-1262,-1.38435e-25,-9,-96.9126,-1165.09,0.508
1.4778,1.47636,0.557548,0.171145,0,-7.50949e-08,0.000276694,8.90673e-19,-9,-1262,-6.15266e-26,-9,-96.9126,-1165.09,0.512
1.4778,1.47636,0.557549,0.171145,0,-5.00632e-08,0.00028093,5.93782e-19,-9,-1262,-2.73451e-26,-9,-96.9126,-1165.09,0.516
1.4778,1.47636,0.55755,0.171145,0,-3.33755e-08,0.000285196,3.95855e-19,-9,-1262,-1.21534e-26,-9,-96.9126,-1165.09,0.52
1.4778,1.47636,0.557551,0.171145,0,-2.22503e-08,0.000289492,2.63903e-19,-9,-1262,-5.40151e-27,-9,-96.9126,-1165.09,0.524
1.4778,1.47636,0.557552,0.171145,0,-1.48336e-08,0.000293819,1.75935e-19,-9,-1262,-2.40067e-27,-9,-96.9126,-1165.09,0.528
1.4778,1.47636,0.557554,0.171145,0,-9.88904e-09,0.000298177,1.1729e-19,-9,-1262,-1.06696e-27,-9,-96.9126,-1165.09,0.532
1.4778,1.47636,0.557555,0.171145,0,-6.59269e-09,0.000302565,7.81935e-20,-9,-1262,-4.74206e-28,-9,-96.9126,-1165.09,0.536
1.4778,1.47636,0.557556,0.171145,0,-4.39513e-09,0.000306983,5.2129e-20,-9,-1262,-2.10758e-28,-9,-96.9126,-1165.09,0.54
1.4778,1.47636,0.557557,0.171145,0,-2.93008e-09,0.000311432,3.47527e-20,-9,-1262,-9.36704e-29,-9,-96.9126,-1165.09,0.544
1.4778,1.47636,0.557558,0.171145,0,-1.95339e-09,0.000315911,2.31684e-20,-9,-1262,-4.16313e-29,-9,-96.9126,-1165.09,0.548
1.4778,1.47636,0.55756,0.171145,0,-1.30226e-09,0.00032042,1.54456e-20,-9,-1262,-1.85028e-29,-9,-96.9126,-1165.09,0.552
1.4778,1.47636,0.557561,0.171145,0,-8.68173e-10,0.000324959,1.02971e-20,-9,-1262,-8.22347e-30,-9,-96.9126,-1165.09,0.556
1.4778,1.47636,0.557562,0.171145,0,-5.78782e-10,0.000329529,6.86472e-21,-9,-1262,-3.65487e-30,-9,-96.9126,-1165.09,0.56
1.4778,1.47636,0.557564,0.171145,0,-3.85855e-10,0.000334128,4.57648e-21,-9,-1262,-1.62439e-30,-9,-96.9126,-1165.09,0.564
1.4778,1.47636,0.557565,0.171145,0,2.87907e-05,0.000338758,3.05099e-21,-9,-1262,8.08028e-26,-9,-96.9126,-1165.09,0.568
1.4778,1.47636,0.557566,0.171145,0,1.91938e-05,0.000343418,2.03399e-21,-9,-1262,3.59124e-26,-9,-96.9126,-1165.09,0.572
1.4778,1.47636,0.557568,0.171145,0,-1.59951e-05,0.000348108,1.356e-21,-9,-1262,-1.99516e-26,-9,-96.9126,-1165.09,0.576
1.4778,1.47636,0.557569,0.171145,0,-1.06634e-05,0.000352828,9.03997e-22,-9,-1262,-8.86739e-27,-9,-96.9126,-1165.09,0.58
1.4778,1.47636,0.557571,0.171145,0,-7.10892e-06,0.000357577,6.02664e-22,-9,-1262,-3.94106e-27,-9,-96.9126,-1165.09,0.584
1.4778,1.47636,0.557572,0.171145,0,-4.73928e-06,0.000362357,4.01776e-22,-9,-1262,-1.75158e-27,-9,-96.9126,-1165.09,0.588
1.4778,1.47636,0.557573,0.171145,0,-3.15952e-06,0.000367167,2.67851e-22,-9,-1262,-7.78482e-28,-9,-96.9126,-1165.09,0.592
1.4778,1.47636,0.557575,0.171145,0,-2.10635e-06,0.000372006,-5.75818e-05,-9,-1262,1.1157e-10,-9,-96.9126,-1165.09,0.596
1.4778,1.47636,0.557576,0.171145,0,-1.40423e-06,0.000376875,1.91939e-05,-9,-1262,-2.47935e-11,-9,-96.9126,-1165.09,0.6
1.4778,1.47636,0.557578,0.171145,0,-9.36154e-07,0.000381774,1.2796e-05,-9,-1262,-1.10193e-11,-9,-96.9126,-1165.09,0.604
1.4778,1.47636,0.557579,0.171145,0,-6.24103e-07,0.000386703,8.53064e-06,-9,-1262,-4.89747e-12,-9,-96.9126,-1165.09,0.608
1.4778,1.47636,0.557581,0.171145,0,-4.16069e-07,0.000391662,5.6871e-06,-9,-1262,-2.17665e-12,-9,-96.9126,-1165.09,0.612
1.4778,1.47636,0.557583,0.171145,0,-2.77379e-07,0.00039665,3.7914e-06,-9,-1262,-9.67402e-13,-9,-96.9126,-1165.09,0.616
1.4778,1.47636,0.557584,0.171145,0,2.8606e-05,0.000401667,2.5276e-06,-9,-1262,6.65119e-11,-9,-96.9126,-1165.09,0.62
1.4778,1.47636,0.557586,0.171145,0,-9.72025e-06,0.000406715,1.68507e-06,-9,-1262,-1.50671e-11,-9,-96.9126,-1165.09,0.624
1.4778,1.47636,0.557587,0.171145,0,2.23108e-05,0.000411791,1.12338e-06,-9,-1262,2.30555e-11,-9,-96.9126,-1165.09,0.628
1.4778,1.47636,0.557589,0.171145,0,-1.39171e-05,0.000416898,7.48918e-07,-9,-1262,-9.58775e-12,-9,-96.9126,-1165.09,0.632
1.4778,1.47636,0.557591,0.171145,0,-9.27806e-06,0.000422034,4.99279e-07,-9,-1262,-4.26122e-12,-9,-96.9126,-1165.09,0.636
1.4778,1.47636,0.557593,0.171145,0,-6.18537e-06,0.000427199,3.32852e-07,-9,-1262,-1.89388e-12,-9,-96.9126,-1165.09,0.64
1.4778,1.47636,0.557594,0.171145,0,-4.12358e-06,0.000432394,2.21902e-07,-9,-1262,-8.41723e-13,-9,-96.9126,-1165.09,0.644
1.4778,1.47636,0.557596,0.171145,0,-2.74905e-06,0.000437618,1.47934e-07,-9,-1262,-3.74099e-13,-9,-96.9126,-1165.09,0.648
1.4778,1.47636,0.557598,0.171145,0,-1.8327e-06,0.000442871,9.86229e-08,-9,-1262,-1.66266e-13,-9,-96.9126,-1165.09,0.652
1.4778,1.47636,0.5576,0.171145,0,-1.2218e-06,0.000448154,6.57486e-08,-9,-1262,-7.38961e-14,-9,-96.9126,-1165.09,0.656
1.4778,1.47636,0.557601,0.171145,0,-8.14535e-07,0.000453466,4.38324e-08,-9,-1262,-3.28427e-14,-9,-96.9126,-1165.09,0.66
1.4778,1.47636,0.557603,0.171145,0,-5.43023e-07,0.000458807,2.92216e-08,-9,-1262,-1.45968e-14,-9,-96.9126,-1165.09,0.664
1.4778,1.47636,0.557605,0.171145,0,-3.62015e-07,0.000464177,1.94811e-08,-9,-1262,-6.48745e-15,-9,-96.9126,-1165.09,0.668
1.4778,1.47636,0.557607,0.171145,0,-2.41344e-07,0.000469577,1.29874e-08,-9,-1262,-2.88331e-15,-9,-96.9126,-1165.09,0.672
1.4778,1.47636,0.557609,0.171145,0,-1.60896e-07,0.000475005,8.65826e-09,-9,-1262,-1.28147e-15,-9,-96.9126,-1165.09,0.676
1.4778,1.47636,0.557611,0.171145,0,-1.07264e-07,0.000480463,5.77217e-09,-9,-1262,-5.69543e-16,-9,-96.9126,-1165.09,0.68
1.4778,1.47636,0.557613,0.171145,0,-7.15092e-08,0.00048595,3.84811e-09,-9,-1262,-2.5313e-16,-9,-96.9126,-1165.09,0.684
1.4778,1.47636,0.557615,0.171145,0,-4.76728e-08,0.000491465,2.56541e-09,-9,-1262,-1.12502e-16,-9,-96.9126,-1165.09,0.688
1.4778,1.47636,0.557617,0.171145,0,-3.17819e-08,0.00049701,1.71027e-09,-9,-1262,-5.0001e-17,-9,-96.9126,-1165.09,0.692
1.4778,1.47636,0.557619,0.171145,0,-2.11879e-08,0.000502584,1.14018e-09,-9,-1262,-2.22227e-17,-9,-96.9126,-1165.09,0.696
1.4778,1.47636,0.557621,0.171145,0,-1.41253e-08,0.000508186,7.60121e-10,-9,-1262,-9.87675e-18,-9,-96.9126,-1165.09,0.7
1.4778,1.47636,0.557623,0.171145,0,-9.41685e-09,0.000513818,5.06748e-10,-9,-1262,-4.38967e-18,-9,-96.9126,-1165.09,0.704
1.4778,1.47636,0.557625,0.171145,0,2.87846e-05,0.000519478,3.37832e-10,-9,-1262,8.94531e-15,-9,-96.9126,-1165.09,0.708
1.4778,1.47636,0.557627,0.171145,0,-9.60116e-06,0.000525167,2.25221e-10,-9,-1262,-1.98915e-15,-9,-96.9126,-1165.09,0.712
1.4778,1.47636,0.557629,0.171145,0,-6.40077e-06,0.000530885,1.50147e-10,-9,-1262,-8.84065e-16,-9,-96.9126,-1165.09,0.716
1.4778,1.47636,0.557631,0.171145,0,-4.26718e-06,0.000536631,1.00098e-10,-9,-1262,-3.92918e-16,-9,-96.9126,-1165.09,0.72
1.4778,1.47636,0.557633,0.171145,0,-2.84479e-06,0.000542406,6.67322e-11,-9,-1262,-1.7463e-16,-9,-96.9126,-1165.09,0.724
1.4778,1.47636,0.557635,0.171145,0,-1.89653e-06,0.00054821,4.44881e-11,-9,-1262,-7.76134e-17,-9,-96.9126,-1165.09,0.728
1.4778,1.47636,0.557638,0.171145,0,-1.26435e-06,0.000554043,2.96587e-11,-9,-1262,-3.44949e-17,-9,-96.9126,-1165.09,0.732
1.4778,1.47636,0.55764,0.171145,0,-8.429e-07,0.000559904,1.97725e-11,-9,-1262,-1.5331e-17,-9,-96.9126,-1165.09,0.736
1.4778,1.47636,0.557642,0.171145,0,-5.61933e-07,0.000565793,1.31817e-11,-9,-1262,-6.8138e-18,-9,-96.9126,-1165.09,0.74
1.4778,1.47636,0.557644,0.171145,0,-3.74622e-07,0.000571711,8.78778e-12,-9,-1262,-3.02835e-18,-9,-96.9126,-1165.09,0.744
1.4778,1.47636,0.557647,0.171145,0,-2.49748e-07,0.000577658,5.85852e-12,-9,-1262,-1.34594e-18,-9,-96.9126,-1165.09,0.748
1.4778,1.47636,0.557649,0.171145,0,-1.66499e-07,0.000583633,3.90568e-12,-9,-1262,-5.98194e-19,-9,-96.9126,-1165.09,0.752
1.4778,1.47636,0.557651,0.171145,0,-1.10999e-07,0.000589636,2.60379e-12,-9,-1262,-2.65864e-19,-9,-96.9126,-1165.09,0.756
1.4778,1.47636,0.557654,0.171145,0,-7.39995e-08,0.000595668,1.73586e-12,-9,-1262,-1.18162e-19,-9,-96.9126,-1165.09,0.76
1.4778,1.47636,0.557656,0.171145,0,-4.9333e-08,0.000601728,1.15724e-12,-9,-1262,-5.25163e-20,-9,-96.9126,-1165.09,0.764
1.4778,1.47636,0.557658,0.171145,0,-3.28887e-08,0.000607816,7.71492e-13,-9,-1262,-2.33406e-20,-9,-96.9126,-1165.09,0.768
1.4778,1.47636,0.557661,0.171145,0,-2.19258e-08,0.000613932,5.14328e-13,-9,-1262,-1.03736e-20,-9,-96.9126,-1165.09,0.772
1.4778,1.47636,0.557663,0.171145,0,-1.46172e-08,0.000620077,3.42885e-13,-9,-1262,-4.61048e-21,-9,-96.9126,-1165.09,0.776
1.4778,1.47636,0.557666,0.171145,0,-9.74479e-09,0.00062625,2.2859e-13,-9,-1262,-2.0491e-21,-9,-96.9126,-1165.09,0.78
1.4778,1.47636,0.557668,0.171145,0,-6.49652e-09,0.000632451,1.52393e-13,-9,-1262,-9.10713e-22,-9,-96.9126,-1165.09,0.784
1.4778,1.47636,0.557671,0.171145,0,-4.33102e-09,0.00063868,1.01596e-13,-9,-1262,-4.04761e-22,-9,-96.9126,-1165.09,0.788
1.4778,1.47636,0.557673,0.171145,0,-2.88734e-09,0.000644937,6.77304e-14,-9,-1262,-1.79894e-22,-9,-96.9126,-1165.09,0.792
1.4778,1.47636,0.557676,0.171145,0,-1.9249e-09,0.000651223,4.51536e-14,-9,-1262,-7.99529e-23,-9,-96.9126,-1165.09,0.796
1.4778,1.47636,0.557679,0.171145,0,-1.28326e-09,0.000657536,3.01024e-14,-9,-1262,-3.55346e-23,-9,-96.9126,-1165.09,0.8
1.4778,1.47636,0.557681,0.171145,0,-8.55509e-10,0.000663877,2.00683e-14,-9,-1262,-1.57932e-23,-9,-96.9126,-1165.09,0.804
1.4778,1.47636,0.557684,0.171145,0,-5.7034e-10,0.000670246,1.33789e-14,-9,-1262,-7.01918e-24,-9,-96.9126,-1165.09,0.808
1.4778,1.47636,0.557687,0.171145,0,-3.80226e-10,0.000676643,8.91924e-15,-9,-1262,-3.11964e-24,-9,-96.9126,-1165.09,0.812
1.4778,1.47636,0.557689,0.171145,0,-2.53484e-10,0.000683068,5.94616e-15,-9,-1262,-1.3865e-24,-9,-96.9126,-1165.09,0.816
1.4778,1.47636,0.557692,0.171145,0,-1.68989e-10,0.000689521,3.9641e-15,-9,-1262,-6.16224e-25,-9,-96.9126,-1165.09,0.82
1.4778,1.47636,0.557695,0.171145,0,-1.1266e-10,0.000696001,2.64274e-15,-9,-1262,-2.73878e-25,-9,-96.9126,-1165.09,0.824
1.4778,1.47636,0.557698,0.171145,0,-7.51064e-11,0.000702509,1.76182e-15,-9,-1262,-1.21723e-25,-9,-96.9126,-1165.09,0.828
1.4778,1.47636,0.557701,0.171145,0,-5.0071e-11,0.000709045,1.17455e-15,-9,-1262,-5.40993e-26,-9,-96.9126,-1165.09,0.832
1.4778,1.47636,0.557703,0.171145,0,-3.33806e-11,0.000715609,7.83033e-16,-9,-1262,-2.40441e-26,-9,-96.9126,-1165.09,0.836
1.4778,1.47636,0.557706,0.171145,0,-2.22538e-11,0.0007222,5.22022e-16,-9,-1262,-1.06863e-26,-9,-96.9126,-1165.09,0.84
1.4778,1.47636,0.557709,0.171145,0,-1.48358e-11,0.000728819,3.48015e-16,-9,-1262,-4.74946e-27,-9,-96.9126,-1165.09,0.844
1.4778,1.47636,0.557712,0.171145,0,-9.89056e-12,0.000735466,2.3201e-16,-9,-1262,-2.11087e-27,-9,-96.9126,-1165.09,0.848
1.4778,1.47636,0.557715,0.171145,0,-6.59371e-12,0.000742139,1.54673e-16,-9,-1262,-9.38164e-28,-9,-96.9126,-1165.09,0.852
1.4778,1.47636,0.557718,0.171145,0,-4.3958e-12,0.000748841,1.03115e-16,-9,-1262,-4.16962e-28,-9,-96.9126,-1165.09,0.856
1.4778,1.47636,0.557721,0.171145,0,-2.93054e-12,0.00075557,6.87436e-17,-9,-1262,-1.85316e-28,-9,-96.9126,-1165.09,0.86
1.4778,1.47636,0.557724,0.171145,0,-1.95369e-12,0.000762326,4.58291e-17,-9,-1262,-8.23628e-29,-9,-96.9126,-1165.09,0.864
1.4778,1.47636,0.557727,0.171145,0,-1.30246e-12,0.00076911,3.05527e-17,-9,-1262,-3.66057e-29,-9,-96.9126,-1165.09,0.868
1.4778,1.47636,0.55773,0.171145,0,-8.68307e-13,0.000775921,2.03685e-17,-9,-1262,-1.62692e-29,-9,-96.9126,-1165.09,0.872
1.4778,1.47636,0.557733,0.171145,0,-5.78871e-13,0.000782759,1.3579e-17,-9,-1263,-7.23076e-30,-9,-96.9126,-1166.09,0.876
1.4778,1.47636,0.557736,0.171145,0,-3.85914e-13,0.000789625,9.05266e-18,-9,-1263,-3.21367e-30,-9,-96.9126,-1166.09,0.88
1.4778,1.47636,0.55774,0.171145,0,-2.57276e-13,0.000796518,6.03511e-18,-9,-1263,-1.4283e-30,-9,-96.9126,-1166.09,0.884
1.4778,1.47636,0.557743,0.171145,0,-1.71517e-13,0.000803438,4.0234e-18,-9,-1263,-6.34799e-31,-9,-96.9126,-1166.09,0.888
1.4778,1.47636,0.557746,0.171145,0,-1.14345e-13,0.000810385,2.68227e-18,-9,-1263,-2.82133e-31,-9,-96.9126,-1166.09,0.892
1.4778,1.47636,0.557749,0.171145,0,-7.623e-14,0.00081736,1.78818e-18,-9,-1263,-1.25392e-31,-9,-96.9126,-1166.09,0.896
1.4778,1.47636,0.557753,0.171145,0,-5.082e-14,0.000824361,1.19212e-18,-9,-1263,-5.57299e-32,-9,-96.9126,-1166.09,0.9
1.4778,1.47636,0.557756,0.171145,0,-3.388e-14,0.00083139,7.94747e-19,-9,-1263,-2.47689e-32,-9,-96.9126,-1166.09,0.904
1.4778,1.47636,0.557759,0.171145,0,-2.25867e-14,0.000838446,5.29831e-19,-9,-1263,-1.10084e-32,-9,-96.9126,-1166.09,0.908
1.4778,1.47636,0.557763,0.171145,0,-1.50578e-14,0.000845528,3.53221e-19,-9,-1263,-4.89261e-33,-9,-96.9126,-1166.09,0.912
1.4778,1.47636,0.557766,0.171145,0,-1.00385e-14,0.000852638,2.3548e-19,-9,-1263,-2.1745e-33,-9,-96.9126,-1166.09,0.916
1.4778,1.47636,0.557769,0.171145,0,-6.69234e-15,0.000859775,1.56987e-19,-9,-1263,-9.66442e-34,-9,-96.9126,-1166.09,0.92
1.4778,1.47636,0.557773,0.171145,0,-4.46156e-15,0.000866938,1.04658e-19,-9,-1263,-4.2953e-34,-9,-96.9126,-1166.09,0.924
1.4778,1.47636,0.557776,0.171145,0,-2.97438e-15,0.000874128,6.9772e-20,-9,-1263,-1.90902e-34,-9,-96.9126,-1166.09,0.928
1.4778,1.47636,0.55778,0.171145,0,-1.98292e-15,0.000881345,4.65147e-20,-9,-1263,-8.48454e-35,-9,-96.9126,-1166.09,0.932
1.4778,1.47636,0.557783,0.171145,0,-1.32194e-15,0.000888589,3.10098e-20,-9,-1263,-3.77091e-35,-9,-96.9126,-1166.09,0.936
1.4778,1.47636,0.557787,0.171145,0,-8.81296e-16,0.00089586,2.06732e-20,-9,-1263,-1.67596e-35,-9,-96.9126,-1166.09,0.94
1.4778,1.47636,0.557791,0.171145,0,-5.87531e-16,0.000903157,1.37821e-20,-9,-1263,-7.44871e-36,-9,-96.9126,-1166.09,0.944
1.4778,1.47636,0.557794,0.171145,0,-3.91687e-16,0.000910482,9.18808e-21,-9,-1263,-3.31054e-36,-9,-96.9126,-1166.09,0.948
1.4778,1.47636,0.557798,0.171145,0,-2.61125e-16,0.000917832,6.12539e-21,-9,-1263,-1.47135e-36,-9,-96.9126,-1166.09,0.952
1.4778,1.47636,0.557802,0.171145,0,-1.74083e-16,0.00092521,4.08359e-21,-9,-1263,-6.53933e-37,-9,-96.9126,-1166.09,0.956
1.4778,1.47636,0.557805,0.171145,0,-1.16055e-16,0.000932613,2.72239e-21,-9,-1263,-2.90637e-37,-9,-96.9126,-1166.09,0.96
1.4778,1.47636,0.557809,0.171145,0,-7.73703e-17,0.000940044,1.81493e-21,-9,-1263,-1.29172e-37,-9,-96.9126,-1166.09,0.964
1.4778,1.47636,0.557813,0.171145,0,-5.15802e-17,0.000947501,1.20995e-21,-9,-1263,-5.74098e-38,-9,-96.9126,-1166.09,0.968
1.4778,1.47636,0.557817,0.171145,0,-3.43868e-17,0.000954984,8.06635e-22,-9,-1263,-2.55154e-38,-9,-96.9126,-1166.09,0.972
1.4778,1.47636,0.55782,0.171145,0,-2.29245e-17,0.000962494,5.37757e-22,-9,-1263,-1.13402e-38,-9,-96.9126,-1166.09,0.976
1.4778,1.47636,0.557824,0.171145,0,-1.5283e-17,0.00097003,3.58505e-22,-9,-1263,-5.04009e-39,-9,-96.9126,-1166.09,0.98
1.4778,1.47636,0.557828,0.171145,0,-1.01887e-17,0.000977593,2.39003e-22,-9,-1263,-2.24004e-39,-9,-96.9126,-1166.09,0.984
1.4778,1.47636,0.557832,0.171145,0,-6.79246e-18,0.000985182,1.59335e-22,-9,-1263,-9.95573e-40,-9,-96.9126,-1166.09,0.988
1.4778,1.47636,0.557836,0.171145,0,-4.5283e-18,0.000992797,1.06224e-22,-9,-1263,-4.42477e-40,-9,-96.9126,-1166.09,0.992
1.4778,1.47636,0.55784,0.171145,0,-3.01887e-18,0.00100044,7.08157e-23,-9,-1263,-1.96656e-40,-9,-96.9126,-1166.09,0.996
1.4778,1.47636,0.557844,0.171145,0,-2.01258e-18,0.00100811,4.72105e-23,-9,-1263,-8.74028e-41,-9,-96.9126,-1166.09,1
1.4778,1.47636,0.557848,0.171145,0,-1.34172e-18,0.0010158,3.14737e-23,-9,-1263,-3.88457e-41,-9,-96.9126,-1166.09,1.004
1.4778,1.47636,0.557852,0.171145,0,-8.9448e-19,0.00102352,2.09824e-23,-9,-1263,-1.72648e-41,-9,-96.9126,-1166.09,1.008
1.4778,1.47636,0.557856,0.171145,0,-5.9632e-19,0.00103127,1.39883e-23,-9,-1263,-7.67323e-42,-9,-96.9126,-1166.09,1.012
1.4778,1.47636,0.55786,0.171145,0,-3.97547e-19,0.00103904,9.32553e-24,-9,-1263,-3.41032e-42,-9,-96.9126,-1166.09,1.016
1.4778,1.47636,0.557865,0.171145,0,-2.65031e-19,0.00104684,6.21702e-24,-9,-1263,-1.5157e-42,-9,-96.9126,-1166.09,1.02
1.4778,1.47636,0.557869,0.171145,0,-1.76687e-19,0.00105466,4.14468e-24,-9,-1263,-6.73644e-43,-9,-96.9126,-1166.09,1.024
1.4778,1.47636,0.557873,0.171145,0,-1.17792e-19,0.00106251,2.76312e-24,-9,-1263,-2.99397e-43,-9,-96.9126,-1166.09,1.028
1.4778,1.47636,0.557877,0.171145,0,-7.85277e-20,0.00107039,1.84208e-24,-9,-1263,-1.33065e-43,-9,-96.9126,-1166.09,1.032
1.4778,1.47636,0.557882,0.171145,0,-5.23518e-20,0.00107829,1.22805e-24,-9,-1263,-5.91402e-44,-9,-96.9126,-1166.09,1.036
1.4778,1.47636,0.557886,0.171145,0,-3.49012e-20,0.00108622,8.18702e-25,-9,-1263,-2.62845e-44,-9,-96.9126,-1166.09,1.04
1.4778,1.47636,0.55789,0.171145,0,-2.32675e-20,0.00109417,5.45801e-25,-9,-1263,-1.1682e-44,-9,-96.9126,-1166.09,1.044
1.4778,1.47636,0.557895,0.171145,0,-1.55116e-20,0.00110215,3.63868e-25,-9,-1263,-5.19201e-45,-9,-96.9126,-1166.09,1.048
1.4778,1.47636,0.557899,0.171145,0,-1.03411e-20,0.00111016,2.42578e-25,-9,-1263,-2.30756e-45,-9,-96.9126,-1166.09,1.052
1.4778,1.47636,0.557904,0.171145,0,-6.89407e-21,0.00111819,1.61719e-25,-9,-1263,-1.02558e-45,-9,-96.9126,-1166.09,1.056
1.4778,1.47636,0.557908,0.171145,0,-4.59604e-21,0.00112624,1.07813e-25,-9,-1263,-4.55814e-46,-9,-96.9126,-1166.09,1.06
1.4778,1.47636,0.557913,0.171145,0,-3.06403e-21,0.00113433,7.18751e-26,-9,-1263,-2.02584e-46,-9,-96.9126,-1166.09,1.064
1.4778,1.47636,0.557917,0.171145,0,-2.04269e-21,0.00114244,4.79167e-26,-9,-1263,-9.00374e-47,-9,-96.9126,-1166.09,1.068
1.4778,1.47636,0.557922,0.171145,0,-1.36179e-21,0.00115057,3.19445e-26,-9,-1263,-4.00166e-47,-9,-96.9126,-1166.09,1.072
1.4778,1.47636,0.557926,0.171145,0,-9.07861e-22,0.00115873,2.12963e-26,-9,-1263,-1.77852e-47,-9,-96.9126,-1166.09,1.076
1.4778,1.47636,0.557931,0.171145,0,-6.0524e-22,0.00116691,1.41975e-26,-9,-1263,-7.90451e-48,-9,-96.9126,-1166.09,1.08
1.4778,1.47636,0.557936,0.171145,0,2.87909e-05,0.00117512,9.46503e-27,-9,-1263,2.50675e-31,-9,-96.9126,-1166.09,1.084
1.4778,1.47636,0.55794,0.171145,0,1.91939e-05,0.00118336,6.31002e-27,-9,-1263,1.11411e-31,-9,-96.9126,-1166.09,1.088
1.4778,1.47636,0.557945,0.171145,0,-1.5995e-05,0.00119162,4.20668e-27,-9,-1263,-6.18952e-32,-9,-96.9126,-1166.09,1.092
1.4778,1.47636,0.55795,0.171145,0,1.81276e-05,0.00119991,2.80445e-27,-9,-1264,4.67652e-32,-9,-96.9126,-1167.09,1.096
1.4778,1.47636,0.557955,0.171145,0,-1.67058e-05,0.00120822,1.86964e-27,-9,-1264,-2.87316e-32,-9,-96.9126,-1167.09,1.1
1.4778,1.47636,0.55796,0.171145,0,-1.11372e-05,0.00121656,1.24642e-27,-9,-1264,-1.27696e-32,-9,-96.9126,-1167.09,1.104
1.4778,1.47636,0.557965,0.171145,0,-7.42482e-06,0.00122492,8.30949e-28,-9,-1264,-5.67537e-33,-9,-96.9126,-1167.09,1.108
1.4778,1.47636,0.557969,0.171145,0,-4.94988e-06,0.00123331,5.53966e-28,-9,-1264,-2.52239e-33,-9,-96.9126,-1167.09,1.112
1.4778,1.47636,0.557974,0.171145,0,-3.29992e-06,0.00124172,3.69311e-28,-9,-1264,-1.12106e-33,-9,-96.9126,-1167.09,1.116
1.4778,1.47636,0.557979,0.171145,0,-2.19995e-06,0.00125016,2.46207e-28,-9,-1264,-4.9825e-34,-9,-96.9126,-1167.09,1.12
1.4778,1.47636,0.557984,0.171145,0,-3.02576e-05,0.00125862,1.64138e-28,-9,-1264,-4.56854e-33,-9,-96.9126,-1167.09,1.124
1.4778,1.47636,0.557989,0.171145,0,8.61922e-06,0.00126711,1.09425e-28,-9,-1264,8.67601e-34,-9,-96.9126,-1167.09,1.128
1.4778,1.47636,0.557995,0.171145,0,5.74615e-06,0.00127562,7.29503e-29,-9,-1264,3.85601e-34,-9,-96.9126,-1167.09,1.132
1.4778,1.47636,0.558,0.171145,0,3.83076e-06,0.00128416,4.86335e-29,-9,-1264,1.71378e-34,-9,-96.9126,-1167.09,1.136
1.4778,1.47636,0.558005,0.171145,0,2.55384e-06,0.00129272,3.24223e-29,-9,-1264,7.6168e-35,-9,-96.9126,-1167.09,1.14
1.4778,1.47636,0.55801,0.171145,0,1.70256e-06,0.00130131,2.16149e-29,-9,-1264,3.38525e-35,-9,-96.9126,-1167.09,1.144
1.4778,1.47636,0.558015,0.171145,0,1.13504e-06,0.00130993,1.44099e-29,-9,-1264,1.50455e-35,-9,-96.9126,-1167.09,1.148
1.4778,1.47636,0.55802,0.171145,0,7.56694e-07,0.00131856,9.60662e-30,-9,-1264,6.6869e-36,-9,-96.9126,-1167.09,1.152
1.4778,1.47636,0.558026,0.171145,0,2.92954e-05,0.00132723,6.40441e-30,-9,-1264,1.72589e-34,-9,-96.9126,-1167.09,1.156
1.4778,1.47636,0.558031,0.171145,0,-3.80516e-05,0.00133592,4.26961e-30,-10,-1264,-1.4945e-34,-10,-96.9126,-1167.09,1.16
1.4778,1.47636,0.558036,0.171145,0,3.4232e-06,0.00134463,2.84641e-30,-9,-1264,8.96319e-36,-9,-96.9126,-1167.09,1.164
1.4778,1.47636,0.558042,0.171145,0,-2.65088e-05,0.00135337,1.8976e-30,-9,-1264,-4.62732e-35,-9,-96.9126,-1167.09,1.168
1.4778,1.47636,0.558047,0.171145,0,-1.76725e-05,0.00136213,1.26507e-30,-9,-1264,-2.05659e-35,-9,-96.9126,-1167.09,1.172
1.4778,1.47636,0.558053,0.171145,0,-1.17817e-05,0.00137092,8.4338e-31,-9,-1264,-9.14039e-36,-9,-96.9126,-1167.09,1.176
1.4778,1.47636,0.558058,0.171145,0,2.09365e-05,0.00137973,5.62253e-31,-9,-1264,1.08285e-35,-9,-96.9126,-1167.09,1.18
1.4778,1.47636,0.558064,0.171145,0,1.39576e-05,0.00138856,3.74835e-31,-9,-1264,4.81268e-36,-9,-96.9126,-1167.09,1.184
1.4778,1.47636,0.558069,0.171145,0,-1.94858e-05,0.00139742,2.4989e-31,-9,-1264,-4.47922e-36,-9,-96.9126,-1167.09,1.188
1.4778,1.47636,0.558075,0.171145,0,1.58004e-05,0.00140631,1.66593e-31,-9,-1264,2.42136e-36,-9,-96.9126,-1167.09,1.192
1.4778,1.47636,0.558081,0.171145,0,1.05336e-05,0.00141522,1.11062e-31,-9,-1264,1.07616e-36,-9,-96.9126,-1167.09,1.196
1.4778,1.47636,0.558086,0.171145,0,3.58133e-05,0.00142415,7.40415e-32,-9,-1264,2.43924e-36,-9,-96.9126,-1167.09,1.2
1.4778,1.47636,0.558092,0.171145,0,-4.91538e-06,0.00143311,4.9361e-32,-9,-1264,-2.2319e-37,-9,-96.9126,-1167.09,1.204
1.4778,1.47636,0.558098,0.171145,0,-3.27692e-06,0.0014421,3.29074e-32,-9,-1264,-9.91958e-38,-9,-96.9126,-1167.09,1.208
1.4778,1.47636,0.558104,0.171145,0,2.66063e-05,0.0014511,2.19382e-32,-9,-1264,5.36933e-37,-9,-96.9126,-1167.09,1.212
1.4778,1.47636,0.558109,0.171145,0,-1.10534e-05,0.00146014,1.46255e-32,-9,-1264,-1.4871e-37,-9,-96.9126,-1167.09,1.216
1.4778,1.47636,0.558115,0.171145,0,-7.36892e-06,0.00146919,9.75033e-33,-9,-1264,-6.60933e-38,-9,-96.9126,-1167.09,1.22
1.4778,1.47636,0.558121,0.171145,0,-4.91262e-06,0.00147827,6.50022e-33,-9,-1264,-2.93748e-38,-9,-96.9126,-1167.09,1.224
1.4778,1.47636,0.558127,0.171145,0,-3.27508e-06,0.00148738,4.33348e-33,-9,-1264,-1.30555e-38,-9,-96.9126,-1167.09,1.228
1.4778,1.47636,0.558133,0.171145,0,-2.18338e-06,0.00149651,2.88899e-33,-9,-1264,-5.80243e-39,-9,-96.9126,-1167.09,1.232
1.4778,1.47636,0.558139,0.171145,0,2.73353e-05,0.00150566,1.92599e-33,-9,-1264,4.84298e-38,-9,-96.9126,-1167.09,1.236
1.4778,1.47636,0.558145,0.171145,0,-3.93583e-05,0.00151484,1.28399e-33,-10,-1264,-4.64872e-38,-10,-96.9126,-1167.09,1.24
1.4778,1.47636,0.558151,0.171145,0,2.55206e-06,0.00152404,8.55996e-34,-9,-1264,2.00954e-39,-9,-96.9126,-1167.09,1.244
1.4778,1.47636,0.558157,0.171145,0,1.70138e-06,0.00153326,5.70664e-34,-9,-1264,8.9313e-40,-9,-96.9126,-1167.09,1.248
1.4778,1.47636,0.558163,0.171145,0,-2.76567e-05,0.00154251,3.80443e-34,-9,-1264,-9.67884e-39,-9,-96.9126,-1167.09,1.252
1.4778,1.47636,0.55817,0.171145,0,1.03531e-05,0.00155179,2.53628e-34,-9,-1264,2.41548e-39,-9,-96.9126,-1167.09,1.256
1.4778,1.47636,0.558176,0.171145,0,3.5693e-05,0.00156108,1.69086e-34,-9,-1264,5.55167e-39,-9,-96.9126,-1167.09,1.26
1.4778,1.47636,0.558182,0.171145,0,-4.99558e-06,0.00157041,1.12724e-34,-9,-1265,-5.18007e-40,-9,-96.9126,-1168.09,1.264
1.4778,1.47636,0.558188,0.171145,0,-3.21213e-05,0.00157975,7.51492e-35,-9,-1265,-2.2205e-39,-9,-96.9126,-1168.09,1.268
1.4778,1.47636,0.558195,0.171145,0,3.61676e-05,0.00158912,5.00994e-35,-9,-1265,1.66681e-39,-9,-96.9126,-1168.09,1.272
1.4778,1.47636,0.558201,0.171145,0,2.41118e-05,0.00159851,3.33996e-35,-9,-1265,7.40806e-40,-9,-96.9126,-1168.09,1.276
1.4778,1.47636,0.558208,0.171145,0,1.60745e-05,0.00160793,2.22664e-35,-9,-1265,3.29247e-40,-9,-96.9126,-1168.09,1.28
1.4778,1.47636,0.558214,0.171145,0,1.07163e-05,0.00161737,1.48443e-35,-9,-1265,1.46332e-40,-9,-96.9126,-1168.09,1.284
1.4778,1.47636,0.55822,0.171145,0,7.14423e-06,0.00162684,9.89618e-36,-9,-1265,6.50365e-41,-9,-96.9126,-1168.09,1.288
1.4778,1.47636,0.558227,0.171145,0,3.35537e-05,0.00163632,6.59746e-36,-9,-1265,2.03635e-40,-9,-96.9126,-1168.09,1.292
1.4778,1.47636,0.558234,0.171145,0,2.23692e-05,0.00164583,4.3983e-36,-9,-1265,9.05043e-41,-9,-96.9126,-1168.09,1.296
1.4778,1.47636,0.55824,0.171145,0,-1.38782e-05,0.00165537,2.9322e-36,-9,-1265,-3.74334e-41,-9,-96.9126,-1168.09,1.3
1.4778,1.47636,0.558247,0.171145,0,-6.68339e-05,0.00166493,1.9548e-36,-10,-1265,-1.2018e-40,-10,-96.9126,-1168.09,1.304
1.4778,1.47636,0.558253,0.171145,0,1.30259e-05,0.00167451,1.3032e-36,-9,-1265,1.56154e-41,-9,-96.9126,-1168.09,1.308
1.4778,1.47636,0.55826,0.171145,0,3.74748e-05,0.00168412,8.68801e-37,-9,-1265,2.99498e-41,-9,-96.9126,-1168.09,1.312
1.4778,1.47636,0.558267,0.171145,0,-3.80769e-06,0.00169375,5.79201e-37,-9,-1265,-2.02873e-42,-9,-96.9126,-1168.09,1.316
1.4778,1.47636,0.558274,0.171145,0,-2.53846e-06,0.0017034,3.86134e-37,-9,-1265,-9.01659e-43,-9,-96.9126,-1168.09,1.32
1.4778,1.47636,0.558281,0.171145,0,-3.04832e-05,0.00171308,2.57422e-37,-9,-1265,-7.21841e-42,-9,-96.9126,-1168.09,1.324
1.4778,1.47636,0.558287,0.171145,0,8.46877e-06,0.00172278,1.71615e-37,-9,-1265,1.33693e-42,-9,-96.9126,-1168.09,1.328
1.4778,1.47636,0.558294,0.171145,0,5.64585e-06,0.0017325,1.1441e-37,-9,-1265,5.94192e-43,-9,-96.9126,-1168.09,1.332
1.4778,1.47636,0.558301,0.171145,0,3.7639e-06,0.00174225,7.62733e-38,-9,-1265,2.64085e-43,-9,-96.9126,-1168.09,1.336
1.4778,1.47636,0.558308,0.171145,0,-5.50726e-05,0.00175202,5.08489e-38,-10,-1265,-2.57603e-42,-10,-96.9126,-1168.09,1.34
1.4778,1.47636,0.558315,0.171145,0,2.08668e-05,0.00176181,3.38993e-38,-9,-1265,6.50699e-43,-9,-96.9126,-1168.09,1.344
1.4778,1.47636,0.558322,0.171145,0,-1.48797e-05,0.00177162,2.25995e-38,-9,-1265,-3.09334e-43,-9,-96.9126,-1168.09,1.348
1.4778,1.47636,0.558329,0.171145,0,1.88711e-05,0.00178146,1.50663e-38,-9,-1265,2.61541e-43,-9,-96.9126,-1168.09,1.352
1.4778,1.47636,0.558337,0.171145,0,4.13717e-05,0.00179133,1.00442e-38,-9,-1265,3.82255e-43,-9,-96.9126,-1168.09,1.356
1.4778,1.47636,0.558344,0.171145,0,-3.00007e-05,0.00180121,6.69615e-39,-9,-1265,-1.84795e-43,-9,-96.9126,-1168.09,1.36
1.4778,1.47636,0.558351,0.171145,0,8.79043e-06,0.00181112,4.4641e-39,-9,-1265,3.60976e-44,-9,-96.9126,-1168.09,1.364
1.4778,1.47636,0.558358,0.171145,0,5.86029e-06,0.00182105,2.97607e-39,-9,-1265,1.60434e-44,-9,-96.9126,-1168.09,1.368
1.4778,1.47636,0.558366,0.171145,0,3.90686e-06,0.00183101,1.98404e-39,-9,-1265,7.13039e-45,-9,-96.9126,-1168.09,1.372
1.4778,1.47636,0.558373,0.171145,0,2.60457e-06,0.00184099,1.3227e-39,-9,-1265,3.16906e-45,-9,-96.9126,-1168.09,1.376
1.4778,1.47636,0.55838,0.171145,0,1.73638e-06,0.00185099,8.81797e-40,-9,-1265,1.40847e-45,-9,-96.9126,-1168.09,1.38
1.4778,1.47636,0.558388,0.171145,0,1.15759e-06,0.00186101,5.87865e-40,-9,-1265,6.25987e-46,-9,-96.9126,-1168.09,1.384
1.4778,1.47636,0.558395,0.171145,0,7.71725e-07,0.00187106,3.9191e-40,-9,-1265,2.78217e-46,-9,-96.9126,-1168.09,1.388
1.4778,1.47636,0.558403,0.171145,0,5.14483e-07,0.00188113,2.61273e-40,-9,-1265,1.23652e-46,-9,-96.9126,-1168.09,1.392
1.4778,1.47636,0.55841,0.171145,0,3.42989e-07,0.00189122,1.74182e-40,-9,-1265,5.49564e-47,-9,-96.9126,-1168.09,1.396
1.4778,1.47636,0.558418,0.171145,0,2.28659e-07,0.00190133,1.16121e-40,-9,-1265,2.4425e-47,-9,-96.9126,-1168.09,1.4
1.4778,1.47636,0.558425,0.171145,0,1.5244e-07,0.00191147,7.74143e-41,-9,-1266,1.08556e-47,-9,-96.9126,-1169.09,1.404
1.4778,1.47636,0.558433,0.171145,0,1.01626e-07,0.00192163,5.16095e-41,-9,-1266,4.8247e-48,-9,-96.9126,-1169.09,1.408
1.4778,1.47636,0.558441,0.171145,0,6.77509e-08,0.00193181,3.44064e-41,-9,-1266,2.14431e-48,-9,-96.9126,-1169.09,1.412
1.4778,1.47636,0.558449,0.171145,0,4.51673e-08,0.00194202,2.29376e-41,-9,-1266,9.53027e-49,-9,-96.9126,-1169.09,1.416
1.4778,1.47636,0.558456,0.171145,0,3.01115e-08,0.00195225,1.52917e-41,-9,-1266,4.23568e-49,-9,-96.9126,-1169.09,1.42
1.4778,1.47636,0.558464,0.171145,0,2.00743e-08,0.0019625,1.01945e-41,-9,-1266,1.88252e-49,-9,-96.9126,-1169.09,1.424
1.4778,1.47636,0.558472,0.171145,0,1.33829e-08,0.00197277,6.79632e-42,-9,-1266,8.36677e-50,-9,-96.9126,-1169.09,1.428
1.4778,1.47636,0.55848,0.171145,0,8.92193e-09,0.00198307,4.53088e-42,-9,-1266,3.71856e-50,-9,-96.9126,-1169.09,1.432
1.4778,1.47636,0.558488,0.171145,0,5.94795e-09,0.00199339,3.02059e-42,-9,-1266,1.6527e-50,-9,-96.9126,-1169.09,1.436
1.4778,1.47636,0.558496,0.171145,0,3.9653e-09,0.00200373,2.01372e-42,-9,-1266,7.34531e-51,-9,-96.9126,-1169.09,1.44
1.4778,1.47636,0.558504,0.171145,0,2.87936e-05,0.00201409,1.34248e-42,-9,-1266,3.55581e-47,-9,-96.9126,-1169.09,1.444
1.4778,1.47636,0.558512,0.171145,0,-9.59521e-06,0.00202448,8.94988e-43,-9,-1266,-7.89962e-48,-9,-96.9126,-1169.09,1.448
1.4778,1.47636,0.55852,0.171145,0,-3.51877e-05,0.00203489,5.96659e-43,-10,-1266,-1.93131e-47,-10,-96.9126,-1169.09,1.452
1.4778,1.47636,0.558528,0.171145,0,-2.34585e-05,0.00204532,3.97773e-43,-9,-1266,-8.58359e-48,-9,-96.9126,-1169.09,1.456
1.4778,1.47636,0.558537,0.171145,0,1.31519e-05,0.00205577,2.65182e-43,-9,-1266,3.20824e-48,-9,-96.9126,-1169.09,1.46
1.4778,1.47636,0.558545,0.171145,0,8.76795e-06,0.00206624,1.76788e-43,-9,-1266,1.42589e-48,-9,-96.9126,-1169.09,1.464
1.4778,1.47636,0.558553,0.171145,0,5.8453e-06,0.00207674,1.17859e-43,-9,-1266,6.33727e-49,-9,-96.9126,-1169.09,1.468
1.4778,1.47636,0.558561,0.171145,0,3.89687e-06,0.00208726,7.85724e-44,-9,-1266,2.81656e-49,-9,-96.9126,-1169.09,1.472
1.4778,1.47636,0.55857,0.171145,0,2.59791e-06,0.0020978,5.23816e-44,-9,-1266,1.25181e-49,-9,-96.9126,-1169.09,1.476
1.4778,1.47636,0.558578,0.171145,0,1.73194e-06,0.00210837,3.49211e-44,-9,-1266,5.56358e-50,-9,-96.9126,-1169.09,1.48
1.4778,1.47636,0.558587,0.171145,0,1.15463e-06,0.00211895,2.32807e-44,-9,-1266,2.4727e-50,-9,-96.9126,-1169.09,1.484
1.4778,1.47636,0.558595,0.171145,0,7.69752e-07,0.00212956,1.55205e-44,-9,-1266,1.09898e-50,-9,-96.9126,-1169.09,1.488
1.4778,1.47636,0.558604,0.171145,0,5.13168e-07,0.00214019,1.0347e-44,-9,-1266,4.88435e-51,-9,-96.9126,-1169.09,1.492
1.4778,1.47636,0.558612,0.171145,0,2.9133e-05,0.00215084,6.89799e-45,-9,-1266,1.8486e-49,-9,-96.9126,-1169.09,1.496
1.4778,1.47636,0.558621,0.171145,0,1.9422e-05,0.00216151,4.59866e-45,-9,-1266,8.21599e-50,-9,-96.9126,-1169.09,1.5
1.4778,1.47636,0.55863,0.171145,0,-1.58429e-05,0.00217221,3.06577e-45,-9,-1266,-4.46796e-50,-9,-96.9126,-1169.09,1.504
1.4778,1.47636,0.558638,0.171145,0,-1.05619e-05,0.00218293,2.04385e-45,-9,-1266,-1.98576e-50,-9,-96.9126,-1169.09,1.508
1.4778,1.47636,0.558647,0.171145,0,-7.04129e-06,0.00219367,1.36257e-45,-9,-1266,-8.82559e-51,-9,-96.9126,-1169.09,1.512
1.4778,1.47636,0.558656,0.171145,0,-4.6942e-06,0.00220443,9.08377e-46,-9,-1266,-3.92248e-51,-9,-96.9126,-1169.09,1.516
1.4778,1.47636,0.558665,0.171145,0,-3.12946e-06,0.00221521,6.05585e-46,-9,-1267,-1.74333e-51,-9,-96.9126,-1170.09,1.52
1.4778,1.47636,0.558674,0.171145,0,-2.08631e-06,0.00222601,4.03723e-46,-9,-1267,-7.74812e-52,-9,-96.9126,-1170.09,1.524
1.4778,1.47636,0.558682,0.171145,0,-1.39087e-06,0.00223684,2.69149e-46,-9,-1267,-3.44361e-52,-9,-96.9126,-1170.09,1.528
1.4778,1.47636,0.558691,0.171145,0,-9.27248e-07,0.00224769,1.79432e-46,-9,-1267,-1.53049e-52,-9,-96.9126,-1170.09,1.532
1.4778,1.47636,0.5587,0.171145,0,-5.82e-05,0.00225856,1.19622e-46,-10,-1267,-6.40423e-51,-10,-96.9126,-1170.09,1.536
1.4778,1.47636,0.558709,0.171145,0,-3.88e-05,0.00226945,7.97478e-47,-10,-1267,-2.84632e-51,-10,-96.9126,-1170.09,1.54
1.4778,1.47636,0.558719,0.171145,0,3.17152e-05,0.00228036,5.31652e-47,-9,-1267,1.55106e-51,-9,-96.9126,-1170.09,1.544
1.4778,1.47636,0.558728,0.171145,0,2.11435e-05,0.0022913,3.54434e-47,-9,-1267,6.8936e-52,-9,-96.9126,-1170.09,1.548
1.4778,1.47636,0.558737,0.171145,0,1.40956e-05,0.00230225,2.3629e-47,-9,-1267,3.06382e-52,-9,-96.9126,-1170.09,1.552
1.4778,1.47636,0.558746,0.171145,0,9.39709e-06,0.00231323,1.57526e-47,-9,-1267,1.3617e-52,-9,-96.9126,-1170.09,1.556
1.4778,1.47636,0.558755,0.171145,0,6.26473e-06,0.00232423,1.05018e-47,-9,-1267,6.05199e-53,-9,-96.9126,-1170.09,1.56
1.4778,1.47636,0.558765,0.171145,0,4.17648e-06,0.00233525,7.00117e-48,-9,-1267,2.68977e-53,-9,-96.9126,-1170.09,1.564
1.4778,1.47636,0.558774,0.171145,0,2.78432e-06,0.00234629,4.66745e-48,-9,-1267,1.19546e-53,-9,-96.9126,-1170.09,1.568
1.4778,1.47636,0.558784,0.171145,0,-5.57256e-05,0.00235735,3.11163e-48,-10,-1267,-1.59506e-52,-10,-96.9126,-1170.09,1.572
1.4778,1.47636,0.558793,0.171145,0,2.04314e-05,0.00236844,2.07442e-48,-9,-1267,3.89879e-53,-9,-96.9126,-1170.09,1.576
1.4778,1.47636,0.558802,0.171145,0,1.3621e-05,0.00237954,1.38295e-48,-9,-1267,1.7328e-53,-9,-96.9126,-1170.09,1.58
1.4778,1.47636,0.558812,0.171145,0,9.08063e-06,0.00239067,9.21965e-49,-9,-1267,7.70131e-54,-9,-96.9126,-1170.09,1.584
1.4778,1.47636,0.558822,0.171145,0,-5.15281e-05,0.00240182,6.14644e-49,-10,-1267,-2.91341e-53,-10,-96.9126,-1170.09,1.588
1.4778,1.47636,0.558831,0.171145,0,2.32298e-05,0.00241299,4.09762e-49,-9,-1267,8.75611e-54,-9,-96.9126,-1170.09,1.592
1.4778,1.47636,0.558841,0.171145,0,4.42774e-05,0.00242418,2.73175e-49,-9,-1267,1.11265e-53,-9,-96.9126,-1170.09,1.596
1.4778,1.47636,0.558851,0.171145,0,7.27375e-07,0.00243539,1.82117e-49,-9,-1267,1.21855e-55,-9,-96.9126,-1170.09,1.6
1.4778,1.47636,0.55886,0.171145,0,4.84917e-07,0.00244662,1.21411e-49,-9,-1267,5.41576e-56,-9,-96.9126,-1170.09,1.604
1.4778,1.47636,0.55887,0.171145,0,-5.72586e-05,0.00245787,8.09407e-50,-10,-1267,-4.26326e-54,-10,-96.9126,-1170.09,1.608
1.4778,1.47636,0.55888,0.171145,0,1.94095e-05,0.00246915,5.39605e-50,-9,-1267,9.63437e-55,-9,-96.9126,-1170.09,1.612
1.4778,1.47636,0.55889,0.171145,0,1.29396e-05,0.00248044,3.59737e-50,-9,-1267,4.28194e-55,-9,-96.9126,-1170.09,1.616
1.4778,1.47636,0.5589,0.171145,0,8.62643e-06,0.00249176,2.39824e-50,-9,-1267,1.90309e-55,-9,-96.9126,-1170.09,1.62
1.4778,1.47636,0.55891,0.171145,0,5.75095e-06,0.0025031,1.59883e-50,-9,-1267,8.45816e-56,-9,-96.9126,-1170.09,1.624
1.4778,1.47636,0.55892,0.171145,0,3.83397e-06,0.00251446,1.06589e-50,-9,-1268,3.75918e-56,-9,-96.9126,-1171.09,1.628
1.4778,1.47636,0.55893,0.171145,0,2.55598e-06,0.00252583,7.10591e-51,-9,-1268,1.67075e-56,-9,-96.9126,-1171.09,1.632
1.4778,1.47636,0.55894,0.171145,0,1.70399e-06,0.00253723,4.73727e-51,-9,-1268,7.42555e-57,-9,-96.9126,-1171.09,1.636
1.4778,1.47636,0.55895,0.171145,0,-5.64459e-05,0.00254865,3.15818e-51,-10,-1268,-1.63985e-55,-10,-96.9126,-1171.09,1.64
1.4778,1.47636,0.55896,0.171145,0,-3.76306e-05,0.0025601,2.10545e-51,-10,-1268,-7.28821e-56,-10,-96.9126,-1171.09,1.644
1.4778,1.47636,0.558971,0.171145,0,3.24948e-05,0.00257156,1.40364e-51,-9,-1268,4.19568e-56,-9,-96.9126,-1171.09,1.648
1.4778,1.47636,0.558981,0.171145,0,2.16632e-05,0.00258304,9.35757e-52,-9,-1268,1.86475e-56,-9,-96.9126,-1171.09,1.652
1.4778,1.47636,0.558991,0.171145,0,1.44421e-05,0.00259454,6.23838e-52,-9,-1268,8.28776e-57,-9,-96.9126,-1171.09,1.656
1.4778,1.47636,0.559002,0.171145,0,9.62809e-06,0.00260607,4.15892e-52,-9,-1268,3.68345e-57,-9,-96.9126,-1171.09,1.66
1.4778,1.47636,0.559012,0.171145,0,3.52097e-05,0.00261761,2.77261e-52,-9,-1268,8.98018e-57,-9,-96.9126,-1171.09,1.664
1.4778,1.47636,0.559023,0.171145,0,-3.41087e-05,0.00262918,1.84841e-52,-9,-1268,-5.7996e-57,-9,-96.9126,-1171.09,1.668
1.4778,1.47636,0.559033,0.171145,0,6.05176e-06,0.00264076,1.23227e-52,-9,-1268,6.85998e-58,-9,-96.9126,-1171.09,1.672
1.4778,1.47636,0.559044,0.171145,0,-5.35473e-05,0.00265237,8.21515e-53,-10,-1268,-4.04658e-57,-10,-96.9126,-1171.09,1.676
1.4778,1.47636,0.559055,0.171145,0,2.18836e-05,0.002664,5.47677e-53,-9,-1268,1.1025e-57,-9,-96.9126,-1171.09,1.68
1.4778,1.47636,0.559065,0.171145,0,4.338e-05,0.00267564,3.65118e-53,-9,-1268,1.45699e-57,-9,-96.9126,-1171.09,1.684
1.4778,1.47636,0.559076,0.171145,0,1.29079e-07,0.00268731,2.43412e-53,-9,-1268,2.89022e-60,-9,-96.9126,-1171.09,1.688
1.4778,1.47636,0.559087,0.171145,0,2.8877e-05,0.002699,1.62275e-53,-9,-1268,4.31059e-58,-9,-96.9126,-1171.09,1.692
1.4778,1.47636,0.559098,0.171145,0,-6.71215e-05,0.00271071,1.08183e-53,-10,-1268,-6.67967e-58,-10,-96.9126,-1171.09,1.696
1.4778,1.47636,0.559108,0.171145,0,1.28342e-05,0.00272244,7.21221e-54,-9,-1268,8.51474e-59,-9,-96.9126,-1171.09,1.7
1.4778,1.47636,0.559119,0.171145,0,-4.90257e-05,0.00273418,4.80814e-54,-10,-1268,-2.16838e-58,-10,-96.9126,-1171.09,1.704
1.4778,1.47636,0.55913,0.171145,0,2.4898e-05,0.00274595,3.20542e-54,-9,-1268,7.3415e-59,-9,-96.9126,-1171.09,1.708
1.4778,1.47636,0.559141,0.171145,0,-4.09832e-05,0.00275774,2.13695e-54,-10,-1268,-8.05627e-59,-10,-96.9126,-1171.09,1.712
1.4778,1.47636,0.559152,0.171145,0,3.02597e-05,0.00276955,1.42463e-54,-9,-1268,3.96554e-59,-9,-96.9126,-1171.09,1.716
1.4778,1.47636,0.559163,0.171145,0,-3.74087e-05,0.00278138,9.49756e-55,-10,-1268,-3.26827e-59,-10,-96.9126,-1171.09,1.72
1.4778,1.47636,0.559175,0.171145,0,3.26427e-05,0.00279323,6.3317e-55,-9,-1269,1.90126e-59,-9,-96.9126,-1172.09,1.724
1.4778,1.47636,0.559186,0.171145,0,-3.582e-05,0.0028051,4.22114e-55,-10,-1269,-1.39088e-59,-10,-96.9126,-1172.09,1.728
1.4778,1.47636,0.559197,0.171145,0,4.9109e-06,0.00281699,2.81409e-55,-9,-1269,1.27126e-60,-9,-96.9126,-1172.09,1.732
1.4778,1.47636,0.559208,0.171145,0,3.20649e-05,0.0028289,1.87606e-55,-9,-1269,5.53363e-60,-9,-96.9126,-1172.09,1.736
1.4778,1.47636,0.55922,0.171145,0,-7.41435e-06,0.00284083,1.25071e-55,-9,-1269,-8.53027e-61,-9,-96.9126,-1172.09,1.74
1.4778,1.47636,0.559231,0.171145,0,2.3848e-05,0.00285278,8.33805e-56,-9,-1269,1.82916e-60,-9,-96.9126,-1172.09,1.744
1.4778,1.47636,0.559242,0.171145,0,1.58987e-05,0.00286475,5.5587e-56,-9,-1269,8.12958e-61,-9,-96.9126,-1172.09,1.748
1.4778,1.47636,0.559254,0.171145,0,3.939e-05,0.00287674,3.7058e-56,-9,-1269,1.34277e-60,-9,-96.9126,-1172.09,1.752
1.4778,1.47636,0.559265,0.171145,0,-2.53089e-06,0.00288875,2.47053e-56,-9,-1269,-5.75173e-62,-9,-96.9126,-1172.09,1.756
1.4778,1.47636,0.559277,0.171145,0,-1.68726e-06,0.00290078,1.64702e-56,-9,-1269,-2.55632e-62,-9,-96.9126,-1172.09,1.76
1.4778,1.47636,0.559289,0.171145,0,-1.12484e-06,0.00291282,1.09801e-56,-9,-1269,-1.13614e-62,-9,-96.9126,-1172.09,1.764
1.4778,1.47636,0.5593,0.171145,0,-2.95408e-05,0.00292489,7.32009e-57,-9,-1269,-1.98918e-61,-9,-96.9126,-1172.09,1.768
1.4778,1.47636,0.559312,0.171145,0,-1.96939e-05,0.00293698,4.88006e-57,-9,-1269,-8.84078e-62,-9,-96.9126,-1172.09,1.772
1.4778,1.47636,0.559324,0.171145,0,1.56617e-05,0.00294909,3.25338e-57,-9,-1269,4.68712e-62,-9,-96.9126,-1172.09,1.776
1.4778,1.47636,0.559336,0.171145,0,-4.71407e-05,0.00296122,2.16892e-57,-10,-1269,-9.40532e-62,-10,-96.9126,-1172.09,1.78
1.4778,1.47636,0.559348,0.171145,0,2.61547e-05,0.00297336,1.44594e-57,-9,-1269,3.47885e-62,-9,-96.9126,-1172.09,1.784
1.4778,1.47636,0.559359,0.171145,0,1.74365e-05,0.00298553,9.63963e-58,-9,-1269,1.54615e-62,-9,-96.9126,-1172.09,1.788
1.4778,1.47636,0.559371,0.171145,0,4.04152e-05,0.00299772,6.42642e-58,-9,-1269,2.38918e-62,-9,-96.9126,-1172.09,1.792
1.4778,1.47636,0.559383,0.171145,0,-5.94293e-05,0.00300992,4.28428e-58,-10,-1269,-2.34214e-62,-10,-96.9126,-1172.09,1.796
1.4778,1.47636,0.559396,0.171145,0,1.79623e-05,0.00302215,2.85619e-58,-9,-1269,4.71936e-63,-9,-96.9126,-1172.09,1.8
1.4778,1.47636,0.559408,0.171145,0,1.19749e-05,0.00303439,1.90412e-58,-9,-1269,2.09749e-63,-9,-96.9126,-1172.09,1.804
1.4778,1.47636,0.55942,0.171145,0,-4.95986e-05,0.00304665,1.26942e-58,-10,-1269,-5.79172e-63,-10,-96.9126,-1172.09,1.808
1.4778,1.47636,0.559432,0.171145,0,2.45161e-05,0.00305894,8.46278e-59,-9,-1270,1.90853e-63,-9,-96.9126,-1173.09,1.812
1.4778,1.47636,0.559444,0.171145,0,-1.24468e-05,0.00307124,5.64185e-59,-9,-1270,-6.45974e-64,-9,-96.9126,-1173.09,1.816
1.4778,1.47636,0.559457,0.171145,0,2.0493e-05,0.00308356,3.76123e-59,-9,-1270,7.0904e-64,-9,-96.9126,-1173.09,1.82
1.4778,1.47636,0.559469,0.171145,0,-4.39198e-05,0.0030959,2.50749e-59,-10,-1270,-1.01306e-63,-10,-96.9126,-1173.09,1.824
1.4778,1.47636,0.559481,0.171145,0,-4.88962e-07,0.00310826,1.67166e-59,-9,-1270,-7.51895e-66,-9,-96.9126,-1173.09,1.828
1.4778,1.47636,0.559494,0.171145,0,2.84649e-05,0.00312064,1.11444e-59,-9,-1270,2.91811e-64,-9,-96.9126,-1173.09,1.832
1.4778,1.47636,0.559506,0.171145,0,1.89766e-05,0.00313304,7.4296e-60,-9,-1270,1.29694e-64,-9,-96.9126,-1173.09,1.836
1.4778,1.47636,0.559519,0.171145,0,1.26511e-05,0.00314546,4.95307e-60,-9,-1270,5.76416e-65,-9,-96.9126,-1173.09,1.84
1.4778,1.47636,0.559531,0.171145,0,8.43406e-06,0.0031579,3.30204e-60,-9,-1270,2.56185e-65,-9,-96.9126,-1173.09,1.844
1.4778,1.47636,0.559544,0.171145,0,5.62271e-06,0.00317036,2.20136e-60,-9,-1270,1.1386e-65,-9,-96.9126,-1173.09,1.848
1.4778,1.47636,0.559557,0.171145,0,3.74847e-06,0.00318283,1.46757e-60,-9,-1270,5.06044e-66,-9,-96.9126,-1173.09,1.852
1.4778,1.47636,0.55957,0.171145,0,2.49898e-06,0.00319533,9.78383e-61,-9,-1270,2.24909e-66,-9,-96.9126,-1173.09,1.856
1.4778,1.47636,0.559582,0.171145,0,1.66599e-06,0.00320784,6.52256e-61,-9,-1270,9.99594e-67,-9,-96.9126,-1173.09,1.86
1.4778,1.47636,0.559595,0.171145,0,1.11066e-06,0.00322037,4.34837e-61,-9,-1270,4.44264e-67,-9,-96.9126,-1173.09,1.864
1.4778,1.47636,0.559608,0.171145,0,-2.80505e-05,0.00323292,2.89891e-61,-9,-1270,-7.48014e-66,-9,-96.9126,-1173.09,1.868
1.4778,1.47636,0.559621,0.171145,0,1.00906e-05,0.00324549,1.93261e-61,-9,-1270,1.79389e-66,-9,-96.9126,-1173.09,1.872
1.4778,1.47636,0.559634,0.171145,0,6.72707e-06,0.00325808,1.28841e-61,-9,-1270,7.97283e-67,-9,-96.9126,-1173.09,1.876
1.4778,1.47636,0.559647,0.171145,0,4.48471e-06,0.00327069,8.58937e-62,-9,-1270,3.54348e-67,-9,-96.9126,-1173.09,1.88
1.4778,1.47636,0.55966,0.171145,0,2.98981e-06,0.00328332,5.72625e-62,-9,-1270,1.57488e-67,-9,-96.9126,-1173.09,1.884
1.4778,1.47636,0.559673,0.171145,0,1.99321e-06,0.00329596,3.8175e-62,-9,-1270,6.99947e-68,-9,-96.9126,-1173.09,1.888
1.4778,1.47636,0.559687,0.171145,0,1.3288e-06,0.00330863,2.545e-62,-9,-1270,3.11087e-68,-9,-96.9126,-1173.09,1.892
1.4778,1.47636,0.5597,0.171145,0,8.85869e-07,0.00332131,1.69667e-62,-9,-1271,1.38261e-68,-9,-96.9126,-1174.09,1.896
1.4778,1.47636,0.559713,0.171145,0,5.90579e-07,0.00333401,1.13111e-62,-9,-1271,6.14494e-69,-9,-96.9126,-1174.09,1.9
1.4778,1.47636,0.559727,0.171145,0,3.9372e-07,0.00334673,7.54074e-63,-9,-1271,2.73108e-69,-9,-96.9126,-1174.09,1.904
1.4778,1.47636,0.55974,0.171145,0,2.6248e-07,0.00335947,5.02716e-63,-9,-1271,1.21381e-69,-9,-96.9126,-1174.09,1.908
1.4778,1.47636,0.559753,0.171145,0,-2.86159e-05,0.00337223,3.35144e-63,-9,-1271,-8.82213e-68,-9,-96.9126,-1174.09,1.912
1.4778,1.47636,0.559767,0.171145,0,-1.90773e-05,0.003385,2.23429e-63,-9,-1271,-3.92095e-68,-9,-96.9126,-1174.09,1.916
1.4778,1.47636,0.559781,0.171145,0,1.60727e-05,0.0033978,1.48953e-63,-9,-1271,2.20228e-68,-9,-96.9126,-1174.09,1.92
1.4778,1.47636,0.559794,0.171145,0,-1.80758e-05,0.00341061,9.93019e-64,-9,-1271,-1.65116e-68,-9,-96.9126,-1174.09,1.924
1.4778,1.47636,0.559808,0.171145,0,1.67404e-05,0.00342344,6.62013e-64,-9,-1271,1.01945e-68,-9,-96.9126,-1174.09,1.928
1.4778,1.47636,0.559822,0.171145,0,-1.76307e-05,0.00343629,4.41342e-64,-9,-1271,-7.15777e-69,-9,-96.9126,-1174.09,1.932
1.4778,1.47636,0.559835,0.171145,0,1.70372e-05,0.00344916,2.94228e-64,-9,-1271,4.61121e-69,-9,-96.9126,-1174.09,1.936
1.4778,1.47636,0.559849,0.171145,0,1.13581e-05,0.00346205,1.96152e-64,-9,-1271,2.04943e-69,-9,-96.9126,-1174.09,1.94
1.4778,1.47636,0.559863,0.171145,0,-2.12189e-05,0.00347495,1.30768e-64,-9,-1271,-2.55245e-69,-9,-96.9126,-1174.09,1.944
1.4778,1.47636,0.559877,0.171145,0,-1.41459e-05,0.00348788,8.71786e-65,-9,-1271,-1.13442e-69,-9,-96.9126,-1174.09,1.948
1.4778,1.47636,0.559891,0.171145,0,1.93603e-05,0.00350082,5.81191e-65,-9,-1271,1.03506e-69,-9,-96.9126,-1174.09,1.952
1.4778,1.47636,0.559905,0.171145,0,1.29069e-05,0.00351378,3.87461e-65,-9,-1271,4.60027e-70,-9,-96.9126,-1174.09,1.956
1.4778,1.47636,0.559919,0.171145,0,8.60459e-06,0.00352676,2.58307e-65,-9,-1271,2.04456e-70,-9,-96.9126,-1174.09,1.96
1.4778,1.47636,0.559933,0.171145,0,5.73639e-06,0.00353975,1.72205e-65,-9,-1271,9.08695e-71,-9,-96.9126,-1174.09,1.964
1.4778,1.47636,0.559947,0.171145,0,-2.49667e-05,0.00355277,1.14803e-65,-9,-1271,-2.63662e-70,-9,-96.9126,-1174.09,1.968
1.4778,1.47636,0.559962,0.171145,0,1.21465e-05,0.0035658,7.65354e-66,-9,-1272,8.55159e-71,-9,-96.9126,-1175.09,1.972
1.4778,1.47636,0.559976,0.171145,0,8.09765e-06,0.00357885,5.10236e-66,-9,-1272,3.80071e-71,-9,-96.9126,-1175.09,1.976
1.4778,1.47636,0.55999,0.171145,0,5.39844e-06,0.00359192,3.40157e-66,-9,-1272,1.6892e-71,-9,-96.9126,-1175.09,1.98
1.4778,1.47636,0.560005,0.171145,0,3.59896e-06,0.003605,2.26772e-66,-9,-1272,7.50757e-72,-9,-96.9126,-1175.09,1.984
1.4778,1.47636,0.560019,0.171145,0,-2.63916e-05,0.00361811,1.51181e-66,-9,-1272,-3.67027e-71,-9,-96.9126,-1175.09,1.988
1.4778,1.47636,0.560034,0.171145,0,1.11965e-05,0.00363123,1.00787e-66,-9,-1272,1.03806e-71,-9,-96.9126,-1175.09,1.992
1.4778,1.47636,0.560048,0.171145,0,7.46434e-06,0.00364437,6.71916e-67,-9,-1272,4.61361e-72,-9,-96.9126,-1175.09,1.996
1.4778,1.47636,0.560063,0.171145,0,4.97623e-06,0.00365753,4.47944e-67,-9,-1272,2.05049e-72,-9,-96.9126,-1175.09,2
1.4778,1.47636,0.560077,0.171145,0,3.31748e-06,0.0036707,2.98629e-67,-9,-1272,9.1133e-73,-9,-96.9126,-1175.09,2.004
1.4778,1.47636,0.560092,0.171145,0,2.21166e-06,0.0036839,1.99086e-67,-9,-1272,4.05035e-73,-9,-96.9126,-1175.09,2.008
1.4778,1.47636,0.560107,0.171145,0,-2.73165e-05,0.00369711,1.32724e-67,-9,-1272,-3.3351e-72,-9,-96.9126,-1175.09,2.012
1.4778,1.47636,0.560122,0.171145,0,1.05799e-05,0.00371034,8.84828e-68,-9,-1272,8.61144e-73,-9,-96.9126,-1175.09,2.016
1.4778,1.47636,0.560137,0.171145,0,-2.17376e-05,0.00372359,5.89885e-68,-9,-1272,-1.17954e-72,-9,-96.9126,-1175.09,2.02
1.4778,1.47636,0.560151,0.171145,0,-1.44918e-05,0.00373685,3.93257e-68,-9,-1272,-5.24241e-73,-9,-96.9126,-1175.09,2.024
1.4778,1.47636,0.560166,0.171145,0,-9.66117e-06,0.00375013,2.62171e-68,-9,-1272,-2.32996e-73,-9,-96.9126,-1175.09,2.028
1.4778,1.47636,0.560181,0.171145,0,2.23501e-05,0.00376343,1.74781e-68,-9,-1272,3.59342e-73,-9,-96.9126,-1175.09,2.032
1.4778,1.47636,0.560197,0.171145,0,1.49001e-05,0.00377675,1.16521e-68,-9,-1272,1.59708e-73,-9,-96.9126,-1175.09,2.036
1.4778,1.47636,0.560212,0.171145,0,9.9334e-06,0.00379009,7.76803e-69,-9,-1272,7.09811e-74,-9,-96.9126,-1175.09,2.04
1.4778,1.47636,0.560227,0.171145,0,6.62226e-06,0.00380344,5.17869e-69,-9,-1273,3.15472e-74,-9,-96.9126,-1176.09,2.044
1.4778,1.47636,0.560242,0.171145,0,4.41484e-06,0.00381681,3.45246e-69,-9,-1273,1.4021e-74,-9,-96.9126,-1176.09,2.048
1.4778,1.47636,0.560257,0.171145,0,2.94323e-06,0.0038302,2.30164e-69,-9,-1273,6.23154e-75,-9,-96.9126,-1176.09,2.052
1.4778,1.47636,0.560273,0.171145,0,1.96215e-06,0.0038436,1.53443e-69,-9,-1273,2.76957e-75,-9,-96.9126,-1176.09,2.056
1.4778,1.47636,0.560288,0.171145,0,1.3081e-06,0.00385703,1.02295e-69,-9,-1273,1.23092e-75,-9,-96.9126,-1176.09,2.06
1.4778,1.47636,0.560304,0.171145,0,-2.79189e-05,0.00387047,6.81967e-70,-9,-1273,-1.75144e-74,-9,-96.9126,-1176.09,2.064
1.4778,1.47636,0.560319,0.171145,0,1.01784e-05,0.00388392,4.54645e-70,-9,-1273,4.25681e-75,-9,-96.9126,-1176.09,2.068
1.4778,1.47636,0.560335,0.171145,0,6.78557e-06,0.0038974,3.03097e-70,-9,-1273,1.89191e-75,-9,-96.9126,-1176.09,2.072
1.4778,1.47636,0.56035,0.171145,0,4.52371e-06,0.00391089,2.02064e-70,-9,-1273,8.40851e-76,-9,-96.9126,-1176.09,2.076
1.4778,1.47636,0.560366,0.171145,0,-2.57751e-05,0.0039244,1.3471e-70,-9,-1273,-3.19399e-75,-9,-96.9126,-1176.09,2.08
1.4778,1.47636,0.560382,0.171145,0,-1.71834e-05,0.00393792,8.98064e-71,-9,-1273,-1.41955e-75,-9,-96.9126,-1176.09,2.084
1.4778,1.47636,0.560397,0.171145,0,-1.14556e-05,0.00395147,5.98709e-71,-9,-1273,-6.30911e-76,-9,-96.9126,-1176.09,2.088
1.4778,1.47636,0.560413,0.171145,0,-7.63707e-06,0.00396503,3.9914e-71,-9,-1273,-2.80405e-76,-9,-96.9126,-1176.09,2.092
1.4778,1.47636,0.560429,0.171145,0,2.36995e-05,0.00397861,2.66093e-71,-9,-1273,5.80106e-76,-9,-96.9126,-1176.09,2.096
1.4778,1.47636,0.560445,0.171145,0,1.57997e-05,0.0039922,1.77395e-71,-9,-1273,2.57825e-76,-9,-96.9126,-1176.09,2.1
1.4778,1.47636,0.560461,0.171145,0,1.05331e-05,0.00400581,1.18264e-71,-9,-1273,1.14589e-76,-9,-96.9126,-1176.09,2.104
1.4778,1.47636,0.560477,0.171145,0,-2.17688e-05,0.00401944,7.88424e-72,-9,-1273,-1.57881e-76,-9,-96.9126,-1176.09,2.108
1.4778,1.47636,0.560493,0.171145,0,1.42784e-05,0.00403309,5.25616e-72,-9,-1274,6.90369e-77,-9,-96.9126,-1177.09,2.112
1.4778,1.47636,0.560509,0.171145,0,9.51891e-06,0.00404675,3.50411e-72,-9,-1274,3.0683e-77,-9,-96.9126,-1177.09,2.116
1.4778,1.47636,0.560526,0.171145,0,-2.2445e-05,0.00406043,2.33607e-72,-9,-1274,-4.82324e-77,-9,-96.9126,-1177.09,2.12
1.4778,1.47636,0.560542,0.171145,0,1.38276e-05,0.00407413,1.55738e-72,-9,-1274,1.98096e-77,-9,-96.9126,-1177.09,2.124
1.4778,1.47636,0.560558,0.171145,0,9.2184e-06,0.00408784,1.03825e-72,-9,-1274,8.80426e-78,-9,-96.9126,-1177.09,2.128
1.4778,1.47636,0.560575,0.171145,0,6.1456e-06,0.00410157,6.92169e-73,-9,-1274,3.91301e-78,-9,-96.9126,-1177.09,2.132
1.4778,1.47636,0.560591,0.171145,0,4.09707e-06,0.00411532,4.61446e-73,-9,-1274,1.73911e-78,-9,-96.9126,-1177.09,2.136
1.4778,1.47636,0.560608,0.171145,0,2.73138e-06,0.00412908,3.07631e-73,-9,-1274,7.7294e-79,-9,-96.9126,-1177.09,2.14
1.4778,1.47636,0.560624,0.171145,0,1.82092e-06,0.00414287,2.05087e-73,-9,-1274,3.43529e-79,-9,-96.9126,-1177.09,2.144
1.4778,1.47636,0.560641,0.171145,0,1.21395e-06,0.00415666,1.36725e-73,-9,-1274,1.52679e-79,-9,-96.9126,-1177.09,2.148
1.4778,1.47636,0.560657,0.171145,0,8.09297e-07,0.00417048,9.11498e-74,-9,-1274,6.78575e-80,-9,-96.9126,-1177.09,2.152
1.4778,1.47636,0.560674,0.171145,0,5.39531e-07,0.00418431,6.07666e-74,-9,-1274,3.01589e-80,-9,-96.9126,-1177.09,2.156
1.4778,1.47636,0.560691,0.171145,0,-2.84312e-05,0.00419816,4.0511e-74,-9,-1274,-1.05951e-78,-9,-96.9126,-1177.09,2.16
1.4778,1.47636,0.560708,0.171145,0,9.83677e-06,0.00421202,2.70074e-74,-9,-1274,2.44382e-79,-9,-96.9126,-1177.09,2.164
1.4778,1.47636,0.560724,0.171145,0,6.55784e-06,0.0042259,1.80049e-74,-9,-1274,1.08614e-79,-9,-96.9126,-1177.09,2.168
1.4778,1.47636,0.560741,0.171145,0,4.3719e-06,0.0042398,1.20033e-74,-9,-1274,4.82729e-80,-9,-96.9126,-1177.09,2.172
1.4778,1.47636,0.560758,0.171145,0,2.9146e-06,0.00425371,8.00218e-75,-9,-1274,2.14546e-80,-9,-96.9126,-1177.09,2.176
1.4778,1.47636,0.560775,0.171145,0,-2.68479e-05,0.00426764,5.33479e-75,-9,-1275,-1.31753e-79,-9,-96.9126,-1178.09,2.18
1.4778,1.47636,0.560793,0.171145,0,-1.78986e-05,0.00428159,3.55652e-75,-9,-1275,-5.85569e-80,-9,-96.9126,-1178.09,2.184
1.4778,1.47636,0.56081,0.171145,0,-1.19324e-05,0.00429555,2.37102e-75,-9,-1275,-2.60253e-80,-9,-96.9126,-1178.09,2.188
1.4778,1.47636,0.560827,0.171145,0,2.0836e-05,0.00430953,1.58068e-75,-9,-1275,3.02965e-80,-9,-96.9126,-1178.09,2.192
1.4778,1.47636,0.560844,0.171145,0,-1.49003e-05,0.00432353,1.05378e-75,-9,-1275,-1.44437e-80,-9,-96.9126,-1178.09,2.196
1.4778,1.47636,0.560862,0.171145,0,-9.9335e-06,0.00433754,7.02523e-76,-9,-1275,-6.41944e-81,-9,-96.9126,-1178.09,2.2
1.4778,1.47636,0.560879,0.171145,0,-6.62234e-06,0.00435157,4.68349e-76,-9,-1275,-2.85309e-81,-9,-96.9126,-1178.09,2.204
1.4778,1.47636,0.560896,0.171145,0,2.4376e-05,0.00436561,3.12233e-76,-9,-1275,7.00125e-81,-9,-96.9126,-1178.09,2.208
1.4778,1.47636,0.560914,0.171145,0,-1.25402e-05,0.00437967,2.08155e-76,-9,-1275,-2.40119e-81,-9,-96.9126,-1178.09,2.212
1.4778,1.47636,0.560931,0.171145,0,2.04308e-05,0.00439375,1.3877e-76,-9,-1275,2.60804e-81,-9,-96.9126,-1178.09,2.216
1.4778,1.47636,0.560949,0.171145,0,1.36205e-05,0.00440784,9.25134e-77,-9,-1275,1.15913e-81,-9,-96.9126,-1178.09,2.22
1.4778,1.47636,0.560967,0.171145,0,-1.97106e-05,0.00442195,6.16756e-77,-9,-1275,-1.11827e-81,-9,-96.9126,-1178.09,2.224
1.4778,1.47636,0.560984,0.171145,0,-1.31404e-05,0.00443608,4.1117e-77,-9,-1275,-4.97009e-82,-9,-96.9126,-1178.09,2.228
1.4778,1.47636,0.561002,0.171145,0,2.00307e-05,0.00445022,2.74114e-77,-9,-1275,5.0508e-82,-9,-96.9126,-1178.09,2.232
1.4778,1.47636,0.56102,0.171145,0,1.33538e-05,0.00446438,1.82742e-77,-9,-1275,2.2448e-82,-9,-96.9126,-1178.09,2.236
1.4778,1.47636,0.561038,0.171145,0,-1.98884e-05,0.00447855,1.21828e-77,-9,-1276,-2.22886e-82,-9,-96.9126,-1179.09,2.24
1.4778,1.47636,0.561056,0.171145,0,1.5532e-05,0.00449274,8.12189e-78,-9,-1276,1.16043e-82,-9,-96.9126,-1179.09,2.244
1.4778,1.47636,0.561074,0.171145,0,-1.84363e-05,0.00450695,5.41459e-78,-9,-1276,-9.18275e-83,-9,-96.9126,-1179.09,2.248
1.4778,1.47636,0.561092,0.171145,0,-1.22908e-05,0.00452117,3.60973e-78,-9,-1276,-4.08122e-83,-9,-96.9126,-1179.09,2.252
1.4778,1.47636,0.56111,0.171145,0,2.0597e-05,0.00453541,2.40648e-78,-9,-1276,4.55955e-83,-9,-96.9126,-1179.09,2.256
1.4778,1.47636,0.561128,0.171145,0,-1.50596e-05,0.00454966,1.60432e-78,-9,-1276,-2.22248e-83,-9,-96.9126,-1179.09,2.26
1.4778,1.47636,0.561146,0.171145,0,1.87512e-05,0.00456393,1.06955e-78,-9,-1276,1.84486e-83,-9,-96.9126,-1179.09,2.264
1.4778,1.47636,0.561165,0.171145,0,1.25008e-05,0.00457821,7.13033e-79,-9,-1276,8.19939e-84,-9,-96.9126,-1179.09,2.268
1.4778,1.47636,0.561183,0.171145,0,8.33387e-06,0.00459251,4.75355e-79,-9,-1276,3.64417e-84,-9,-96.9126,-1179.09,2.272
1.4778,1.47636,0.561201,0.171145,0,5.55591e-06,0.00460683,3.16903e-79,-9,-1276,1.61963e-84,-9,-96.9126,-1179.09,2.276
1.4778,1.47636,0.56122,0.171145,0,-2.5087e-05,0.00462116,2.11269e-79,-9,-1276,-4.87549e-84,-9,-96.9126,-1179.09,2.28
1.4778,1.47636,0.561238,0.171145,0,-1.67247e-05,0.00463551,1.40846e-79,-9,-1276,-2.16688e-84,-9,-96.9126,-1179.09,2.284
1.4778,1.47636,0.561257,0.171145,0,1.76412e-05,0.00464987,9.38973e-80,-9,-1276,1.52375e-84,-9,-96.9126,-1179.09,2.288
1.4778,1.47636,0.561276,0.171145,0,1.17608e-05,0.00466425,6.25982e-80,-9,-1276,6.77223e-85,-9,-96.9126,-1179.09,2.292
1.4778,1.47636,0.561294,0.171145,0,7.84051e-06,0.00467865,4.17321e-80,-9,-1276,3.00988e-85,-9,-96.9126,-1179.09,2.296
1.4778,1.47636,0.561313,0.171145,0,-2.35639e-05,0.00469306,2.78214e-80,-9,-1277,-6.0306e-85,-9,-96.9126,-1180.09,2.3
1.4778,1.47636,0.561332,0.171145,0,1.30816e-05,0.00470748,1.85476e-80,-9,-1277,2.23195e-85,-9,-96.9126,-1180.09,2.304
1.4778,1.47636,0.561351,0.171145,0,8.7211e-06,0.00472192,1.23651e-80,-9,-1277,9.91978e-86,-9,-96.9126,-1180.09,2.308
1.4778,1.47636,0.56137,0.171145,0,5.81407e-06,0.00473638,8.24338e-81,-9,-1277,4.40879e-86,-9,-96.9126,-1180.09,2.312
1.4778,1.47636,0.561389,0.171145,0,3.87604e-06,0.00475085,5.49559e-81,-9,-1277,1.95946e-86,-9,-96.9126,-1180.09,2.316
1.4778,1.47636,0.561408,0.171145,0,2.58403e-06,0.00476534,3.66373e-81,-9,-1277,8.70872e-87,-9,-96.9126,-1180.09,2.32
1.4778,1.47636,0.561427,0.171145,0,-2.70682e-05,0.00477984,2.44248e-81,-9,-1277,-6.08171e-86,-9,-96.9126,-1180.09,2.324
1.4778,1.47636,0.561446,0.171145,0,-1.80455e-05,0.00479436,1.62832e-81,-9,-1277,-2.70298e-86,-9,-96.9126,-1180.09,2.328
1.4778,1.47636,0.561465,0.171145,0,1.67606e-05,0.00480889,1.08555e-81,-9,-1277,1.67368e-86,-9,-96.9126,-1180.09,2.332
1.4778,1.47636,0.561484,0.171145,0,1.11737e-05,0.00482344,7.23699e-82,-9,-1277,7.43858e-87,-9,-96.9126,-1180.09,2.336
1.4778,1.47636,0.561504,0.171145,0,7.44915e-06,0.00483801,4.82466e-82,-9,-1277,3.30604e-87,-9,-96.9126,-1180.09,2.34
1.4778,1.47636,0.561523,0.171145,0,4.9661e-06,0.00485259,3.21644e-82,-9,-1277,1.46935e-87,-9,-96.9126,-1180.09,2.344
1.4778,1.47636,0.561542,0.171145,0,3.31074e-06,0.00486718,2.14429e-82,-9,-1277,6.53044e-88,-9,-96.9126,-1180.09,2.348
1.4778,1.47636,0.561562,0.171145,0,2.20716e-06,0.00488179,1.42953e-82,-9,-1277,2.90242e-88,-9,-96.9126,-1180.09,2.352
1.4778,1.47636,0.561581,0.171145,0,1.47144e-06,0.00489641,9.53019e-83,-9,-1278,1.28996e-88,-9,-96.9126,-1181.09,2.356
1.4778,1.47636,0.561601,0.171145,0,9.80959e-07,0.00491105,6.35346e-83,-9,-1278,5.73317e-89,-9,-96.9126,-1181.09,2.36
1.4778,1.47636,0.561621,0.171145,0,6.53972e-07,0.00492571,4.23564e-83,-9,-1278,2.54808e-89,-9,-96.9126,-1181.09,2.364
1.4778,1.47636,0.56164,0.171145,0,-2.83549e-05,0.00494038,2.82376e-83,-9,-1278,-7.3653e-88,-9,-96.9126,-1181.09,2.368
1.4778,1.47636,0.56166,0.171145,0,9.88763e-06,0.00495506,1.88251e-83,-9,-1278,1.71223e-88,-9,-96.9126,-1181.09,2.372
1.4778,1.47636,0.56168,0.171145,0,6.59175e-06,0.00496976,1.255e-83,-9,-1278,7.60992e-89,-9,-96.9126,-1181.09,2.376
1.4778,1.47636,0.5617,0.171145,0,4.3945e-06,0.00498448,8.3667e-84,-9,-1278,3.38219e-89,-9,-96.9126,-1181.09,2.38
1.4778,1.47636,0.56172,0.171145,0,-2.58613e-05,0.00499921,5.5778e-84,-9,-1278,-1.32693e-88,-9,-96.9126,-1181.09,2.384
1.4778,1.47636,0.56174,0.171145,0,1.15501e-05,0.00501395,3.71853e-84,-9,-1278,3.95085e-89,-9,-96.9126,-1181.09,2.388
1.4778,1.47636,0.56176,0.171145,0,7.70006e-06,0.00502871,2.47902e-84,-9,-1278,1.75593e-89,-9,-96.9126,-1181.09,2.392
1.4778,1.47636,0.56178,0.171145,0,5.13337e-06,0.00504349,1.65268e-84,-9,-1278,7.80415e-90,-9,-96.9126,-1181.09,2.396
1.4778,1.47636,0.5618,0.171145,0,-2.53687e-05,0.00505827,1.10179e-84,-9,-1278,-2.57116e-89,-9,-96.9126,-1181.09,2.4
1.4778,1.47636,0.561821,0.171145,0,1.18785e-05,0.00507308,7.34525e-85,-9,-1278,8.02604e-90,-9,-96.9126,-1181.09,2.404
1.4778,1.47636,0.561841,0.171145,0,7.91898e-06,0.0050879,4.89683e-85,-9,-1278,3.56713e-90,-9,-96.9126,-1181.09,2.408
1.4778,1.47636,0.561861,0.171145,0,5.27932e-06,0.00510273,3.26456e-85,-9,-1279,1.58539e-90,-9,-96.9126,-1182.09,2.412
1.4778,1.47636,0.561882,0.171145,0,3.51955e-06,0.00511758,2.17637e-85,-9,-1279,7.04618e-91,-9,-96.9126,-1182.09,2.416
1.4778,1.47636,0.561902,0.171145,0,2.34637e-06,0.00513244,1.45091e-85,-9,-1279,3.13164e-91,-9,-96.9126,-1182.09,2.42
1.4778,1.47636,0.561923,0.171145,0,-2.72267e-05,0.00514732,9.67276e-86,-9,-1279,-2.42258e-90,-9,-96.9126,-1182.09,2.424
1.4778,1.47636,0.561944,0.171145,0,1.06398e-05,0.00516221,6.4485e-86,-9,-1279,6.31141e-91,-9,-96.9126,-1182.09,2.428
1.4778,1.47636,0.561964,0.171145,0,7.0932e-06,0.00517711,4.299e-86,-9,-1279,2.80507e-91,-9,-96.9126,-1182.09,2.432
1.4778,1.47636,0.561985,0.171145,0,3.35197e-05,0.00519204,2.866e-86,-9,-1279,8.83712e-91,-9,-96.9126,-1182.09,2.436
1.4778,1.47636,0.562006,0.171145,0,-6.44444e-06,0.00520697,1.91067e-86,-9,-1279,-1.13267e-91,-9,-96.9126,-1182.09,2.44
1.4778,1.47636,0.562027,0.171145,0,-4.29629e-06,0.00522192,1.27378e-86,-9,-1279,-5.0341e-92,-9,-96.9126,-1182.09,2.444
1.4778,1.47636,0.562048,0.171145,0,-2.8642e-06,0.00523688,8.49186e-87,-9,-1279,-2.23738e-92,-9,-96.9126,-1182.09,2.448
1.4778,1.47636,0.562068,0.171145,0,-1.90946e-06,0.00525186,5.66124e-87,-9,-1279,-9.9439e-93,-9,-96.9126,-1182.09,2.452
1.4778,1.47636,0.56209,0.171145,0,-1.27298e-06,0.00526686,3.77416e-87,-9,-1279,-4.41951e-93,-9,-96.9126,-1182.09,2.456
1.4778,1.47636,0.562111,0.171145,0,-8.48651e-07,0.00528186,2.51611e-87,-9,-1279,-1.96423e-93,-9,-96.9126,-1182.09,2.46
1.4778,1.47636,0.562132,0.171145,0,-5.65767e-07,0.00529688,1.6774e-87,-9,-1279,-8.7299e-94,-9,-96.9126,-1182.09,2.464
1.4778,1.47636,0.562153,0.171145,0,-3.77178e-07,0.00531192,1.11827e-87,-9,-1280,-3.87996e-94,-9,-96.9126,-1183.09,2.468
1.4778,1.47636,0.562174,0.171145,0,-2.51452e-07,0.00532697,7.45513e-88,-9,-1280,-1.72443e-94,-9,-96.9126,-1183.09,2.472
1.4778,1.47636,0.562196,0.171145,0,-1.67635e-07,0.00534203,4.97009e-88,-9,-1280,-7.66411e-95,-9,-96.9126,-1183.09,2.476
1.4778,1.47636,0.562217,0.171145,0,-1.11756e-07,0.00535711,3.31339e-88,-9,-1280,-3.40627e-95,-9,-96.9126,-1183.09,2.48
1.4778,1.47636,0.562238,0.171145,0,-7.45043e-08,0.0053722,2.20893e-88,-9,-1280,-1.5139e-95,-9,-96.9126,-1183.09,2.484
1.4778,1.47636,0.56226,0.171145,0,-4.96695e-08,0.00538731,1.47262e-88,-9,-1280,-6.72844e-96,-9,-96.9126,-1183.09,2.488
1.4778,1.47636,0.562282,0.171145,0,-3.3113e-08,0.00540243,9.81745e-89,-9,-1280,-2.99042e-96,-9,-96.9126,-1183.09,2.492
1.4778,1.47636,0.562303,0.171145,0,-2.20753e-08,0.00541757,6.54497e-89,-9,-1280,-1.32907e-96,-9,-96.9126,-1183.09,2.496
1.4778,1.47636,0.562325,0.171145,0,-1.47169e-08,0.00543272,4.36331e-89,-9,-1280,-5.907e-97,-9,-96.9126,-1183.09,2.5
1.4778,1.47636,0.562347,0.171145,0,-2.88007e-05,0.00544788,2.90887e-89,-9,-1280,-7.7066e-94,-9,-96.9126,-1183.09,2.504
1.4778,1.47636,0.562368,0.171145,0,9.59043e-06,0.00546306,1.93925e-89,-9,-1280,1.71083e-94,-9,-96.9126,-1183.09,2.508
1.4778,1.47636,0.56239,0.171145,0,6.39362e-06,0.00547825,1.29283e-89,-9,-1280,7.60368e-95,-9,-96.9126,-1183.09,2.512
1.4778,1.47636,0.562412,0.171145,0,4.26242e-06,0.00549345,8.61889e-90,-9,-1280,3.37941e-95,-9,-96.9126,-1183.09,2.516
1.4778,1.47636,0.562434,0.171145,0,2.84161e-06,0.00550867,5.74593e-90,-9,-1281,1.50196e-95,-9,-96.9126,-1184.09,2.52
1.4778,1.47636,0.562456,0.171145,0,1.89441e-06,0.0055239,3.83062e-90,-9,-1281,6.67538e-96,-9,-96.9126,-1184.09,2.524
1.4778,1.47636,0.562479,0.171145,0,-2.7528e-05,0.00553915,2.55374e-90,-9,-1281,-6.46675e-95,-9,-96.9126,-1184.09,2.528
1.4778,1.47636,0.562501,0.171145,0,1.04389e-05,0.00555441,1.7025e-90,-9,-1281,1.63484e-95,-9,-96.9126,-1184.09,2.532
1.4778,1.47636,0.562523,0.171145,0,6.95929e-06,0.00556968,1.135e-90,-9,-1281,7.26598e-96,-9,-96.9126,-1184.09,2.536
1.4778,1.47636,0.562545,0.171145,0,4.63953e-06,0.00558497,7.56665e-91,-9,-1281,3.22932e-96,-9,-96.9126,-1184.09,2.54
1.4778,1.47636,0.562568,0.171145,0,-2.56979e-05,0.00560027,5.04443e-91,-9,-1281,-1.19246e-95,-9,-96.9126,-1184.09,2.544
1.4778,1.47636,0.56259,0.171145,0,1.1659e-05,0.00561559,3.36296e-91,-9,-1281,3.60675e-96,-9,-96.9126,-1184.09,2.548
1.4778,1.47636,0.562613,0.171145,0,7.77266e-06,0.00563091,2.24197e-91,-9,-1281,1.603e-96,-9,-96.9126,-1184.09,2.552
1.4778,1.47636,0.562635,0.171145,0,5.18177e-06,0.00564626,1.49465e-91,-9,-1281,7.12444e-97,-9,-96.9126,-1184.09,2.556
1.4778,1.47636,0.562658,0.171145,0,-2.53364e-05,0.00566161,9.96431e-92,-9,-1281,-2.32234e-96,-9,-96.9126,-1184.09,2.56
1.4778,1.47636,0.56268,0.171145,0,1.19e-05,0.00567698,6.64288e-92,-9,-1281,7.27171e-97,-9,-96.9126,-1184.09,2.564
1.4778,1.47636,0.562703,0.171145,0,7.93332e-06,0.00569237,4.42858e-92,-9,-1282,3.23187e-97,-9,-96.9126,-1185.09,2.568
1.4778,1.47636,0.562726,0.171145,0,5.28888e-06,0.00570776,2.95239e-92,-9,-1282,1.43639e-97,-9,-96.9126,-1185.09,2.572
1.4778,1.47636,0.562749,0.171145,0,-2.5265e-05,0.00572317,1.96826e-92,-9,-1282,-4.57442e-97,-9,-96.9126,-1185.09,2.576
1.4778,1.47636,0.562772,0.171145,0,1.19476e-05,0.0057386,1.31217e-92,-9,-1282,1.44213e-97,-9,-96.9126,-1185.09,2.58
1.4778,1.47636,0.562795,0.171145,0,7.96506e-06,0.00575403,8.74782e-93,-9,-1282,6.40948e-98,-9,-96.9126,-1185.09,2.584
1.4778,1.47636,0.562818,0.171145,0,5.31004e-06,0.00576948,5.83188e-93,-9,-1282,2.84866e-98,-9,-96.9126,-1185.09,2.588
1.4778,1.47636,0.562841,0.171145,0,3.54003e-06,0.00578495,3.88792e-93,-9,-1282,1.26607e-98,-9,-96.9126,-1185.09,2.592
1.4778,1.47636,0.562864,0.171145,0,2.36002e-06,0.00580042,2.59195e-93,-9,-1282,5.62698e-99,-9,-96.9126,-1185.09,2.596
1.4778,1.47636,0.562887,0.171145,0,1.57335e-06,0.00581591,1.72796e-93,-9,-1282,2.50088e-99,-9,-96.9126,-1185.09,2.6
1.4778,1.47636,0.562911,0.171145,0,-2.7742e-05,0.00583142,1.15198e-93,-9,-1282,-2.93979e-98,-9,-96.9126,-1185.09,2.604
1.4778,1.47636,0.562934,0.171145,0,1.02962e-05,0.00584693,7.67984e-94,-9,-1282,7.27386e-99,-9,-96.9126,-1185.09,2.608
1.4778,1.47636,0.562957,0.171145,0,6.86416e-06,0.00586246,5.11989e-94,-9,-1282,3.23283e-99,-9,-96.9126,-1185.09,2.612
1.4778,1.47636,0.562981,0.171145,0,4.57611e-06,0.00587801,3.41326e-94,-9,-1283,1.43681e-99,-9,-96.9126,-1186.09,2.616
1.4778,1.47636,0.563004,0.171145,0,3.05074e-06,0.00589356,2.27551e-94,-9,-1283,6.38583e-100,-9,-96.9126,-1186.09,2.62
1.4778,1.47636,0.563028,0.171145,0,2.03383e-06,0.00590913,1.51701e-94,-9,-1283,2.83815e-100,-9,-96.9126,-1186.09,2.624
1.4778,1.47636,0.563052,0.171145,0,1.35588e-06,0.00592471,1.01134e-94,-9,-1283,1.2614e-100,-9,-96.9126,-1186.09,2.628
1.4778,1.47636,0.563075,0.171145,0,9.03922e-07,0.00594031,6.74225e-95,-9,-1283,5.60622e-101,-9,-96.9126,-1186.09,2.632
1.4778,1.47636,0.563099,0.171145,0,6.02615e-07,0.00595592,4.49483e-95,-9,-1283,2.49165e-101,-9,-96.9126,-1186.09,2.636
1.4778,1.47636,0.563123,0.171145,0,4.01743e-07,0.00597154,2.99655e-95,-9,-1283,1.1074e-101,-9,-96.9126,-1186.09,2.64
1.4778,1.47636,0.563147,0.171145,0,-5.7314e-05,0.00598717,1.9977e-95,-10,-1283,-1.05324e-99,-10,-96.9126,-1186.09,2.644
1.4778,1.47636,0.563171,0.171145,0,-9.41842e-06,0.00600282,1.3318e-95,-9,-1283,-1.15386e-100,-9,-96.9126,-1186.09,2.648
1.4778,1.47636,0.563195,0.171145,0,-6.27895e-06,0.00601848,8.87868e-96,-9,-1283,-5.12825e-101,-9,-96.9126,-1186.09,2.652
1.4778,1.47636,0.563219,0.171145,0,2.4605e-05,0.00603415,5.91912e-96,-9,-1283,1.33972e-100,-9,-96.9126,-1186.09,2.656
1.4778,1.47636,0.563243,0.171145,0,-1.23876e-05,0.00604984,3.94608e-96,-9,-1283,-4.49664e-101,-9,-96.9126,-1186.09,2.66
1.4778,1.47636,0.563267,0.171145,0,2.05325e-05,0.00606554,2.63072e-96,-9,-1284,4.96879e-101,-9,-96.9126,-1187.09,2.664
1.4778,1.47636,0.563292,0.171145,0,1.36883e-05,0.00608125,1.75381e-96,-9,-1284,2.20835e-101,-9,-96.9126,-1187.09,2.668
1.4778,1.47636,0.563316,0.171145,0,9.12556e-06,0.00609698,1.16921e-96,-9,-1284,9.8149e-102,-9,-96.9126,-1187.09,2.672
1.4778,1.47636,0.563341,0.171145,0,6.08371e-06,0.00611271,7.79473e-97,-9,-1284,4.36218e-102,-9,-96.9126,-1187.09,2.676
1.4778,1.47636,0.563365,0.171145,0,-2.47351e-05,0.00612846,5.19648e-97,-9,-1284,-1.18238e-101,-9,-96.9126,-1187.09,2.68
1.4778,1.47636,0.56339,0.171145,0,-1.64901e-05,0.00614423,3.46432e-97,-9,-1284,-5.25503e-102,-9,-96.9126,-1187.09,2.684
1.4778,1.47636,0.563414,0.171145,0,1.77975e-05,0.00616,2.30955e-97,-9,-1284,3.78113e-102,-9,-96.9126,-1187.09,2.688
1.4778,1.47636,0.563439,0.171145,0,1.1865e-05,0.00617579,1.5397e-97,-9,-1284,1.6805e-102,-9,-96.9126,-1187.09,2.692
1.4778,1.47636,0.563464,0.171145,0,7.91002e-06,0.00619159,1.02647e-97,-9,-1284,7.46889e-103,-9,-96.9126,-1187.09,2.696
1.4778,1.47636,0.563488,0.171145,0,5.27334e-06,0.0062074,6.84311e-98,-9,-1284,3.31951e-103,-9,-96.9126,-1187.09,2.7
1.4778,1.47636,0.563513,0.171145,0,3.51556e-06,0.00622323,4.56207e-98,-9,-1284,1.47534e-103,-9,-96.9126,-1187.09,2.704
1.4778,1.47636,0.563538,0.171145,0,2.34371e-06,0.00623907,3.04138e-98,-9,-1285,6.55705e-104,-9,-96.9126,-1188.09,2.708
1.4778,1.47636,0.563563,0.171145,0,1.56247e-06,0.00625492,2.02759e-98,-9,-1285,2.91424e-104,-9,-96.9126,-1188.09,2.712
1.4778,1.47636,0.563588,0.171145,0,1.04165e-06,0.00627078,1.35172e-98,-9,-1285,1.29522e-104,-9,-96.9126,-1188.09,2.716
1.4778,1.47636,0.563613,0.171145,0,6.94432e-07,0.00628665,9.0115e-99,-9,-1285,5.75653e-105,-9,-96.9126,-1188.09,2.72
1.4778,1.47636,0.563638,0.171145,0,-2.8328e-05,0.00630254,6.00767e-99,-9,-1285,-1.56551e-103,-9,-96.9126,-1188.09,2.724
1.4778,1.47636,0.563664,0.171145,0,-1.88853e-05,0.00631844,4.00511e-99,-9,-1285,-6.95781e-104,-9,-96.9126,-1188.09,2.728
1.4778,1.47636,0.563689,0.171145,0,1.62007e-05,0.00633436,2.67007e-99,-9,-1285,3.97916e-104,-9,-96.9126,-1188.09,2.732
1.4778,1.47636,0.563714,0.171145,0,1.08005e-05,0.00635028,1.78005e-99,-9,-1285,1.76852e-104,-9,-96.9126,-1188.09,2.736
1.4778,1.47636,0.56374,0.171145,0,3.59912e-05,0.00636622,1.1867e-99,-9,-1285,3.92891e-104,-9,-96.9126,-1188.09,2.74
1.4778,1.47636,0.563765,0.171145,0,-4.79676e-06,0.00638217,7.91133e-100,-9,-1285,-3.49086e-105,-9,-96.9126,-1188.09,2.744
1.4778,1.47636,0.563791,0.171145,0,-3.19784e-06,0.00639813,5.27422e-100,-9,-1285,-1.55149e-105,-9,-96.9126,-1188.09,2.748
1.4778,1.47636,0.563817,0.171145,0,-3.09228e-05,0.0064141,3.51615e-100,-9,-1285,-1.00018e-104,-9,-96.9126,-1188.09,2.752
1.4778,1.47636,0.563842,0.171145,0,8.17571e-06,0.00643009,2.3441e-100,-9,-1286,1.76293e-105,-9,-96.9126,-1189.09,2.756
1.4778,1.47636,0.563868,0.171145,0,-5.21314e-05,0.00644609,1.56273e-100,-10,-1286,-7.49407e-105,-10,-96.9126,-1189.09,2.76
1.4778,1.47636,0.563894,0.171145,0,2.28276e-05,0.0064621,1.04182e-100,-9,-1286,2.1877e-105,-9,-96.9126,-1189.09,2.764
1.4778,1.47636,0.56392,0.171145,0,1.52184e-05,0.00647812,6.94547e-101,-9,-1286,9.72311e-106,-9,-96.9126,-1189.09,2.768
1.4778,1.47636,0.563946,0.171145,0,-4.74362e-05,0.00649415,4.63032e-101,-10,-1286,-2.02048e-105,-10,-96.9126,-1189.09,2.772
1.4778,1.47636,0.563972,0.171145,0,2.59577e-05,0.0065102,3.08688e-101,-9,-1286,7.37088e-106,-9,-96.9126,-1189.09,2.776
1.4778,1.47636,0.563998,0.171145,0,4.6096e-05,0.00652626,2.05792e-101,-9,-1286,8.72622e-106,-9,-96.9126,-1189.09,2.78
1.4778,1.47636,0.564024,0.171145,0,1.93977e-06,0.00654233,1.37195e-101,-9,-1286,2.44806e-107,-9,-96.9126,-1189.09,2.784
1.4778,1.47636,0.56405,0.171145,0,3.00841e-05,0.00655841,9.1463e-102,-9,-1286,2.53114e-106,-9,-96.9126,-1189.09,2.788
1.4778,1.47636,0.564076,0.171145,0,2.00561e-05,0.0065745,6.09754e-102,-9,-1286,1.12495e-106,-9,-96.9126,-1189.09,2.792
1.4778,1.47636,0.564103,0.171145,0,-1.54202e-05,0.00659061,4.06502e-102,-9,-1286,-5.76617e-107,-9,-96.9126,-1189.09,2.796
1.4778,1.47636,0.564129,0.171145,0,-6.7862e-05,0.00660673,2.71002e-102,-10,-1287,-1.69174e-106,-10,-96.9126,-1190.09,2.8
1.4778,1.47636,0.564155,0.171145,0,1.23405e-05,0.00662285,1.80668e-102,-9,-1287,2.05092e-107,-9,-96.9126,-1190.09,2.804
1.4778,1.47636,0.564182,0.171145,0,8.22702e-06,0.006639,1.20445e-102,-9,-1287,9.11519e-108,-9,-96.9126,-1190.09,2.808
1.4778,1.47636,0.564209,0.171145,0,-5.20972e-05,0.00665515,8.02968e-103,-10,-1287,-3.8481e-107,-10,-96.9126,-1190.09,2.812
1.4778,1.47636,0.564235,0.171145,0,2.28504e-05,0.00667131,5.35312e-103,-9,-1287,1.12521e-107,-9,-96.9126,-1190.09,2.816
1.4778,1.47636,0.564262,0.171145,0,1.52336e-05,0.00668749,3.56875e-103,-9,-1287,5.00095e-108,-9,-96.9126,-1190.09,2.82
1.4778,1.47636,0.564289,0.171145,0,1.01557e-05,0.00670368,2.37916e-103,-9,-1287,2.22264e-108,-9,-96.9126,-1190.09,2.824
1.4778,1.47636,0.564316,0.171145,0,6.77049e-06,0.00671988,1.58611e-103,-9,-1287,9.87841e-109,-9,-96.9126,-1190.09,2.828
1.4778,1.47636,0.564342,0.171145,0,4.51366e-06,0.00673609,1.05741e-103,-9,-1287,4.39041e-109,-9,-96.9126,-1190.09,2.832
1.4778,1.47636,0.564369,0.171145,0,-5.45727e-05,0.00675231,7.04937e-104,-10,-1287,-3.53884e-108,-10,-96.9126,-1190.09,2.836
1.4778,1.47636,0.564397,0.171145,0,-7.5909e-06,0.00676855,4.69958e-104,-9,-1288,-3.28161e-109,-9,-96.9126,-1191.09,2.84
1.4778,1.47636,0.564424,0.171145,0,5.25212e-05,0.00678479,3.13306e-104,-9,-1288,1.51369e-108,-9,-96.9126,-1191.09,2.844
1.4778,1.47636,0.564451,0.171145,0,6.22324e-06,0.00680105,2.0887e-104,-9,-1288,1.19571e-109,-9,-96.9126,-1191.09,2.848
1.4778,1.47636,0.564478,0.171145,0,3.29398e-05,0.00681732,1.39247e-104,-9,-1288,4.2193e-109,-9,-96.9126,-1191.09,2.852
1.4778,1.47636,0.564505,0.171145,0,2.19598e-05,0.0068336,9.28313e-105,-9,-1288,1.87524e-109,-9,-96.9126,-1191.09,2.856
1.4778,1.47636,0.564533,0.171145,0,-4.2942e-05,0.00684989,6.18875e-105,-10,-1288,-2.44466e-109,-10,-96.9126,-1191.09,2.86
1.4778,1.47636,0.56456,0.171145,0,2.89539e-05,0.00686619,4.12583e-105,-9,-1288,1.09889e-109,-9,-96.9126,-1191.09,2.864
1.4778,1.47636,0.564588,0.171145,0,-6.70702e-05,0.00688251,2.75056e-105,-10,-1288,-1.69701e-109,-10,-96.9126,-1191.09,2.868
1.4778,1.47636,0.564615,0.171145,0,1.28684e-05,0.00689883,1.8337e-105,-9,-1288,2.17064e-110,-9,-96.9126,-1191.09,2.872
1.4778,1.47636,0.564643,0.171145,0,8.57893e-06,0.00691517,1.22247e-105,-9,-1288,9.64728e-111,-9,-96.9126,-1191.09,2.876
1.4778,1.47636,0.564671,0.171145,0,-5.18626e-05,0.00693152,8.1498e-106,-10,-1288,-3.88808e-110,-10,-96.9126,-1191.09,2.88
1.4778,1.47636,0.564698,0.171145,0,2.30068e-05,0.00694788,5.4332e-106,-9,-1289,1.14986e-110,-9,-96.9126,-1192.09,2.884
1.4778,1.47636,0.564726,0.171145,0,1.53379e-05,0.00696425,3.62213e-106,-9,-1289,5.1105e-111,-9,-96.9126,-1192.09,2.888
1.4778,1.47636,0.564754,0.171145,0,3.90162e-05,0.00698063,2.41475e-106,-9,-1289,8.66666e-111,-9,-96.9126,-1192.09,2.892
1.4778,1.47636,0.564782,0.171145,0,-2.78014e-06,0.00699703,1.60984e-106,-9,-1289,-4.11702e-112,-9,-96.9126,-1192.09,2.896
1.4778,1.47636,0.56481,0.171145,0,-5.94353e-05,0.00701343,1.07322e-106,-10,-1289,-5.86771e-111,-10,-96.9126,-1192.09,2.9
1.4778,1.47636,0.564838,0.171145,0,1.79583e-05,0.00702985,7.15483e-107,-9,-1289,1.18195e-111,-9,-96.9126,-1192.09,2.904
1.4778,1.47636,0.564866,0.171145,0,1.19722e-05,0.00704627,4.76988e-107,-9,-1289,5.25311e-112,-9,-96.9126,-1192.09,2.908
1.4778,1.47636,0.564894,0.171145,0,3.67724e-05,0.00706271,3.17992e-107,-9,-1289,1.07565e-111,-9,-96.9126,-1192.09,2.912
1.4778,1.47636,0.564923,0.171145,0,-4.27599e-06,0.00707916,2.11995e-107,-9,-1289,-8.33865e-113,-9,-96.9126,-1192.09,2.916
1.4778,1.47636,0.564951,0.171145,0,-6.04325e-05,0.00709562,1.4133e-107,-10,-1289,-7.85668e-112,-10,-96.9126,-1192.09,2.92
1.4778,1.47636,0.564979,0.171145,0,4.60844e-05,0.00711209,9.42199e-108,-9,-1290,3.99421e-112,-9,-96.9126,-1193.09,2.924
1.4778,1.47636,0.565008,0.171145,0,-2.68589e-05,0.00712857,6.28133e-108,-9,-1290,-1.55194e-112,-9,-96.9126,-1193.09,2.928
1.4778,1.47636,0.565036,0.171145,0,-4.66969e-05,0.00714506,4.18755e-108,-10,-1290,-1.7988e-112,-10,-96.9126,-1193.09,2.932
1.4778,1.47636,0.565065,0.171145,0,2.64506e-05,0.00716156,2.7917e-108,-9,-1290,6.79264e-113,-9,-96.9126,-1193.09,2.936
1.4778,1.47636,0.565094,0.171145,0,1.76337e-05,0.00717808,1.86113e-108,-9,-1290,3.01895e-113,-9,-96.9126,-1193.09,2.94
1.4778,1.47636,0.565123,0.171145,0,-4.5826e-05,0.0071946,1.24076e-108,-10,-1290,-5.23037e-113,-10,-96.9126,-1193.09,2.944
1.4778,1.47636,0.565151,0.171145,0,-3.05507e-05,0.00721114,8.27171e-109,-9,-1290,-2.32461e-113,-9,-96.9126,-1193.09,2.948
1.4778,1.47636,0.56518,0.171145,0,6.60057e-05,0.00722768,5.51447e-109,-9,-1290,3.34826e-113,-9,-96.9126,-1193.09,2.952
1.4778,1.47636,0.565209,0.171145,0,-4.2369e-05,0.00724424,3.67632e-109,-10,-1290,-1.43283e-113,-10,-96.9126,-1193.09,2.956
1.4778,1.47636,0.565238,0.171145,0,5.81268e-05,0.00726081,2.45088e-109,-9,-1290,1.31048e-113,-9,-96.9126,-1193.09,2.96
1.4778,1.47636,0.565267,0.171145,0,3.87512e-05,0.00727739,1.63392e-109,-9,-1291,5.82437e-114,-9,-96.9126,-1194.09,2.964
1.4778,1.47636,0.565296,0.171145,0,-3.17477e-05,0.00729398,1.08928e-109,-9,-1291,-3.18116e-114,-9,-96.9126,-1194.09,2.968
1.4778,1.47636,0.565326,0.171145,0,3.64167e-05,0.00731058,7.26186e-110,-9,-1291,2.43267e-114,-9,-96.9126,-1194.09,2.972
1.4778,1.47636,0.565355,0.171145,0,-6.2095e-05,0.00732719,4.84124e-110,-10,-1291,-2.76533e-114,-10,-96.9126,-1194.09,2.976
1.4778,1.47636,0.565384,0.171145,0,-1.26057e-05,0.00734381,3.22749e-110,-9,-1291,-3.74255e-115,-9,-96.9126,-1194.09,2.98
1.4778,1.47636,0.565414,0.171145,0,2.03871e-05,0.00736044,2.15166e-110,-9,-1291,4.03519e-115,-9,-96.9126,-1194.09,2.984
1.4778,1.47636,0.565443,0.171145,0,-4.39904e-05,0.00737708,1.43444e-110,-10,-1291,-5.80464e-115,-10,-96.9126,-1194.09,2.988
1.4778,1.47636,0.565473,0.171145,0,-2.9327e-05,0.00739373,9.56294e-111,-9,-1291,-2.57984e-115,-9,-96.9126,-1194.09,2.992
1.4778,1.47636,0.565502,0.171145,0,3.80305e-05,0.0074104,6.37529e-111,-9,-1291,2.23032e-115,-9,-96.9126,-1194.09,2.996
1.4778,1.47636,0.565532,0.171145,0,2.53537e-05,0.00742707,4.2502e-111,-9,-1291,9.91252e-116,-9,-96.9126,-1194.09,3
1.4778,1.47636,0.565562,0.171145,0,-1.18885e-05,0.00744375,2.83346e-111,-9,-1292,-3.09868e-116,-9,-96.9126,-1195.09,3.004
1.4778,1.47636,0.565591,0.171145,0,4.96562e-05,0.00746045,1.88898e-111,-9,-1292,8.62847e-116,-9,-96.9126,-1195.09,3.008
1.4778,1.47636,0.565621,0.171145,0,4.31321e-06,0.00747715,1.25932e-111,-9,-1292,4.99655e-117,-9,-96.9126,-1195.09,3.012
1.4778,1.47636,0.565651,0.171145,0,2.87548e-06,0.00749386,8.39545e-112,-9,-1292,2.22069e-117,-9,-96.9126,-1195.09,3.016
1.4778,1.47636,0.565681,0.171145,0,-5.56649e-05,0.00751059,5.59697e-112,-10,-1292,-2.86595e-116,-10,-96.9126,-1195.09,3.02
1.4778,1.47636,0.565711,0.171145,0,-3.71099e-05,0.00752732,3.73131e-112,-10,-1292,-1.27375e-116,-10,-96.9126,-1195.09,3.024
1.4778,1.47636,0.565742,0.171145,0,3.28419e-05,0.00754407,2.48754e-112,-9,-1292,7.51506e-117,-9,-96.9126,-1195.09,3.028
1.4778,1.47636,0.565772,0.171145,0,2.18946e-05,0.00756083,1.65836e-112,-9,-1292,3.34003e-117,-9,-96.9126,-1195.09,3.032
1.4778,1.47636,0.565802,0.171145,0,1.45964e-05,0.00757759,1.10557e-112,-9,-1292,1.48446e-117,-9,-96.9126,-1195.09,3.036
1.4778,1.47636,0.565832,0.171145,0,9.73094e-06,0.00759437,7.37049e-113,-9,-1293,6.59759e-118,-9,-96.9126,-1196.09,3.04
1.4778,1.47636,0.565863,0.171145,0,6.48729e-06,0.00761115,4.91366e-113,-9,-1293,2.93226e-118,-9,-96.9126,-1196.09,3.044
1.4778,1.47636,0.565893,0.171145,0,-5.3257e-05,0.00762795,3.27577e-113,-10,-1293,-1.60481e-117,-10,-96.9126,-1196.09,3.048
1.4778,1.47636,0.565924,0.171145,0,2.20772e-05,0.00764475,2.18385e-113,-9,-1293,4.43507e-118,-9,-96.9126,-1196.09,3.052
1.4778,1.47636,0.565954,0.171145,0,1.47181e-05,0.00766157,1.4559e-113,-9,-1293,1.97114e-118,-9,-96.9126,-1196.09,3.056
1.4778,1.47636,0.565985,0.171145,0,3.8603e-05,0.0076784,9.70599e-114,-9,-1293,3.44663e-118,-9,-96.9126,-1196.09,3.06
1.4778,1.47636,0.566016,0.171145,0,-3.18465e-05,0.00769523,6.47066e-114,-9,-1293,-1.89559e-118,-9,-96.9126,-1196.09,3.064
1.4778,1.47636,0.566047,0.171145,0,3.63508e-05,0.00771208,4.31378e-114,-9,-1293,1.44247e-118,-9,-96.9126,-1196.09,3.068
1.4778,1.47636,0.566078,0.171145,0,-4.55703e-06,0.00772893,2.87585e-114,-9,-1293,-1.20554e-119,-9,-96.9126,-1196.09,3.072
1.4778,1.47636,0.566108,0.171145,0,-3.03802e-06,0.0077458,1.91723e-114,-9,-1293,-5.35796e-120,-9,-96.9126,-1196.09,3.076
1.4778,1.47636,0.566139,0.171145,0,-2.02535e-06,0.00776268,1.27816e-114,-9,-1294,-2.38132e-120,-9,-96.9126,-1197.09,3.08
1.4778,1.47636,0.566171,0.171145,0,-5.89321e-05,0.00777956,8.52104e-115,-10,-1294,-4.61932e-119,-10,-96.9126,-1197.09,3.084
1.4778,1.47636,0.566202,0.171145,0,-3.92881e-05,0.00779646,5.68069e-115,-10,-1294,-2.05303e-119,-10,-96.9126,-1197.09,3.088
1.4778,1.47636,0.566233,0.171145,0,3.13898e-05,0.00781336,3.78713e-115,-9,-1294,1.09354e-119,-9,-96.9126,-1197.09,3.092
1.4778,1.47636,0.566264,0.171145,0,-3.66553e-05,0.00783028,2.52475e-115,-10,-1294,-8.51314e-120,-10,-96.9126,-1197.09,3.096
1.4778,1.47636,0.566296,0.171145,0,3.3145e-05,0.0078472,1.68317e-115,-9,-1294,5.13191e-120,-9,-96.9126,-1197.09,3.1
1.4778,1.47636,0.566327,0.171145,0,2.20967e-05,0.00786413,1.12211e-115,-9,-1294,2.28085e-120,-9,-96.9126,-1197.09,3.104
1.4778,1.47636,0.566359,0.171145,0,1.47311e-05,0.00788108,7.48075e-116,-9,-1294,1.01371e-120,-9,-96.9126,-1197.09,3.108
1.4778,1.47636,0.56639,0.171145,0,9.82073e-06,0.00789803,4.98716e-116,-9,-1294,4.50538e-121,-9,-96.9126,-1197.09,3.112
1.4778,1.47636,0.566422,0.171145,0,6.54716e-06,0.00791499,3.32478e-116,-9,-1295,2.00239e-121,-9,-96.9126,-1198.09,3.116
1.4778,1.47636,0.566453,0.171145,0,4.36477e-06,0.00793197,2.21652e-116,-9,-1295,8.89952e-122,-9,-96.9126,-1198.09,3.12
1.4778,1.47636,0.566485,0.171145,0,3.17008e-05,0.00794895,1.47768e-116,-9,-1295,4.30907e-121,-9,-96.9126,-1198.09,3.124
1.4778,1.47636,0.566517,0.171145,0,-7.65708e-06,0.00796594,9.85119e-117,-9,-1295,-6.93882e-122,-9,-96.9126,-1198.09,3.128
1.4778,1.47636,0.566549,0.171145,0,2.36862e-05,0.00798294,6.56746e-117,-9,-1295,1.43096e-121,-9,-96.9126,-1198.09,3.132
1.4778,1.47636,0.566581,0.171145,0,1.57908e-05,0.00799995,4.37831e-117,-9,-1295,6.35981e-122,-9,-96.9126,-1198.09,3.136
1.4778,1.47636,0.566613,0.171145,0,-7.58456e-05,0.00801697,2.91887e-117,-10,-1295,-2.03648e-121,-10,-96.9126,-1198.09,3.14
1.4778,1.47636,0.566645,0.171145,0,7.01814e-06,0.008034,1.94591e-117,-9,-1295,1.25626e-122,-9,-96.9126,-1198.09,3.144
1.4778,1.47636,0.566677,0.171145,0,4.67876e-06,0.00805104,1.29728e-117,-9,-1295,5.58338e-123,-9,-96.9126,-1198.09,3.148
1.4778,1.47636,0.566709,0.171145,0,3.11917e-06,0.00806809,8.64851e-118,-9,-1296,2.4815e-123,-9,-96.9126,-1199.09,3.152
1.4778,1.47636,0.566742,0.171145,0,2.07945e-06,0.00808515,5.76567e-118,-9,-1296,1.10289e-123,-9,-96.9126,-1199.09,3.156
1.4778,1.47636,0.566774,0.171145,0,1.3863e-06,0.00810221,3.84378e-118,-9,-1296,4.90173e-124,-9,-96.9126,-1199.09,3.16
1.4778,1.47636,0.566807,0.171145,0,9.24199e-07,0.00811929,2.56252e-118,-9,-1296,2.17855e-124,-9,-96.9126,-1199.09,3.164
1.4778,1.47636,0.566839,0.171145,0,6.16133e-07,0.00813638,1.70835e-118,-9,-1296,9.68243e-125,-9,-96.9126,-1199.09,3.168
1.4778,1.47636,0.566872,0.171145,0,4.10755e-07,0.00815347,1.1389e-118,-9,-1296,4.3033e-125,-9,-96.9126,-1199.09,3.172
1.4778,1.47636,0.566904,0.171145,0,2.73837e-07,0.00817057,7.59265e-119,-9,-1296,1.91258e-125,-9,-96.9126,-1199.09,3.176
1.4778,1.47636,0.566937,0.171145,0,1.82558e-07,0.00818769,5.06177e-119,-9,-1296,8.50035e-126,-9,-96.9126,-1199.09,3.18
1.4778,1.47636,0.56697,0.171145,0,-5.74601e-05,0.00820481,3.37451e-119,-10,-1296,-1.78366e-123,-10,-96.9126,-1199.09,3.184
1.4778,1.47636,0.567003,0.171145,0,-3.83068e-05,0.00822194,2.24967e-119,-10,-1297,-7.92737e-124,-10,-96.9126,-1200.09,3.188
1.4778,1.47636,0.567036,0.171145,0,6.08349e-05,0.00823908,1.49978e-119,-9,-1297,8.39297e-124,-9,-96.9126,-1200.09,3.192
1.4778,1.47636,0.567069,0.171145,0,1.17657e-05,0.00825623,9.99855e-120,-9,-1297,1.08215e-124,-9,-96.9126,-1200.09,3.196
1.4778,1.47636,0.567102,0.171145,0,7.8438e-06,0.00827339,6.6657e-120,-9,-1297,4.80957e-125,-9,-96.9126,-1200.09,3.2
1.4778,1.47636,0.567135,0.171145,0,5.2292e-06,0.00829056,4.4438e-120,-9,-1297,2.13759e-125,-9,-96.9126,-1200.09,3.204
1.4778,1.47636,0.567168,0.171145,0,3.48613e-06,0.00830773,2.96253e-120,-9,-1297,9.50039e-126,-9,-96.9126,-1200.09,3.208
1.4778,1.47636,0.567201,0.171145,0,-5.52578e-05,0.00832492,1.97502e-120,-10,-1297,-1.00392e-124,-10,-96.9126,-1200.09,3.212
1.4778,1.47636,0.567234,0.171145,0,2.07433e-05,0.00834211,1.31668e-120,-9,-1297,2.51243e-125,-9,-96.9126,-1200.09,3.216
1.4778,1.47636,0.567268,0.171145,0,1.38289e-05,0.00835931,8.77788e-121,-9,-1297,1.11663e-125,-9,-96.9126,-1200.09,3.22
1.4778,1.47636,0.567301,0.171145,0,9.21926e-06,0.00837653,5.85192e-121,-9,-1298,4.96282e-126,-9,-96.9126,-1201.09,3.224
1.4778,1.47636,0.567335,0.171145,0,3.49371e-05,0.00839375,3.90128e-121,-9,-1298,1.2538e-125,-9,-96.9126,-1201.09,3.228
1.4778,1.47636,0.567369,0.171145,0,-5.49952e-06,0.00841098,2.60085e-121,-9,-1298,-1.31576e-126,-9,-96.9126,-1201.09,3.232
1.4778,1.47636,0.567402,0.171145,0,-6.12482e-05,0.00842822,1.7339e-121,-10,-1298,-9.76904e-126,-10,-96.9126,-1201.09,3.236
1.4778,1.47636,0.567436,0.171145,0,1.67497e-05,0.00844546,1.15593e-121,-9,-1298,1.78105e-126,-9,-96.9126,-1201.09,3.24
1.4778,1.47636,0.56747,0.171145,0,1.11665e-05,0.00846272,7.70623e-122,-9,-1298,7.91576e-127,-9,-96.9126,-1201.09,3.244
1.4778,1.47636,0.567504,0.171145,0,3.62352e-05,0.00847998,5.13749e-122,-9,-1298,1.71244e-126,-9,-96.9126,-1201.09,3.248
1.4778,1.47636,0.567538,0.171145,0,-4.6341e-06,0.00849726,3.42499e-122,-9,-1298,-1.46002e-127,-9,-96.9126,-1201.09,3.252
1.4778,1.47636,0.567572,0.171145,0,2.57015e-05,0.00851454,2.28333e-122,-9,-1299,5.39835e-127,-9,-96.9126,-1202.09,3.256
1.4778,1.47636,0.567606,0.171145,0,-1.16566e-05,0.00853183,1.52222e-122,-9,-1299,-1.63223e-127,-9,-96.9126,-1202.09,3.26
1.4778,1.47636,0.56764,0.171145,0,-7.77105e-06,0.00854913,1.01481e-122,-9,-1299,-7.25437e-128,-9,-96.9126,-1202.09,3.264
1.4778,1.47636,0.567674,0.171145,0,-5.1807e-06,0.00856644,6.76542e-123,-9,-1299,-3.22416e-128,-9,-96.9126,-1202.09,3.268
1.4778,1.47636,0.567708,0.171145,0,-3.4538e-06,0.00858375,4.51028e-123,-9,-1299,-1.43296e-128,-9,-96.9126,-1202.09,3.272
1.4778,1.47636,0.567743,0.171145,0,-2.30253e-06,0.00860108,3.00685e-123,-9,-1299,-6.36872e-129,-9,-96.9126,-1202.09,3.276
1.4778,1.47636,0.567777,0.171145,0,-1.53502e-06,0.00861841,2.00457e-123,-9,-1299,-2.83054e-129,-9,-96.9126,-1202.09,3.28
1.4778,1.47636,0.567812,0.171145,0,-1.02335e-06,0.00863575,1.33638e-123,-9,-1299,-1.25802e-129,-9,-96.9126,-1202.09,3.284
1.4778,1.47636,0.567846,0.171145,0,-6.82232e-07,0.0086531,8.90919e-124,-9,-1299,-5.59119e-130,-9,-96.9126,-1202.09,3.288
1.4778,1.47636,0.567881,0.171145,0,-4.54821e-07,0.00867046,5.93946e-124,-9,-1300,-2.48497e-130,-9,-96.9126,-1203.09,3.292
1.4778,1.47636,0.567916,0.171145,0,-5.78851e-05,0.00868783,3.95964e-124,-10,-1300,-2.10842e-128,-10,-96.9126,-1203.09,3.296
1.4778,1.47636,0.56795,0.171145,0,1.89918e-05,0.0087052,2.63976e-124,-9,-1300,4.61174e-129,-9,-96.9126,-1203.09,3.3
1.4778,1.47636,0.567985,0.171145,0,1.26612e-05,0.00872259,1.75984e-124,-9,-1300,2.04966e-129,-9,-96.9126,-1203.09,3.304
1.4778,1.47636,0.56802,0.171145,0,8.4408e-06,0.00873998,1.17323e-124,-9,-1300,9.10961e-130,-9,-96.9126,-1203.09,3.308
1.4778,1.47636,0.568055,0.171145,0,5.6272e-06,0.00875738,7.82151e-125,-9,-1300,4.04872e-130,-9,-96.9126,-1203.09,3.312
1.4778,1.47636,0.56809,0.171145,0,3.75147e-06,0.00877479,5.21434e-125,-9,-1300,1.79943e-130,-9,-96.9126,-1203.09,3.316
1.4778,1.47636,0.568125,0.171145,0,2.50098e-06,0.0087922,3.47623e-125,-9,-1300,7.99746e-131,-9,-96.9126,-1203.09,3.32
1.4778,1.47636,0.568161,0.171145,0,-5.59145e-05,0.00880963,2.31749e-125,-10,-1301,-1.192e-129,-10,-96.9126,-1204.09,3.324
1.4778,1.47636,0.568196,0.171145,0,-3.72764e-05,0.00882706,1.54499e-125,-10,-1301,-5.29777e-130,-10,-96.9126,-1204.09,3.328
1.4778,1.47636,0.568231,0.171145,0,3.27309e-05,0.0088445,1.02999e-125,-9,-1301,3.10118e-130,-9,-96.9126,-1204.09,3.332
1.4778,1.47636,0.568267,0.171145,0,2.18206e-05,0.00886195,6.86662e-126,-9,-1301,1.3783e-130,-9,-96.9126,-1204.09,3.336
1.4778,1.47636,0.568302,0.171145,0,1.45471e-05,0.00887941,4.57775e-126,-9,-1301,6.12579e-131,-9,-96.9126,-1204.09,3.34
1.4778,1.47636,0.568338,0.171145,0,-1.90929e-05,0.00889687,3.05183e-126,-9,-1301,-5.36001e-131,-9,-96.9126,-1204.09,3.344
1.4778,1.47636,0.568373,0.171145,0,1.60623e-05,0.00891435,2.03455e-126,-9,-1301,3.00616e-131,-9,-96.9126,-1204.09,3.348
1.4778,1.47636,0.568409,0.171145,0,1.07082e-05,0.00893183,1.35637e-126,-9,-1301,1.33607e-131,-9,-96.9126,-1204.09,3.352
1.4778,1.47636,0.568445,0.171145,0,7.13882e-06,0.00894932,9.04247e-127,-9,-1302,5.9381e-132,-9,-96.9126,-1205.09,3.356
